P2
128 128
255
110 180 180 180 180 180 110 110 110 110 110 110 110 180 180 180 180 110 110 110 180 110 110 180 180 180 110 110 110 110 110 110 180 180 180 180 180 180 180 180 180 180 180 180 180 110 110 110 180 180 180 180 180 180 180 110 110 110 110 110 180 180 180 110 110 110 110 110 110 110 110 110 180 180 110 110 110 110 110 110 110 110 180 180 180 180 180 180 180 180 180 180 110 180 180 180 110 110 110 110 110 110 180 180 180 180 180 110 110 110 180 180 180 180 180 110 110 110 110 110 180 180 180 180 180 180 110 110
110 180 180 180 180 180 110 110 110 110 110 110 110 110 180 180 180 180 180 180 180 110 110 110 180 180 110 110 110 110 110 110 180 180 180 180 180 180 110 110 110 110 180 180 180 110 110 110 180 180 180 180 180 180 180 110 110 110 110 110 180 180 180 110 110 110 110 110 110 110 110 180 180 180 110 110 180 180 180 180 110 110 110 180 180 180 180 180 180 180 180 180 180 180 180 180 110 110 110 110 110 110 110 110 110 180 180 110 110 110 110 110 110 110 110 110 110 110 110 110 180 180 180 180 180 180 110 110
180 180 180 180 180 180 180 180 180 180 180 110 110 110 110 110 180 180 180 180 180 110 110 110 180 180 180 110 110 110 110 180 180 180 180 180 180 180 110 110 110 110 110 110 180 110 110 110 180 180 180 180 180 180 180 180 180 110 110 110 110 180 180 110 110 110 110 110 110 110 110 180 180 180 180 180 180 180 180 180 180 110 110 110 180 180 180 180 180 180 180 180 110 180 180 180 110 110 110 110 110 110 110 110 110 110 110 180 180 110 110 110 110 110 110 110 110 110 110 110 110 110 110 110 180 180 180 110
180 180 180 180 110 180 180 180 180 180 180 110 110 110 110 110 110 180 180 180 180 110 110 110 180 180 180 180 110 180 180 180 180 180 180 180 180 180 180 110 110 110 110 110 110 180 180 180 110 180 180 180 180 180 180 180 180 180 110 110 110 110 110 110 180 180 180 180 180 180 180 180 180 180 180 180 180 180 180 180 180 180 110 110 180 180 180 180 180 180 180 110 110 110 110 110 110 110 110 110 110 110 110 110 110 110 110 110 180 180 110 110 110 110 110 110 110 110 110 110 110 110 110 110 180 180 180 180
180 180 110 110 110 110 180 180 180 180 180 180 110 110 110 110 110 180 180 180 110 110 180 180 180 180 180 180 110 180 180 180 180 180 180 180 180 180 180 180 180 180 110 110 110 180 180 180 110 110 180 180 180 180 180 180 180 180 110 110 110 110 110 110 180 180 180 180 180 180 180 180 180 180 180 180 180 180 180 110 180 180 110 110 180 180 180 180 180 180 110 110 110 110 110 110 110 110 110 110 110 180 180 180 180 180 110 110 110 180 110 110 110 110 110 180 180 110 110 110 110 110 110 110 180 180 180 180
110 110 110 110 110 110 110 110 110 180 180 180 180 180 180 110 110 180 180 110 110 110 180 180 180 180 180 180 180 180 180 180 180 180 180 180 180 180 180 180 180 180 110 110 110 180 180 110 110 110 110 180 180 110 180 180 180 110 110 110 180 180 180 180 180 180 180 180 180 110 180 180 180 110 110 180 180 180 180 110 180 180 180 180 180 180 180 180 180 180 110 110 110 110 110 110 110 110 110 110 110 180 180 180 180 180 110 110 110 110 110 110 110 110 180 180 180 110 110 110 110 110 110 180 180 180 110 110
110 110 110 110 180 180 110 110 110 110 180 180 180 180 180 110 110 110 110 110 110 110 110 180 180 180 180 180 180 180 180 180 180 180 110 180 180 180 180 180 180 180 180 110 180 180 180 180 110 110 110 180 180 110 110 110 110 110 110 180 180 180 180 180 180 180 180 180 180 110 110 180 180 110 110 110 180 180 180 110 180 180 180 180 180 110 110 180 180 180 110 110 110 110 110 110 110 180 110 110 180 180 180 180 180 180 180 110 110 110 110 180 180 180 180 180 180 110 110 110 110 110 180 180 180 180 110 110
110 110 110 180 180 180 110 110 110 110 180 180 180 110 110 110 110 110 110 110 110 110 110 180 180 180 180 180 180 180 180 180 110 110 110 110 110 180 180 180 180 180 180 110 180 180 180 180 110 110 180 180 180 180 110 110 110 180 180 180 180 180 180 180 180 180 180 180 180 110 110 180 180 110 110 110 180 180 180 180 180 180 180 180 110 110 110 180 180 180 180 110 110 110 110 110 180 180 180 180 180 180 180 180 180 180 180 180 180 180 180 180 180 180 180 180 110 110 110 110 110 110 180 180 180 180 180 110
110 110 110 180 180 180 180 110 110 110 110 110 110 110 110 110 180 180 180 110 110 110 110 180 180 180 180 180 110 180 180 110 110 110 110 110 110 110 110 180 180 180 110 110 180 180 180 110 110 110 180 180 180 180 110 110 110 180 180 180 180 180 110 110 180 180 180 180 180 110 110 180 180 110 110 110 180 180 180 180 180 180 180 180 110 110 180 180 180 180 180 180 110 110 110 110 180 180 180 180 180 180 110 110 180 180 180 180 180 180 110 110 110 110 180 180 110 110 110 110 110 180 180 180 180 180 180 110
110 110 110 180 180 180 180 180 180 110 110 110 110 110 110 110 180 180 180 110 110 110 110 180 180 180 180 110 110 180 180 110 110 110 110 110 110 110 110 180 180 180 180 180 180 180 180 110 110 110 110 180 180 180 110 110 110 110 180 180 180 110 110 110 110 110 180 180 110 110 110 110 110 110 180 180 180 180 180 180 180 180 180 180 110 180 180 180 180 180 180 180 180 110 110 110 110 180 180 180 180 180 110 110 180 180 180 180 180 180 110 110 110 110 110 180 180 110 110 110 180 180 180 180 180 180 180 110
110 110 110 110 180 180 180 180 180 110 110 110 110 110 110 110 180 180 180 180 180 180 180 180 180 180 180 110 180 180 180 110 110 110 110 110 110 110 110 180 180 180 180 180 180 180 180 110 110 110 110 180 180 180 110 110 110 110 110 110 180 110 110 110 110 110 110 110 110 110 110 110 110 110 180 180 180 180 180 180 180 180 180 180 180 180 180 180 110 110 180 180 180 110 110 110 110 180 180 180 180 180 110 110 110 180 180 180 180 180 110 110 110 110 110 110 110 110 110 180 180 180 180 180 110 110 110 110
110 110 110 110 110 180 180 180 180 110 110 110 110 180 180 110 180 180 180 180 180 180 180 180 180 180 110 110 180 180 180 180 180 180 180 110 110 110 110 180 180 180 180 180 180 180 180 110 110 110 110 180 180 180 110 110 110 110 110 110 180 180 180 180 180 180 110 110 110 110 110 110 110 110 180 180 180 180 180 180 180 180 180 180 180 180 180 180 110 110 180 180 180 110 110 110 110 110 180 180 180 110 110 110 110 180 180 180 180 110 110 110 110 110 110 110 110 110 110 110 110 180 110 110 110 110 110 110
110 110 110 110 110 180 180 180 180 110 110 110 180 180 180 180 180 180 180 180 180 180 180 180 180 180 110 110 180 180 180 110 180 180 180 180 180 110 180 180 180 180 180 180 180 180 180 110 110 110 110 180 180 110 110 180 180 110 110 110 110 180 180 180 180 180 180 110 110 110 180 180 110 110 180 180 180 180 180 180 180 180 180 180 180 180 180 180 180 180 180 180 110 110 110 110 110 180 180 180 180 110 110 110 110 180 180 180 110 110 110 110 110 110 110 110 110 110 110 110 110 110 110 110 110 110 110 110
110 110 110 110 110 110 110 180 110 110 110 180 180 180 110 110 180 180 180 180 180 180 180 180 180 110 110 110 180 180 180 110 180 180 180 110 180 180 180 180 180 180 110 110 180 180 180 110 110 110 180 180 110 110 110 180 180 180 110 110 110 110 180 180 180 180 180 110 110 180 180 180 180 110 110 180 180 180 180 180 180 180 180 180 180 180 180 180 180 180 180 110 110 110 110 110 110 180 180 180 110 110 110 110 180 180 110 110 180 180 110 110 110 110 110 110 110 110 110 110 110 110 110 110 110 110 110 110
110 110 110 110 110 110 110 110 110 110 180 180 180 180 110 110 180 180 180 180 180 180 180 180 180 110 110 110 110 180 180 180 180 180 110 110 110 110 110 110 110 110 110 110 110 180 180 110 110 180 180 180 110 110 110 110 180 180 110 110 110 110 180 180 180 180 180 180 180 180 180 180 180 110 110 110 110 110 180 180 180 180 180 180 180 110 110 180 180 180 180 180 110 110 110 110 110 180 180 110 110 110 110 180 180 180 110 180 180 180 110 110 110 110 110 180 110 110 110 110 110 110 110 110 110 110 110 110
110 110 110 110 110 110 110 110 110 110 180 180 180 180 180 110 180 180 180 180 180 180 180 180 110 110 110 110 110 110 180 180 180 110 110 110 110 110 110 110 110 110 110 110 180 180 180 110 110 110 180 180 110 110 110 110 180 180 180 110 110 110 180 180 180 180 180 180 180 180 180 180 110 110 110 110 110 110 110 110 110 180 180 180 180 110 110 110 180 180 180 180 180 110 110 110 110 180 110 110 110 110 180 180 180 180 180 180 180 180 110 110 110 110 110 180 180 180 180 110 110 110 110 110 110 110 110 110
110 110 110 110 110 110 110 110 110 180 180 180 180 180 180 180 180 180 180 180 110 110 180 180 110 110 110 110 110 180 180 180 180 110 110 110 110 110 110 110 110 110 110 180 180 180 180 110 110 110 110 110 110 180 180 110 110 180 180 180 180 180 180 180 110 110 110 180 180 180 180 180 110 110 110 110 110 110 110 110 110 110 110 110 180 180 180 110 110 180 180 180 180 180 110 110 110 180 110 110 180 180 180 180 180 180 180 180 180 180 110 110 110 110 110 180 180 180 180 180 180 110 110 110 110 110 110 110
110 110 110 110 110 110 110 110 180 180 180 180 180 180 180 180 180 180 180 110 110 110 180 180 180 180 180 180 180 180 180 180 180 180 110 110 110 180 110 110 110 110 110 180 180 180 180 110 110 110 110 110 110 180 180 110 110 180 180 180 180 180 180 110 110 110 110 180 180 180 180 180 110 110 110 110 110 110 110 110 180 180 110 110 110 110 180 110 110 180 180 180 180 180 180 180 180 180 180 110 180 180 180 180 110 180 180 180 180 180 110 110 110 110 110 180 180 180 180 180 180 180 180 110 110 110 110 110
110 110 110 110 110 110 110 110 110 180 180 180 180 110 110 180 180 180 110 110 110 110 180 180 180 180 180 180 180 180 180 180 180 180 180 180 180 180 110 110 110 110 110 180 180 180 110 110 110 110 110 110 110 180 180 180 110 180 180 180 180 180 180 180 110 110 180 180 180 180 180 180 110 110 110 110 110 110 110 110 180 180 110 110 110 110 110 110 110 110 110 110 180 180 110 180 180 180 180 180 180 180 180 180 110 180 180 180 180 180 110 110 110 110 110 180 180 180 180 180 180 180 180 180 180 180 110 110
110 180 180 110 110 110 110 110 110 110 180 180 180 110 110 110 110 110 110 110 110 110 110 180 180 180 180 180 180 180 110 110 180 180 180 180 180 180 110 110 110 110 110 110 110 110 110 110 110 110 180 110 110 180 180 180 180 180 180 180 180 180 180 180 180 180 180 180 180 180 180 180 180 110 110 110 110 110 110 110 180 180 110 110 110 110 110 110 110 110 110 110 110 110 110 180 180 180 180 110 110 180 180 180 180 180 180 180 180 180 180 110 110 110 110 180 180 180 110 110 110 180 180 180 180 180 180 110
180 180 180 180 110 110 110 110 110 180 180 180 180 110 110 110 110 110 110 180 110 110 110 180 180 180 110 110 110 110 110 110 180 180 180 180 180 110 110 110 110 110 110 110 110 110 110 110 110 180 180 180 180 180 180 180 180 180 180 180 180 180 180 180 180 180 180 180 180 180 180 180 180 180 180 110 110 110 110 110 110 110 180 180 110 110 110 110 110 110 110 110 110 110 110 110 180 110 110 110 110 110 180 180 180 180 180 180 180 180 180 180 110 110 110 180 180 180 110 110 110 110 180 180 180 180 180 180
180 180 180 180 110 110 110 110 180 180 180 180 180 110 110 110 110 180 180 180 180 110 110 110 180 180 110 110 110 110 110 180 180 180 180 180 180 110 110 110 110 110 110 110 110 110 110 110 180 180 180 180 180 110 180 180 110 110 110 110 110 110 180 180 180 180 180 180 110 180 180 180 180 180 180 180 110 110 110 110 110 110 110 180 180 180 180 110 110 110 110 110 110 110 110 110 180 110 110 110 110 110 180 180 180 180 180 180 180 180 180 180 110 110 110 110 180 180 110 110 110 110 180 180 180 180 180 180
180 180 180 180 110 180 180 180 180 180 180 180 180 180 110 110 110 180 180 180 180 110 110 110 110 110 110 110 110 180 180 180 180 180 180 180 110 110 110 110 110 110 110 110 110 110 110 110 110 180 180 180 180 180 180 180 180 180 180 180 110 110 180 180 110 110 110 110 110 110 110 180 180 180 180 180 180 110 110 110 110 110 110 180 180 180 180 180 180 180 180 110 110 110 110 110 180 110 110 180 110 180 180 180 180 180 180 180 180 180 180 180 110 110 110 110 110 110 110 110 110 180 180 180 180 180 180 180
180 180 180 110 110 180 180 180 180 180 180 180 180 180 180 180 180 180 180 180 180 180 110 110 110 180 180 180 180 180 180 180 180 180 180 110 110 110 110 110 110 110 110 110 110 110 110 110 110 110 110 110 110 180 180 180 180 180 180 180 180 180 180 180 110 110 110 110 110 110 110 180 180 180 180 180 110 110 110 110 110 110 110 110 180 180 180 180 180 180 180 180 180 180 110 110 110 180 180 180 180 180 180 180 180 180 180 180 110 180 180 110 110 110 110 110 110 110 110 110 110 110 180 180 180 180 180 180
180 180 110 110 110 180 180 180 180 180 180 180 180 180 180 180 180 180 180 180 180 180 110 110 110 180 180 180 180 180 180 180 180 180 180 110 110 110 110 110 110 110 110 110 110 110 110 110 110 110 110 110 110 180 180 180 180 180 180 180 180 180 180 180 180 180 110 110 110 110 110 110 180 180 180 180 110 110 110 110 110 110 110 110 110 180 180 180 180 180 180 180 180 180 110 110 110 180 180 180 180 180 180 180 180 180 180 180 180 180 180 110 110 110 110 110 110 110 110 110 110 110 180 180 180 180 180 180
110 110 110 110 110 180 180 180 180 180 180 180 180 180 180 180 180 180 180 180 180 180 110 110 110 180 180 180 180 180 180 180 180 180 180 110 110 110 110 110 110 110 110 110 110 110 110 110 110 110 110 110 110 180 180 180 180 180 180 180 180 180 180 180 180 180 110 110 110 110 110 110 110 180 180 180 180 180 110 110 110 110 110 110 110 110 180 180 180 180 180 180 180 180 110 110 180 180 180 180 180 180 180 180 180 180 180 180 180 180 180 180 110 110 110 110 110 180 180 110 110 110 110 110 110 110 110 110
110 110 110 110 110 180 180 180 180 180 180 180 180 180 180 180 180 180 180 180 180 180 110 110 110 180 180 180 110 180 180 180 180 180 180 180 110 110 110 110 110 110 110 110 110 110 110 110 110 110 180 180 180 180 180 180 180 110 110 180 180 180 180 180 180 180 110 110 110 180 180 110 110 180 180 110 110 110 110 180 180 180 110 110 110 110 180 180 180 180 180 180 180 180 110 110 180 180 180 180 180 180 180 180 180 180 180 180 180 180 180 180 180 180 180 180 180 180 180 180 180 180 110 110 110 110 110 110
110 110 110 110 180 180 180 180 180 180 180 180 180 180 180 110 110 180 180 180 180 180 110 110 180 180 110 110 110 110 180 180 180 180 180 180 180 110 110 110 110 110 110 110 110 110 110 110 110 180 180 180 180 180 180 180 180 110 110 180 180 110 110 110 180 180 180 180 180 180 110 110 110 110 180 110 110 110 110 180 180 180 180 180 110 180 180 180 180 180 180 180 180 180 110 180 180 180 110 110 180 180 180 180 180 180 180 180 180 180 180 180 180 180 180 180 180 180 180 180 180 180 110 110 110 110 110 110
110 110 110 110 110 180 180 110 180 180 180 180 180 180 180 110 110 110 180 180 180 180 180 110 110 110 110 110 110 180 180 180 180 180 180 180 180 180 180 180 110 110 110 110 110 110 110 110 110 110 110 110 110 180 180 180 180 110 110 110 110 110 110 110 180 180 180 180 180 180 110 110 110 110 180 110 110 110 110 110 180 180 180 180 180 180 180 180 180 180 180 180 180 180 180 180 180 110 110 110 180 180 180 180 180 180 180 180 180 180 180 180 110 110 110 110 110 180 180 180 180 180 110 110 110 110 180 180
180 110 110 110 110 180 180 110 110 110 110 110 110 180 180 110 110 110 110 110 180 180 180 180 110 110 110 110 110 180 110 110 180 180 180 180 180 180 180 180 180 110 110 110 110 110 110 110 110 110 110 110 180 180 180 180 180 110 110 110 110 110 110 110 180 180 180 180 180 180 110 110 110 110 180 180 110 110 110 110 180 180 180 180 110 110 180 180 180 180 180 180 180 180 180 180 180 180 110 110 180 180 180 180 180 180 180 180 110 180 180 180 110 110 110 180 180 180 180 180 180 110 110 110 110 180 180 180
180 110 110 110 180 180 180 180 110 110 110 110 110 110 180 180 110 110 110 110 110 180 180 180 110 110 180 180 110 110 110 110 110 110 180 180 180 180 180 180 180 110 110 110 110 110 110 110 110 110 110 110 180 180 180 180 110 110 110 110 110 110 110 110 180 180 180 180 180 180 180 180 110 180 180 180 180 180 180 180 180 180 110 110 110 110 110 110 180 180 180 180 180 180 180 180 180 110 110 110 180 180 180 180 180 180 180 110 110 110 180 180 180 180 180 180 180 110 110 110 110 110 110 110 110 180 180 180
180 110 180 180 180 180 180 180 110 110 110 110 110 180 180 180 180 110 110 110 110 180 180 180 110 110 110 110 110 110 110 110 110 110 110 180 180 180 180 180 180 180 180 180 110 110 110 110 110 110 110 110 110 180 180 110 110 110 110 110 110 110 110 110 110 180 180 180 180 180 180 180 180 180 180 180 180 180 180 180 180 180 110 110 110 110 110 110 110 110 180 180 180 180 180 180 110 110 110 110 110 180 180 110 110 110 110 110 110 110 180 180 110 110 110 180 180 110 110 110 110 110 110 110 180 180 180 180
180 110 180 180 180 180 180 180 110 110 110 110 110 180 180 180 180 180 110 110 110 180 180 180 110 110 110 110 110 110 110 110 110 110 110 180 180 180 180 180 180 180 180 180 180 110 110 110 110 110 110 110 110 110 110 180 180 180 110 110 110 110 110 110 110 110 180 180 180 180 180 110 110 180 180 180 180 180 180 180 180 180 180 110 110 110 110 110 110 110 180 180 180 180 180 110 110 110 110 110 110 110 110 110 110 110 110 110 110 110 110 110 110 110 110 110 110 110 180 110 110 110 110 110 180 180 180 180
180 110 110 180 180 180 180 180 180 110 110 180 180 180 180 180 180 180 180 110 180 180 180 180 180 110 110 110 110 110 110 110 110 110 180 180 180 180 110 110 180 180 180 180 180 180 110 110 110 110 110 110 110 110 180 180 180 180 180 180 110 110 110 110 110 110 110 180 180 180 110 110 110 110 180 110 110 180 180 180 180 180 180 180 110 110 180 180 110 180 180 180 180 180 180 110 110 110 110 110 110 110 110 110 110 110 110 110 110 110 110 110 110 110 110 110 110 180 180 180 180 110 110 110 180 180 180 180
110 110 110 110 180 180 180 180 180 180 180 180 110 110 110 110 180 180 180 110 180 180 180 180 180 180 110 110 110 110 110 110 110 110 180 180 180 180 110 110 110 180 180 180 180 180 180 180 110 110 110 110 110 110 180 180 180 180 180 180 180 110 110 110 110 110 180 180 180 180 110 110 110 110 110 110 110 110 180 180 180 180 180 180 180 180 180 180 180 180 180 180 180 180 110 110 110 110 110 110 110 110 110 110 110 110 110 110 110 110 110 110 110 110 110 110 110 180 180 180 180 110 110 110 180 180 180 180
110 110 110 110 180 180 180 180 180 180 180 180 110 110 110 110 110 180 180 110 110 180 180 180 180 180 180 110 110 110 110 110 110 110 180 180 180 180 110 110 110 110 180 180 110 110 180 180 180 180 180 180 180 180 180 180 180 180 180 180 180 180 180 180 180 180 180 180 180 180 180 110 110 180 110 110 110 180 180 180 180 180 180 180 180 180 180 180 180 180 180 180 180 180 110 110 110 110 110 110 110 110 110 110 110 110 110 110 110 110 110 110 110 110 110 110 110 180 180 180 180 180 180 110 110 110 110 180
180 110 110 110 110 110 180 180 180 180 180 180 110 110 110 110 110 110 110 110 110 180 180 180 180 180 110 110 110 110 110 110 110 110 110 180 180 180 180 110 110 110 110 110 110 110 180 180 180 180 180 180 180 180 180 110 180 180 180 180 180 180 180 180 180 180 180 110 110 180 180 180 180 180 180 180 180 180 180 110 110 110 110 180 180 180 180 180 180 180 180 180 180 110 110 110 110 110 110 180 180 180 110 180 180 180 180 110 110 110 110 110 110 110 110 110 110 180 180 180 180 180 180 180 180 110 180 180
180 110 110 110 110 110 180 180 180 110 110 110 110 110 110 110 110 110 110 110 110 110 180 180 180 110 110 180 180 180 180 110 110 110 110 180 180 180 180 110 110 180 180 180 110 110 180 180 180 180 180 180 180 180 110 180 180 180 180 180 110 110 180 180 180 180 180 180 110 180 180 180 180 180 180 180 180 180 180 110 110 110 110 110 110 110 110 180 180 180 180 180 110 110 110 110 110 110 110 180 180 180 180 180 180 180 180 180 110 110 110 110 110 110 110 110 110 180 180 180 180 180 180 180 180 180 180 180
180 110 110 110 110 110 180 110 110 110 110 110 110 110 110 110 110 110 110 110 110 110 110 110 110 110 180 180 180 180 180 110 110 110 110 180 180 180 180 110 110 180 180 180 180 180 180 180 180 180 180 180 180 110 110 180 180 180 180 180 110 110 110 180 180 180 180 180 180 180 180 180 180 180 180 180 180 180 110 110 110 110 110 110 110 180 180 180 110 180 180 180 110 110 110 110 110 110 110 110 180 180 180 180 180 180 180 180 110 110 180 180 180 110 110 110 110 110 110 110 110 110 110 180 180 180 180 180
180 110 110 110 110 180 180 110 110 110 110 110 110 180 110 110 110 110 110 110 110 110 110 110 110 110 180 180 180 180 180 180 110 110 110 180 180 180 180 110 110 180 180 180 180 180 180 180 180 180 180 110 110 110 110 110 180 180 180 180 110 110 110 180 180 180 180 180 180 180 180 110 110 110 180 180 180 110 110 110 110 110 110 110 110 180 180 180 180 180 180 180 110 110 110 110 110 110 110 110 110 110 110 110 180 180 180 180 110 110 180 180 180 180 180 110 110 110 110 110 110 110 110 110 180 180 180 180
110 110 180 180 180 180 180 110 110 110 110 110 180 180 180 110 110 110 110 110 110 110 110 110 110 180 180 180 180 180 180 180 180 180 110 180 180 180 180 110 110 110 110 110 110 110 110 180 180 180 110 110 110 110 110 110 110 110 180 180 180 110 110 180 180 110 110 110 180 180 180 110 110 110 110 110 110 110 110 110 110 110 110 110 110 180 180 180 180 180 180 180 180 180 180 180 110 110 110 110 110 110 110 110 180 180 180 180 110 110 180 180 180 180 180 110 110 110 110 110 110 110 110 110 180 180 180 110
110 110 180 180 180 180 110 110 110 110 110 110 180 180 180 180 110 110 110 110 110 110 110 110 110 180 110 110 110 110 180 180 180 110 110 180 180 180 180 180 180 110 110 110 110 110 110 110 180 110 110 110 110 110 110 110 110 110 180 180 180 180 180 180 110 110 110 110 110 180 180 180 110 110 180 180 180 110 110 110 110 110 110 110 110 110 180 180 180 180 180 180 180 180 180 180 180 180 110 110 110 110 110 110 110 180 180 110 110 110 180 180 180 180 180 180 180 110 110 110 110 110 110 110 110 110 110 110
110 110 110 180 180 180 110 110 110 110 110 110 110 180 180 180 110 110 110 110 110 110 110 110 110 110 110 110 110 110 180 180 180 110 110 110 180 180 180 180 180 110 110 110 110 110 110 110 180 180 110 110 110 110 180 180 180 110 180 180 180 180 180 110 110 110 110 110 110 180 180 110 110 110 180 180 180 180 180 180 180 110 110 110 110 110 180 180 180 180 180 180 110 180 180 180 180 180 180 180 110 110 110 110 110 180 180 110 110 110 180 180 180 180 180 180 180 110 110 110 110 110 110 110 110 110 110 110
110 110 110 110 180 180 180 110 110 110 110 110 110 180 180 180 110 110 180 180 110 110 110 110 110 110 110 110 110 180 180 180 180 110 110 110 180 180 180 180 180 110 110 110 110 110 110 110 110 110 110 110 110 180 180 180 110 110 180 180 180 180 180 180 180 110 110 110 110 180 180 110 110 110 180 180 180 180 180 180 180 110 110 110 110 110 180 180 180 180 180 180 110 180 180 180 180 180 180 180 110 110 110 110 110 180 180 180 180 110 180 180 180 180 180 180 180 110 110 110 110 110 110 110 110 110 110 110
110 110 110 110 110 180 180 180 180 110 110 110 110 180 180 180 110 110 180 180 110 110 110 110 110 110 110 110 110 180 180 180 110 110 110 110 180 180 180 180 110 110 110 110 110 110 110 110 110 110 110 110 110 110 110 110 110 110 180 180 180 180 180 180 180 180 180 180 110 180 110 110 110 110 180 180 180 180 180 180 180 110 110 110 110 110 180 180 180 180 110 110 110 110 180 180 180 180 180 180 110 110 110 110 180 180 180 180 180 180 110 180 180 180 180 180 180 110 110 110 110 110 110 110 110 110 110 110
110 110 110 110 110 180 180 180 110 110 110 110 180 180 180 180 110 110 110 110 110 110 110 110 110 110 110 110 110 110 180 180 110 110 110 110 180 180 110 110 110 110 110 110 110 110 110 110 110 110 180 180 110 110 110 110 110 110 180 180 180 180 180 180 180 180 180 180 180 110 110 110 110 180 180 180 180 180 180 180 180 110 110 110 110 110 110 180 180 110 110 110 110 110 110 110 180 180 180 180 180 110 110 110 110 180 180 180 180 180 180 180 180 180 180 180 110 110 110 110 180 180 180 110 110 110 110 110
110 110 110 110 110 110 110 110 110 110 110 110 180 180 180 180 110 110 110 110 110 110 110 110 110 110 110 110 110 110 180 180 110 110 110 110 110 110 110 110 110 110 110 110 110 110 110 110 110 110 180 180 180 110 110 110 110 180 180 180 180 180 110 110 180 180 180 180 110 110 110 110 110 180 180 180 180 180 180 180 180 180 110 110 110 110 110 180 180 180 110 110 110 110 110 110 110 180 180 180 180 180 110 110 110 110 110 180 180 180 180 180 180 180 180 180 110 180 180 180 180 180 180 110 110 110 110 110
180 110 110 110 110 110 110 110 110 110 110 110 180 180 180 180 110 110 110 110 110 110 110 110 110 110 110 110 110 110 180 180 180 110 110 110 110 110 110 110 110 110 110 110 110 110 110 180 180 110 110 180 180 110 110 110 110 180 180 180 110 110 110 110 110 180 180 180 110 110 110 110 180 180 180 180 180 180 180 180 180 180 110 110 110 110 110 110 180 180 110 110 110 110 110 110 180 180 180 180 180 110 110 110 110 110 110 180 180 180 110 110 110 110 110 110 180 180 180 180 180 110 110 110 180 180 180 180
180 110 110 110 110 110 110 110 110 180 180 180 180 180 180 180 180 110 110 110 180 180 180 110 110 110 110 110 110 110 180 180 180 110 110 110 110 110 110 110 110 110 110 110 110 110 110 180 180 110 110 180 180 180 180 110 110 180 180 180 110 110 110 110 180 180 180 180 110 180 180 180 180 180 180 110 110 110 180 180 180 180 110 110 110 110 110 110 110 110 110 110 110 110 180 180 180 180 180 180 180 110 110 110 110 180 180 180 180 110 110 110 110 110 110 110 110 180 180 180 110 110 110 110 180 180 180 180
180 180 110 110 180 180 110 110 180 180 180 180 180 180 180 180 180 110 110 180 180 180 180 180 180 110 110 110 110 110 110 180 180 180 110 110 110 110 110 110 110 110 110 110 110 110 110 110 110 110 110 180 180 180 180 110 110 180 180 180 110 110 110 110 110 180 180 180 110 180 180 180 180 180 180 110 110 110 180 180 180 180 110 110 110 110 110 110 110 110 110 110 110 180 180 180 180 180 180 180 180 110 110 110 110 180 180 110 110 110 110 110 110 110 110 110 110 180 180 180 110 110 110 110 180 180 180 180
180 180 180 180 110 110 110 180 180 180 180 180 180 180 110 180 180 110 110 180 180 180 180 180 110 110 110 110 110 110 110 110 180 180 110 110 110 110 110 110 110 110 110 110 110 110 110 110 110 110 110 180 180 180 180 110 110 180 180 180 180 110 110 110 110 180 180 180 110 110 110 180 180 180 180 110 110 110 180 180 180 110 110 110 110 110 110 110 110 110 110 110 180 180 110 110 110 180 180 180 180 110 110 110 180 180 180 110 110 110 110 110 110 110 110 110 110 180 180 180 110 110 110 110 110 180 180 180
180 180 180 110 110 110 110 180 180 110 110 180 180 110 110 110 180 110 110 180 180 180 180 110 110 110 110 110 110 110 110 110 110 110 110 110 110 110 110 110 180 180 110 110 110 110 110 110 110 110 110 110 110 110 110 110 180 180 180 180 180 180 180 110 110 110 180 180 110 110 110 110 180 180 180 110 110 180 180 180 180 110 110 110 110 110 110 110 110 180 180 180 180 180 110 110 110 110 180 180 180 110 110 180 180 180 180 180 110 110 110 110 110 110 110 110 110 110 110 110 110 110 110 110 110 110 180 180
180 180 110 110 110 110 110 180 180 110 110 110 180 180 180 180 180 180 180 110 110 110 110 110 110 110 110 110 110 110 110 110 110 110 110 110 110 110 180 180 180 180 180 110 110 180 110 110 110 110 110 110 110 110 110 180 180 180 180 180 180 180 180 180 180 180 180 180 180 110 110 110 110 110 110 110 110 180 180 180 110 110 110 110 110 110 110 110 180 180 180 180 180 180 110 110 110 110 110 180 110 110 180 180 180 180 180 180 110 110 110 110 110 110 110 180 110 110 110 110 110 110 110 110 110 110 110 180
180 180 110 110 110 110 180 180 110 110 110 110 110 180 180 180 180 180 180 110 110 110 110 110 110 110 110 110 110 110 110 110 110 110 110 110 110 110 180 180 180 180 180 110 110 180 180 110 110 180 180 110 110 110 110 180 180 180 110 180 180 180 180 180 180 180 180 180 180 180 110 110 110 110 110 110 110 180 180 110 110 110 110 110 110 110 110 110 180 180 180 180 180 180 110 110 110 110 110 110 110 110 180 180 180 180 180 180 180 110 110 110 110 180 180 180 110 110 110 110 110 110 110 110 110 110 110 180
110 110 110 110 110 180 180 180 110 110 110 110 110 180 180 180 180 180 180 180 110 110 110 110 110 110 110 110 110 110 110 110 110 110 110 110 110 110 110 110 180 180 110 110 110 110 110 110 180 110 110 110 110 110 110 180 180 180 180 180 180 180 180 180 180 180 180 180 180 180 180 110 110 110 110 110 110 180 180 110 110 110 110 110 110 180 180 180 180 180 180 180 180 180 180 110 110 110 110 110 110 110 110 180 180 180 180 180 180 110 110 110 180 180 180 180 110 110 110 110 110 110 110 110 110 110 110 110
110 110 110 180 180 110 110 110 110 110 110 110 110 110 110 110 180 180 180 180 180 110 110 180 180 180 180 180 180 110 110 110 110 110 110 110 110 110 110 110 110 110 110 110 110 110 110 110 110 110 110 110 110 110 180 180 180 180 180 180 180 180 180 180 180 180 110 110 180 180 180 110 110 110 110 110 110 110 180 180 110 110 110 180 180 180 180 110 180 180 180 180 180 180 180 110 110 110 110 110 110 110 180 180 180 180 180 180 110 110 110 110 180 180 180 180 180 110 110 180 180 110 110 110 180 110 110 110
110 110 180 180 180 110 110 110 110 110 180 180 110 110 110 110 110 110 180 180 180 180 180 180 180 180 180 180 180 180 110 110 110 110 110 110 110 110 110 110 110 110 110 110 110 110 110 110 110 180 180 110 110 110 180 180 180 180 180 180 180 180 180 180 180 110 110 110 180 180 180 110 110 110 110 110 110 110 110 110 110 110 180 180 180 180 110 110 110 180 180 180 180 180 180 110 110 110 110 110 180 180 180 180 180 180 110 110 110 110 180 180 180 180 180 180 180 180 180 180 180 180 110 110 180 180 180 110
110 110 180 180 180 110 110 110 110 180 180 180 110 110 110 110 110 110 180 180 180 180 180 180 180 110 110 110 180 180 110 110 110 110 110 110 110 110 110 110 110 110 110 110 110 110 110 110 110 180 180 180 110 110 180 180 180 180 180 180 180 180 180 180 180 180 180 180 180 180 180 110 110 110 110 110 110 110 110 110 110 110 180 180 180 180 110 110 180 180 180 180 180 180 180 110 110 110 110 110 180 180 180 180 180 180 110 110 110 180 180 180 180 180 180 180 180 180 180 180 180 110 110 110 180 180 180 180
110 110 180 180 180 110 110 110 110 180 180 180 180 110 110 110 110 180 180 180 180 180 180 110 110 110 110 110 180 180 110 110 110 110 110 110 110 110 110 110 110 110 110 110 110 110 110 110 110 180 180 180 180 180 180 110 110 110 180 180 180 180 180 180 180 180 180 180 180 180 180 110 110 110 110 110 110 110 110 110 110 110 110 110 180 180 110 110 180 180 180 180 180 180 180 180 110 110 110 110 110 110 110 180 180 180 180 110 180 180 180 180 180 180 180 180 180 180 180 180 180 110 110 110 180 180 180 110
110 110 180 180 180 110 110 110 110 180 180 180 180 110 110 110 180 180 110 110 180 180 110 110 110 110 110 110 180 180 180 110 110 110 110 110 110 110 110 110 180 180 180 180 180 180 110 110 110 110 180 180 180 180 180 180 110 110 110 180 180 110 110 180 180 180 180 180 180 180 180 110 110 110 110 110 110 110 110 180 180 110 110 110 180 180 110 110 180 180 180 180 180 180 180 180 110 110 110 110 110 110 110 180 180 180 180 180 180 180 180 180 180 110 110 110 180 180 180 110 110 110 110 110 110 180 110 110
180 180 180 110 110 110 110 110 110 110 180 180 180 110 110 110 110 110 110 110 110 180 110 110 110 110 110 180 180 180 180 110 110 110 110 110 110 110 110 110 180 180 180 180 180 180 180 110 110 110 180 180 180 180 180 180 110 110 110 110 110 110 110 180 180 180 110 110 110 180 180 110 110 110 110 110 110 180 180 180 180 110 110 110 180 110 110 110 110 180 180 180 180 180 180 180 180 110 110 110 110 110 110 180 180 180 180 180 180 180 180 180 110 110 110 110 180 180 110 110 110 110 110 110 110 110 110 110
180 180 180 180 110 180 180 110 110 110 110 110 110 110 110 110 180 110 110 110 110 110 110 110 110 110 180 180 180 180 110 110 110 110 110 180 180 180 180 180 180 180 180 180 180 180 180 110 110 110 180 180 180 180 180 180 110 110 110 110 110 110 110 180 180 110 110 110 110 180 180 180 110 110 110 110 110 180 180 180 180 180 110 110 110 110 110 110 110 180 180 180 180 180 180 180 180 180 180 180 110 110 110 180 180 180 180 180 180 180 180 180 110 110 110 110 110 110 110 110 110 110 180 180 180 180 180 180
180 180 180 180 180 180 180 180 180 110 110 180 180 180 180 180 180 180 110 110 110 110 110 110 110 110 110 180 180 110 110 110 110 110 110 180 180 180 180 180 180 180 180 180 180 180 180 180 110 110 180 180 180 180 180 180 180 180 110 110 110 110 110 110 110 110 110 110 180 180 180 180 110 110 110 110 110 180 180 180 180 180 110 110 110 110 110 110 110 110 110 110 110 110 180 180 180 180 180 180 110 110 110 180 180 180 180 180 180 180 180 180 180 110 110 110 110 110 110 110 110 110 180 180 180 180 180 180
180 180 180 110 110 180 180 180 180 180 180 180 180 180 180 180 180 180 110 110 180 110 110 110 110 110 110 110 110 110 110 110 110 110 110 180 180 180 180 180 180 180 180 180 180 110 180 180 180 110 180 180 180 180 180 180 180 180 180 180 110 110 110 110 110 110 110 110 180 180 180 180 180 110 110 110 110 180 180 180 110 110 180 110 110 110 110 110 110 110 110 110 110 110 110 110 180 180 180 180 180 110 110 180 180 180 180 180 180 180 180 180 180 180 110 110 110 110 110 110 110 180 180 180 180 180 180 180
180 180 180 110 110 110 110 110 110 110 110 110 180 180 180 180 180 110 110 180 180 110 110 110 110 110 110 110 110 110 110 110 110 110 110 180 180 180 180 180 180 110 110 110 110 110 110 180 180 180 180 180 180 180 180 180 180 180 180 180 180 110 110 110 110 110 110 110 110 110 110 110 110 110 110 110 110 180 180 180 110 110 180 180 180 180 180 180 110 110 110 110 110 110 110 110 110 180 180 180 180 180 180 180 180 180 180 180 180 180 180 180 180 180 110 110 110 110 110 110 180 180 180 180 110 110 110 180
180 180 180 110 110 110 110 110 110 110 110 110 180 180 180 180 110 110 110 180 110 110 110 110 110 110 110 110 110 110 110 110 110 110 180 180 180 180 180 180 180 110 110 110 110 110 180 180 180 180 180 180 180 180 110 110 110 180 180 180 180 180 110 110 110 110 110 110 110 110 110 110 110 110 180 180 180 180 180 110 110 110 110 180 180 180 180 180 180 110 110 110 180 180 110 110 110 110 110 110 180 180 180 180 180 180 180 180 180 110 180 180 180 180 180 110 110 110 110 180 180 180 110 110 110 110 110 180
180 180 180 180 110 110 110 110 110 110 110 110 180 180 180 110 110 110 110 110 110 110 110 180 110 110 110 180 110 110 110 110 110 110 110 180 180 180 180 180 180 180 180 180 180 110 180 180 180 180 180 180 180 180 110 110 110 180 180 180 180 180 180 180 180 180 180 110 110 110 110 110 110 110 180 180 180 180 180 110 110 110 110 180 180 180 110 180 180 180 180 180 180 180 180 110 110 110 110 110 110 180 180 110 110 110 110 110 110 180 180 180 180 180 180 110 110 110 110 180 180 110 110 110 110 110 110 110
180 180 180 180 110 110 110 110 110 110 110 110 180 180 110 110 110 110 180 180 180 180 180 180 180 180 180 180 180 110 110 110 110 110 110 180 180 180 180 180 180 180 180 180 180 180 180 180 180 180 180 180 180 180 180 110 110 180 180 180 180 180 180 180 180 180 180 180 110 110 110 110 110 110 180 180 110 180 180 110 110 110 110 180 180 110 110 110 180 180 180 180 110 180 180 110 110 110 110 110 110 110 110 110 110 110 110 180 180 180 180 180 180 180 180 110 110 110 180 110 110 110 110 110 110 110 110 110
110 110 180 180 110 110 110 110 110 110 110 110 110 110 110 110 110 110 180 180 180 180 180 180 180 180 180 180 180 110 110 110 110 110 110 110 110 110 110 110 110 110 110 110 110 180 180 180 180 180 180 180 180 180 180 110 110 110 180 180 180 180 180 110 110 180 180 180 110 110 180 180 110 110 180 110 110 180 180 110 110 110 180 180 180 110 110 110 180 180 180 180 110 110 180 180 110 110 110 110 110 110 110 110 110 110 180 180 180 180 180 180 180 180 180 180 180 180 180 180 110 110 110 110 110 110 110 110
110 180 180 180 110 110 110 110 110 110 180 110 110 180 180 180 180 110 180 180 180 180 180 180 110 110 180 180 180 180 110 110 110 110 110 110 110 110 110 110 110 110 110 110 110 110 180 180 180 180 180 180 180 180 180 110 110 110 110 110 110 180 110 110 110 110 110 110 110 180 180 180 180 110 180 110 110 180 180 180 110 110 180 180 180 110 110 180 180 180 180 180 110 110 180 180 180 180 180 110 110 110 110 110 110 110 180 180 180 180 180 110 110 180 180 180 180 180 180 180 110 110 110 110 110 110 110 110
180 180 180 180 110 110 110 110 110 180 180 180 180 180 180 180 180 110 110 180 180 180 180 110 110 110 180 180 180 110 110 110 110 110 110 110 110 110 110 110 110 110 110 110 110 110 180 180 180 180 180 180 180 180 110 110 110 180 180 110 110 110 110 110 110 110 110 180 180 180 180 180 180 180 180 110 110 180 180 110 110 110 180 180 180 110 110 180 180 180 180 180 180 110 180 180 180 180 180 180 110 110 110 110 110 180 180 180 180 180 110 110 110 180 180 180 180 180 180 110 110 110 110 110 110 110 110 110
180 180 180 180 110 110 110 180 180 180 180 180 180 180 180 180 180 110 110 110 180 180 110 110 110 110 180 180 180 110 110 110 110 110 110 110 110 110 110 110 110 110 110 110 110 180 180 180 180 180 180 180 180 180 110 110 110 180 180 110 110 110 110 110 110 110 110 180 180 180 180 180 180 180 180 110 110 110 110 110 110 110 180 180 180 180 180 180 180 180 180 180 180 180 180 180 180 180 180 110 110 110 180 180 180 180 180 180 180 110 110 110 180 180 110 110 110 180 110 110 110 110 110 110 110 110 110 110
110 180 180 180 110 110 180 180 180 180 180 180 180 180 180 180 180 110 110 180 180 110 110 110 110 110 110 180 180 110 110 110 110 110 110 110 110 110 110 110 110 110 110 180 110 180 180 180 180 180 180 180 180 180 180 110 110 110 110 110 110 180 180 180 110 180 180 180 110 110 180 180 180 180 180 180 110 110 110 110 110 110 180 180 180 180 110 110 180 180 180 180 180 180 180 180 180 180 180 110 110 110 180 180 180 180 180 180 110 110 110 180 180 180 180 110 180 180 110 110 110 110 110 110 110 110 110 110
110 110 110 180 180 180 180 180 180 180 180 180 180 180 180 180 180 110 110 180 180 110 110 110 110 110 110 110 180 180 110 110 110 110 180 180 180 110 110 110 110 180 180 180 180 110 110 180 110 180 180 110 180 180 180 110 110 110 110 110 180 180 180 180 180 180 180 180 180 180 180 180 180 180 180 180 110 110 110 110 110 110 180 180 180 110 110 110 110 180 180 180 180 180 180 180 180 180 110 110 110 110 180 180 180 180 180 180 180 180 180 180 180 180 180 110 180 180 180 110 110 110 110 110 110 110 110 110
110 110 180 180 180 180 180 180 180 180 180 180 110 180 180 180 180 180 180 180 180 110 110 110 110 110 110 110 110 180 180 180 180 180 180 180 180 110 110 110 110 180 180 180 180 180 110 110 110 110 110 110 110 110 180 110 110 110 110 110 180 180 180 180 180 180 180 110 180 180 180 180 180 180 180 180 110 110 110 110 180 180 180 180 110 110 110 110 110 180 180 180 180 180 110 110 180 110 110 110 110 180 180 180 180 180 180 180 180 180 180 180 180 180 110 110 110 180 180 110 110 110 110 110 110 110 110 110
110 180 180 180 180 180 180 180 180 180 110 110 110 180 180 180 180 180 180 180 110 110 110 110 110 110 110 110 180 180 180 180 180 180 180 180 180 110 110 110 110 180 180 180 180 180 110 110 110 110 180 110 110 110 180 180 110 110 110 110 110 180 180 180 180 180 180 110 180 180 180 180 180 180 180 180 180 110 110 110 180 180 180 180 110 110 110 110 180 180 180 180 180 110 110 110 110 110 110 110 180 180 180 180 180 180 180 180 180 180 180 180 180 180 110 110 110 110 180 180 110 110 110 110 110 110 110 110
110 110 110 180 180 180 180 110 110 110 110 110 110 180 180 180 180 180 110 110 110 110 110 110 110 110 110 110 180 180 180 180 180 180 180 180 180 110 110 110 110 180 180 180 180 180 110 110 110 110 180 180 180 180 180 180 180 110 110 110 110 110 180 180 180 180 180 180 180 180 180 110 110 180 180 180 180 110 110 110 180 180 180 110 110 110 110 110 180 180 180 180 180 110 110 110 110 110 110 110 180 180 180 180 180 180 110 110 110 110 180 180 180 180 110 110 110 110 110 110 110 110 110 110 110 110 110 110
110 110 110 110 180 110 110 110 110 110 110 110 110 180 180 180 180 180 110 110 180 180 180 110 110 110 110 180 180 180 180 180 180 180 180 110 110 110 110 180 180 180 180 180 180 180 110 110 110 180 180 180 180 180 180 180 180 110 110 110 110 110 110 110 110 110 180 180 180 180 110 110 110 180 180 180 180 180 110 110 180 180 180 110 110 110 110 110 180 180 180 180 110 110 110 110 110 110 110 110 180 180 180 180 180 110 110 110 110 110 110 180 180 180 110 110 110 110 110 180 110 110 110 110 110 110 110 110
110 110 110 110 110 110 110 110 110 110 110 110 110 110 180 180 180 180 180 180 180 180 180 110 180 180 180 180 180 180 180 110 110 110 110 110 110 110 110 180 180 180 180 110 180 180 110 110 110 180 180 180 110 180 180 180 180 110 110 110 110 110 110 110 110 110 110 180 110 110 110 110 110 180 180 180 180 180 180 110 110 180 110 110 110 110 110 180 180 180 180 180 180 110 110 180 110 110 110 110 180 180 180 180 110 110 110 110 110 110 180 180 180 180 180 180 180 180 180 180 180 110 110 110 110 110 110 110
180 180 180 180 180 180 110 110 110 110 110 110 110 180 180 180 180 180 110 180 180 180 180 180 180 180 180 180 180 180 180 110 110 110 110 110 110 110 110 180 180 180 180 180 180 180 110 110 180 180 180 110 110 180 180 180 180 180 180 180 180 110 110 110 110 110 110 110 110 110 110 110 110 180 180 180 180 180 180 180 110 110 110 110 110 110 110 110 180 180 110 180 180 180 180 180 110 110 110 110 180 180 180 110 110 180 180 110 110 180 180 180 180 180 180 180 180 180 180 180 180 180 110 110 110 110 110 180
180 180 180 180 180 180 110 110 110 110 110 180 180 180 180 180 180 110 110 110 180 180 180 110 180 180 180 180 180 180 180 180 110 110 110 110 110 110 110 110 180 180 180 180 180 180 110 110 110 180 110 110 110 180 180 180 180 180 180 180 180 180 110 110 110 110 110 180 110 110 110 110 110 180 180 180 180 180 180 180 180 110 110 110 110 110 110 110 110 110 110 180 180 180 180 110 110 110 110 180 180 180 110 110 180 180 180 180 180 180 180 180 180 180 180 180 180 180 180 180 180 180 180 110 110 110 180 180
110 110 110 110 180 110 110 110 110 110 180 180 180 180 180 180 180 110 110 110 180 180 110 110 180 180 180 180 180 180 180 180 110 110 110 110 110 110 110 110 180 180 180 180 180 180 180 110 110 110 110 110 110 180 180 180 180 180 180 180 180 180 110 110 110 110 180 180 180 180 110 110 110 110 180 180 180 180 180 180 180 110 110 110 110 110 110 110 110 110 110 180 180 180 180 110 110 110 180 180 180 180 110 180 180 180 180 110 180 180 180 180 180 180 180 180 180 180 180 180 180 180 180 110 110 110 180 110
110 110 110 110 180 110 110 110 110 110 180 180 180 180 180 110 110 110 110 110 110 180 180 180 180 180 180 180 180 180 180 180 110 110 180 180 180 110 110 110 110 180 180 180 180 180 180 110 110 110 110 110 110 180 180 180 180 180 180 180 180 180 180 180 180 180 180 180 180 110 110 110 110 110 110 110 180 180 180 180 180 110 110 110 110 110 110 110 110 180 180 180 180 180 110 110 110 180 180 180 180 110 110 110 180 180 110 110 110 180 180 180 180 180 180 180 180 180 180 110 110 110 110 110 110 110 110 110
110 110 110 110 180 180 110 110 110 110 110 180 180 180 180 110 110 110 110 180 180 180 180 180 180 180 180 180 180 180 180 180 180 180 180 180 180 180 180 110 180 180 180 180 180 180 180 110 110 110 110 110 110 110 180 180 180 180 180 180 180 180 180 180 180 180 180 180 180 180 180 180 180 110 110 110 110 180 180 180 180 110 110 110 110 110 110 110 110 180 180 180 180 180 110 110 110 110 180 180 180 110 110 110 180 180 110 180 110 110 180 180 180 180 180 180 180 180 180 110 110 110 180 110 110 110 110 110
110 110 110 110 180 180 110 110 110 110 110 110 180 180 110 110 110 110 110 180 110 180 180 180 180 180 110 110 110 110 180 180 180 180 180 180 180 180 180 180 180 180 180 180 180 180 180 180 180 180 110 110 110 110 110 180 180 180 180 180 180 180 180 180 180 110 180 180 180 180 180 180 180 180 110 110 110 180 180 180 110 110 110 110 110 110 110 110 110 110 180 180 180 180 110 110 110 110 180 180 110 110 110 110 110 180 180 180 180 110 110 180 180 180 180 180 180 180 180 180 110 180 180 180 110 110 110 110
110 110 110 180 180 180 180 110 110 110 110 110 110 110 110 110 110 110 110 110 110 180 180 180 180 180 110 110 110 110 110 180 180 180 180 180 180 180 180 180 180 180 180 180 180 180 180 180 180 180 110 110 110 110 110 110 180 180 180 180 110 110 180 180 180 110 110 110 110 110 180 180 180 180 110 110 110 110 180 110 110 110 110 110 110 110 110 110 110 180 180 180 180 110 110 110 110 180 180 110 110 110 110 110 110 180 180 180 180 180 110 110 180 180 180 180 180 180 180 180 110 110 180 180 110 110 110 110
110 110 180 180 180 180 180 180 110 110 110 110 110 110 110 110 110 110 110 110 180 180 180 180 180 180 110 110 110 110 110 110 180 180 180 180 180 180 110 180 180 180 180 180 180 180 110 110 180 180 110 110 110 110 110 110 110 110 110 110 110 110 180 180 180 180 180 180 110 110 180 180 180 180 110 110 110 110 110 110 110 110 110 110 110 110 110 180 180 180 180 180 180 110 110 110 180 180 180 110 110 110 110 110 110 110 110 180 180 180 110 110 110 180 180 180 180 180 180 180 110 110 180 180 180 110 110 110
110 180 180 180 180 180 180 180 180 110 110 110 110 110 110 110 110 110 110 110 180 180 180 180 180 180 110 110 110 110 110 110 110 180 180 180 110 110 110 110 110 110 110 110 110 180 110 110 180 110 110 110 110 110 110 110 110 110 110 110 110 110 180 180 180 180 180 180 110 110 180 180 180 180 110 110 110 110 110 110 110 110 110 110 110 180 180 180 180 180 180 180 180 110 110 110 180 180 180 110 110 110 110 110 110 110 110 110 110 110 110 110 110 180 180 110 180 180 180 180 180 180 180 180 180 180 110 110
110 180 180 180 180 180 180 180 180 110 110 110 110 110 110 110 110 110 110 110 110 180 180 180 180 110 110 110 110 110 110 110 110 110 110 110 110 110 110 110 110 110 110 110 110 110 110 110 180 110 110 110 110 110 110 110 180 110 110 110 110 110 110 180 180 180 180 180 110 110 110 180 180 180 180 180 110 110 110 110 110 110 110 110 110 180 180 110 110 110 180 180 180 180 110 110 180 180 180 180 110 110 110 110 110 110 110 110 110 110 110 110 110 110 110 110 110 110 180 180 110 110 110 180 180 180 180 110
180 180 180 180 180 180 180 180 180 110 110 110 180 180 110 110 180 180 180 110 110 110 180 180 180 180 110 110 110 180 110 110 110 110 110 110 110 110 110 110 110 110 110 110 110 110 110 110 110 110 110 110 110 110 110 110 180 110 110 110 110 110 110 110 180 180 180 110 110 110 110 180 180 180 180 180 180 110 110 110 110 110 110 110 110 180 180 110 110 110 180 180 180 180 180 180 180 180 180 180 180 180 110 110 110 110 110 110 110 110 110 110 110 110 110 110 110 110 110 110 110 110 110 110 180 180 180 180
180 180 180 180 180 180 180 110 110 110 110 110 180 180 180 180 180 180 110 110 110 110 180 180 180 180 110 110 110 180 180 110 110 110 110 110 110 110 110 110 110 110 110 110 110 110 110 110 110 110 110 110 110 110 110 110 180 110 110 110 110 110 110 110 110 180 180 110 110 110 110 180 180 180 180 180 180 180 180 180 110 110 110 110 180 180 180 180 110 110 180 180 180 180 180 180 180 180 180 180 180 180 180 110 110 110 110 110 110 110 110 110 110 110 110 110 180 180 180 110 110 110 110 110 110 110 110 180
180 180 180 180 180 180 110 110 110 110 110 110 110 180 180 180 180 180 180 110 110 180 180 180 180 180 110 110 180 180 180 180 180 180 180 110 110 110 110 110 180 110 110 110 110 180 180 110 110 180 180 180 180 110 110 180 180 180 180 110 110 110 110 110 110 110 180 180 110 110 110 180 180 180 180 180 180 180 180 180 180 110 110 110 180 180 180 180 110 110 110 110 110 180 180 180 180 180 180 180 180 180 180 110 110 110 110 110 110 180 180 180 110 110 110 180 180 180 180 180 110 110 110 110 110 110 110 110
180 180 180 110 110 110 110 110 110 110 110 110 110 110 180 180 180 180 180 180 180 180 180 180 110 110 110 110 110 110 110 180 180 110 110 110 110 110 110 110 180 110 110 110 110 180 180 110 180 180 180 180 180 180 180 180 180 180 180 180 110 110 110 110 110 110 180 180 180 110 180 180 180 180 180 180 180 180 180 180 180 180 180 110 180 180 110 110 110 180 180 180 110 110 180 180 180 180 180 180 180 180 110 110 110 110 110 110 180 180 180 180 180 110 110 180 180 180 180 180 110 110 110 110 110 110 110 180
180 180 110 110 110 110 110 110 110 110 110 110 110 110 110 180 180 180 180 180 180 180 180 110 110 110 110 110 110 110 110 110 110 110 110 110 110 110 110 110 110 110 110 110 110 180 110 110 180 180 180 180 180 180 180 180 180 180 180 180 180 180 180 110 110 110 180 180 180 110 180 180 180 180 180 180 180 110 110 110 180 180 110 110 180 180 110 110 180 180 180 180 180 180 180 180 180 180 180 180 180 180 110 110 110 110 110 180 180 180 180 180 180 110 110 110 110 110 180 180 110 110 110 110 110 110 180 180
180 180 110 110 110 110 110 110 110 110 110 110 110 110 110 110 110 180 180 180 180 180 110 110 110 110 110 110 110 110 110 110 110 110 110 110 110 110 110 110 110 110 110 110 180 180 180 110 180 180 180 180 180 180 180 110 110 110 180 180 180 180 180 180 110 110 110 110 110 110 180 180 180 180 180 180 110 110 110 110 110 110 110 110 180 180 110 110 180 180 180 180 180 180 180 180 180 180 180 110 110 110 110 110 110 110 180 180 180 180 180 180 180 110 110 110 110 110 110 110 110 110 110 110 110 110 180 180
180 110 110 110 110 110 110 110 110 110 110 180 110 110 110 110 110 180 180 110 110 110 110 110 110 180 180 180 110 110 110 110 110 180 110 110 110 110 110 110 110 110 110 110 180 180 180 110 180 180 180 180 180 180 110 110 110 110 180 180 180 180 180 180 110 110 110 110 110 110 110 180 180 180 180 110 110 110 110 110 110 110 110 180 180 180 180 110 180 180 180 180 180 180 180 180 180 180 180 110 110 110 110 110 110 110 180 180 180 180 180 180 110 110 110 110 110 110 110 110 110 110 110 110 110 110 180 180
180 110 110 110 110 110 110 110 110 110 180 180 110 110 110 110 180 180 180 180 110 110 110 110 180 180 180 110 110 110 110 110 110 180 110 110 110 110 110 110 110 110 110 180 180 180 180 180 180 180 180 180 180 180 110 110 110 180 180 180 180 180 180 180 110 110 180 110 110 110 180 180 180 180 180 110 110 110 110 110 110 110 110 180 180 180 180 110 180 180 180 180 180 180 180 180 180 180 110 110 110 110 110 110 110 110 180 180 180 180 180 180 110 110 110 110 110 110 110 110 110 110 110 110 110 110 180 180
180 110 110 110 110 110 110 180 180 180 180 180 110 110 110 110 180 180 180 180 110 110 110 110 110 180 110 110 110 110 110 110 110 110 110 110 110 110 110 110 110 110 180 180 180 180 110 180 180 180 180 180 180 180 110 110 110 180 180 180 180 180 180 180 180 180 110 110 110 180 180 180 180 180 180 180 180 180 110 110 110 110 180 180 180 180 110 110 110 180 180 180 180 180 180 180 180 180 180 110 110 110 110 110 110 110 180 180 180 110 110 110 110 110 110 180 180 110 110 110 180 180 180 180 110 180 180 180
110 110 110 110 110 110 110 110 180 180 180 180 110 110 110 180 180 180 180 110 110 110 110 110 110 110 110 110 110 110 180 180 110 110 110 110 110 110 110 110 110 110 180 180 180 110 110 180 180 180 180 180 180 180 180 180 180 180 180 180 180 180 180 180 180 110 110 110 110 180 180 180 180 180 180 180 180 180 180 180 180 180 180 180 180 180 110 110 110 180 180 180 180 180 180 180 180 180 180 110 110 110 110 110 180 180 180 110 110 110 110 110 110 110 110 110 180 180 180 180 180 180 180 110 110 180 180 180
110 110 110 110 110 110 110 110 180 180 180 180 180 110 110 180 180 180 110 110 110 110 110 110 110 110 110 110 110 110 180 180 180 110 110 110 110 110 110 110 110 110 110 180 180 110 110 180 180 180 110 110 180 180 110 180 110 110 180 180 180 180 180 180 180 180 110 110 110 180 180 180 180 110 110 180 180 110 110 180 180 180 180 180 180 180 110 110 180 180 180 180 180 180 180 180 180 180 180 180 180 180 180 180 180 180 180 110 110 110 110 110 180 180 110 110 180 180 180 180 180 180 180 110 110 110 180 180
180 110 180 180 110 110 110 110 110 180 180 180 110 110 110 180 180 180 180 110 110 110 110 110 110 110 110 110 110 180 180 180 180 110 110 110 110 110 180 180 110 110 110 180 180 180 110 180 180 180 110 110 110 110 110 110 110 110 110 180 180 180 180 180 180 180 110 110 110 110 180 180 180 110 110 110 110 110 110 110 180 180 180 180 180 180 110 180 180 180 180 180 180 180 180 180 180 180 180 180 180 180 180 110 180 180 180 180 110 110 110 110 180 180 110 110 180 180 180 180 180 180 180 110 110 110 180 180
180 180 180 180 110 110 110 110 110 110 180 180 110 110 110 180 180 180 180 110 110 110 110 110 110 110 110 110 180 180 180 180 180 110 110 110 110 180 180 180 180 110 180 180 180 180 180 180 180 180 180 180 180 180 180 180 180 180 180 180 180 180 180 180 180 180 110 110 110 110 180 180 180 180 180 180 110 110 110 110 110 180 110 110 110 180 180 180 180 180 180 180 180 180 180 180 180 180 180 180 180 180 110 110 180 180 180 180 110 110 110 110 180 180 180 110 110 110 110 180 180 180 180 110 110 110 110 180
110 110 110 110 110 110 110 110 110 110 180 180 180 180 180 180 180 180 180 110 110 110 110 110 110 110 110 180 180 180 180 180 180 110 110 110 180 180 180 180 180 180 180 180 180 180 180 110 180 180 180 180 180 180 180 180 180 180 180 180 180 180 180 180 180 180 110 110 110 110 110 180 180 180 180 180 180 110 110 110 110 110 110 110 110 180 180 180 180 180 180 180 180 180 180 110 180 180 180 180 180 110 110 110 110 180 180 180 180 110 110 110 180 180 180 110 110 110 110 180 180 180 110 110 110 110 110 110
180 110 110 110 110 110 110 110 110 110 110 180 180 180 180 180 180 180 180 110 110 110 110 110 110 110 110 180 180 180 180 180 180 110 110 180 180 180 180 180 180 180 180 180 180 180 180 110 180 180 180 180 180 180 180 180 180 180 180 180 180 180 180 180 180 110 110 110 110 110 110 110 110 180 180 180 180 110 180 180 110 110 110 110 110 180 180 180 180 180 180 180 180 180 110 110 110 180 180 110 110 110 110 110 110 110 180 180 180 110 110 180 180 180 180 110 110 110 110 180 180 110 110 110 110 110 110 110
180 180 110 110 110 110 110 110 110 110 180 180 180 180 180 180 180 180 110 110 110 110 110 110 110 110 110 180 180 180 180 180 180 110 110 180 180 180 110 110 110 180 180 180 180 180 180 180 110 110 110 110 110 110 180 180 180 180 180 180 180 180 110 180 110 110 110 110 110 110 110 110 110 110 180 180 180 180 180 180 180 180 110 110 180 180 180 180 180 180 180 180 180 110 110 110 110 110 110 180 180 180 180 110 110 110 180 180 180 110 110 180 180 180 180 110 110 110 110 110 110 110 110 110 110 110 110 180
180 180 110 110 110 110 110 180 180 180 180 180 180 180 180 180 180 180 180 110 110 110 110 110 110 110 180 180 180 180 180 110 110 110 110 180 180 180 110 110 110 180 180 180 180 180 180 180 180 110 110 110 110 110 110 180 180 180 110 180 180 180 110 110 110 110 110 110 110 110 110 110 110 180 180 180 180 180 180 180 180 180 180 180 180 180 180 180 180 180 180 180 110 110 110 110 110 110 180 180 180 180 180 180 180 180 180 180 180 110 110 180 180 180 180 110 110 110 110 110 110 110 110 110 110 110 110 180
180 180 110 110 110 110 110 180 180 180 180 180 180 180 180 180 180 180 180 180 110 110 110 110 110 110 180 180 180 180 180 110 110 110 110 180 180 180 180 180 180 180 180 180 180 180 180 180 180 180 110 110 110 110 180 180 180 110 110 180 180 180 110 110 110 110 110 110 110 110 110 110 110 180 180 180 180 180 180 180 180 180 180 180 180 180 180 180 180 180 180 180 110 110 110 110 110 110 180 180 180 180 180 180 180 180 180 180 180 110 110 110 180 180 180 110 110 110 110 110 110 110 110 110 110 110 110 180
180 110 110 110 110 110 110 180 180 180 180 180 180 180 180 180 180 180 180 110 110 110 110 110 110 110 180 110 110 180 180 180 110 110 110 180 180 180 180 180 180 180 180 180 110 110 110 180 180 180 180 110 110 110 110 110 180 180 110 110 180 110 110 110 110 110 110 110 110 110 110 110 110 180 180 180 180 180 180 180 180 180 180 180 180 180 180 180 180 110 110 180 180 110 110 110 110 110 180 180 180 110 110 180 180 180 180 180 180 180 110 110 110 110 110 110 110 110 110 110 110 110 110 110 110 110 110 180
110 110 110 110 110 110 110 180 180 180 180 180 180 180 180 180 180 180 180 110 110 110 110 110 110 110 110 110 110 180 180 180 110 110 110 180 180 180 180 180 180 180 180 180 110 110 110 110 180 180 180 110 110 110 110 110 180 180 180 180 180 110 110 110 110 180 180 180 180 110 110 180 180 110 110 180 180 180 180 180 180 180 110 180 180 180 180 180 110 110 110 180 180 180 110 110 110 110 180 180 180 110 180 180 180 180 180 180 180 180 110 110 110 110 110 110 110 110 110 110 110 110 110 110 110 110 110 110
110 110 110 110 180 110 110 110 180 180 180 180 110 180 180 180 180 180 180 180 110 110 110 110 110 110 110 110 110 180 180 180 110 110 110 110 180 180 180 180 180 180 180 180 110 110 110 110 110 110 180 110 110 110 110 110 180 180 180 180 180 180 180 110 110 180 180 180 180 180 180 180 180 180 110 110 110 110 110 180 180 110 110 110 180 180 180 110 110 110 110 110 180 180 110 110 110 110 180 180 180 180 180 180 180 180 180 180 180 110 110 110 110 110 180 180 110 110 110 110 110 110 110 110 110 110 180 180
180 110 110 180 180 180 110 110 180 180 180 180 110 110 180 180 110 180 180 180 180 110 110 110 110 110 110 110 110 180 180 180 110 110 110 110 110 180 180 180 180 180 180 180 180 110 110 110 110 110 110 110 110 110 110 110 110 180 180 180 180 180 180 110 110 180 180 180 180 110 180 180 180 180 180 110 110 110 110 110 110 110 110 110 110 110 110 110 110 110 110 110 180 180 110 110 110 110 110 180 180 180 180 180 180 180 180 180 110 110 110 110 110 110 180 180 180 110 110 110 110 110 110 110 110 180 180 180
110 110 110 180 180 180 180 110 180 180 180 180 110 110 110 110 110 180 180 180 180 180 180 180 110 110 110 110 180 180 180 180 180 110 110 110 110 180 180 180 180 180 180 180 180 180 180 110 110 110 110 110 110 110 110 110 110 180 180 180 180 180 180 110 110 180 180 180 180 110 110 180 180 180 180 180 180 180 180 180 110 110 110 110 110 110 110 110 110 110 110 110 180 180 180 180 110 110 110 110 180 180 180 180 180 180 180 180 110 110 110 110 110 110 180 180 180 180 110 110 110 110 110 110 110 180 180 180
110 110 110 180 180 180 180 110 180 180 180 180 180 110 110 110 110 180 180 180 180 180 180 180 110 110 110 180 180 180 180 180 180 180 110 110 110 110 110 180 180 180 180 180 180 180 180 110 110 110 110 110 110 110 110 110 110 110 180 180 180 110 110 180 180 180 180 180 180 110 110 110 180 180 180 180 180 180 180 180 180 110 110 180 180 180 110 110 180 180 180 180 180 180 180 180 110 110 110 110 110 180 180 180 180 180 180 180 110 110 110 110 110 180 180 180 180 180 180 110 110 110 110 110 110 180 180 110
110 110 110 110 180 180 180 180 180 180 180 180 180 110 110 180 180 180 180 110 110 110 180 180 110 110 110 180 180 180 180 180 180 110 110 110 110 110 110 110 180 180 180 110 110 180 180 180 110 110 110 110 110 110 180 110 110 110 180 180 110 110 110 180 180 180 180 180 180 110 110 110 180 180 180 180 180 180 180 180 180 180 110 180 180 180 180 180 180 180 180 180 180 180 180 180 110 110 110 110 180 180 180 110 110 110 180 180 110 110 110 110 110 180 180 180 180 180 180 180 110 110 110 110 110 110 110 110
180 180 180 110 110 180 180 180 180 180 180 180 180 180 110 180 180 180 180 180 110 110 110 180 180 110 110 110 110 180 180 180 110 110 110 110 110 180 110 110 180 180 180 180 110 180 180 180 110 110 110 110 110 110 180 180 110 180 180 180 180 180 180 180 180 180 180 180 180 110 110 110 110 180 180 180 180 180 180 180 180 180 110 110 180 180 180 180 180 180 180 180 180 180 180 180 110 110 180 180 180 180 180 110 110 110 110 110 110 110 110 110 110 180 180 180 180 180 180 180 110 110 110 180 180 180 180 180
180 180 180 110 110 110 110 180 180 180 180 180 180 180 110 110 180 180 180 180 180 110 180 180 180 180 180 110 110 110 110 110 110 110 110 110 180 180 180 110 180 180 180 110 110 180 180 180 180 110 110 110 110 110 110 110 180 180 180 180 180 180 180 180 180 180 180 180 180 110 110 110 180 180 180 180 180 110 110 180 110 110 110 110 180 180 110 110 110 110 110 180 180 180 180 110 110 110 180 180 180 180 180 110 110 110 110 110 110 110 110 110 110 180 180 180 180 180 180 110 110 110 110 180 180 180 180 180
180 180 110 110 110 110 110 110 110 180 180 180 180 180 180 110 110 180 180 180 180 180 180 180 180 180 180 180 180 110 110 110 110 110 110 110 180 180 180 180 180 180 110 110 110 110 180 180 180 180 180 180 110 110 110 180 180 180 180 180 180 180 180 180 180 110 110 180 180 110 110 110 180 180 180 110 110 110 110 110 110 110 180 180 180 110 110 110 110 110 110 180 180 180 180 110 110 110 180 180 180 180 180 110 110 110 110 110 110 110 110 110 110 180 180 180 180 180 110 110 110 110 110 110 180 180 180 180
110 110 110 110 110 110 110 110 110 110 110 110 180 180 180 110 180 180 180 180 110 180 180 180 180 180 180 180 180 180 110 110 110 110 110 110 180 180 180 180 180 180 110 110 110 110 180 180 180 180 180 180 180 180 180 180 180 180 180 180 180 180 180 180 110 110 110 110 110 110 180 180 180 180 110 110 110 110 110 110 110 180 180 180 180 110 110 110 110 110 110 110 180 180 180 110 110 110 110 180 180 180 110 110 180 180 110 110 110 110 110 110 110 180 180 180 180 110 110 110 110 110 110 110 180 180 180 110
110 110 110 110 110 110 110 110 110 110 110 180 180 180 180 180 180 180 180 180 110 180 180 180 180 180 180 180 180 180 110 110 110 110 110 180 180 180 180 180 180 180 110 110 110 110 180 180 180 180 180 180 180 180 180 180 180 180 180 180 110 110 110 110 110 110 110 110 110 110 180 180 180 180 110 110 110 110 110 110 110 180 180 180 180 110 110 110 110 110 110 110 180 180 180 110 110 110 110 110 180 110 110 110 180 180 180 110 110 110 180 180 180 180 110 110 110 110 110 110 110 110 110 110 180 180 110 110
110 110 110 110 110 110 110 110 110 110 110 180 180 180 180 180 180 180 180 180 180 180 180 180 180 180 180 180 180 180 110 110 110 180 180 180 180 180 180 180 180 180 110 110 110 110 180 180 180 180 180 180 180 180 180 180 180 180 180 110 110 110 110 110 110 110 110 110 110 110 180 180 180 180 110 110 110 110 110 110 110 180 180 180 180 180 110 110 110 180 180 180 180 180 110 110 110 110 110 110 110 110 110 110 180 180 180 110 110 110 180 180 180 110 110 110 110 110 110 110 110 110 110 110 180 180 110 110
110 110 110 110 180 180 180 110 110 110 110 180 180 180 180 110 110 180 180 180 180 180 180 180 180 180 180 180 180 110 110 110 110 180 180 180 180 180 180 110 110 180 110 110 110 110 180 180 180 180 110 180 180 110 180 180 180 180 180 110 110 110 110 110 180 180 180 110 110 110 180 180 180 180 110 110 110 110 110 110 110 180 180 180 180 180 110 110 110 180 180 180 180 110 110 110 110 110 110 110 180 180 110 110 180 180 180 110 110 110 180 180 180 180 110 110 110 110 110 110 110 110 110 110 180 110 110 110
180 180 180 180 180 180 180 180 110 110 110 180 180 180 180 110 110 110 110 180 180 180 180 180 180 180 180 180 180 110 110 110 110 180 180 180 180 110 110 110 110 180 180 180 110 110 180 180 180 110 110 110 110 110 180 180 180 110 110 110 110 110 180 180 180 180 180 110 110 110 180 180 180 110 110 110 110 110 110 110 110 180 180 180 180 180 110 110 180 180 180 180 110 110 110 110 110 110 110 180 180 180 180 180 180 180 180 110 110 180 180 180 180 180 110 110 110 110 110 110 110 110 110 110 110 110 110 180
180 110 110 110 180 180 180 180 110 110 110 110 180 180 180 110 110 180 110 180 180 180 180 180 180 180 180 180 110 110 110 110 110 110 110 110 110 110 110 110 110 180 180 180 110 110 110 180 110 110 110 110 110 180 180 180 180 110 110 110 110 180 180 180 180 180 110 110 110 180 180 180 180 110 110 110 110 110 110 110 110 180 180 180 180 180 110 110 180 180 180 110 110 110 110 110 110 110 110 180 180 180 180 180 180 180 180 180 110 110 180 180 180 180 180 110 110 110 110 110 110 110 110 110 180 180 180 180
110 110 110 110 180 180 180 110 110 110 110 180 180 180 180 180 180 180 110 180 180 110 110 110 110 180 180 110 110 110 110 110 110 110 110 110 110 110 110 110 110 180 180 180 110 110 110 110 110 110 110 110 110 110 180 180 180 110 110 110 180 180 180 180 110 110 110 110 110 180 180 180 110 110 110 110 110 110 110 110 180 180 180 180 180 110 110 110 110 110 110 110 110 110 110 110 110 110 110 110 180 110 180 180 180 180 180 110 110 110 180 180 180 180 180 110 110 180 180 180 180 180 180 180 180 180 180 110
110 110 110 110 180 180 180 110 110 110 110 180 180 180 180 180 180 110 110 180 180 110 110 110 110 180 180 110 110 110 110 110 110 110 110 110 110 110 110 110 110 180 180 110 110 110 110 110 110 110 110 110 110 110 110 180 180 180 110 110 180 180 180 110 110 110 110 110 110 180 180 180 110 110 110 110 110 110 110 180 180 180 180 180 110 110 110 110 110 110 110 110 110 110 110 110 110 110 110 110 110 110 180 180 180 180 110 110 110 110 110 110 110 180 180 180 180 180 180 180 180 110 180 180 180 180 110 110
110 110 110 110 180 180 180 110 110 110 180 180 180 180 180 180 180 110 110 180 180 110 110 110 180 180 180 110 110 110 110 110 110 110 110 110 110 110 110 110 110 110 110 110 180 110 110 110 110 110 110 180 180 110 110 180 180 180 110 180 180 180 180 110 110 110 110 110 110 180 180 180 180 180 110 110 110 110 110 180 180 180 180 180 180 180 180 180 110 110 110 110 110 110 110 110 110 180 110 110 180 110 110 180 180 110 110 110 110 110 110 110 110 180 180 180 180 180 180 180 110 110 110 180 180 180 110 110
110 110 110 110 180 180 180 110 110 180 180 180 180 180 180 180 180 110 110 110 180 110 110 180 180 180 110 110 110 180 110 110 110 110 110 110 110 110 110 180 180 180 110 180 180 180 110 110 110 110 180 180 180 180 180 180 180 180 110 180 180 180 180 110 110 110 110 110 110 180 180 180 180 180 110 110 110 110 110 110 180 180 180 180 180 180 180 180 180 180 180 180 110 110 110 110 180 180 110 110 110 110 180 180 180 180 110 110 110 110 180 180 180 180 180 180 180 180 180 110 110 110 110 180 180 180 180 110
110 110 180 180 180 180 110 110 110 110 110 110 180 180 180 180 180 110 110 110 180 110 110 180 180 180 110 110 110 180 180 110 110 110 180 180 180 180 180 180 180 180 180 180 180 180 180 110 110 180 180 180 180 180 180 180 180 110 110 180 180 180 180 110 110 110 110 110 110 110 110 180 180 180 110 110 110 110 110 110 110 110 180 180 180 180 180 180 180 180 180 180 110 110 110 110 110 110 110 110 110 110 180 180 180 180 180 110 110 180 180 180 180 180 180 180 180 180 180 110 110 110 180 180 180 180 180 110
