P2
512 512
255
120 116 117 120 132 143 150 150 142 144 122 111 103 124 150 184 199 194 191 184 177 160 150 161 157 146 151 163 164 153 155 161 157 165 179 184 177 150 130 110 123 149 177 198 213 196 169 160 121 172 172 186 198 173 131 105 145 76 120 148 181 199 201 157 133 168 101 120 96 160 156 164 176 175 222 181 115 98 118 147 87 137 151 147 86 123 88 59 89 64 126 64 118 114 74 102 137 90 95 87 105 69 73 74 97 138 137 129 145 89 81 70 69 42 41 88 48 93 94 139 97 182 127 108 105 59 84 109 147 92 83 84 170 121 167 186 103 131 211 120 218 141 206 199 88 153 64 145 148 57 154 134 156 181 108 218 194 192 224 186 194 120 152 143 190 153 150 148 74 74 125 136 141 110 143 67 149 92 148 129 176 132 190 160 115 99 99 181 167 80 33 126 147 153 109 181 188 100 103 145 144 133 102 196 214 125 170 175 99 106 99 181 167 166 149 93 80 31 129 171 88 156 107 78 73 69 52 136 123 140 153 104 112 63 61 136 81 126 139 151 51 74 61 113 188 193 187 120 183 182 155 58 49 80 97 79 93 132 43 111 88 49 144 131 84 150 89 83 128 168 81 128 204 202 162 130 192 163 89 154 172 155 170 96 122 171 226 201 157 164 152 207 120 171 133 132 201 192 149 98 132 178 154 158 70 133 81 78 122 150 54 107 139 150 112 91 152 120 176 192 190 167 102 137 94 141 173 186 109 186 122 128 76 120 48 105 104 187 110 70 151 126 255 211 139 193 163 141 255 152 100 224 169 132 180 190 106 146 132 91 164 81 169 110 102 79 132 127 52 147 126 165 120 132 190 203 176 197 145 215 223 175 242 242 190 162 187 94 174 156 131 51 65 84 147 180 91 162 156 89 110 134 123 136 142 78 76 85 137 83 110 90 162 147 64 83 155 178 118 94 86 168 111 124 191 99 110 109 139 37 118 88 94 0 13 42 89 78 75 82 175 114 150 198 180 178 165 107 75 99 198 160 217 134 196 167 180 127 136 58 140 146 83 135 184 157 158 70 120 185 191 110 90 146 97 120 93 137 158 78 96 88 100 154 98 94 168 119 61 140 152 60 79 143 75 165 109 178 144 115 101 95 92 167 123 48 38 35 81 63 123 35
126 124 127 132 143 145 145 154 153 147 137 114 110 132 154 179 193 191 175 157 147 154 137 157 160 165 158 155 159 156 157 155 156 157 175 185 181 159 142 119 138 140 174 186 195 183 167 168 136 180 166 185 154 174 168 136 103 144 151 156 189 200 209 161 134 136 169 117 166 164 154 171 222 160 187 186 136 111 107 148 74 114 97 126 89 107 72 93 76 80 79 112 63 62 106 73 95 79 76 121 119 103 106 83 85 131 149 99 94 114 94 91 73 60 42 111 80 73 176 90 113 153 68 106 142 160 111 91 183 81 168 90 168 170 177 92 191 195 190 118 117 184 220 180 101 96 146 109 55 138 155 98 81 122 143 115 181 208 209 164 225 133 164 201 198 141 167 148 133 119 84 146 193 120 171 156 90 51 142 159 173 153 181 153 157 176 95 133 97 140 49 111 104 80 89 134 95 120 149 101 176 172 112 86 107 193 104 184 173 161 145 155 112 123 70 35 104 134 143 116 118 122 76 143 156 64 54 122 148 110 98 100 95 165 103 180 104 82 73 76 63 57 103 88 130 207 209 104 139 181 73 60 147 120 149 92 107 91 119 130 48 57 57 109 147 93 159 176 102 160 98 169 182 191 189 108 87 91 107 149 98 159 67 74 95 191 124 138 199 179 147 164 136 135 148 106 180 171 192 99 90 167 93 147 102 115 48 84 114 81 129 143 120 79 143 119 107 138 137 110 126 132 90 63 95 141 183 99 184 179 116 86 167 149 159 72 156 255 88 72 65 141 188 134 202 203 87 127 67 65 124 207 125 192 188 100 96 96 109 117 151 125 173 109 134 98 83 61 94 133 83 116 169 106 108 115 127 205 118 174 199 174 197 213 160 216 109 156 104 145 126 90 70 148 133 150 98 170 193 97 126 58 62 104 151 112 95 82 152 124 136 95 170 161 115 147 193 131 199 153 192 119 99 190 186 118 187 87 164 89 59 115 108 104 86 144 117 157 90 103 185 116 172 95 103 73 73 175 119 178 197 214 207 191 144 103 80 155 61 131 138 173 186 109 92 78 124 148 123 180 97 170 137 94 67 134 132 46 147 154 168 146 140 106 157 79 163 68 156 141 148 77 91 75 80 139 125 83 183 123 181 86 80 99 65 60 102 57 53 54 49 58
138 137 140 146 151 154 147 156 158 159 157 133 114 136 163 179 188 168 156 142 134 132 140 160 172 171 158 160 157 163 151 158 156 159 171 186 186 173 156 150 143 158 168 166 179 178 145 152 160 150 170 147 165 160 166 129 100 145 130 175 142 157 166 135 186 135 157 192 139 210 215 168 163 174 118 175 95 74 141 118 61 121 122 162 148 149 75 131 71 65 66 68 83 74 113 94 76 97 118 60 65 71 75 84 102 131 118 93 112 118 115 105 104 99 86 137 95 142 99 104 84 103 74 61 157 81 168 110 82 64 56 137 84 138 100 116 123 165 89 89 100 196 100 95 167 100 122 108 137 76 130 168 153 92 192 187 195 127 228 170 225 175 142 117 137 102 179 102 133 84 175 122 198 127 153 142 82 109 136 69 117 166 113 179 105 176 185 187 163 173 146 120 119 165 81 97 169 129 162 171 96 164 60 153 172 167 202 185 189 148 138 174 121 156 130 135 113 141 136 174 147 112 150 151 58 62 71 155 112 163 157 125 183 161 151 136 205 100 133 168 102 74 184 202 115 193 194 173 183 107 125 156 136 133 144 115 87 148 126 127 114 131 115 144 173 159 113 100 137 77 166 87 174 82 108 92 122 72 119 137 94 129 71 57 72 158 133 166 201 221 220 137 179 170 89 84 177 87 113 106 89 75 145 65 77 84 155 91 83 116 165 114 92 82 168 118 185 126 218 180 89 146 150 115 142 180 110 139 185 111 86 123 157 81 133 98 131 145 113 129 116 91 155 197 197 114 108 102 98 130 104 88 109 190 192 100 180 125 153 144 84 109 115 144 155 121 151 121 105 107 143 119 93 104 190 188 182 170 138 166 128 134 181 216 219 177 168 140 141 64 87 88 68 79 188 100 176 100 123 78 88 153 139 133 129 123 95 98 165 124 177 140 107 116 176 102 108 206 206 201 154 200 187 159 182 95 137 155 187 114 54 104 121 54 60 93 91 178 104 184 87 161 77 83 113 163 87 154 122 197 190 225 221 166 109 114 123 103 166 93 176 143 173 168 166 77 142 62 150 167 149 157 88 126 126 73 68 124 125 152 121 107 110 130 130 94 156 125 74 61 66 117 72 170 167 116 117 77 84 157 163 80 98 138 79 163 129 78 130 133 65 129
144 143 148 153 158 153 151 155 160 170 165 156 132 151 165 194 180 160 149 136 117 118 131 147 173 175 161 167 170 171 167 164 161 167 178 186 187 181 171 169 169 163 166 156 168 164 168 137 171 133 138 118 156 157 167 140 118 123 144 125 154 138 186 179 129 131 144 193 203 186 187 160 129 144 94 156 149 69 63 130 78 59 75 77 77 132 78 84 66 82 106 49 95 40 66 65 87 85 70 67 76 116 93 76 68 72 108 132 75 107 125 136 116 142 88 88 112 109 119 112 83 154 112 114 83 153 114 193 122 62 59 151 68 138 187 165 127 179 84 85 107 181 173 161 116 124 94 65 42 118 109 95 129 176 105 139 111 107 192 193 130 199 181 176 100 177 163 120 118 81 120 171 170 99 97 164 72 123 112 69 139 155 175 177 163 163 119 175 172 190 82 117 68 64 164 102 59 102 168 101 115 136 67 123 98 162 95 112 153 100 104 169 95 83 117 109 47 63 96 171 175 151 107 147 158 77 113 182 174 172 77 114 114 129 197 188 204 204 182 102 184 146 200 214 217 191 114 86 82 77 167 63 77 87 56 61 154 93 172 69 136 63 154 148 102 169 95 98 171 151 143 138 81 130 152 132 90 134 74 75 153 100 147 101 130 90 93 191 174 113 201 175 189 184 83 90 87 88 192 126 123 170 80 146 93 104 94 95 121 123 105 173 166 91 93 170 201 132 211 184 102 134 103 151 103 162 117 156 99 173 115 197 197 96 168 171 84 121 198 85 163 117 151 178 121 117 142 66 82 105 86 152 182 164 129 172 138 142 149 79 140 201 204 118 134 130 84 157 180 103 166 117 130 133 196 150 131 173 137 181 184 188 195 109 129 114 116 100 149 152 90 102 85 162 181 183 91 113 100 161 104 73 87 126 157 110 107 141 120 195 180 85 79 155 79 168 156 195 182 206 124 113 198 156 177 146 129 147 176 87 131 137 102 40 69 72 97 93 102 127 160 72 147 125 170 174 179 120 189 203 194 172 186 186 127 67 71 171 100 175 101 178 193 170 89 125 86 131 47 64 89 79 86 172 167 139 134 90 64 125 158 78 139 94 95 130 129 69 137 97 78 86 105 165 162 110 119 151 108 110 150 150 85 101 59 67 142 85 129 63 45 41
146 145 147 149 155 154 157 155 161 167 164 167 157 156 184 192 196 162 144 132 134 127 134 138 174 174 181 177 174 171 173 173 172 181 190 201 198 195 192 186 184 168 172 165 165 158 159 165 158 152 147 125 139 123 173 124 156 155 137 180 116 163 170 193 164 139 193 155 157 187 201 127 134 170 90 158 73 78 53 55 115 53 115 88 92 119 105 71 60 73 43 39 29 32 107 66 89 110 92 130 102 91 75 69 59 73 68 83 101 76 92 107 108 107 114 136 92 102 105 98 109 85 162 97 195 142 215 116 145 102 141 107 153 79 88 183 186 109 180 190 133 170 160 159 107 150 48 46 107 38 105 56 167 92 161 164 163 144 133 137 185 137 181 108 160 93 83 174 84 150 112 178 170 190 131 125 86 168 68 78 148 146 89 163 185 190 182 139 185 127 164 111 142 154 130 62 79 115 160 169 127 71 106 61 37 63 103 163 154 139 141 169 134 116 66 147 67 65 111 149 79 77 91 141 99 151 193 149 102 94 85 130 140 105 121 183 188 115 141 200 207 114 214 191 196 165 149 91 137 93 150 143 118 150 88 85 163 193 190 168 166 156 149 69 157 108 97 186 136 170 166 255 90 145 137 169 87 92 113 101 64 108 78 160 137 187 97 149 156 119 119 130 93 131 105 184 84 134 156 88 137 128 108 153 102 183 175 159 82 74 80 103 118 114 176 101 183 186 171 113 196 169 163 174 186 191 120 156 112 99 104 105 117 104 116 103 118 100 119 134 96 137 82 138 96 131 165 67 121 76 61 159 88 104 209 161 182 173 67 148 173 201 109 190 174 83 126 105 92 171 176 124 140 144 201 116 172 140 108 128 115 153 125 91 186 157 115 192 134 89 55 55 152 169 126 112 156 61 151 140 156 84 86 201 145 203 163 131 176 195 114 108 72 95 95 173 140 186 149 117 169 168 146 112 181 141 105 112 108 74 57 49 134 120 146 147 175 140 165 113 130 178 84 83 125 186 176 94 191 131 170 111 183 162 84 66 72 93 103 129 155 92 98 93 92 101 137 110 109 95 156 131 157 135 167 173 118 141 152 140 83 88 125 101 80 76 114 111 176 170 172 116 139 77 92 150 123 129 183 102 154 117 154 56 56 57 73 83 82 146 58 85
133 133 135 141 153 153 157 151 155 164 169 155 155 164 182 200 197 175 164 150 145 136 132 158 171 182 184 195 192 183 182 176 173 188 204 210 212 210 202 199 197 182 183 162 178 166 155 128 162 157 112 122 133 136 123 161 165 121 160 172 157 177 118 162 181 137 121 143 173 122 124 189 118 108 97 98 104 78 81 47 42 61 90 76 90 127 61 59 98 52 45 32 24 29 82 103 122 89 139 134 90 81 69 106 78 76 87 62 84 81 110 137 143 108 106 171 91 88 97 131 120 99 106 106 168 136 140 136 203 116 161 85 156 115 175 147 181 187 197 129 106 131 73 159 58 134 50 47 118 113 116 144 76 153 97 141 139 100 101 169 156 177 162 130 165 101 78 134 90 108 167 113 102 94 177 164 176 126 150 66 154 165 173 186 140 154 177 95 143 148 162 99 70 80 101 110 157 153 155 166 83 77 143 40 63 52 109 78 93 182 175 153 127 155 65 89 75 92 67 160 114 150 79 146 171 126 109 205 202 99 163 125 114 61 86 170 176 189 108 217 189 148 152 116 117 191 128 195 119 91 102 61 117 153 73 94 102 156 187 153 127 89 61 150 117 92 129 140 101 98 94 99 171 149 118 131 106 119 88 75 110 112 78 115 111 177 154 185 95 102 114 73 82 170 108 111 107 121 177 97 73 166 126 122 88 172 93 94 85 117 126 139 201 152 197 102 129 104 111 105 186 154 126 118 197 104 185 112 96 190 106 111 181 97 62 69 88 194 105 104 109 60 97 164 255 179 138 84 152 147 93 154 172 130 173 125 114 127 87 171 126 110 112 83 167 99 63 146 121 91 174 91 147 120 188 139 89 84 125 153 130 153 73 170 90 103 146 151 114 143 146 139 64 69 96 161 149 93 142 58 139 74 87 109 191 182 192 146 119 155 175 159 91 115 72 168 149 100 113 124 173 207 124 153 183 167 85 152 159 151 154 132 133 65 63 88 134 84 189 168 119 179 169 151 98 191 118 108 164 97 87 81 153 82 174 123 81 167 77 101 110 124 72 69 24 64 35 128 75 128 63 77 165 141 178 93 89 173 119 95 177 142 88 115 168 133 154 135 90 100 149 87 140 65 61 124 123 136 188 116 128 153 86 141 47 114 158 161 134 177 83 125
120 122 129 139 154 162 167 163 158 156 153 157 155 163 170 177 190 255 181 161 142 138 154 161 176 193 192 192 193 193 184 174 182 190 206 219 227 215 210 206 197 191 196 177 162 153 151 163 175 153 172 163 141 166 169 146 132 133 143 140 99 133 98 97 119 160 129 141 156 112 111 99 126 103 111 107 74 87 128 103 56 56 102 60 116 68 64 96 100 44 46 41 32 36 48 67 114 88 90 98 88 79 105 80 76 81 72 129 77 94 116 171 158 173 103 90 132 144 128 132 99 116 198 166 128 152 231 207 115 188 149 58 101 105 116 92 94 85 185 108 117 168 73 77 108 140 142 128 141 54 46 79 145 85 124 147 58 128 141 59 132 121 148 128 146 125 136 166 172 169 95 161 170 180 173 111 194 128 112 124 149 160 181 195 134 206 107 91 131 112 175 172 127 156 58 131 116 167 102 161 181 142 87 55 141 57 155 141 255 111 162 182 94 168 78 140 79 166 169 133 90 122 159 111 148 115 193 115 133 106 149 118 104 63 110 102 138 127 109 143 207 216 208 189 78 89 87 147 202 108 146 67 89 161 104 127 189 108 122 150 118 139 140 125 85 187 91 87 142 178 86 117 88 175 131 170 205 154 87 78 166 162 136 167 154 126 177 114 173 103 163 168 128 137 107 145 97 144 152 119 113 150 82 90 166 93 173 115 104 150 87 166 200 184 165 138 99 178 130 145 131 145 129 201 193 99 162 90 170 120 91 83 129 145 139 167 140 200 188 90 63 89 95 107 163 166 79 69 149 61 60 100 74 161 181 189 210 160 189 179 145 98 86 138 109 149 76 142 102 176 130 105 89 139 182 135 169 85 149 152 100 68 152 84 85 85 138 95 138 176 115 128 74 138 150 124 112 78 95 146 74 86 124 89 105 111 174 115 102 100 164 255 107 149 96 87 127 171 115 186 213 149 162 117 141 76 100 177 113 121 160 146 49 137 133 48 61 179 165 122 127 189 144 205 196 188 112 90 94 178 110 151 146 92 112 88 90 123 105 110 98 121 58 128 110 76 115 118 100 174 99 155 166 87 145 107 187 119 170 131 127 173 168 93 75 135 153 148 181 167 159 180 77 80 166 89 165 198 188 154 146 88 88 96 72 155 67 76 175 169 111 146
112 117 128 144 153 162 163 158 158 152 146 153 146 164 160 174 173 186 179 158 149 156 152 180 185 195 176 182 187 194 194 185 176 187 201 222 229 224 216 206 201 201 201 187 167 170 143 149 165 173 202 157 191 137 153 147 159 159 135 121 148 79 115 112 97 123 190 111 99 124 102 170 149 136 137 89 121 86 129 110 89 82 126 63 76 71 118 108 57 63 53 58 58 57 86 96 73 74 107 89 98 91 76 110 94 65 91 93 101 99 93 92 146 157 97 84 79 138 161 86 92 181 139 130 123 142 194 203 107 110 92 64 75 108 120 101 156 61 69 175 154 102 75 96 59 68 158 136 75 56 138 93 70 156 166 77 39 119 104 59 164 124 95 191 185 148 163 142 105 186 174 87 109 164 110 144 152 173 98 146 90 153 137 99 200 197 198 151 87 161 105 181 85 108 127 138 171 82 181 180 159 138 166 162 123 72 92 186 129 86 148 78 148 153 105 152 125 135 126 96 112 143 132 93 94 123 174 120 195 168 162 147 85 93 117 93 103 112 207 131 123 212 98 163 159 116 81 175 110 198 121 74 65 123 175 135 105 136 181 95 173 118 94 73 167 129 171 169 145 113 103 177 97 112 137 182 201 152 184 148 108 139 172 116 134 160 136 198 161 167 153 87 113 99 205 107 114 184 176 169 64 67 64 110 155 71 126 102 74 111 97 171 106 105 177 150 110 117 94 113 121 135 138 187 154 128 86 172 131 124 130 169 110 52 69 87 155 163 197 152 72 58 75 79 153 141 83 108 114 150 151 93 167 146 175 121 213 215 222 133 212 131 92 93 121 80 57 125 108 87 163 186 126 165 178 169 147 155 131 100 65 54 57 77 255 121 128 131 168 163 93 79 151 119 65 48 147 73 164 106 156 132 180 163 139 149 175 120 91 97 111 79 75 140 72 170 98 90 106 118 181 255 100 69 111 127 89 164 91 125 183 114 127 63 55 96 160 176 106 120 187 216 175 200 190 84 178 161 99 174 172 88 124 140 145 189 184 95 76 122 155 141 53 59 113 75 54 61 177 168 199 201 139 158 72 141 160 90 135 150 135 74 154 76 165 119 65 117 126 113 204 98 143 117 88 108 148 107 86 128 128 81 136 70 85 99 169 80 120 91 106 200
125 128 135 149 159 160 160 161 159 147 145 140 153 162 157 170 166 182 175 172 165 161 177 188 189 187 169 170 173 190 199 194 183 181 191 212 225 221 207 209 204 200 197 194 176 175 150 165 183 214 210 174 182 164 205 175 131 131 147 145 140 106 110 112 120 123 183 146 176 136 165 100 97 161 165 117 141 88 71 131 79 57 87 129 125 75 120 119 79 97 71 86 74 105 67 85 63 75 107 103 99 121 89 89 116 68 106 123 117 112 102 95 138 90 101 67 71 114 165 163 95 98 112 108 110 197 193 182 178 121 78 164 111 94 75 150 155 133 77 60 84 174 87 86 54 136 145 115 158 119 99 119 124 82 161 139 120 126 94 156 162 185 194 132 177 108 150 123 174 151 193 188 101 116 156 117 76 75 155 62 161 143 195 192 204 203 190 164 97 136 88 88 78 115 150 142 118 88 93 167 167 176 117 176 136 174 134 109 144 76 68 146 67 74 141 85 133 98 166 112 165 180 154 182 146 157 115 187 183 85 81 38 36 56 74 148 203 148 121 196 190 119 113 100 144 143 165 167 131 205 103 175 86 127 173 76 72 78 98 115 89 149 155 137 122 173 112 149 85 93 102 160 154 113 185 205 128 142 160 118 181 124 204 170 128 131 145 114 106 158 114 95 186 177 138 155 123 176 159 182 98 113 61 56 117 60 58 73 145 171 104 118 196 89 75 72 142 104 101 100 152 148 125 214 127 183 88 153 72 99 80 106 67 60 71 87 202 151 140 121 118 123 81 88 85 120 169 133 80 75 91 62 158 156 103 120 118 189 217 198 208 109 149 134 43 73 132 132 137 134 191 143 127 144 89 71 69 109 115 146 53 68 122 144 98 163 135 134 83 158 122 131 161 88 47 138 148 134 92 131 109 85 126 174 80 164 172 115 86 123 141 96 255 160 75 90 178 101 101 142 199 87 67 146 56 142 64 156 123 111 122 93 88 138 102 116 99 104 120 195 201 160 184 115 174 137 180 95 170 80 130 95 80 148 118 147 94 161 148 89 142 62 145 95 148 117 80 97 131 135 139 142 121 164 114 145 133 96 84 122 113 128 110 96 75 138 145 160 192 120 128 112 193 180 108 180 123 179 78 87 81 75 69 167 75 116 128 70 108 127 183 115
139 138 142 148 160 155 152 153 155 156 151 143 157 156 162 172 181 185 170 176 171 167 184 193 200 184 173 153 164 181 191 195 181 172 179 204 217 218 201 200 196 194 174 193 177 182 169 189 176 214 213 199 190 205 192 212 157 143 162 151 96 100 78 90 161 189 126 198 160 116 134 126 107 119 83 127 78 63 126 107 86 60 91 127 86 89 82 93 68 76 85 87 108 115 136 90 97 95 114 125 94 97 138 130 124 67 96 68 91 99 160 156 96 156 74 71 58 70 80 122 96 107 126 105 175 189 95 144 104 101 180 105 77 157 172 119 76 153 83 126 57 63 106 72 152 154 162 166 61 101 148 68 171 145 92 148 177 78 116 114 155 106 146 183 173 107 132 125 151 197 151 139 138 101 167 144 118 81 69 91 169 134 168 194 150 181 173 184 105 163 167 125 157 79 61 152 80 189 91 100 78 92 159 85 81 121 101 166 126 150 149 152 160 108 138 133 170 115 147 123 107 146 149 93 168 120 167 128 177 166 73 94 79 50 71 85 102 170 102 191 144 183 81 83 58 133 63 91 198 186 176 85 160 143 92 165 74 179 188 192 104 153 83 181 185 162 172 166 108 94 155 120 128 194 165 149 120 136 213 208 200 102 164 136 124 179 120 189 148 134 172 208 100 175 152 136 100 198 100 185 97 170 71 70 98 60 80 113 132 97 205 210 140 146 165 126 95 171 177 192 125 165 159 214 142 109 96 102 73 158 169 116 117 59 107 92 170 136 191 148 255 91 85 182 180 121 136 189 100 169 138 76 100 139 169 165 203 212 160 231 213 98 159 104 94 66 149 96 88 120 147 189 172 152 154 75 137 143 97 128 149 131 119 146 82 120 177 104 80 130 156 105 133 65 66 117 122 157 171 132 92 163 89 94 80 96 153 83 168 181 194 129 143 82 109 73 144 88 158 159 170 94 61 137 78 72 102 75 74 89 188 174 130 158 76 143 169 162 96 137 205 107 142 200 118 189 192 95 169 165 86 163 134 73 84 94 133 134 131 143 153 106 48 99 53 143 62 151 161 214 210 165 122 115 132 143 73 162 136 70 122 83 139 93 159 80 112 176 131 115 189 143 98 115 103 103 181 79 82 121 178 105 69 88 160 176 82 111 63 62 174 113
148 144 144 146 158 155 159 154 152 154 145 152 152 168 172 179 191 194 180 177 171 186 195 189 199 187 173 164 163 176 184 190 176 164 178 197 204 212 201 196 189 183 195 185 208 174 189 194 196 200 174 161 170 184 181 212 187 173 151 166 132 133 92 159 125 183 147 153 194 177 154 201 113 118 112 129 73 71 130 91 83 133 112 125 91 139 143 93 70 78 84 92 130 101 145 107 113 74 128 92 94 124 124 134 100 76 63 68 129 168 119 183 114 84 61 123 55 130 129 98 96 148 110 174 139 187 128 123 102 196 163 178 126 141 182 178 87 116 151 51 141 56 66 160 159 156 74 137 136 151 133 77 112 130 209 127 191 188 186 182 109 188 196 154 162 164 171 127 121 194 165 167 108 104 164 136 149 101 47 131 110 176 108 188 102 187 136 168 73 103 135 107 60 129 114 169 177 89 185 120 118 108 78 79 89 175 91 90 161 148 87 62 95 167 81 82 166 122 160 155 171 166 113 120 88 103 127 183 92 175 56 101 131 103 155 114 157 152 165 108 116 117 74 139 91 50 84 84 191 202 157 137 160 190 153 197 93 148 124 173 174 84 171 137 181 120 184 103 151 66 158 118 174 143 205 206 193 114 157 176 129 192 185 97 114 105 179 91 170 192 162 207 125 123 171 121 90 174 132 109 91 142 114 150 185 105 72 79 136 139 154 156 144 106 103 83 84 91 125 126 102 101 105 119 204 142 92 75 116 103 167 155 68 130 145 83 190 120 111 146 99 85 163 98 183 175 102 94 145 137 178 106 148 60 88 175 196 204 217 212 107 94 106 172 103 135 134 95 129 172 105 164 168 168 80 63 112 104 145 150 144 106 141 115 171 141 255 125 82 169 108 211 145 172 84 121 145 94 153 130 79 156 168 91 146 166 131 156 197 126 194 103 184 129 109 82 118 139 81 166 170 89 55 51 77 72 82 153 103 111 137 127 89 100 118 93 74 181 91 175 99 115 180 198 120 112 139 124 193 79 90 157 167 165 166 88 185 179 181 134 52 59 121 88 41 140 108 152 101 131 206 172 115 89 136 141 105 122 255 144 70 74 140 106 185 86 72 141 89 196 211 211 168 87 135 120 85 83 91 144 128 120 140 91 70 139 93 108 85 140 70 86
140 138 139 145 154 159 161 151 143 148 157 151 165 171 175 180 195 190 182 176 191 191 189 173 176 183 176 167 167 167 181 179 169 166 177 190 196 193 188 183 178 188 197 207 194 209 194 191 168 150 134 138 187 172 163 170 160 178 255 117 136 104 95 159 165 186 136 199 177 178 135 193 120 117 149 80 127 118 108 85 92 102 85 81 168 101 98 72 105 61 66 101 96 88 114 100 92 119 108 84 91 128 101 115 98 75 85 82 96 109 135 187 126 159 72 69 69 144 105 172 103 153 179 104 193 100 107 89 93 94 180 151 193 188 188 104 140 122 158 122 140 55 97 138 142 174 92 159 68 148 173 97 204 122 137 233 198 193 107 186 106 143 101 196 182 105 158 163 152 107 140 209 180 160 122 153 63 144 130 135 161 173 127 169 155 84 165 153 122 106 49 47 132 168 103 111 112 163 127 179 173 129 94 90 138 171 126 80 73 135 162 71 169 78 116 138 110 149 159 106 165 154 158 168 73 132 163 84 110 173 149 59 39 67 130 172 123 156 108 122 92 89 175 83 78 54 146 174 101 112 152 201 115 207 160 114 110 191 142 80 172 175 182 91 92 164 111 168 64 89 85 170 191 147 113 181 138 200 122 189 120 158 107 75 168 101 142 77 150 119 187 145 106 74 81 156 169 84 173 139 164 97 185 202 154 99 150 255 135 108 132 134 214 140 158 90 178 181 92 162 193 94 94 177 131 144 179 130 143 170 190 126 158 158 64 123 178 111 177 172 134 133 134 87 90 171 85 184 177 144 85 106 69 76 67 119 127 194 139 169 166 88 130 130 94 168 126 167 157 141 72 79 126 155 66 162 106 171 162 74 128 162 188 131 129 179 125 101 109 158 113 202 98 161 106 95 164 167 117 106 120 78 158 147 91 88 181 147 114 157 112 167 75 69 154 166 144 172 84 169 97 106 151 72 93 171 117 145 147 143 105 172 109 193 171 121 118 159 167 141 120 187 112 196 104 112 133 151 109 183 119 131 161 152 174 109 131 93 157 74 147 123 119 107 117 126 88 152 80 155 100 170 152 171 179 91 101 84 157 59 121 124 114 198 178 153 87 65 75 142 182 162 134 83 95 167 127 91 171 204 118 133 182 138 78 105 87 93 150 88 82 182
132 133 138 148 158 164 159 151 151 153 164 163 159 155 181 191 198 180 192 188 186 189 176 170 160 175 169 163 172 172 175 171 163 166 176 180 181 184 186 189 172 187 190 197 187 178 203 178 153 173 168 165 170 168 150 175 142 157 153 134 109 99 139 79 90 177 146 185 113 179 115 184 182 109 135 106 67 132 154 131 104 106 147 88 112 98 89 98 68 60 53 80 60 65 77 68 67 79 85 137 81 81 91 113 79 108 119 113 101 116 109 112 113 92 158 80 83 76 88 128 88 115 153 113 171 115 125 81 106 82 194 111 134 107 163 133 159 107 95 85 81 98 175 104 177 180 134 173 157 88 127 197 216 221 215 196 159 222 194 189 89 76 183 130 122 96 102 86 175 150 200 158 171 164 166 162 127 55 150 156 82 93 173 122 80 99 113 49 41 137 42 59 114 163 192 98 137 105 81 144 181 89 156 167 70 137 94 78 128 169 118 101 153 184 106 92 141 153 76 94 94 146 86 119 85 147 145 88 124 130 64 140 144 62 86 178 191 177 203 99 143 86 112 90 75 72 152 160 180 122 174 149 201 221 124 145 178 169 116 72 77 115 161 130 178 82 167 65 144 102 92 93 118 104 186 122 104 92 109 111 154 161 111 164 116 158 85 108 135 192 119 179 131 55 86 141 140 68 103 165 85 117 110 143 116 174 97 88 178 203 115 182 147 136 157 127 71 122 167 103 86 138 149 134 147 187 195 131 170 162 206 165 91 123 74 71 89 156 121 133 61 139 95 78 168 95 167 93 151 82 107 104 151 71 65 163 145 152 139 155 121 93 114 125 182 122 171 72 154 107 131 145 123 100 92 124 90 192 125 151 175 111 193 129 129 132 194 172 111 99 182 142 163 160 150 88 113 81 132 136 86 92 96 105 101 152 182 123 213 213 117 167 135 123 165 91 180 80 113 101 151 82 173 166 91 92 190 199 107 111 210 136 211 210 202 176 165 101 156 109 86 177 181 177 155 175 196 204 100 145 159 76 169 97 96 93 119 182 175 130 47 29 115 100 112 23 128 66 108 155 124 160 99 187 183 191 185 84 169 159 109 116 180 189 156 142 87 81 145 96 178 125 87 163 120 78 165 90 111 145 148 176 164 156 159 154 132 77 103 84 110 141
128 131 134 140 154 161 158 146 148 151 157 155 150 145 167 178 181 187 179 169 174 163 172 157 150 162 178 181 177 175 166 169 167 167 175 174 173 169 180 179 177 177 174 163 165 179 198 178 193 160 152 158 156 117 148 184 160 145 122 150 114 122 86 133 107 172 111 170 153 171 143 143 177 184 178 154 110 152 123 109 127 145 102 90 82 103 103 105 126 80 78 94 112 86 109 75 113 128 96 91 79 92 61 95 74 65 84 111 110 104 125 101 98 96 88 131 84 93 87 113 97 109 160 150 106 104 94 145 62 123 94 184 174 183 129 205 156 206 196 163 93 179 154 94 184 162 95 120 171 91 194 127 170 208 214 212 196 171 187 187 84 105 165 91 192 107 127 179 176 112 195 163 206 133 92 89 107 59 157 80 153 149 130 172 171 79 162 97 149 139 49 114 65 180 160 164 115 96 107 167 86 119 138 65 159 134 108 110 79 135 139 185 170 127 100 181 77 100 106 96 118 138 131 168 104 78 86 156 113 142 153 83 129 82 175 185 144 204 207 189 130 180 143 98 127 130 143 160 173 102 198 111 157 211 134 203 196 156 92 107 120 119 146 162 145 87 143 90 64 161 95 125 166 131 139 124 88 123 137 91 158 84 172 148 99 151 162 99 101 128 117 74 86 125 117 71 95 158 131 180 87 137 118 106 184 96 80 100 111 158 107 102 182 192 100 81 71 103 159 79 159 83 85 132 108 101 104 202 125 157 180 107 95 147 67 163 106 102 128 154 51 141 61 82 101 86 178 107 182 135 146 92 155 166 98 154 156 85 77 99 54 155 167 151 79 134 118 79 80 117 134 155 84 137 63 83 155 109 138 204 203 126 154 197 116 174 149 197 132 127 126 156 144 97 172 74 164 159 164 164 105 94 160 96 187 158 163 131 177 114 135 110 140 141 62 98 175 79 173 120 82 164 96 170 134 99 108 158 155 171 179 205 218 222 131 139 195 182 171 170 123 76 84 122 197 152 188 131 183 86 94 79 70 72 101 169 163 197 133 135 117 92 110 121 62 35 35 39 90 138 184 141 131 120 187 160 182 94 138 102 74 133 180 132 146 172 78 151 164 78 93 86 113 169 84 82 164 128 143 169 117 120 98 76 81 120 98 111 173 120 187 134
129 131 132 134 142 154 151 149 148 154 156 147 134 146 145 154 157 175 158 165 168 159 166 158 158 165 181 189 190 182 175 170 173 167 178 177 177 173 166 165 178 161 173 170 178 178 186 202 173 187 145 124 113 131 123 185 187 179 133 154 133 134 144 128 122 87 132 169 96 183 157 156 148 196 133 173 113 85 115 163 159 121 128 96 76 80 127 83 81 85 79 131 70 71 75 83 104 107 98 91 65 88 51 100 60 69 83 127 88 97 97 121 102 92 112 87 76 81 152 94 98 91 161 115 181 98 158 105 141 103 95 126 190 100 116 121 110 198 199 168 200 103 185 84 151 158 166 128 85 158 130 169 109 114 178 107 107 145 165 129 164 81 116 138 117 130 153 168 116 178 129 212 123 137 157 79 131 157 141 82 137 170 89 74 172 112 75 120 120 77 59 135 110 168 136 93 79 99 126 101 94 157 167 127 112 110 82 117 148 94 183 113 174 144 194 136 82 144 137 118 125 87 152 120 167 167 164 153 127 68 82 110 179 190 195 198 200 105 189 154 103 95 86 117 177 68 68 85 105 168 178 180 126 181 157 186 94 151 119 132 135 86 108 106 113 130 159 165 123 169 111 77 115 78 140 136 93 73 150 79 173 145 171 126 100 177 176 83 109 91 101 119 43 130 51 39 121 145 89 178 100 139 175 116 103 75 65 104 101 207 108 116 150 180 88 116 131 160 140 114 84 166 107 158 98 135 196 116 227 231 188 123 128 58 144 101 140 75 68 60 107 95 93 71 95 150 109 104 185 158 163 149 84 168 156 107 170 70 148 137 66 108 108 128 151 70 59 45 103 138 139 140 97 82 154 82 171 110 198 209 122 207 204 98 92 126 180 93 97 183 74 78 110 108 131 140 159 94 126 176 117 162 92 143 113 95 138 94 184 185 166 55 33 104 131 63 72 101 102 82 93 109 115 200 180 161 106 101 136 170 127 184 126 227 216 182 191 187 171 129 116 77 140 98 196 163 100 96 139 174 163 137 88 61 98 186 109 188 86 158 133 120 83 119 78 137 70 56 121 159 134 134 94 182 138 103 113 118 165 93 170 167 178 96 161 105 140 150 150 153 96 177 111 106 173 95 101 184 93 153 201 173 163 67 88 138 169 129 121 153 200 182
121 124 128 128 135 146 160 163 158 144 136 136 131 144 138 150 162 159 170 171 169 177 173 166 156 163 183 197 205 195 186 178 177 178 184 184 184 175 170 167 173 176 168 183 190 178 192 218 213 200 178 148 111 158 168 174 154 157 187 161 108 100 151 96 124 136 78 159 105 178 147 161 145 179 164 118 141 169 150 128 132 120 107 83 68 72 62 71 83 93 144 119 108 64 115 91 87 89 96 110 102 54 66 65 86 94 84 127 87 104 167 107 142 142 91 81 111 112 104 86 82 123 85 179 103 186 91 71 102 118 83 102 84 100 173 196 139 199 212 116 210 130 189 113 75 117 143 127 172 164 173 80 147 165 166 165 185 127 166 94 137 178 110 172 88 176 124 189 195 111 119 183 218 208 130 153 89 120 87 85 79 137 132 160 106 84 91 172 137 165 156 66 137 95 67 170 130 184 114 125 168 91 160 167 71 133 142 159 78 130 140 173 188 172 141 78 152 87 130 51 142 154 176 83 105 141 112 142 98 85 57 145 195 142 198 169 198 108 130 140 117 124 95 174 82 84 86 156 168 154 182 86 168 155 143 115 143 177 92 88 128 77 115 135 112 95 110 170 122 93 165 137 80 54 72 134 94 91 156 142 159 88 171 255 119 155 92 85 104 83 72 78 141 90 62 63 55 156 135 87 107 94 152 76 67 79 92 84 171 158 124 124 115 173 100 77 150 134 118 170 143 87 108 102 255 98 119 131 174 134 217 131 153 120 90 104 131 162 84 162 155 73 75 126 193 133 214 206 118 187 111 179 181 119 99 150 86 159 151 73 145 171 167 58 141 45 53 126 113 147 145 81 137 172 127 171 176 149 118 122 196 136 129 192 93 164 104 88 95 178 164 129 67 176 169 177 165 141 98 136 140 103 175 77 167 86 129 173 81 119 175 142 133 124 76 115 163 101 89 144 109 162 117 111 167 103 93 90 129 105 156 107 189 120 142 159 154 200 186 175 182 95 141 208 197 186 162 122 198 142 88 157 149 58 78 179 139 101 83 161 136 59 52 131 129 76 149 108 131 133 154 152 165 111 193 196 154 143 197 101 102 162 143 99 78 114 122 144 152 141 129 81 176 160 132 132 88 107 84 131 195 105 178 148 79 69 138 116 112 107 183 112
108 117 126 133 140 152 169 178 173 151 145 135 146 133 146 139 155 153 162 174 174 174 181 164 163 180 198 209 214 204 190 182 185 189 194 194 186 177 169 169 176 191 190 208 207 204 193 218 220 189 188 170 125 150 115 182 174 182 130 184 135 148 147 179 95 100 77 77 149 152 200 142 209 158 108 120 82 118 141 127 138 150 163 72 74 74 126 67 87 143 100 84 76 84 64 62 90 101 119 99 114 63 62 62 87 103 107 99 123 100 142 165 123 96 139 102 93 96 89 77 74 159 74 85 168 91 161 81 159 140 119 147 125 128 96 198 166 191 160 113 204 137 182 164 170 152 162 150 164 132 92 153 181 87 149 144 83 194 146 133 101 137 134 153 126 153 99 173 124 193 164 153 210 126 132 131 113 96 162 136 153 177 153 158 90 114 87 138 102 163 130 59 66 144 71 87 179 101 125 105 137 185 94 176 146 73 170 74 124 168 173 178 120 175 174 142 126 76 64 128 120 173 178 83 91 78 108 114 146 88 151 159 178 211 135 110 190 99 169 97 89 99 178 129 182 157 159 129 175 183 180 120 165 175 171 103 132 188 189 155 150 143 99 127 91 170 111 171 148 86 79 61 57 135 81 154 80 171 134 139 114 184 159 106 170 107 88 184 88 113 162 88 64 103 61 163 141 70 73 114 89 98 87 65 128 127 60 120 142 162 131 134 129 171 67 161 132 66 86 73 173 87 160 97 134 180 179 221 133 163 130 101 94 86 102 121 56 156 79 154 80 75 172 178 127 160 162 126 209 195 150 104 193 96 152 83 136 60 110 133 101 182 156 130 99 69 162 150 87 112 68 151 138 177 94 148 156 151 151 134 127 158 202 204 184 158 171 159 102 91 93 84 108 96 153 165 158 159 95 66 80 81 123 63 97 135 149 67 89 87 143 65 127 147 123 90 80 83 104 148 185 187 206 190 119 86 88 192 114 186 99 110 159 204 195 123 129 112 112 130 180 142 138 226 143 219 136 198 113 192 94 157 134 103 164 85 157 109 93 125 155 142 71 83 118 114 148 98 78 137 113 101 171 178 126 164 207 206 116 160 99 180 143 148 156 101 125 56 153 80 89 76 181 95 139 87 142 70 99 105 99 120 123 57 113 58 86 126 119 194 142 141
101 115 131 143 146 158 176 177 179 162 151 158 149 143 145 141 163 173 169 180 186 187 179 187 179 191 210 222 217 203 190 183 189 193 192 189 184 171 168 167 179 183 200 219 186 199 207 204 201 196 164 164 150 144 162 150 140 165 196 140 175 127 184 181 98 110 140 111 170 137 215 157 152 170 148 106 89 174 120 119 119 104 148 127 85 119 59 72 116 94 87 80 85 99 69 61 131 255 110 121 127 81 71 77 87 98 106 110 104 117 104 156 100 124 101 103 125 112 110 82 60 65 63 74 155 174 133 124 119 172 109 128 114 106 159 102 196 106 204 201 181 97 167 86 144 154 134 90 151 167 75 165 127 175 161 164 185 104 196 134 189 167 175 142 178 185 169 162 199 112 152 196 140 197 179 114 156 102 149 158 138 182 171 95 114 173 115 172 116 83 98 83 49 144 155 124 191 123 160 190 210 205 106 112 182 83 173 117 168 114 105 166 161 82 111 143 167 97 162 139 151 94 85 183 174 165 185 101 118 139 163 94 186 111 196 127 199 181 191 191 162 86 158 113 138 178 79 165 113 170 167 185 182 180 161 141 138 134 124 139 109 149 157 95 171 96 86 86 152 149 120 61 128 132 90 115 112 105 149 80 154 149 103 121 154 169 96 155 138 137 167 153 150 148 131 121 86 61 57 117 92 82 173 164 150 155 74 184 158 142 177 112 88 100 159 63 162 71 79 109 86 74 76 103 132 117 163 170 162 191 119 197 89 109 107 135 65 166 93 167 178 143 112 148 184 124 131 127 163 125 180 205 182 79 77 54 135 79 105 97 115 102 185 179 163 123 118 105 80 162 126 97 157 159 106 90 177 138 172 178 95 118 112 138 96 178 93 122 180 164 187 179 183 177 134 181 162 74 142 145 158 112 55 130 149 75 76 94 68 132 90 69 125 96 94 125 188 90 90 98 93 139 177 153 186 86 170 130 175 102 192 100 169 181 143 161 172 114 155 139 223 232 232 203 162 155 171 128 133 174 182 122 118 157 167 102 103 189 135 145 97 129 144 79 113 183 93 87 109 54 127 109 109 179 93 168 149 181 94 104 153 145 135 126 107 57 114 135 106 56 87 157 91 176 106 137 68 115 162 111 91 108 134 157 100 66 125 180 101 138 108 174
106 124 143 156 156 155 160 162 170 160 155 167 154 155 145 146 164 166 189 186 205 201 204 194 201 211 214 216 213 196 176 177 183 193 189 190 182 176 180 184 193 212 221 219 190 188 188 172 179 145 187 158 186 177 169 124 144 140 142 130 172 128 172 120 167 92 108 149 157 132 164 172 209 167 165 98 135 161 166 129 169 124 100 98 55 56 92 79 82 110 152 112 65 68 56 66 80 141 104 130 148 122 79 106 132 126 114 147 113 118 154 158 117 105 115 115 127 161 84 152 145 56 97 80 89 76 85 119 124 93 112 114 134 183 122 198 108 139 102 111 76 105 66 144 57 59 149 145 171 78 143 168 170 160 172 138 192 174 130 201 179 159 134 110 94 102 154 138 170 101 177 101 184 116 92 88 152 158 93 103 178 129 195 191 173 76 87 85 77 116 57 113 115 158 93 160 142 180 134 207 205 105 150 174 163 172 99 104 165 103 176 116 89 69 167 172 180 151 130 164 152 82 115 156 102 147 200 102 136 94 171 155 189 162 195 149 145 208 199 115 187 140 170 176 136 178 107 91 191 147 149 179 91 80 139 143 73 98 114 166 92 149 199 113 175 189 96 114 128 140 78 152 76 179 145 145 110 170 185 117 179 101 89 96 173 137 131 83 88 105 162 69 62 149 78 127 95 60 145 98 81 86 79 136 137 82 173 192 113 141 165 207 183 112 94 91 162 171 181 105 80 148 119 114 175 149 103 135 128 137 150 108 93 181 172 158 94 73 99 90 150 123 115 202 117 110 116 110 163 129 137 128 189 117 54 43 133 69 125 167 143 117 184 183 175 170 169 169 169 176 129 97 135 91 64 162 77 178 163 177 99 179 181 180 178 86 130 162 109 192 192 115 186 180 137 169 78 160 111 108 149 103 110 134 64 88 116 63 73 161 142 159 174 169 176 175 173 187 116 153 186 99 140 105 178 92 153 133 139 116 185 108 190 136 136 93 194 131 199 201 217 212 170 186 149 149 119 103 197 148 147 117 88 90 72 119 78 178 89 174 75 99 110 164 132 182 181 170 90 157 130 175 126 163 184 94 93 112 93 88 94 173 140 152 82 94 96 127 84 97 107 82 93 128 108 168 66 60 73 73 139 151 170 122 90 75 117 188 182 87 182 130
118 134 152 163 160 152 153 151 147 154 160 158 162 152 157 164 179 188 193 199 200 200 201 204 217 209 211 215 204 192 172 173 173 180 180 178 178 178 196 203 213 213 218 208 191 179 181 148 167 162 181 193 192 168 146 169 177 177 183 148 110 143 121 171 131 146 116 157 156 149 205 198 204 141 179 103 116 162 173 172 106 93 84 77 135 74 83 83 101 108 103 87 82 67 54 103 80 94 99 100 95 101 78 85 107 103 100 138 102 118 107 163 102 103 120 147 158 110 117 83 96 144 129 80 130 149 84 103 98 100 156 131 223 122 207 100 87 180 141 179 164 145 116 142 52 155 155 85 180 159 165 163 121 71 164 116 148 210 206 179 193 96 168 143 135 158 176 123 166 161 126 169 85 83 76 74 143 149 117 90 153 171 214 129 126 149 47 128 44 131 103 83 164 122 187 105 172 115 156 103 98 93 124 141 65 99 131 115 118 78 84 74 168 110 144 86 177 177 78 97 73 174 186 143 142 124 120 201 120 181 109 114 158 186 210 218 125 104 156 149 105 191 111 194 101 102 146 184 101 178 193 142 93 81 81 131 146 130 94 158 175 99 104 108 149 118 149 164 92 96 70 143 91 108 189 204 153 158 145 168 121 134 152 100 125 117 123 72 167 169 79 73 149 135 76 171 141 72 62 161 139 176 82 92 72 94 86 113 198 124 198 180 163 119 93 121 122 206 115 116 142 172 146 156 116 87 88 185 101 111 165 139 128 136 104 168 110 70 77 182 194 202 195 106 108 147 165 116 130 202 208 175 93 87 127 112 78 70 161 141 103 171 184 107 83 161 76 68 106 87 148 162 133 154 108 65 115 113 152 116 183 155 152 158 195 142 118 166 126 194 192 123 123 112 179 94 165 102 72 133 65 147 141 94 170 164 164 140 76 146 140 113 187 139 155 102 189 180 114 87 94 109 169 146 120 144 180 89 139 176 149 164 166 176 78 169 93 170 163 175 184 165 135 207 127 131 101 184 184 196 154 157 177 88 111 155 78 68 166 136 178 160 186 163 156 189 179 73 148 120 168 130 144 189 108 121 176 145 91 179 94 94 167 93 177 196 144 125 178 84 154 137 85 122 158 81 145 78 79 138 93 106 111 174 140 147 144 80 89 79 161 99
126 140 153 158 156 152 151 149 145 143 137 143 141 142 152 174 179 180 193 194 195 213 221 212 222 225 214 208 208 192 174 168 168 175 176 177 182 194 210 222 225 212 198 182 169 181 164 159 178 162 167 168 202 162 136 187 176 177 142 140 171 156 98 160 104 165 153 99 135 187 190 133 176 119 114 100 164 86 88 94 95 92 90 117 103 117 89 131 108 151 108 115 135 121 84 79 84 110 95 88 123 98 77 77 119 111 119 91 108 108 125 120 104 117 115 137 168 164 109 82 138 129 75 85 123 168 116 121 188 150 209 121 185 128 104 97 94 185 139 172 105 77 142 81 59 74 140 110 143 174 96 79 165 169 133 105 195 185 179 107 156 136 159 156 117 183 167 121 128 148 76 78 142 158 141 157 148 73 153 92 105 194 168 118 128 73 110 66 95 90 156 113 197 151 160 168 143 121 112 114 177 96 72 113 137 88 75 121 159 144 114 170 176 148 185 157 182 175 89 140 86 150 190 191 212 128 190 142 87 84 126 101 97 118 127 197 147 188 163 165 119 141 116 209 127 104 183 185 114 186 98 189 89 125 159 54 105 140 48 99 126 173 160 185 124 126 120 81 81 91 124 170 195 214 191 133 195 106 138 96 102 131 136 126 165 77 94 70 122 84 74 87 168 91 94 151 61 84 79 94 79 174 71 75 116 108 178 117 141 113 148 80 96 144 94 104 174 143 227 180 108 115 169 132 118 158 92 180 186 96 164 92 167 203 145 129 174 134 76 180 160 107 116 128 174 182 167 97 175 167 212 149 180 161 157 150 132 69 148 100 137 83 85 164 155 110 121 154 131 127 176 176 114 84 73 162 168 163 176 156 142 122 185 199 125 116 163 160 172 132 176 156 156 188 168 179 96 161 123 112 138 119 164 136 148 158 163 96 168 106 179 164 196 158 150 133 181 101 175 112 103 201 191 177 120 69 95 84 133 139 132 112 131 138 142 129 148 97 195 189 126 149 200 109 151 103 171 83 95 196 198 104 166 97 70 125 106 158 76 78 113 194 188 203 128 109 118 142 157 169 162 179 163 183 165 108 114 150 134 132 83 149 125 172 93 194 216 136 109 194 145 179 111 160 106 69 134 126 142 87 85 93 196 101 155 144 77 82 164 147 85 142
129 137 146 154 152 161 162 152 144 136 127 133 141 162 175 184 201 187 185 188 187 202 204 214 212 220 203 211 202 183 178 165 171 170 178 176 182 200 216 226 231 207 195 182 179 181 155 176 148 186 203 206 180 194 152 174 165 164 199 161 127 170 134 165 146 127 125 125 94 174 172 172 174 175 131 126 151 86 73 71 80 125 135 123 156 164 100 97 135 107 110 106 87 96 57 96 109 109 111 96 114 86 82 88 85 129 118 106 92 113 155 93 87 95 101 187 143 121 146 113 86 84 161 161 91 75 154 167 148 158 206 115 147 124 117 183 195 116 99 172 161 143 117 138 171 94 174 196 186 170 171 169 170 111 92 178 171 192 182 90 166 156 135 161 97 178 147 157 131 176 151 65 85 170 170 127 114 143 136 154 129 98 207 201 176 117 93 40 146 73 184 136 113 189 164 124 87 146 112 111 152 69 60 110 128 66 103 100 114 86 162 90 98 98 140 108 86 160 150 98 194 161 142 161 213 212 111 187 164 171 86 159 198 146 166 133 169 165 127 166 101 163 175 195 196 181 180 84 103 185 189 170 194 173 75 156 74 146 50 74 113 94 130 184 82 149 113 116 152 150 167 128 106 184 108 159 98 155 78 144 111 170 145 161 173 150 75 124 155 158 75 176 116 151 155 70 156 70 137 69 71 129 152 138 143 178 106 117 116 119 78 69 79 175 108 124 161 185 131 225 166 161 99 100 91 75 172 111 95 91 78 92 102 121 189 171 96 95 153 97 155 107 180 170 154 140 113 165 103 114 187 128 89 86 143 179 96 132 101 167 165 184 161 112 153 108 255 124 170 202 126 207 95 163 137 142 106 114 172 153 140 161 207 112 148 133 115 157 181 167 186 116 177 107 194 185 195 140 95 88 173 95 137 175 105 134 168 158 81 81 111 151 201 121 177 120 78 104 109 114 200 167 99 104 70 153 157 91 101 84 69 164 79 168 156 92 97 79 187 202 201 109 96 87 91 123 136 108 85 183 164 111 90 163 165 158 106 158 70 160 192 203 117 202 124 147 148 77 165 89 187 139 162 193 105 186 99 168 105 105 103 93 127 155 89 138 117 204 144 144 131 146 160 121 79 60 91 46 75 75 72 173 102 149 182 119 165 157 66 82 84 101
127 131 137 146 150 156 164 162 159 140 137 146 143 156 171 192 200 188 170 174 161 159 168 193 200 200 198 196 192 185 175 166 167 178 179 181 185 199 217 228 219 203 179 173 161 174 183 164 178 151 161 150 158 180 187 178 163 176 148 140 160 158 127 97 101 92 99 129 153 82 171 181 181 150 143 130 75 76 129 125 80 159 146 142 98 120 116 93 138 128 101 91 101 59 50 91 83 97 133 112 129 86 92 113 93 108 87 120 132 135 100 89 125 81 95 100 116 108 181 94 124 104 177 97 100 151 99 154 163 82 99 194 185 177 119 82 136 91 112 175 171 61 130 168 175 209 122 112 156 169 116 82 137 146 77 180 134 178 137 168 153 75 95 159 139 157 134 172 196 91 146 162 167 107 123 115 139 94 78 155 106 89 191 161 85 101 146 137 64 120 193 200 183 122 173 169 171 131 147 93 175 79 146 156 144 80 140 133 153 139 73 156 89 166 191 188 78 156 98 136 109 189 114 143 199 110 108 156 172 122 95 119 184 122 173 153 161 143 169 106 140 210 224 184 203 141 163 82 164 138 155 149 189 106 175 159 73 159 103 167 110 188 120 153 61 66 146 126 126 84 95 112 192 157 130 168 97 173 67 149 58 65 104 145 73 157 85 92 165 131 113 112 83 90 98 103 92 113 157 60 91 137 113 155 90 154 141 111 127 90 130 87 161 82 101 186 182 185 109 200 218 214 105 170 79 158 79 79 73 162 146 74 99 200 164 134 147 91 101 189 140 194 108 160 150 181 165 190 176 136 148 118 125 165 180 202 145 125 108 184 118 184 168 201 98 88 91 119 142 143 132 222 141 158 148 183 154 107 148 150 188 221 164 211 203 183 187 90 128 134 93 162 185 189 199 176 202 168 108 79 115 159 140 113 128 165 135 135 136 130 98 155 196 155 99 158 87 169 176 107 179 130 106 107 142 86 114 67 164 140 59 153 156 82 147 112 66 173 182 98 146 166 156 138 126 65 164 158 104 148 84 174 126 116 149 158 106 66 163 153 198 152 211 141 117 124 98 130 116 97 169 114 204 119 127 113 87 108 113 175 111 91 94 114 89 107 166 208 142 98 166 65 59 54 133 99 92 100 148 68 78 171 98 131 118 159 72 65 73 157 78 88
125 127 132 142 149 150 157 169 168 164 161 158 166 163 168 185 184 195 183 161 146 140 150 159 166 186 188 175 177 160 161 160 160 171 184 185 178 192 208 210 211 198 179 155 174 186 184 175 146 126 147 125 154 148 161 200 178 171 176 121 157 139 174 176 130 114 137 138 142 95 175 108 120 118 115 95 87 71 126 103 60 116 87 95 140 145 95 81 85 117 102 79 94 49 44 57 111 99 107 113 132 144 109 138 144 121 124 86 80 78 102 69 65 65 67 81 84 106 149 154 111 125 102 117 184 183 85 101 61 152 127 103 176 165 148 89 165 100 83 186 173 105 85 138 148 150 151 199 190 88 178 179 154 131 144 189 192 210 172 188 137 80 131 141 186 188 184 118 152 174 138 99 174 195 164 159 162 91 155 82 175 86 167 170 91 123 149 110 84 161 103 203 195 94 92 117 107 100 87 112 120 159 149 180 165 104 58 67 64 89 169 98 120 100 185 98 146 144 151 85 111 168 169 151 181 115 158 108 136 159 156 92 102 187 165 77 154 154 100 129 164 116 172 177 101 88 102 94 166 164 178 178 173 179 145 85 83 161 85 182 133 165 126 175 76 96 77 85 167 144 166 94 136 176 102 173 147 162 96 144 104 103 138 87 166 255 162 163 186 115 169 175 95 115 141 144 85 122 117 68 69 66 152 92 148 121 120 182 92 145 117 105 173 81 155 77 131 129 87 170 181 140 205 91 93 73 71 166 128 137 157 69 120 140 112 210 121 99 111 92 149 133 177 85 155 85 181 159 200 127 131 121 149 114 192 207 138 160 168 171 202 190 203 189 139 100 91 139 160 117 215 210 156 145 160 159 110 153 192 115 217 142 228 209 110 185 136 111 196 137 190 177 163 102 192 190 129 111 186 83 158 82 191 124 208 187 181 158 131 162 132 131 177 173 124 179 90 104 156 97 166 97 163 163 135 76 91 164 171 156 60 138 133 137 164 87 171 177 177 147 148 182 185 94 157 115 84 112 139 166 165 153 74 69 68 128 166 112 152 127 182 192 173 150 103 125 182 99 137 158 141 170 202 106 99 180 143 107 186 158 94 93 88 163 184 94 200 190 132 161 67 99 79 85 138 85 121 131 181 166 90 115 130 140 174 96 117 75 99 144 81 107
122 124 127 133 139 142 152 159 162 164 164 173 160 154 160 160 187 179 186 160 158 140 255 136 148 166 181 168 152 149 138 149 160 177 183 186 184 183 181 200 197 184 159 149 171 178 170 149 138 113 128 98 114 164 182 144 182 132 107 111 146 142 160 138 165 92 73 99 103 96 172 127 122 189 154 88 115 94 125 74 90 83 95 135 99 92 66 43 97 40 72 42 53 41 42 67 77 94 139 103 143 109 122 125 140 106 112 128 90 83 88 94 46 48 102 75 111 93 146 108 174 110 183 124 103 114 85 63 65 127 158 91 76 142 68 157 166 142 86 191 140 108 175 177 109 108 108 172 130 82 81 95 182 194 150 162 144 168 210 149 99 180 122 170 137 186 164 178 176 139 105 175 97 133 139 184 107 151 80 160 181 156 158 149 59 147 80 166 120 120 150 208 199 91 123 105 96 126 99 113 198 182 185 164 168 85 164 130 143 112 97 84 151 102 205 131 130 156 74 136 173 132 72 67 96 179 106 143 182 170 104 125 98 106 161 165 137 128 85 176 197 205 159 131 185 152 83 73 151 81 163 81 172 124 87 138 189 172 168 155 169 139 173 176 158 161 87 143 117 83 67 106 180 155 124 107 175 118 119 82 81 73 87 125 108 79 86 123 109 175 91 97 138 85 112 127 96 104 150 150 90 96 102 96 116 121 151 117 173 101 73 157 81 99 106 79 60 138 74 146 112 130 187 138 131 105 82 66 158 72 146 81 137 125 194 172 124 156 169 163 100 111 117 191 97 92 94 79 149 111 219 165 130 143 188 199 173 184 221 193 208 113 156 200 126 152 93 103 107 201 202 151 173 118 97 152 93 78 176 187 144 173 147 123 190 115 101 184 198 200 203 109 136 197 186 112 123 136 197 127 161 84 107 189 168 201 179 151 124 182 127 140 116 123 189 127 139 93 83 165 173 167 161 191 123 174 124 98 186 93 73 157 78 122 94 195 114 139 171 166 111 176 85 171 85 137 164 175 137 181 177 180 135 155 98 87 106 144 147 161 161 172 181 186 142 170 130 144 141 177 88 152 137 173 140 197 95 105 165 161 178 106 99 124 169 196 139 158 112 140 155 87 113 148 78 81 93 100 187 120 158 185 133 93 99 132 176 114 71 109 179 108
125 126 127 126 125 128 137 144 161 167 175 171 171 153 146 150 166 175 181 166 168 159 148 144 162 177 178 171 147 141 138 146 159 178 187 190 181 181 184 179 191 187 171 164 174 159 171 134 111 120 100 135 118 155 121 142 147 169 117 179 191 128 126 113 165 163 127 86 110 154 101 135 133 193 152 171 92 84 70 124 49 40 66 89 123 72 58 64 36 93 85 90 43 61 50 105 110 128 101 94 94 96 99 129 92 75 78 60 84 86 61 97 56 60 63 78 96 98 91 88 90 178 133 193 112 138 100 156 80 100 92 87 79 71 156 151 150 86 157 104 126 94 102 94 173 113 173 117 169 152 126 166 188 179 158 197 189 204 150 213 160 181 174 188 192 185 158 132 113 118 175 173 107 190 204 190 104 174 183 161 100 154 119 111 77 173 107 123 174 155 166 118 154 98 164 168 163 102 203 109 148 124 198 126 110 77 167 126 157 88 115 146 182 198 115 209 108 134 144 84 85 177 151 144 133 112 107 147 77 106 160 123 150 91 80 97 150 59 160 91 108 210 191 212 192 122 157 127 166 144 134 129 80 151 71 168 163 175 188 156 202 201 159 91 152 162 142 114 144 79 135 165 120 100 177 81 127 161 79 113 81 118 113 108 111 123 168 127 173 99 182 79 70 155 80 176 115 190 177 111 70 94 104 106 112 118 104 186 138 99 72 127 156 177 174 74 60 151 94 169 118 174 167 179 96 161 65 146 71 76 99 97 146 173 134 94 175 166 123 80 74 118 153 172 106 187 166 153 164 178 197 187 212 128 118 199 206 183 145 187 210 203 133 172 210 202 150 169 149 102 179 122 148 102 170 154 151 123 180 167 130 227 133 204 180 106 179 108 208 147 182 179 155 171 103 193 126 157 180 166 159 149 112 176 190 185 157 142 195 150 155 83 105 148 197 117 163 133 141 172 139 198 205 149 191 109 142 175 165 98 97 119 130 88 191 171 181 199 89 87 165 73 83 157 79 127 170 113 163 199 193 116 111 126 76 181 134 127 131 129 155 113 179 121 162 101 156 168 163 170 86 135 207 218 173 185 156 160 126 159 94 191 145 153 105 114 197 165 115 197 95 73 149 152 131 154 198 182 221 124 122 92 86 92 171 101 118 99 87 102 100 126
132 132 127 122 123 122 131 137 142 147 155 157 158 147 136 136 147 162 172 158 164 164 154 170 172 180 178 177 158 142 135 150 167 185 193 201 189 186 174 179 170 172 172 169 168 168 170 155 150 111 135 163 128 162 160 167 140 174 143 185 152 116 148 142 140 107 138 142 96 148 124 134 127 112 101 163 95 121 150 68 41 46 69 69 68 76 86 84 36 33 36 97 60 56 58 85 76 73 84 99 110 112 137 100 90 110 75 93 98 99 72 71 88 130 121 80 110 78 79 150 111 116 102 172 130 165 87 65 158 89 90 154 102 79 172 171 91 128 158 203 199 106 201 196 175 187 120 77 182 159 183 159 162 184 205 124 168 213 175 194 173 114 166 180 126 173 173 100 158 112 98 81 124 101 162 168 198 113 136 157 177 133 88 125 110 103 186 166 217 232 203 154 199 116 95 171 151 111 130 172 169 192 148 137 140 171 90 86 138 108 174 131 105 99 189 187 105 85 155 180 178 91 174 159 109 150 74 145 90 81 82 164 76 148 68 62 56 150 156 90 187 208 166 131 186 102 194 89 173 66 157 104 151 167 66 86 132 175 156 179 189 94 151 102 150 126 115 125 67 143 155 146 96 130 91 90 161 99 71 112 147 122 75 169 76 78 175 127 89 130 96 94 77 151 104 96 98 116 169 118 84 97 126 180 131 103 113 90 74 158 91 70 76 94 138 169 147 79 130 187 126 110 154 116 132 123 155 153 167 167 133 86 177 133 102 174 80 80 164 86 144 93 119 168 204 116 55 70 125 112 159 204 209 136 128 255 189 166 192 150 174 212 222 158 220 201 133 149 124 190 164 108 172 183 117 127 157 185 165 115 212 187 150 161 82 127 184 193 124 192 197 175 147 150 195 211 204 183 135 75 85 134 158 173 189 195 184 184 90 172 137 136 150 95 197 160 119 179 177 154 148 191 127 195 211 116 95 95 107 202 195 174 149 77 182 186 210 196 161 168 178 95 82 72 69 139 89 161 115 130 163 196 135 115 98 186 151 113 76 113 89 80 130 87 189 184 94 87 187 110 186 153 205 125 157 138 149 177 96 150 108 150 140 103 128 111 199 169 203 185 147 160 160 181 190 199 135 121 133 136 158 137 166 74 84 78 158 96 135 135 184 174
133 130 124 120 117 125 128 124 124 132 141 153 151 157 135 147 140 143 152 171 162 173 169 182 176 196 182 185 157 155 156 163 177 194 204 207 198 194 172 168 171 168 160 153 165 160 155 140 146 126 172 183 156 148 166 147 161 171 199 158 170 102 88 155 124 147 129 104 129 137 150 125 131 186 149 100 106 127 80 83 45 101 61 42 87 94 63 52 51 46 82 80 78 89 126 60 74 84 131 108 128 97 124 118 120 111 70 117 67 69 79 128 104 152 92 133 156 77 150 122 81 158 128 103 86 155 62 149 155 93 114 144 106 125 174 86 182 112 208 207 120 158 148 169 206 186 166 182 98 142 108 100 168 173 175 204 162 164 148 193 188 146 119 117 92 86 130 90 84 90 128 133 84 138 93 109 175 136 140 178 198 203 101 162 197 179 199 160 217 141 209 202 203 176 192 109 140 160 128 149 143 101 128 159 83 86 175 131 95 95 72 71 91 164 177 143 196 110 130 106 137 146 172 101 69 110 131 117 98 151 160 172 119 68 115 55 106 153 64 172 187 136 168 148 177 149 124 90 175 69 143 161 141 175 157 68 156 63 138 77 169 156 165 69 93 149 151 67 115 137 120 79 88 136 172 151 137 151 87 106 115 73 100 155 67 128 122 99 142 115 172 118 87 72 125 90 107 136 172 94 94 152 128 161 109 146 101 171 172 148 69 68 85 100 104 171 125 97 123 183 157 102 170 95 86 150 73 67 123 82 147 183 156 115 194 116 128 89 160 156 131 91 111 118 193 175 100 45 42 100 166 107 142 193 189 155 153 177 174 109 137 122 205 204 193 211 108 158 146 174 193 160 185 111 188 125 129 126 181 166 107 177 159 182 156 94 96 116 127 124 138 141 139 91 107 165 212 193 84 119 148 59 109 102 120 101 178 116 142 116 84 74 158 128 177 209 151 184 75 146 185 165 200 148 179 183 186 188 164 164 144 184 137 75 184 120 170 186 155 141 182 166 140 144 160 145 161 181 138 201 170 189 87 128 106 144 190 161 134 82 85 101 99 161 152 181 133 181 140 181 146 184 128 195 195 199 103 97 189 161 202 154 168 135 156 128 192 146 196 115 174 119 89 89 91 186 155 119 189 128 148 98 162 73 81 84 110 152 201 128 84 79
124 119 112 113 116 120 129 135 124 123 124 140 145 149 153 137 135 145 154 166 163 160 176 172 174 190 191 187 173 167 161 171 186 200 219 220 216 198 180 161 164 154 158 141 165 170 148 153 180 148 161 186 197 156 158 119 168 192 140 175 150 98 98 92 170 163 155 105 107 126 133 176 169 94 130 121 97 124 154 105 72 60 86 57 53 94 61 98 81 119 87 80 152 109 80 70 71 101 127 138 109 130 103 128 77 92 99 130 147 108 138 106 89 162 140 144 98 82 144 147 157 125 81 78 92 143 64 126 93 135 118 94 81 137 76 169 182 155 151 180 255 232 226 216 200 92 96 182 189 183 121 184 86 136 161 131 193 186 142 88 147 73 175 179 178 155 78 130 150 168 87 159 115 92 157 169 106 110 125 185 163 215 207 111 207 130 223 218 124 108 103 192 163 162 142 150 175 189 178 92 132 95 109 133 122 83 168 128 157 183 162 113 89 67 82 90 178 154 140 136 177 167 124 179 149 56 48 121 31 59 133 121 106 171 162 68 97 67 156 169 167 188 149 135 112 99 188 184 163 144 152 105 139 169 168 78 91 167 143 143 169 69 134 85 123 126 112 89 169 169 128 166 141 76 118 72 94 169 191 175 138 57 60 83 53 142 98 134 140 118 164 90 125 156 123 147 209 201 192 169 192 158 109 112 119 118 193 188 133 96 86 114 122 164 155 172 129 125 109 120 200 143 165 97 100 161 71 169 81 185 193 122 168 191 198 109 102 90 86 144 137 146 173 100 192 76 114 79 58 86 153 179 109 204 170 78 74 175 158 204 142 145 223 232 169 215 134 133 140 209 124 123 155 152 176 167 141 173 182 182 188 102 136 128 107 119 127 109 116 191 172 185 191 102 160 158 106 118 151 146 123 66 62 146 118 173 129 66 152 66 91 103 174 172 157 159 200 90 98 164 87 177 174 158 113 112 183 102 168 111 93 181 80 134 99 166 112 112 174 93 93 100 138 130 158 124 90 178 123 188 165 114 176 86 78 138 192 128 114 121 118 141 127 117 109 98 123 163 114 144 106 172 189 108 104 96 94 151 97 197 127 133 184 171 109 172 118 188 97 108 139 153 69 71 173 109 101 159 199 123 158 113 90 91 99 82 178 139 93 95 80 65
112 104 98 100 113 130 141 142 131 124 124 131 145 154 156 141 145 155 167 164 161 160 166 160 172 177 177 164 166 164 153 166 178 194 219 226 215 197 167 165 164 164 162 161 167 151 179 171 200 192 181 187 175 182 164 162 178 175 148 117 85 141 138 99 151 155 81 82 156 146 112 166 106 93 132 119 130 101 168 72 55 105 28 71 44 61 93 86 75 114 105 152 100 145 117 110 92 146 116 175 154 108 92 99 106 127 130 136 136 96 94 106 115 80 138 84 112 143 89 107 158 70 127 118 91 71 167 135 90 135 184 96 181 124 57 65 108 155 131 240 245 153 144 198 195 189 111 181 179 116 197 172 153 95 175 129 172 95 86 134 65 91 159 118 164 104 136 154 157 106 166 123 94 99 165 168 112 185 121 151 209 200 154 111 203 255 213 172 137 145 183 166 145 132 130 112 181 89 114 77 170 104 141 184 167 155 163 155 192 187 151 74 141 132 71 168 94 94 197 137 182 117 198 102 170 133 112 33 117 110 76 81 95 149 135 82 161 76 141 126 156 176 113 139 123 130 167 90 164 72 65 154 109 91 91 149 87 145 112 102 107 168 68 128 120 65 149 110 175 93 182 147 150 100 100 157 166 187 119 173 152 57 104 80 147 91 109 87 81 123 162 74 87 125 178 222 214 202 110 114 103 116 108 203 120 125 201 113 148 152 105 113 132 194 121 149 174 201 193 141 121 147 105 94 66 93 64 161 167 148 145 223 146 186 139 204 151 168 184 76 132 151 143 182 129 158 108 158 128 172 141 169 127 178 179 94 101 155 163 150 187 128 160 144 180 172 139 137 160 213 172 229 184 171 163 123 91 154 181 136 97 122 176 164 156 143 157 184 190 174 194 119 107 141 200 99 150 89 157 85 136 126 156 98 157 85 161 94 158 172 178 184 143 107 158 89 104 113 149 160 138 84 187 203 138 110 161 113 73 81 175 182 151 158 187 136 168 85 129 136 147 90 92 57 62 113 179 108 171 171 82 136 91 65 160 155 184 115 189 92 62 71 129 93 101 166 195 195 195 143 102 152 111 115 182 103 178 172 161 134 213 130 183 117 153 116 99 97 96 116 81 81 90 165 78 172 194 184 127 155 125 109 110 103 142 79 127 178 135 133 84 84
115 105 94 105 123 141 157 164 159 147 129 129 139 155 146 151 170 172 167 165 162 151 165 156 150 152 146 149 150 142 145 145 159 177 206 217 210 192 172 153 150 157 160 172 177 188 192 217 224 222 176 199 154 140 170 170 149 163 155 140 152 141 139 109 76 104 93 118 168 125 139 149 158 84 116 148 131 122 128 78 108 44 41 102 115 81 56 53 51 125 85 103 163 108 122 95 102 118 159 144 136 133 91 79 86 100 127 163 122 99 122 130 89 70 65 67 67 157 83 94 83 70 62 139 116 163 104 162 82 86 134 99 168 147 124 68 85 197 221 216 244 224 224 136 155 97 177 176 137 190 160 147 82 151 172 151 174 184 169 64 129 88 85 93 120 85 120 151 144 138 147 149 113 83 142 107 165 155 195 134 174 107 176 141 188 166 181 128 179 76 143 74 164 77 87 106 160 72 66 99 86 100 160 99 183 255 194 138 105 93 86 95 62 69 136 165 176 180 95 171 144 172 100 122 80 66 116 47 255 125 84 97 136 136 201 164 108 127 66 161 70 165 157 84 109 165 107 130 164 106 142 145 76 123 137 127 109 180 183 170 137 174 131 151 151 116 151 169 166 185 184 109 165 158 139 150 92 122 207 134 92 140 79 112 138 162 71 171 72 90 126 172 162 117 202 203 160 132 206 140 197 197 98 159 145 152 126 111 120 174 110 118 179 131 106 135 116 190 182 90 174 99 143 167 86 68 78 144 180 128 174 211 156 123 179 196 140 89 174 124 136 65 103 117 104 115 85 101 76 169 121 188 101 192 173 173 90 97 174 195 208 213 160 216 192 127 161 202 203 192 184 221 218 127 92 166 91 91 108 111 145 116 186 114 157 146 151 112 163 119 185 91 167 103 142 107 163 127 168 62 69 56 64 64 160 77 146 153 105 90 104 159 151 106 180 79 104 96 148 102 88 77 76 86 180 182 81 69 110 78 152 174 200 179 156 199 134 148 135 77 167 93 130 66 64 75 169 164 102 170 174 70 140 148 99 158 121 172 133 83 72 72 82 170 112 144 191 163 188 191 161 190 141 114 131 149 184 110 165 123 188 186 109 95 154 97 181 83 81 175 164 177 172 115 167 100 193 181 119 129 192 194 145 181 81 120 131 87 168 87 59 44
122 115 107 119 136 160 176 186 180 167 141 141 140 156 168 162 165 182 177 176 171 156 153 156 143 133 133 130 134 130 127 131 145 168 189 206 196 181 161 147 150 168 175 187 188 206 209 228 232 224 198 195 172 170 181 167 178 117 160 128 87 148 89 118 112 164 114 112 179 102 139 96 104 115 134 169 161 152 138 93 125 60 119 72 133 126 112 51 111 87 67 112 103 109 98 109 131 134 169 144 120 121 95 80 78 80 112 129 120 95 87 104 112 90 98 62 69 87 97 97 109 132 76 147 72 76 73 134 164 70 87 160 114 177 163 112 92 138 173 171 174 200 155 198 163 110 177 175 177 84 178 143 184 142 84 184 176 168 144 148 47 82 90 170 109 137 114 114 160 145 130 159 147 92 158 147 96 195 116 144 101 174 174 169 130 81 136 134 83 73 162 145 64 138 122 72 163 158 77 138 131 174 194 176 86 103 179 201 195 184 91 78 125 144 74 169 172 87 143 155 173 92 185 121 93 138 67 144 135 98 115 167 186 196 204 100 80 156 55 127 161 173 170 76 67 156 143 148 139 58 88 148 84 94 149 202 113 208 114 209 186 83 163 105 154 66 114 124 146 125 125 110 180 77 81 75 154 165 117 196 148 131 148 170 133 129 75 133 151 153 79 177 121 186 117 177 189 205 194 127 113 155 185 103 110 124 177 161 101 186 111 98 183 106 115 94 79 87 171 87 90 172 79 153 114 71 80 72 87 104 104 197 109 102 97 151 103 98 169 59 76 47 153 180 100 102 174 164 98 77 157 93 108 134 159 82 132 180 100 115 210 131 174 144 134 140 183 169 153 189 214 149 124 195 95 83 146 133 174 188 150 115 92 167 81 56 79 93 127 157 71 88 160 104 144 121 171 179 180 91 96 106 152 59 68 162 82 89 93 194 141 124 151 193 165 102 164 142 82 153 134 88 66 69 104 91 147 68 103 80 175 166 212 220 156 189 159 95 162 144 137 116 159 119 77 159 106 85 135 106 180 167 95 149 143 65 80 148 121 180 157 182 126 165 107 93 153 92 93 117 114 97 104 118 198 123 145 132 208 119 204 191 110 178 167 192 149 154 102 111 105 176 165 82 179 100 164 218 159 211 146 104 109 102 80 86 121 132 164 71 73 44
130 128 131 143 159 178 186 182 180 163 150 132 154 159 171 168 176 181 188 189 179 177 160 156 137 123 127 131 133 131 129 126 145 164 184 193 190 174 152 147 138 167 183 177 187 203 215 181 211 193 183 196 158 184 197 146 143 123 107 117 158 157 156 102 89 103 168 138 178 123 119 103 138 174 180 103 187 142 188 163 114 75 151 132 105 152 107 81 53 66 118 135 115 106 151 99 122 128 119 115 103 115 101 84 81 112 80 108 95 82 132 120 92 98 152 75 65 105 141 97 85 73 141 73 64 81 120 71 153 60 60 174 145 144 166 139 175 87 186 195 200 191 170 201 158 103 174 79 138 79 170 169 186 179 185 167 88 138 164 150 96 122 136 161 112 175 120 140 103 178 171 132 138 68 69 173 174 130 139 140 109 147 178 151 112 109 138 156 85 141 117 84 157 127 156 255 120 132 125 158 142 178 168 185 125 104 110 178 133 170 124 73 133 90 70 167 82 163 180 98 170 173 83 120 165 55 102 76 69 70 70 105 136 149 184 104 154 73 49 140 139 177 173 81 73 70 77 145 140 104 118 83 172 127 193 192 192 193 189 109 184 139 76 84 162 164 116 113 120 115 131 99 145 151 111 139 111 142 123 104 170 98 121 181 146 128 76 161 71 78 77 87 126 176 108 193 133 98 176 170 134 95 87 94 84 99 85 91 116 113 92 114 166 131 101 115 93 129 159 83 100 83 77 176 173 180 82 103 178 147 92 91 91 178 84 130 83 148 89 71 141 63 158 178 108 198 170 126 109 91 74 177 85 171 97 115 160 163 183 153 151 200 143 173 88 89 105 158 119 193 208 166 202 178 98 142 163 114 101 129 166 153 103 102 164 141 107 145 110 123 70 161 158 187 121 209 123 113 156 181 203 169 69 116 56 64 82 96 116 115 193 201 197 185 89 58 122 86 134 158 82 112 137 116 96 166 167 83 113 89 183 206 200 203 109 136 61 64 150 81 61 96 68 167 96 147 153 148 179 166 167 104 159 112 152 133 156 152 80 154 174 186 136 130 87 175 111 80 167 171 191 103 145 124 215 214 129 133 114 167 132 116 87 194 152 121 134 77 88 168 153 167 154 160 161 108 168 145 138 116 98 95 98 184 113 137 171 178 146 92 56 88
127 134 145 162 178 181 180 177 167 145 139 148 159 166 182 186 191 190 188 190 187 175 171 144 138 128 137 140 148 147 145 150 161 171 182 185 177 159 155 142 157 167 182 179 199 185 201 159 155 159 186 156 165 173 183 144 146 148 151 110 84 152 156 102 114 108 114 130 170 91 76 149 92 180 110 122 147 158 142 142 131 91 119 117 147 149 95 136 120 68 89 156 113 142 105 99 96 142 130 111 111 102 85 122 94 87 111 74 79 80 84 96 90 143 83 98 65 142 96 131 81 62 64 127 73 125 73 67 51 92 62 92 163 151 60 150 145 100 81 80 183 159 153 93 104 97 166 145 117 165 173 96 133 178 167 157 91 178 107 117 128 152 134 147 177 184 177 170 184 105 139 141 111 128 158 138 205 120 216 117 99 139 171 165 67 102 106 167 107 72 72 161 122 154 121 167 112 136 113 84 156 166 110 120 174 114 151 177 165 130 54 90 111 111 151 86 127 82 160 93 163 119 154 169 70 156 71 77 154 129 85 170 88 115 151 189 82 74 71 79 66 173 176 116 166 151 87 151 79 90 161 74 160 185 103 148 202 107 177 155 168 144 183 143 80 168 101 138 179 94 134 86 137 94 94 109 120 128 116 134 184 90 146 166 145 173 169 75 163 165 83 87 133 180 152 177 177 85 77 177 153 83 83 87 115 173 89 121 93 180 160 95 83 81 142 94 164 119 170 138 84 150 156 131 84 152 167 190 115 122 109 121 163 108 141 121 129 75 68 47 67 83 98 180 189 122 87 96 76 148 151 68 89 86 133 156 120 85 79 122 106 98 190 178 108 158 158 127 106 185 204 110 116 128 185 177 84 173 144 102 160 142 152 179 100 131 71 82 101 110 66 159 96 188 171 195 209 119 205 179 173 193 118 142 133 75 139 95 255 131 126 182 119 86 137 149 59 74 123 167 170 80 75 87 172 114 154 189 171 136 255 178 163 214 103 109 80 147 124 48 98 91 78 81 65 58 148 155 91 115 117 167 127 164 147 121 153 104 117 130 101 187 137 161 143 94 169 89 143 160 194 170 215 173 204 164 105 175 178 72 97 162 92 111 121 174 105 95 165 161 154 133 67 167 163 155 220 217 207 167 147 86 85 136 123 158 194 171 111 175 106 148
124 137 156 176 182 184 177 162 150 146 142 146 159 167 172 183 180 195 186 186 187 193 179 165 152 152 158 151 164 166 175 178 181 173 176 176 175 168 163 163 157 168 177 180 170 185 151 151 163 135 151 164 197 176 182 163 144 160 167 141 142 124 128 108 173 120 115 117 162 128 117 125 147 128 168 196 134 200 157 161 161 101 117 168 118 158 124 82 81 146 104 154 147 157 106 101 93 114 101 99 139 131 120 110 101 81 120 76 100 81 126 100 162 87 81 93 85 60 62 60 58 59 143 118 90 83 83 106 147 117 132 111 114 78 55 51 142 48 120 61 157 119 163 92 189 185 116 105 173 169 151 168 130 182 139 153 122 114 166 122 138 57 128 95 102 170 116 113 125 174 110 141 153 75 160 119 163 211 169 111 114 184 158 79 111 123 151 74 151 130 138 162 131 75 138 180 178 168 66 142 133 108 195 113 128 130 108 79 108 44 64 87 75 132 115 72 142 168 80 83 159 128 163 185 119 81 74 84 175 255 172 162 95 183 180 135 175 142 169 169 166 154 180 180 170 139 67 154 71 151 183 187 190 131 108 108 203 104 114 205 205 202 130 122 179 179 120 120 144 122 157 150 136 112 102 163 115 185 118 156 113 66 73 126 160 151 96 97 74 76 99 84 167 166 92 159 135 99 173 137 168 114 187 158 143 157 109 110 201 210 110 154 69 98 74 141 117 107 88 161 145 105 146 175 120 162 98 106 191 106 177 152 176 172 103 95 147 127 144 51 55 92 163 94 128 189 171 148 133 117 64 107 67 86 78 109 164 131 151 80 163 77 75 155 112 81 103 109 114 89 199 198 194 184 151 128 178 180 105 164 105 73 140 90 157 97 126 53 55 130 70 138 94 187 196 190 189 207 192 213 120 131 176 59 81 151 162 166 89 158 106 170 176 79 163 78 121 58 160 80 140 139 175 90 181 177 137 130 211 195 178 173 185 180 98 114 154 148 145 83 111 113 74 153 129 127 74 127 72 161 213 192 176 140 74 117 46 124 69 163 167 166 153 160 88 106 168 168 170 185 108 204 188 156 210 123 188 162 87 99 113 111 85 99 138 160 184 180 87 174 126 90 100 160 143 188 135 204 104 187 118 83 141 180 136 160 196 126 140 86 78 171
122 137 157 175 186 189 178 167 146 144 146 159 164 183 188 189 181 192 180 191 199 185 178 158 168 174 174 170 176 174 189 190 185 174 166 169 168 164 175 164 169 168 166 148 155 151 162 122 133 136 168 142 192 155 199 197 145 138 153 85 76 124 82 124 119 112 130 99 127 112 127 77 84 153 149 134 135 142 207 117 97 151 88 117 132 104 136 99 124 164 120 130 122 120 99 96 101 125 107 115 102 117 108 90 85 78 82 91 104 134 121 128 117 105 63 53 122 57 92 139 72 87 106 161 110 96 80 59 82 106 90 91 163 164 57 137 49 145 141 136 167 173 178 167 160 167 162 82 149 87 172 106 133 86 108 79 124 98 88 128 141 50 69 125 99 160 179 105 172 105 83 146 150 71 73 167 134 130 204 201 107 173 171 166 56 88 102 142 89 149 79 160 128 177 82 126 182 155 142 60 165 141 138 89 184 136 120 100 117 105 48 113 86 84 129 155 163 127 163 105 82 99 199 142 140 186 140 155 157 189 156 121 95 82 84 169 95 174 114 140 121 165 169 154 124 103 178 89 101 180 196 171 193 120 133 170 116 109 201 191 203 116 206 149 160 157 172 175 164 143 180 106 96 142 187 162 94 110 161 74 100 65 123 143 57 67 134 72 119 95 108 143 80 71 81 152 69 154 91 144 96 180 182 118 137 183 129 112 128 148 120 140 79 107 157 113 154 86 183 138 136 180 89 181 174 92 189 147 89 122 154 71 168 118 178 94 135 105 80 142 75 129 81 79 162 154 79 145 93 127 143 59 97 70 150 104 71 78 64 160 79 146 159 138 146 172 159 162 100 90 168 164 186 174 93 172 117 128 165 84 166 124 120 128 81 150 108 122 107 139 72 103 165 119 107 81 167 162 197 177 187 174 87 141 150 149 120 178 90 103 163 78 102 141 127 81 89 100 81 91 151 171 179 120 105 176 120 193 187 223 228 214 189 192 141 173 159 155 124 84 131 145 120 70 76 52 48 142 162 181 124 135 181 105 168 58 138 138 86 87 154 147 182 78 154 167 147 112 135 152 150 166 222 222 171 184 153 138 103 134 105 118 154 123 106 149 164 110 126 152 122 97 158 134 200 201 192 94 90 116 79 168 76 133 192 127 177 176 104 125 138 111
119 132 151 172 183 184 186 176 154 148 146 158 155 173 169 179 182 191 178 202 203 184 173 169 163 171 176 178 182 186 194 190 176 167 161 162 168 176 177 175 172 164 144 150 149 155 133 147 125 163 161 180 175 195 193 191 172 165 106 135 84 79 116 94 171 115 154 171 93 107 71 108 155 96 105 124 198 161 187 138 163 89 89 84 167 162 92 121 89 142 148 117 130 139 106 131 83 109 97 133 139 129 92 107 87 84 109 77 67 124 102 133 113 81 59 57 85 100 84 66 69 160 88 172 94 82 64 150 96 55 68 76 91 175 134 72 165 153 57 131 105 255 130 176 155 94 83 161 162 87 166 190 169 96 94 153 176 93 146 156 151 62 72 91 147 132 168 158 125 95 166 110 142 67 56 133 169 163 200 192 178 172 133 153 148 149 58 157 96 76 154 75 140 147 79 174 167 100 87 121 129 134 175 170 95 156 82 173 79 98 108 81 74 91 173 128 73 161 91 109 74 118 125 207 205 116 110 192 123 185 145 162 80 84 160 169 92 169 153 179 138 121 162 171 186 183 125 185 132 148 117 209 116 204 206 104 119 122 113 131 192 146 190 96 122 140 174 156 150 78 167 105 100 115 122 151 124 115 105 72 137 157 102 57 45 113 42 59 63 131 121 81 144 84 111 133 96 79 105 128 115 144 156 117 96 104 100 144 118 215 187 89 79 160 107 99 96 130 103 113 171 177 153 91 104 103 182 119 145 142 82 67 164 94 112 98 115 74 70 92 107 179 183 184 186 184 174 57 87 38 123 151 75 63 109 52 57 156 106 155 148 109 148 172 137 144 122 172 180 122 134 190 96 144 169 128 151 113 160 93 175 163 93 147 113 112 57 54 139 104 74 155 132 178 129 104 77 117 133 150 97 125 153 125 81 56 66 145 165 101 103 94 140 114 95 127 120 185 160 140 187 173 208 110 145 92 90 104 157 168 190 156 197 189 166 178 181 97 196 110 121 204 197 176 147 155 103 143 160 116 143 146 210 101 91 82 70 54 125 131 148 185 153 131 102 157 113 129 134 188 204 159 130 130 151 89 172 72 140 41 120 91 130 201 108 117 155 106 136 165 126 174 163 189 130 149 180 175 179 137 109 181 85 123 134 122 203 110 139 150 191 121
114 123 137 154 174 181 185 182 165 149 141 147 143 154 170 180 180 181 186 191 179 180 170 167 174 174 175 179 181 189 187 179 166 167 166 165 172 172 172 170 165 150 152 153 154 132 161 161 166 133 153 185 188 178 157 121 118 131 117 120 77 86 134 85 101 129 115 121 166 139 83 110 136 94 129 183 121 165 191 170 149 146 100 82 147 163 157 111 96 95 124 136 121 121 111 133 130 111 96 121 145 95 99 81 84 101 94 62 73 125 100 173 163 81 67 65 83 88 90 85 162 94 111 163 88 165 137 67 48 101 168 85 162 124 90 89 139 83 72 165 173 84 172 123 162 149 156 140 149 86 129 158 103 70 165 114 84 106 167 108 151 138 107 86 100 116 71 140 99 149 121 109 134 42 57 147 169 163 98 168 90 146 178 82 166 131 146 134 87 151 173 112 147 109 173 186 101 151 141 60 140 57 155 122 164 190 95 96 159 63 146 133 169 154 78 146 89 156 97 63 73 136 166 147 147 111 110 143 133 164 86 77 159 182 184 179 152 140 105 101 168 143 77 184 108 153 125 199 188 104 143 171 196 102 194 142 144 178 175 113 164 87 130 157 70 78 72 95 140 123 113 162 78 172 74 175 159 152 64 159 127 119 140 168 68 141 71 59 91 180 86 84 79 105 121 71 71 161 132 101 181 139 181 90 193 118 145 112 139 125 106 88 86 119 85 109 124 161 162 103 147 181 120 99 141 162 83 175 175 154 93 66 162 188 98 92 184 158 85 180 93 161 95 189 132 93 167 163 55 48 55 94 63 98 108 61 105 64 166 168 155 168 166 149 88 128 98 120 91 185 181 95 111 170 137 162 170 136 187 97 166 91 184 176 77 142 98 54 57 109 136 173 194 107 148 138 133 136 169 76 74 164 163 74 134 143 57 166 76 163 62 151 90 151 194 117 127 212 177 197 124 156 110 124 159 122 179 189 128 179 105 115 157 131 176 187 118 123 191 227 136 222 203 128 100 162 160 61 102 155 127 214 170 150 175 173 152 105 145 108 188 89 77 156 161 123 172 96 149 97 208 151 188 187 184 83 121 129 120 109 79 148 164 148 180 195 124 211 100 131 123 161 135 122 125 198 152 136 148 104 143 103 103 203 118 203 129 166 133 105 188 129
102 108 119 140 161 177 179 169 158 146 133 134 127 133 150 166 168 170 184 183 161 166 149 166 166 173 181 175 185 175 174 166 166 169 173 171 165 159 164 162 168 171 171 165 146 154 167 170 168 135 166 188 184 194 176 118 131 152 88 134 124 101 127 140 133 123 142 113 84 164 90 114 77 109 79 104 116 132 100 100 100 74 134 115 121 107 99 89 110 83 150 113 100 153 150 96 104 83 98 133 112 90 77 102 87 99 91 94 74 83 146 129 115 83 92 139 103 95 173 165 147 108 84 96 111 71 58 46 126 94 69 99 184 93 192 95 153 174 165 171 143 133 148 64 56 135 137 91 151 83 101 184 133 88 113 114 106 148 113 143 69 121 149 150 167 116 146 166 157 125 153 179 118 134 82 87 129 159 186 174 156 181 103 143 184 171 173 161 168 164 87 167 64 156 85 181 126 78 60 94 49 138 69 83 177 183 203 104 176 85 96 145 117 138 167 85 150 85 113 73 155 155 138 213 136 188 179 175 188 93 126 74 98 116 115 192 194 148 106 192 155 85 106 127 215 213 118 101 101 148 183 191 188 180 97 160 88 79 169 141 92 140 57 64 62 127 76 128 115 99 102 111 114 120 72 159 93 116 159 131 90 203 123 177 138 94 71 112 181 97 103 192 127 154 70 107 69 70 74 101 122 81 170 86 171 142 193 110 186 110 156 92 79 120 131 101 107 116 95 102 179 141 198 89 149 93 132 187 175 131 131 170 143 165 94 88 175 140 94 197 103 149 191 193 147 176 137 169 123 59 89 152 106 106 58 69 74 150 154 105 86 182 146 180 170 180 91 139 145 160 133 88 76 174 123 69 143 129 163 182 175 127 100 139 171 134 131 111 120 125 75 180 162 101 157 157 62 96 103 118 80 64 65 81 135 53 57 90 155 68 60 154 168 185 105 202 114 152 193 175 104 185 88 90 114 172 122 155 153 185 186 104 96 124 182 191 134 208 151 167 232 169 160 113 140 176 73 68 97 180 124 149 172 156 174 95 150 98 162 161 180 110 152 86 73 131 77 129 137 189 168 150 200 154 157 161 149 85 88 118 84 129 82 155 127 202 164 180 101 157 76 153 108 105 104 187 86 94 188 201 133 167 155 149 129 190 194 195 197 195 194 133
95 100 113 127 150 165 167 161 147 138 126 122 120 130 147 166 172 176 169 173 148 149 147 167 183 178 182 174 180 165 158 154 157 171 179 179 171 159 158 152 178 186 185 173 179 146 155 149 146 168 184 194 164 161 185 158 131 126 134 101 129 136 132 140 151 84 100 158 118 154 133 180 120 95 89 102 101 97 159 140 80 104 91 86 87 137 92 87 134 82 111 130 149 129 173 118 123 106 115 117 133 98 97 123 119 97 82 67 74 88 113 101 115 101 113 77 76 84 107 101 86 106 129 90 84 86 89 255 48 152 165 177 180 117 187 182 100 167 94 81 80 118 139 55 59 148 94 141 167 138 135 86 122 67 71 114 136 155 113 166 118 83 134 160 159 95 85 99 121 158 144 163 132 115 109 135 114 113 159 160 198 142 105 198 93 186 173 126 95 90 167 99 127 65 88 172 97 86 142 65 105 94 128 163 126 110 113 160 105 166 89 156 84 154 133 167 85 154 156 168 187 197 160 208 122 153 83 179 143 92 110 152 78 96 123 181 193 119 116 214 194 104 193 103 134 211 145 139 150 160 133 120 137 177 146 164 147 105 153 158 162 94 146 41 113 123 42 71 153 97 87 109 91 153 84 164 98 132 142 103 194 162 153 106 154 105 96 87 192 208 115 105 144 168 87 153 112 48 62 55 68 77 118 116 178 120 104 128 119 113 134 133 80 172 80 89 111 152 76 113 209 144 193 97 168 100 180 158 204 172 122 101 158 154 97 155 125 119 112 157 97 150 90 102 186 100 147 127 145 88 151 58 81 135 155 99 166 107 188 109 105 198 137 203 127 165 111 161 95 79 163 70 255 92 168 161 144 93 103 134 121 120 183 183 162 138 71 163 66 125 109 181 183 184 86 78 170 170 74 168 157 121 120 63 145 145 125 75 161 92 152 145 92 183 141 163 118 105 195 105 133 165 106 181 109 111 93 173 105 168 143 100 196 199 106 89 132 118 211 172 130 150 192 132 106 84 81 165 81 154 138 102 119 116 173 176 101 136 115 168 140 161 138 171 175 80 160 97 179 166 125 182 160 131 172 99 131 79 70 107 99 53 103 75 158 163 140 210 107 107 91 143 159 184 115 151 85 130 177 161 105 146 116 138 117 98 89 130 132 111 126 99
90 99 116 129 143 151 152 147 136 120 118 117 106 133 144 154 146 155 153 149 149 137 131 159 178 185 186 181 176 159 152 146 150 161 172 175 167 149 156 164 181 189 200 184 189 174 163 156 152 155 147 153 164 160 182 178 154 98 136 77 87 76 96 108 138 151 106 117 103 172 165 165 140 72 133 85 165 129 131 108 111 151 138 94 116 115 90 95 115 125 130 143 113 159 172 128 118 137 108 137 142 132 118 95 108 96 118 110 73 125 86 156 78 129 62 139 130 123 118 111 95 82 78 117 81 134 143 109 54 93 150 255 93 107 94 157 126 156 90 173 180 122 64 68 133 147 108 104 70 116 181 169 141 111 150 155 163 72 103 169 107 70 88 159 151 123 153 97 172 136 139 114 167 159 100 168 148 150 149 171 112 136 191 142 185 86 82 162 112 129 163 142 122 146 78 171 69 142 71 72 136 144 83 98 200 202 113 181 86 140 158 116 99 126 139 117 170 121 93 186 124 173 219 121 115 116 188 106 147 164 154 156 155 151 84 182 185 116 206 164 216 198 181 106 191 130 162 170 101 152 81 178 177 83 133 102 67 132 102 124 114 146 107 73 84 112 106 62 80 133 104 111 171 124 100 118 141 152 131 78 94 130 157 186 145 177 142 109 164 153 146 111 148 124 60 69 51 111 38 91 66 128 93 119 120 101 101 109 201 136 152 190 135 79 83 158 70 76 144 184 194 200 106 105 124 134 174 98 127 168 185 129 89 135 73 145 60 110 99 170 157 122 180 140 160 100 152 107 186 84 94 113 121 141 136 65 138 103 104 199 172 122 146 194 199 152 103 99 180 135 84 161 174 118 137 86 172 170 141 86 146 194 135 91 131 83 144 111 134 170 146 142 141 199 113 166 163 184 92 87 126 148 109 59 145 151 163 123 170 169 75 144 161 85 149 153 170 96 128 176 163 144 175 179 164 163 106 116 173 136 161 126 151 125 186 172 101 83 100 205 134 148 185 167 183 84 91 85 95 147 188 146 182 150 190 133 92 149 76 88 99 134 107 149 128 178 162 147 110 186 174 188 115 196 94 145 110 104 116 164 108 120 78 55 128 138 198 201 95 175 95 179 184 157 115 123 155 104 135 105 169 121 191 181 189 156 148 194 110 130 103 176
92 105 124 139 145 147 142 144 129 122 124 124 127 129 137 145 143 145 144 149 151 137 137 143 169 175 175 176 182 166 156 151 148 151 162 166 160 147 157 158 165 190 191 194 175 166 120 131 157 148 175 158 157 182 179 133 126 151 146 140 76 76 97 106 152 125 155 173 161 120 183 106 100 119 103 77 128 81 145 99 108 157 99 116 99 89 80 135 78 83 111 102 142 168 160 132 119 165 136 148 135 117 118 139 145 99 109 121 98 116 145 72 93 78 57 133 158 100 101 153 99 79 75 146 85 74 101 142 62 60 161 86 146 99 91 169 165 94 168 182 180 189 86 81 168 159 176 155 134 168 178 179 78 79 71 161 165 129 131 144 168 112 160 158 76 102 105 67 173 172 187 118 166 168 165 80 104 104 124 170 145 124 121 179 175 132 184 136 137 158 108 56 160 160 153 161 72 101 61 85 99 118 113 94 162 203 150 164 124 191 149 147 63 160 79 111 201 183 126 165 209 209 228 216 161 105 190 100 90 180 171 160 78 144 77 177 182 166 193 110 129 195 96 167 88 181 157 174 79 139 172 81 79 124 152 81 134 76 144 165 178 173 144 46 119 120 69 102 139 178 117 145 133 97 160 146 156 86 113 120 86 125 194 106 97 94 92 91 163 210 155 113 171 145 133 150 55 126 119 47 108 152 93 164 82 90 202 130 205 135 179 91 102 182 127 114 71 143 100 75 174 121 184 174 110 88 95 127 109 109 164 88 87 165 74 143 75 135 126 119 172 179 145 96 153 186 136 135 201 130 97 112 84 146 146 61 153 133 102 162 179 140 125 192 202 184 180 162 127 114 152 88 132 177 109 120 110 81 129 168 87 153 100 81 74 146 132 66 164 136 175 142 205 154 158 100 181 151 93 92 172 134 149 95 70 106 172 109 102 170 72 168 163 90 117 97 167 160 165 88 151 120 98 153 154 166 146 127 122 132 169 117 153 151 89 157 158 78 123 179 159 128 128 93 141 100 151 129 87 151 120 195 108 172 122 149 78 86 171 145 134 176 177 188 152 135 178 170 180 179 199 153 211 209 99 90 114 149 127 131 147 126 129 42 138 85 133 132 162 94 130 180 98 103 92 148 159 122 70 153 145 158 161 185 97 137 179 179 101 93 86 96
93 108 128 143 148 148 138 134 133 131 123 133 130 134 134 129 126 136 150 159 148 146 145 139 149 156 157 176 191 189 182 166 151 146 144 154 155 157 150 161 170 171 187 188 176 150 129 126 116 149 163 179 161 182 177 179 145 144 144 115 145 153 112 84 151 138 153 158 189 194 126 126 115 149 120 100 119 141 138 124 65 140 110 102 166 159 105 85 102 86 113 148 156 140 181 189 130 173 174 134 133 159 107 110 115 88 112 92 143 102 94 72 79 57 62 71 84 104 114 91 128 152 75 119 90 68 68 138 62 68 115 79 174 182 178 92 118 78 97 158 198 149 153 190 164 170 171 158 163 164 116 146 106 171 71 120 168 179 181 151 179 80 147 133 147 128 155 118 138 174 113 151 99 174 107 172 177 132 202 173 173 190 182 180 147 184 138 115 101 145 143 88 80 94 165 74 76 131 124 166 145 106 181 152 215 223 130 133 111 126 184 88 162 130 118 112 184 144 199 181 199 197 154 180 144 129 189 192 91 137 177 138 126 161 112 151 167 126 178 193 202 101 137 177 126 176 90 80 171 89 82 85 123 171 68 62 153 123 173 186 138 140 166 62 119 70 162 74 131 138 109 92 144 158 172 134 108 67 50 59 78 129 102 193 183 174 83 109 131 188 114 155 180 86 144 108 72 112 47 106 167 173 121 85 82 124 103 207 215 118 102 108 190 101 105 89 179 166 166 164 100 185 157 93 123 87 174 128 114 140 174 170 171 96 160 108 175 136 108 173 119 112 172 148 100 139 150 115 160 123 102 184 98 122 127 57 150 161 194 110 162 214 125 191 153 137 164 95 148 120 134 188 163 103 185 133 141 132 67 138 84 90 185 115 87 146 143 106 162 120 190 190 193 165 190 119 153 143 114 178 97 132 78 58 103 116 149 150 108 165 67 72 72 105 88 96 113 85 151 111 80 141 137 166 169 78 95 139 122 114 172 117 104 65 134 129 72 100 153 194 198 146 105 156 170 124 75 127 164 103 177 94 186 183 179 174 176 101 156 179 151 190 187 179 166 182 128 151 104 128 181 157 116 177 175 112 116 81 180 96 119 80 36 37 145 98 111 88 90 101 202 186 164 170 139 165 82 170 98 157 111 80 137 193 109 174 182 187 89 135 162 63
99 110 128 143 151 155 146 141 137 134 131 139 126 126 119 122 121 124 137 159 169 155 148 148 144 132 156 172 195 205 197 184 163 152 147 154 156 161 161 171 165 163 179 181 161 163 138 149 152 145 141 166 126 180 138 183 136 166 126 117 98 137 110 153 110 139 115 173 147 176 123 140 109 71 141 83 148 121 87 71 106 113 160 102 102 93 80 75 130 111 91 104 118 143 134 142 129 123 118 118 109 122 110 112 73 77 78 92 100 107 114 122 64 58 103 76 154 111 137 93 88 82 89 75 83 118 82 87 180 83 105 147 84 147 82 147 124 185 116 197 122 209 167 189 173 175 118 106 119 152 183 177 143 168 95 169 181 176 127 188 182 149 105 172 156 161 120 171 168 107 182 174 181 131 89 159 175 188 156 179 111 158 187 106 108 101 161 97 167 156 56 54 55 164 159 141 121 174 181 89 167 137 151 105 142 138 210 193 122 101 144 141 130 126 156 180 99 155 117 147 147 200 205 192 132 151 177 90 179 95 98 92 174 174 84 165 162 63 155 170 188 151 180 84 167 162 95 114 185 153 96 130 151 93 85 71 168 124 161 190 196 138 77 132 113 179 157 134 89 107 139 179 184 187 94 158 118 75 99 114 160 177 176 121 145 77 81 82 162 96 114 130 170 106 90 86 150 60 102 157 105 169 82 57 55 118 108 154 126 122 130 183 162 138 94 186 101 103 78 108 172 151 109 186 116 99 179 102 105 164 119 153 140 75 93 186 112 111 154 161 169 178 136 177 197 142 121 214 141 154 198 87 169 74 154 159 107 98 175 187 172 140 152 180 106 165 170 180 200 182 197 98 118 108 140 175 139 83 67 88 77 154 141 126 136 80 109 135 84 180 97 96 185 169 157 128 93 98 110 80 78 137 148 79 179 124 198 141 99 95 74 154 168 110 137 144 159 101 71 129 114 161 79 87 180 74 80 162 97 219 190 194 89 75 141 95 178 102 194 180 159 141 136 175 116 168 92 155 149 146 143 174 116 98 96 123 154 157 154 109 180 181 191 193 109 100 101 139 121 157 123 143 178 123 170 96 128 194 125 181 71 71 43 48 63 80 69 121 171 147 182 145 105 157 168 155 95 109 74 97 83 145 76 87 94 89 111 136 86 74 78 123
102 107 121 140 158 166 158 159 152 135 138 136 132 129 135 111 112 122 141 170 183 174 163 149 147 143 148 172 186 202 208 193 177 163 155 160 169 175 180 183 169 176 163 183 181 151 160 140 157 161 121 145 165 163 191 190 168 123 120 173 171 150 105 117 172 140 145 128 163 119 97 126 157 124 85 136 112 148 139 58 55 71 85 91 93 148 85 131 103 82 90 117 122 140 134 130 124 129 121 111 99 100 92 61 59 50 68 120 108 101 121 83 105 62 72 74 87 167 166 103 108 88 89 133 106 191 199 203 197 95 85 71 164 70 117 75 78 111 159 150 175 204 102 121 167 78 149 176 183 161 150 181 141 152 86 157 155 181 185 156 174 188 213 151 143 115 159 124 150 159 187 123 95 154 146 145 141 94 179 181 125 100 195 167 191 103 130 137 95 162 162 154 117 95 79 155 155 160 156 112 94 175 105 96 145 131 216 215 172 185 127 91 99 168 172 147 168 104 118 126 164 201 216 205 119 83 178 153 159 166 195 188 129 108 83 93 143 129 158 77 124 137 174 98 94 73 174 180 164 169 193 171 92 139 143 81 118 177 192 149 169 130 87 98 185 164 162 199 164 114 187 173 141 192 181 176 143 144 58 142 69 92 195 141 170 144 165 82 184 138 145 111 122 193 136 106 98 74 132 76 102 83 155 52 50 112 163 131 123 201 115 176 127 159 157 115 84 135 133 90 166 133 177 188 96 156 142 189 129 130 74 71 151 82 83 97 176 114 109 102 100 158 153 108 208 213 129 132 122 118 94 154 162 59 118 141 129 93 184 93 138 181 146 171 110 107 110 168 195 149 106 151 169 145 161 64 58 83 46 132 159 162 199 164 113 160 71 73 73 142 88 183 120 191 89 80 162 86 102 100 112 75 152 174 145 138 190 137 136 109 116 93 77 169 173 90 125 156 77 147 133 100 84 81 161 134 152 150 186 205 175 255 80 136 67 149 139 138 194 159 158 148 108 197 187 125 158 118 111 109 142 150 79 110 135 131 132 191 179 164 165 88 95 104 153 97 97 187 202 160 160 186 111 122 156 174 168 166 163 150 141 159 85 158 87 78 139 149 150 131 181 153 192 137 123 137 176 173 89 135 58 63 114 167 154 122 82 98 70 84 97 85
104 105 115 255 154 170 170 168 161 141 130 137 130 138 135 113 109 131 139 157 184 183 184 181 170 164 156 175 190 207 211 204 192 183 181 180 183 187 178 192 187 183 175 174 184 181 154 162 153 133 136 161 168 182 192 156 152 173 135 175 170 104 121 167 165 166 103 177 120 152 159 99 166 118 97 103 96 128 132 61 52 59 108 81 68 99 141 112 144 149 99 125 110 128 120 112 102 105 87 86 69 76 51 78 65 51 76 76 122 131 114 97 83 84 84 109 81 88 96 173 95 126 102 198 116 162 152 217 112 129 86 101 73 78 118 134 144 169 132 88 106 179 181 132 140 55 155 148 151 183 180 164 140 105 94 128 130 176 188 189 207 204 194 217 198 205 119 182 164 176 139 176 166 110 119 175 122 158 114 173 199 176 201 201 152 153 129 142 173 117 159 78 138 158 146 136 111 133 169 155 174 95 173 182 113 210 215 155 190 79 83 80 75 80 112 161 186 188 156 180 163 156 187 120 178 88 134 189 125 106 164 98 91 140 86 147 92 158 160 80 181 162 83 90 153 171 139 187 139 111 192 201 118 105 142 166 78 191 172 119 207 191 96 120 189 156 164 113 195 151 182 157 182 148 139 94 92 50 139 148 157 85 111 108 112 76 173 115 87 182 82 119 153 168 192 159 140 118 60 158 107 83 84 75 76 85 115 110 130 175 119 120 175 200 143 104 111 177 123 111 71 165 77 93 116 193 92 132 167 70 105 148 138 175 186 184 106 103 192 184 143 191 187 106 122 122 160 224 210 151 93 161 129 120 90 160 135 93 175 180 154 128 116 76 151 141 159 169 185 115 205 133 181 105 91 70 146 140 126 96 170 154 191 209 139 140 87 185 172 93 161 106 153 97 114 85 140 108 64 166 167 61 82 148 123 138 205 169 181 73 100 77 169 117 177 179 82 168 121 98 135 103 71 109 166 77 88 147 102 154 219 157 72 138 121 126 111 179 131 188 89 168 142 152 91 120 145 151 88 76 78 141 115 134 140 121 147 190 112 178 106 159 92 82 171 176 106 201 198 181 129 122 167 74 115 128 135 143 164 181 161 183 141 74 107 125 107 71 86 104 118 180 172 117 76 169 178 184 114 125 55 132 146 56 93 135 140 61 103 140 148 98
104 103 106 122 146 165 174 179 170 153 145 137 129 129 126 106 117 134 147 172 183 202 204 200 195 170 177 176 196 211 218 214 204 198 198 196 197 199 197 192 192 188 168 191 187 178 161 166 164 161 169 140 132 179 187 133 184 190 182 132 125 137 145 134 114 171 160 134 96 145 144 127 168 100 102 140 123 117 90 79 78 77 74 54 56 58 74 92 104 146 105 108 103 102 139 105 101 80 75 113 61 84 52 85 67 54 71 84 141 91 135 95 129 131 89 72 84 130 149 117 117 150 104 117 162 225 143 162 111 163 88 88 84 183 90 136 72 74 141 69 78 79 72 137 38 40 57 175 105 191 179 148 136 140 139 129 159 117 175 124 203 111 188 210 198 152 197 174 99 138 104 172 106 128 155 183 163 145 158 105 162 104 163 193 99 138 95 164 181 123 167 88 136 151 174 196 147 108 145 140 128 161 67 163 170 121 123 120 70 133 46 151 72 171 97 95 169 113 128 154 162 123 207 201 163 103 196 131 133 107 205 127 162 163 113 75 158 87 150 116 185 139 119 92 136 175 176 185 106 140 112 148 197 144 157 162 135 149 127 132 217 212 149 114 185 142 147 113 191 93 128 188 181 182 165 167 122 139 65 152 69 92 95 97 126 183 102 147 101 174 94 120 138 152 190 118 139 158 154 105 77 133 150 156 94 63 58 82 79 171 105 193 133 105 174 80 133 102 163 158 65 64 63 87 151 116 140 180 160 83 92 145 138 81 140 112 165 134 139 163 109 135 83 90 100 161 188 175 123 102 164 67 53 40 137 133 72 145 173 160 178 80 64 86 158 113 110 153 136 207 186 153 93 107 57 109 123 129 78 143 94 150 202 210 167 124 182 133 138 176 75 103 134 132 159 120 169 154 128 156 111 84 85 84 178 215 142 123 193 186 174 95 151 122 182 182 194 134 77 147 161 169 111 192 188 82 160 184 113 148 115 108 108 106 43 130 158 109 107 148 86 118 80 174 80 70 72 64 151 82 123 113 158 117 164 96 101 195 106 167 130 74 85 72 166 70 86 125 158 184 150 106 168 81 136 94 156 136 122 151 113 109 112 255 123 101 135 57 157 115 118 200 143 150 145 147 85 105 107 102 130 117 120 99 120 85 114 86 93 113 145 119
113 107 102 107 127 151 170 183 179 169 165 148 132 122 113 98 110 130 149 173 181 212 218 208 208 191 186 187 187 211 218 211 210 204 205 213 205 198 199 191 198 196 182 193 163 185 174 173 175 172 182 178 157 171 165 166 166 175 144 126 124 151 173 159 171 108 107 85 141 144 152 158 114 182 177 100 146 166 109 101 127 57 120 51 69 103 137 118 122 109 108 107 111 91 96 123 87 76 88 80 53 85 71 89 87 75 75 98 78 140 112 90 151 87 136 151 118 139 113 104 110 121 86 104 141 187 191 115 201 116 116 180 164 184 179 186 175 167 146 160 155 110 137 66 41 44 56 150 123 167 170 71 127 92 87 143 104 131 197 203 148 199 118 142 221 201 144 196 255 177 143 177 171 118 154 108 135 158 122 115 187 126 139 184 129 174 134 132 135 158 170 120 75 177 186 161 205 123 145 171 134 146 56 114 106 179 181 124 59 119 129 61 86 121 179 165 185 143 169 157 196 126 204 124 206 198 185 132 93 198 199 173 84 159 169 182 159 92 91 187 94 175 163 193 143 186 118 98 98 192 184 117 119 178 188 121 167 177 207 217 222 201 102 160 168 80 89 87 140 108 149 130 175 188 204 152 98 92 149 96 174 159 121 141 162 95 98 140 141 155 157 100 181 83 91 89 83 86 75 156 161 63 58 130 106 125 54 90 54 108 167 197 106 188 116 96 130 153 59 57 127 121 135 156 157 187 120 117 71 101 117 83 132 86 180 150 113 108 77 98 161 70 71 174 134 184 191 143 112 178 187 74 140 37 129 70 154 78 120 183 174 116 56 151 97 70 74 162 105 116 113 171 139 163 119 92 160 107 113 89 90 129 104 136 137 206 186 215 164 124 179 183 108 198 152 112 122 103 95 100 182 153 91 90 169 183 168 205 117 144 89 97 78 165 184 108 145 196 117 94 181 172 115 192 114 105 99 107 120 185 108 85 104 78 79 157 117 159 160 166 183 185 106 100 126 172 164 139 70 158 152 68 74 104 135 134 168 153 162 92 136 137 96 160 113 65 143 100 95 173 114 131 162 186 99 144 163 169 189 162 97 107 149 136 83 124 86 63 73 113 192 101 118 177 97 101 125 124 133 162 165 124 156 98 167 122 66 156 59 156 74 164
123 113 101 100 113 143 169 185 193 185 173 161 132 103 102 97 105 130 147 176 189 197 200 205 204 187 190 191 198 209 213 203 208 207 210 216 207 203 199 195 199 192 195 187 190 180 179 187 193 156 190 182 161 164 161 128 158 178 129 177 164 169 180 156 149 164 143 130 152 136 128 103 152 170 107 171 135 120 106 117 92 82 64 62 119 141 112 138 147 108 96 141 104 114 140 86 84 118 67 81 93 70 102 76 78 78 80 78 75 122 77 89 179 105 118 114 165 137 130 122 255 91 146 107 185 164 102 100 169 190 140 106 91 99 196 196 181 127 168 162 166 79 67 56 77 49 150 161 173 158 172 125 167 168 125 85 162 157 98 207 118 157 103 198 163 186 202 172 180 131 114 172 168 144 178 130 179 179 170 149 128 187 175 157 82 112 125 111 135 173 159 167 134 133 138 142 118 129 96 162 44 63 115 118 72 175 160 147 114 44 109 107 153 96 176 78 86 168 160 206 185 114 175 207 181 161 90 163 87 185 95 181 156 69 176 165 120 94 191 189 97 190 188 106 138 171 161 191 188 186 130 84 92 136 110 192 190 190 133 132 186 204 182 164 162 167 166 109 144 164 125 141 182 116 134 190 99 117 81 88 80 100 104 177 184 176 171 161 155 163 178 87 104 141 90 78 134 82 166 94 113 66 106 46 143 138 54 66 92 141 167 138 187 141 86 159 104 125 49 133 72 91 62 128 139 102 107 197 90 107 79 131 158 178 113 168 113 75 83 67 105 146 74 99 86 110 166 186 203 115 125 118 137 76 126 101 52 85 178 129 73 137 49 110 122 62 141 154 174 94 190 102 130 78 76 79 140 104 175 142 171 112 141 108 198 120 161 150 204 112 89 144 105 150 130 162 168 99 107 107 152 93 86 168 116 152 156 159 102 181 87 131 93 187 114 120 153 115 101 130 129 111 199 171 156 189 97 130 123 178 194 93 73 65 144 72 92 131 158 163 118 128 122 102 95 115 86 99 99 82 146 46 112 56 151 65 143 174 120 94 134 147 170 167 147 115 105 162 182 149 155 155 150 140 183 99 182 104 99 163 87 107 64 132 143 69 69 160 153 167 86 81 77 141 161 74 124 66 127 83 129 142 131 105 96 176 72 125 137 172 170 113
129 117 101 100 112 134 164 178 188 196 179 166 143 116 112 109 124 128 137 158 174 184 183 199 178 186 189 193 189 206 206 204 203 206 219 218 211 198 198 187 195 190 195 200 206 217 198 196 193 192 185 176 182 148 178 169 129 175 150 175 121 165 108 155 110 93 158 77 145 81 98 130 118 163 139 157 162 182 109 94 160 94 82 80 83 89 144 117 90 107 136 103 93 109 115 90 92 78 80 71 115 96 104 88 100 113 125 82 88 97 82 124 173 153 104 151 117 125 190 198 177 149 88 145 84 163 117 127 93 129 190 89 169 183 104 103 135 90 183 122 170 139 169 124 64 103 162 170 170 162 99 180 186 176 186 175 146 124 121 147 119 129 190 111 174 204 203 112 189 122 130 107 129 155 111 143 99 145 157 157 186 107 167 169 96 175 178 100 184 119 135 70 141 163 132 158 102 95 123 140 74 141 47 71 104 92 116 178 81 84 115 108 145 144 71 149 100 105 134 158 126 213 195 132 144 122 138 75 151 172 150 170 146 68 103 110 105 172 168 166 121 90 178 162 135 133 124 116 153 143 129 109 148 174 179 191 158 141 190 204 181 123 142 61 157 152 178 126 174 74 157 147 105 162 160 154 155 73 136 119 137 118 90 121 187 191 188 150 197 163 91 123 82 127 68 106 73 88 83 171 124 85 50 76 58 52 138 72 141 95 88 119 95 180 175 101 63 104 82 73 103 140 94 154 124 143 199 112 142 131 147 168 99 139 84 137 80 103 184 142 71 72 74 134 108 154 98 115 214 129 115 179 127 56 110 46 51 94 119 149 79 82 133 87 59 161 134 109 162 155 165 144 171 158 160 150 175 92 175 165 89 100 110 121 180 83 150 105 107 195 187 116 103 153 192 107 98 194 151 167 166 151 106 191 105 100 185 135 130 98 120 178 89 167 114 121 185 96 92 91 144 166 111 103 188 91 150 187 218 149 111 137 162 168 169 119 141 169 155 178 151 210 158 155 148 174 81 77 105 83 107 36 81 50 101 129 154 166 145 174 92 132 82 152 124 160 118 103 166 192 147 153 173 161 198 121 104 118 164 124 93 176 87 150 93 160 171 183 121 100 175 81 72 112 142 80 57 110 171 179 196 202 197 144 103 141 154 103 113 110 148 80
120 255 99 101 118 130 153 173 174 182 172 168 162 142 124 136 140 135 144 157 172 180 184 170 170 175 187 197 200 207 202 198 202 204 212 207 190 181 187 184 193 191 183 173 215 224 203 183 185 168 157 159 176 163 178 177 126 163 113 171 168 133 165 96 96 119 113 143 108 92 59 111 137 159 136 181 104 131 155 95 97 132 123 97 93 89 93 103 79 146 127 101 132 96 72 71 107 87 104 107 96 91 81 74 70 83 131 78 87 110 82 115 133 135 103 84 90 127 171 124 115 117 179 79 76 83 80 127 94 193 190 100 180 194 105 101 183 96 113 151 148 91 80 78 76 169 173 154 76 164 163 134 89 136 169 79 159 63 117 119 115 143 152 190 183 145 208 169 178 143 164 150 185 153 90 130 145 185 186 182 114 93 123 165 162 73 177 104 119 129 133 128 151 113 170 181 163 131 133 77 143 105 79 99 118 98 92 165 145 158 122 59 121 90 118 117 91 193 136 204 125 179 116 124 133 104 147 158 96 85 88 158 66 123 104 197 136 101 85 175 89 161 163 71 129 192 208 209 198 187 95 94 163 162 81 92 84 135 103 186 123 124 124 108 117 82 110 166 179 175 121 127 145 147 153 169 153 158 135 132 114 111 106 75 80 113 126 110 200 169 94 114 91 174 112 105 91 168 185 120 97 58 104 59 127 88 99 150 114 174 197 128 199 202 128 163 83 84 123 80 164 118 72 164 92 105 190 212 135 124 131 83 128 137 101 75 112 96 184 116 134 58 149 57 96 83 191 209 124 155 164 105 126 161 104 108 132 72 99 136 85 74 110 162 156 173 84 103 140 105 121 152 170 145 145 95 174 125 173 97 123 149 170 121 170 141 144 106 88 104 135 180 161 190 133 183 127 196 186 167 81 129 73 116 106 183 122 134 93 76 168 92 165 99 168 89 77 177 145 103 108 146 150 91 90 161 193 112 145 159 78 125 153 165 122 122 159 67 165 136 104 164 120 186 186 150 169 138 168 73 133 67 39 53 116 44 64 68 84 159 111 181 125 74 102 162 107 88 139 143 136 197 164 188 110 188 111 170 168 120 183 134 80 175 89 142 90 149 185 162 91 171 113 86 120 150 123 100 159 96 120 122 120 185 120 131 169 92 137 95 100 99
116 107 102 109 118 133 145 162 172 167 169 188 189 171 166 157 156 158 163 151 167 160 158 175 169 175 180 192 201 206 204 201 200 198 191 182 178 174 178 172 186 177 161 184 195 212 199 178 158 133 129 131 187 183 179 188 143 172 143 111 136 153 105 118 135 71 255 135 136 58 53 95 255 97 100 151 147 94 127 135 167 124 137 140 95 128 92 139 80 89 100 105 97 128 71 71 73 136 96 103 122 90 93 96 89 73 67 75 91 92 122 131 125 145 136 126 100 103 108 116 137 187 106 90 85 77 72 113 144 96 97 96 132 152 107 176 192 200 151 211 211 189 183 176 179 86 179 186 120 170 183 157 158 186 172 102 140 95 56 67 184 183 143 160 116 178 182 184 221 188 136 155 182 180 178 86 135 113 152 155 107 173 135 158 108 136 92 171 183 99 165 168 84 162 86 161 149 157 78 116 76 91 117 120 91 92 178 130 167 75 72 85 130 160 73 88 124 93 196 201 194 218 135 111 128 157 105 176 176 177 173 77 139 89 87 194 113 137 131 72 129 90 129 151 164 105 126 183 190 165 148 168 168 154 62 82 140 162 85 138 72 157 64 126 166 100 142 132 163 168 128 174 83 134 75 91 65 95 145 85 133 142 81 151 94 98 120 121 158 93 92 166 179 140 79 57 63 98 148 122 110 69 103 87 157 73 142 182 127 135 203 143 154 141 119 109 118 86 88 109 89 89 79 160 180 180 196 198 133 129 167 106 135 88 166 117 78 90 181 78 67 75 140 76 105 132 101 189 162 199 155 165 131 168 150 139 119 131 137 142 128 77 65 136 156 100 86 151 59 71 67 158 161 87 172 90 86 160 78 84 72 122 100 176 147 106 149 109 119 87 95 103 133 83 139 134 194 107 141 91 133 90 77 157 190 176 127 138 53 116 72 126 165 159 141 71 162 98 92 175 165 87 183 81 82 173 106 155 196 173 172 160 68 68 66 159 158 63 76 163 127 185 165 123 99 133 172 113 128 152 141 129 141 102 118 119 150 70 84 190 162 147 100 87 87 76 81 123 106 146 212 146 190 134 95 167 122 103 105 120 132 172 95 136 130 168 103 195 108 175 140 183 121 174 75 109 146 82 170 108 187 168 93 154 147 136 74 81 149 171 81 102
117 110 108 112 124 136 142 150 167 168 179 184 197 186 175 163 159 151 153 152 146 153 152 170 168 167 167 179 193 202 204 196 197 188 169 162 161 162 163 169 178 168 141 163 174 171 190 153 150 166 151 147 177 147 181 160 169 148 95 97 94 142 92 144 125 63 84 70 113 138 136 157 162 143 168 144 111 124 122 168 142 133 112 107 100 92 128 80 94 111 121 112 114 126 97 123 90 109 120 104 92 102 108 104 82 60 64 74 121 106 110 119 97 103 118 171 126 129 115 93 101 166 187 120 152 107 81 172 88 142 92 185 94 192 95 193 179 204 199 132 182 101 105 178 116 175 180 131 202 108 136 199 97 130 132 111 165 147 101 167 90 117 88 109 129 158 172 233 172 210 207 119 181 116 150 103 146 164 155 144 105 144 141 157 97 155 156 178 106 88 180 92 189 119 88 80 116 142 78 165 88 102 100 147 176 88 118 185 89 135 83 176 98 127 255 81 168 117 105 96 129 111 100 168 174 126 184 147 164 174 139 171 109 162 98 92 104 87 61 80 60 107 100 72 108 141 197 132 188 171 157 172 167 158 60 95 89 133 147 143 122 86 159 155 98 133 152 169 168 94 157 153 110 89 81 52 46 49 68 108 118 66 139 151 134 82 94 122 93 163 174 118 103 179 133 85 107 145 101 138 175 77 128 59 161 76 91 98 105 107 155 164 193 191 145 118 156 157 98 104 142 90 82 157 88 164 99 103 101 169 158 165 177 87 75 129 149 152 155 152 168 79 84 153 160 178 134 119 174 119 132 152 157 136 105 148 124 175 144 85 85 125 83 95 97 187 108 157 72 54 90 122 113 74 101 130 176 117 157 91 101 52 161 149 70 71 142 134 134 73 108 60 141 127 173 185 188 123 90 61 66 109 79 140 92 161 115 50 71 100 60 77 155 134 88 147 74 164 167 100 100 143 78 119 75 125 106 194 186 186 168 114 163 130 151 159 77 68 63 78 130 172 209 133 116 82 173 170 165 161 66 112 160 58 136 43 58 71 155 190 101 174 166 152 149 111 162 126 172 148 166 163 82 172 176 82 161 93 181 108 119 193 178 113 107 170 128 103 103 123 182 101 145 107 75 72 72 75 177 147 179 96 136 124 85 69 76 93 112 86 59 59
130 122 117 118 126 130 140 152 163 169 178 189 194 202 186 175 149 156 145 148 150 147 148 162 168 163 154 161 182 193 196 198 189 181 166 157 159 163 171 178 180 173 162 135 155 164 144 174 166 151 178 158 140 167 189 148 153 139 119 91 113 136 118 142 63 124 73 118 131 70 134 151 148 99 111 133 128 110 101 169 98 163 142 102 122 93 88 99 151 175 172 118 128 111 89 110 94 135 146 89 79 117 58 67 80 100 106 108 105 112 105 105 97 94 95 112 105 166 99 83 81 113 188 151 119 192 187 159 163 181 189 186 89 108 153 143 193 206 217 156 179 184 81 80 164 127 181 184 202 120 127 198 126 176 98 140 170 80 143 122 139 163 109 84 105 184 146 179 215 214 205 185 203 212 137 153 121 165 193 133 166 104 165 79 100 120 104 171 174 144 140 184 153 193 141 85 109 149 84 158 75 124 140 131 183 103 133 143 193 191 105 149 143 147 126 151 126 62 130 96 183 131 113 166 133 84 187 119 175 199 127 197 103 193 176 191 82 141 85 80 78 84 139 118 113 188 114 210 198 137 143 174 166 92 77 65 80 122 127 172 87 133 174 172 154 78 141 160 168 86 90 194 110 106 75 128 131 73 21 40 44 45 76 154 87 143 142 175 136 145 171 158 114 149 114 115 177 106 130 109 83 115 155 159 73 255 113 96 103 196 170 156 133 128 139 173 199 211 160 123 108 180 100 98 75 123 170 166 101 72 79 100 181 137 186 107 88 151 86 81 105 92 91 85 179 119 143 77 127 91 204 187 128 182 128 219 190 94 172 142 105 68 101 167 107 113 189 168 82 60 161 65 133 105 72 144 173 160 94 57 111 61 80 145 68 65 93 78 148 72 130 58 142 102 166 79 175 71 60 119 146 142 128 153 155 66 149 52 134 97 82 108 149 63 52 124 133 59 106 122 75 81 154 128 104 80 89 182 162 146 134 158 151 68 123 98 124 135 70 107 180 173 118 135 131 98 165 156 69 104 159 123 81 70 99 77 135 73 169 122 183 172 124 138 127 140 89 123 93 153 135 165 112 168 122 171 184 187 96 127 134 99 165 91 171 170 158 165 140 108 99 173 81 143 87 129 116 160 138 117 74 74 103 90 80 136 138 150 255 53 137 59
138 128 122 124 127 131 140 150 159 166 180 188 189 183 170 166 157 151 152 141 145 137 149 160 160 148 148 156 170 180 179 186 186 187 177 162 161 164 168 180 191 183 183 168 160 129 165 179 179 169 157 184 142 187 178 187 161 106 82 84 110 111 164 96 120 71 124 143 85 156 133 122 90 128 101 175 125 106 145 102 139 115 133 100 119 104 156 110 170 134 151 153 104 109 97 121 122 118 108 100 69 70 57 61 103 84 130 115 104 121 130 84 85 88 125 101 103 118 146 91 83 134 106 193 132 203 165 178 139 182 100 98 88 159 89 190 195 142 143 138 168 190 90 173 73 74 78 172 193 115 187 108 180 166 148 128 182 111 174 181 170 87 139 112 151 92 138 169 133 183 146 213 185 198 170 186 188 193 173 200 180 200 184 94 107 162 100 101 114 127 178 97 119 201 150 78 91 136 82 152 171 75 175 178 112 164 168 166 193 101 93 96 163 159 71 137 81 84 76 126 155 144 174 168 164 78 181 96 119 159 210 122 117 199 132 122 122 139 149 162 120 86 148 178 111 198 199 154 104 193 169 164 165 129 117 154 174 161 183 89 93 100 129 114 95 124 118 165 120 188 118 148 138 201 137 65 91 37 94 124 45 145 94 163 158 166 93 81 154 133 118 184 82 149 143 169 184 97 100 115 94 89 54 98 136 101 172 183 110 112 118 169 137 169 143 135 104 185 124 137 141 119 101 85 75 141 157 74 156 75 137 173 156 134 147 183 109 94 107 119 119 127 131 86 182 108 137 79 93 96 150 129 227 149 178 136 197 172 178 165 107 159 166 108 199 167 104 93 148 147 98 164 150 124 145 78 117 185 180 77 96 77 71 74 161 146 62 131 56 53 72 150 82 89 79 72 129 72 135 88 123 99 137 66 147 124 61 58 98 141 139 91 65 139 62 53 46 118 58 134 113 165 81 158 148 172 99 108 193 172 95 139 156 154 168 92 123 184 160 86 140 186 168 200 152 113 161 160 157 111 85 179 191 180 149 68 43 160 117 150 87 136 96 39 132 55 111 135 148 78 81 174 146 174 175 93 142 86 137 144 144 182 100 100 112 81 127 88 100 99 109 70 164 119 66 108 73 114 105 77 75 76 126 160 88 91 184 79 156 107 63 86
139 131 125 128 134 137 133 139 150 165 174 171 171 174 180 169 153 150 137 143 142 136 152 153 152 140 136 136 157 165 174 181 193 193 187 176 164 161 158 174 193 202 212 194 157 171 173 181 208 201 179 175 134 174 162 132 158 146 126 86 120 158 161 162 94 138 174 147 166 170 91 106 157 157 154 124 140 106 117 95 111 119 111 151 110 117 167 110 111 114 102 132 89 87 99 124 98 104 77 99 93 76 109 111 94 136 144 140 150 168 92 104 74 84 103 103 188 120 106 165 175 99 170 118 111 112 123 179 172 88 95 189 91 159 86 113 155 121 145 110 137 107 190 121 174 143 70 73 139 181 136 92 169 151 146 108 110 178 183 96 100 150 115 79 129 133 132 179 118 111 204 215 211 140 194 189 129 190 200 183 192 185 171 106 97 160 54 86 56 123 78 133 207 203 185 129 139 73 140 80 69 90 162 141 166 167 80 143 188 108 165 70 97 117 137 161 142 112 65 25 62 142 150 101 154 153 166 171 111 177 134 149 131 137 163 183 102 185 82 162 164 188 145 180 184 189 196 112 134 191 101 110 132 117 135 172 97 92 176 93 97 127 150 115 149 85 118 136 184 103 180 177 130 135 90 99 90 104 45 99 71 172 169 82 79 125 174 144 255 122 166 67 78 150 98 111 187 104 157 85 160 117 76 61 122 160 134 161 184 109 169 90 169 136 91 169 112 147 118 153 197 190 96 177 86 68 163 136 114 107 162 151 89 169 135 140 101 160 159 154 192 97 163 172 171 82 84 104 89 164 114 168 170 170 120 179 130 147 92 68 74 161 74 94 136 117 198 157 82 150 140 76 54 72 121 120 87 161 152 169 148 159 81 161 111 161 81 78 153 72 63 149 67 99 149 137 140 113 113 117 91 145 46 125 48 91 113 76 66 136 129 69 69 176 94 149 65 39 52 43 136 170 172 183 186 97 103 195 111 101 120 160 79 141 96 115 110 116 141 83 122 176 122 114 95 76 152 98 100 132 182 138 152 170 76 87 156 89 188 160 76 147 118 111 44 71 76 83 163 92 78 170 102 170 178 120 172 142 160 117 111 181 133 86 174 140 85 186 108 117 168 67 157 143 128 149 73 124 159 171 136 119 95 105 105 193 90 170 78 75 84 61
132 127 124 131 138 143 139 138 138 155 163 172 162 171 169 161 151 144 150 140 139 149 151 150 136 138 137 145 152 158 161 178 189 192 187 174 161 144 150 164 184 199 203 200 205 176 174 205 226 202 172 152 143 158 123 151 146 159 126 126 159 197 139 191 171 162 154 129 147 173 95 151 158 91 84 154 82 141 93 86 118 95 115 136 93 93 100 105 126 102 152 93 90 82 119 87 114 79 86 86 98 100 106 110 139 156 132 158 147 162 102 119 84 79 168 145 108 112 135 115 188 155 176 106 125 146 160 150 76 177 161 157 90 83 151 78 151 130 192 133 205 156 121 98 109 150 99 153 255 143 187 152 165 101 109 155 168 113 184 179 84 171 83 179 166 136 118 197 176 159 161 207 196 143 151 87 171 166 112 114 161 193 161 192 109 86 76 120 129 71 125 193 148 121 182 104 73 125 84 94 150 88 157 160 64 156 128 78 81 107 141 153 142 139 79 87 88 110 30 81 118 131 147 125 104 55 52 118 168 118 130 140 131 195 101 190 123 177 193 148 198 146 198 120 185 106 169 169 154 96 106 172 81 94 114 87 104 182 143 93 135 156 128 176 96 95 95 85 176 111 122 166 123 179 154 103 88 105 140 140 96 146 115 169 177 140 173 88 169 94 161 101 58 121 62 81 185 105 107 111 56 48 137 151 103 100 183 150 194 149 79 67 68 79 178 80 171 175 100 103 203 151 120 173 116 82 120 77 149 160 65 100 85 104 174 118 106 98 172 112 94 80 67 64 138 78 110 95 198 117 193 205 199 163 133 90 166 150 177 78 78 173 178 168 200 213 190 116 142 155 88 163 141 120 99 137 123 131 196 191 186 156 174 148 118 155 81 86 156 122 164 75 106 114 71 88 69 73 71 72 99 69 83 68 149 150 88 115 150 159 75 128 105 143 172 125 77 77 56 117 64 111 172 108 183 94 100 99 124 193 161 162 107 75 174 112 124 187 81 178 182 130 164 103 158 132 155 183 152 107 194 196 108 91 73 141 81 170 190 93 153 141 28 129 109 110 80 150 158 163 166 105 151 162 123 154 183 164 169 79 96 145 120 78 103 110 169 111 97 89 76 103 77 108 62 147 121 127 132 74 128 139 103 203 189 126 76 118 54 59 83 90
125 123 125 137 149 152 142 140 140 146 149 166 165 163 168 157 147 149 148 146 144 156 159 157 143 154 153 152 151 157 161 173 184 183 181 168 152 143 142 152 162 193 213 218 211 185 199 224 232 225 215 176 118 116 120 163 116 162 156 154 178 165 201 189 132 137 187 171 123 120 100 101 82 135 74 121 70 139 92 106 101 102 80 81 93 81 82 130 95 117 103 116 118 94 123 113 82 71 73 109 105 94 94 115 116 184 186 155 146 144 146 68 70 82 91 96 122 132 175 126 119 118 114 83 81 81 106 101 162 95 100 182 118 172 76 88 80 137 196 153 137 191 198 102 141 58 44 47 61 161 115 96 145 63 107 161 111 123 169 179 88 145 189 97 150 167 161 123 170 192 171 141 124 115 93 121 151 135 90 90 109 191 198 109 136 74 107 35 68 139 82 132 189 161 161 153 78 79 88 169 150 139 146 71 128 89 131 141 156 75 154 66 52 107 48 107 156 59 114 32 130 100 90 134 68 116 142 131 104 113 213 143 184 184 171 165 204 209 109 175 188 183 119 114 188 134 102 69 107 171 113 168 88 173 82 176 158 97 167 174 132 109 113 170 134 113 98 141 184 120 102 158 102 147 113 166 162 78 148 74 68 97 146 86 177 91 121 90 126 113 110 66 161 145 123 144 78 86 130 78 121 44 76 57 160 129 151 186 115 175 131 74 159 139 94 81 177 181 94 191 180 166 99 114 162 92 136 157 113 169 156 128 67 175 144 125 152 170 182 187 103 130 153 147 153 90 179 192 203 198 143 155 164 117 159 78 170 102 138 147 91 124 171 89 103 199 127 128 152 175 143 111 59 75 94 126 136 116 109 176 123 119 186 119 134 171 176 147 150 89 102 96 86 121 169 98 156 79 175 96 89 148 156 170 128 98 146 147 184 167 65 153 67 167 114 164 88 69 66 144 164 153 110 206 107 184 116 165 99 118 151 95 106 84 129 196 195 191 174 173 181 193 194 178 76 165 162 192 108 205 111 158 160 76 160 175 144 107 115 106 125 103 134 126 57 112 80 179 108 98 192 107 179 255 92 101 180 100 98 88 137 195 91 178 170 103 171 94 172 148 116 147 69 66 96 96 58 148 103 160 87 120 162 100 167 124 92 61 78 96 139 135
119 120 128 145 155 157 152 135 135 141 159 157 156 158 151 161 156 158 153 160 160 146 154 153 154 169 169 165 162 163 166 170 173 173 172 162 152 143 139 147 151 165 179 196 179 210 221 227 218 221 203 175 127 146 155 255 157 151 115 180 191 139 194 133 135 147 166 113 111 180 111 161 87 54 67 99 112 83 90 107 75 76 120 69 103 76 72 121 150 93 95 102 85 90 96 133 105 76 109 93 86 81 117 108 116 135 183 176 255 109 143 80 91 151 104 157 145 157 108 117 168 89 77 164 76 85 84 66 76 93 137 104 99 79 137 77 85 103 197 111 211 197 164 165 164 147 110 143 161 184 196 196 78 77 135 165 164 107 107 163 165 167 170 188 108 83 114 169 103 108 186 194 208 204 185 104 137 51 63 67 174 126 133 90 73 119 113 37 50 145 69 119 128 96 93 162 127 168 82 142 80 139 158 134 66 50 57 92 121 100 139 125 143 63 87 65 166 159 65 57 122 72 80 138 133 144 141 63 77 169 153 202 162 113 86 174 148 192 102 198 120 154 227 186 117 131 160 67 64 152 112 130 126 185 153 169 163 94 165 98 178 103 172 96 96 117 126 159 84 177 154 173 185 93 84 134 142 82 132 105 162 82 88 171 108 160 183 111 168 119 139 110 88 76 95 74 96 134 123 95 90 114 47 94 98 176 176 118 194 153 140 105 76 95 172 151 143 125 114 157 110 105 96 94 85 93 154 118 180 102 164 53 152 129 165 170 82 80 104 79 174 79 144 117 83 144 75 134 146 121 227 231 213 146 152 75 160 102 82 142 119 176 121 125 158 164 208 219 123 163 93 112 65 88 45 141 88 150 104 132 89 114 109 149 190 131 139 147 146 171 154 97 86 171 118 162 164 122 169 92 181 186 189 178 130 175 206 177 121 159 102 74 82 67 164 75 167 91 88 161 77 113 92 176 96 140 255 97 175 170 163 117 112 177 123 113 206 166 132 180 154 143 102 96 89 143 157 100 130 198 195 92 134 157 132 86 112 129 160 88 103 148 149 157 90 81 178 190 145 135 179 194 174 117 179 157 88 174 119 135 197 163 96 154 118 98 113 149 93 121 178 87 108 182 79 112 66 91 114 75 95 153 113 93 165 133 130 147 79 77 110 102
117 120 129 152 168 165 149 133 137 149 159 161 162 154 143 145 140 152 154 154 150 160 166 171 171 173 175 163 168 165 162 161 160 166 159 162 159 155 151 146 144 140 159 173 194 211 216 205 219 170 192 159 158 150 127 139 121 145 157 144 178 132 199 131 104 111 158 100 132 108 163 87 79 88 85 50 58 83 142 79 138 136 115 101 65 84 78 136 82 84 146 90 82 138 126 96 96 100 103 79 72 81 91 103 126 151 140 158 136 103 141 138 83 96 88 79 80 90 117 167 148 110 117 90 91 176 149 78 162 78 109 183 189 167 112 84 157 107 155 202 140 190 182 119 158 128 54 50 98 173 195 166 175 135 133 158 115 168 165 170 129 195 176 90 166 141 175 119 185 165 191 146 184 160 157 188 162 72 71 109 157 137 127 121 53 131 34 143 105 138 158 147 101 169 171 176 83 145 96 137 112 188 102 83 149 120 149 80 168 105 143 137 90 148 71 117 78 157 175 166 82 172 123 154 161 109 60 64 141 161 95 192 176 144 92 107 118 200 185 95 197 200 157 194 138 118 170 151 148 124 140 182 189 111 101 143 165 163 141 190 150 152 143 178 83 158 114 135 84 100 124 127 162 112 180 188 94 101 179 129 93 104 79 175 114 119 89 82 94 58 121 99 163 69 83 96 184 155 181 85 102 255 43 128 139 181 116 132 133 144 125 175 76 72 76 131 128 122 100 187 98 157 91 93 94 132 163 107 84 85 129 114 62 88 81 150 69 70 61 157 69 119 42 35 62 129 138 178 255 115 189 223 185 136 100 77 84 69 171 162 141 156 103 174 126 131 203 135 171 159 145 150 142 125 121 81 134 68 152 139 172 84 98 181 177 81 81 171 194 195 181 93 166 123 132 136 68 155 86 145 204 111 97 158 119 158 130 195 104 194 180 164 117 66 112 67 65 86 139 137 160 74 167 71 175 174 178 79 168 164 255 171 177 186 106 139 116 193 201 196 101 101 100 86 127 96 83 133 112 104 121 159 170 103 135 108 97 163 132 99 86 166 155 117 128 150 91 173 178 199 112 158 164 175 75 172 94 161 115 94 255 172 189 186 161 97 94 179 166 97 100 106 142 119 190 125 102 69 157 123 81 86 172 159 107 79 71 157 156 96 110 188
114 114 122 145 162 170 156 134 137 144 155 169 153 151 144 154 156 159 159 157 158 161 179 164 172 162 167 167 163 165 159 158 156 158 161 163 161 162 154 146 141 140 143 164 185 194 192 212 206 182 181 138 135 114 150 139 146 149 157 162 152 145 203 155 164 113 138 119 111 120 173 151 113 148 117 81 132 70 79 132 101 153 98 61 78 71 109 155 93 93 101 132 89 124 95 131 136 86 88 108 76 104 103 114 122 132 150 113 85 88 116 135 86 78 74 74 126 175 108 125 113 139 101 93 95 107 89 86 90 175 146 174 122 85 74 79 188 180 122 150 114 169 154 96 81 85 106 154 78 156 184 177 71 150 162 66 159 150 137 142 133 170 117 87 90 155 93 181 112 183 115 121 136 140 190 211 141 149 75 146 148 112 143 54 49 70 58 140 78 154 66 58 67 155 149 172 121 174 101 190 104 182 166 124 160 139 156 104 185 112 135 117 117 148 155 95 64 112 151 130 163 97 199 192 180 139 151 158 121 167 177 183 172 175 106 135 189 167 85 164 185 187 189 182 134 143 71 155 131 158 115 99 102 201 130 131 133 188 198 139 162 114 78 72 153 169 139 142 178 97 79 167 93 100 174 109 164 179 193 176 177 163 173 101 191 177 127 86 86 157 82 137 157 66 139 189 176 118 111 99 149 86 60 121 96 121 110 113 121 139 108 155 90 166 82 148 85 158 92 133 118 187 106 165 58 83 65 131 160 112 90 91 67 139 102 72 159 62 153 137 107 147 130 57 19 127 62 73 175 155 194 183 211 109 95 176 153 121 157 190 116 174 101 123 175 179 166 111 188 89 151 123 147 63 93 148 147 61 68 164 148 147 141 148 77 167 161 181 118 203 185 85 110 154 154 56 144 109 164 106 142 125 198 167 114 118 135 130 192 204 102 184 111 93 166 152 91 137 52 68 65 124 130 136 151 70 138 96 113 144 108 144 107 187 103 131 182 125 189 99 195 103 98 106 83 77 149 81 158 90 143 84 176 122 88 106 103 113 182 158 107 150 131 180 179 149 186 90 189 166 188 101 167 103 92 159 134 131 159 90 136 172 170 157 184 85 86 168 156 182 114 198 114 207 201 141 89 103 165 156 176 93 170 87 79 151 81 164 108 112 187 92
113 110 109 126 145 160 149 144 142 144 156 156 164 163 148 142 159 160 156 174 183 186 176 183 171 156 150 157 159 160 155 151 152 157 159 166 167 166 155 148 143 134 142 154 165 198 182 187 200 186 178 182 158 149 160 120 153 147 117 169 190 168 132 159 171 120 153 129 137 151 86 126 148 86 114 160 100 159 95 118 96 161 132 62 121 83 121 164 100 150 124 132 70 75 73 76 100 109 81 113 75 85 78 106 99 86 74 94 71 83 104 148 138 75 103 73 160 170 138 124 145 114 170 175 101 170 95 127 85 104 163 184 98 82 131 136 119 182 203 192 107 77 137 112 125 100 88 177 180 174 123 165 163 162 164 76 121 91 68 59 65 131 154 177 89 72 167 109 119 153 171 199 160 219 195 116 118 112 141 85 119 89 121 136 64 67 137 176 191 111 77 90 56 108 71 90 140 112 142 170 198 189 178 165 144 124 113 120 99 155 84 172 167 144 144 139 75 80 169 123 196 112 123 209 105 113 177 156 137 161 77 161 154 193 127 181 181 104 166 169 98 179 238 150 120 98 163 62 78 118 138 110 125 173 199 201 137 170 123 95 155 162 69 142 158 162 133 172 149 147 131 126 158 151 165 89 181 89 162 196 145 109 111 105 143 127 147 150 98 69 104 117 131 133 112 114 131 142 152 178 80 79 173 106 153 188 175 161 187 101 95 93 67 72 93 86 111 183 93 96 114 166 129 64 118 155 120 165 195 190 166 120 163 75 62 102 104 67 87 63 155 117 117 118 46 121 96 114 140 144 96 183 177 195 194 174 163 85 153 116 102 106 120 171 124 130 89 91 160 161 115 69 76 103 138 177 80 76 60 85 82 149 164 165 65 143 161 146 98 193 159 156 144 66 65 69 65 117 134 156 153 121 204 180 128 174 122 129 121 174 181 197 92 180 78 142 69 146 142 80 82 61 47 59 52 138 132 109 76 136 164 121 155 130 133 198 105 130 176 178 140 116 122 151 132 87 132 162 108 92 177 90 186 147 182 194 111 178 148 207 97 155 181 94 103 90 121 188 121 141 176 94 121 129 74 159 136 138 163 137 115 93 104 164 93 147 76 177 185 164 105 182 157 164 93 181 82 93 76 129 87 73 111 70 78 104 109 183 192 90 84 85
109 102 95 108 124 142 148 148 141 148 145 156 171 177 174 172 173 171 179 180 186 191 183 174 161 150 151 155 156 160 156 153 151 153 156 165 159 166 165 147 149 142 151 169 164 179 188 189 185 175 164 167 153 175 155 137 151 117 166 188 206 155 152 111 169 87 137 123 129 85 139 83 78 124 162 132 123 164 114 124 139 125 125 119 94 84 93 106 127 97 116 110 67 113 91 127 102 111 88 90 121 87 95 102 102 107 75 60 60 75 90 79 96 106 94 133 173 122 145 127 119 108 166 110 154 98 158 106 87 77 128 153 168 161 84 84 162 200 111 118 74 151 140 94 183 97 172 185 117 164 164 133 152 68 163 128 142 75 98 136 145 132 92 107 118 84 169 140 97 165 165 176 110 187 184 165 161 154 69 165 106 83 148 75 152 114 164 116 164 93 68 81 51 53 97 86 147 119 213 171 103 116 71 90 124 55 74 138 136 177 177 183 93 107 156 164 164 79 148 116 114 137 177 142 109 192 141 135 112 150 121 114 113 115 128 101 107 97 159 85 114 118 227 222 152 78 159 79 115 156 153 78 181 189 168 107 110 187 99 115 170 78 130 153 167 85 118 104 123 129 93 81 76 152 121 152 171 142 114 129 147 198 208 204 175 102 166 192 92 140 113 68 69 91 137 156 172 194 118 161 89 187 148 148 205 155 124 125 92 95 93 121 57 65 148 69 160 83 84 167 88 126 71 158 157 71 81 136 106 163 191 165 177 167 108 78 118 107 149 62 117 128 126 130 138 96 82 150 151 83 89 179 192 149 133 113 102 118 146 118 193 178 172 88 63 117 79 101 169 71 64 83 129 197 140 151 183 77 99 158 110 158 111 153 98 138 74 83 173 134 176 162 151 96 161 90 109 132 126 136 195 216 148 165 129 204 148 156 143 190 146 106 172 115 91 109 98 54 59 134 106 131 113 54 126 124 73 56 151 126 121 120 83 88 86 124 172 180 74 168 134 190 192 189 101 100 192 183 97 123 159 181 176 88 164 117 189 205 153 195 184 130 157 100 186 144 191 171 131 115 126 103 92 66 127 111 104 141 148 160 156 140 70 104 65 125 68 119 97 135 167 84 154 159 99 131 77 156 168 86 71 68 103 84 152 163 153 117 105 89 108 125
110 102 93 96 107 126 140 150 150 144 146 165 176 183 197 192 174 183 186 197 183 179 164 165 151 140 143 158 154 160 154 152 148 151 158 165 164 169 165 164 162 158 159 174 184 178 190 181 164 178 194 160 153 173 156 119 139 108 140 160 179 195 126 162 100 112 105 130 99 74 86 87 107 74 134 171 162 141 183 108 118 87 78 78 126 156 147 143 160 106 89 83 112 86 70 119 91 98 90 99 123 111 148 114 114 98 141 132 124 73 129 72 73 90 96 144 105 130 176 140 116 102 88 170 86 185 112 179 189 182 159 90 112 197 191 88 179 166 134 197 186 132 127 138 134 170 125 183 151 144 69 144 142 84 85 75 155 146 145 143 70 157 99 98 172 110 167 102 99 170 156 156 106 137 146 92 134 152 109 103 143 72 91 164 147 120 191 142 136 171 100 92 66 76 66 101 169 160 174 188 169 115 86 122 145 65 141 115 94 94 85 89 177 176 111 100 94 82 124 83 149 184 164 193 166 173 175 84 76 176 157 201 117 131 176 162 79 93 160 120 184 131 133 120 92 69 106 113 53 130 154 162 166 143 90 143 169 140 192 106 120 172 87 81 122 163 198 224 126 161 181 84 141 93 156 98 166 77 99 128 177 104 187 209 120 189 171 192 149 183 82 76 151 97 181 105 156 155 173 180 162 126 112 201 187 162 200 119 137 117 74 114 125 88 71 82 58 76 100 96 106 167 107 148 167 84 114 166 99 101 190 114 152 165 119 155 161 108 102 65 55 148 105 155 165 167 180 162 90 144 154 176 150 175 174 63 143 81 84 178 103 97 184 118 65 50 57 103 146 163 142 83 158 125 218 126 142 131 146 164 96 110 144 143 113 144 119 180 151 194 101 119 148 139 125 154 151 68 145 169 214 221 160 133 157 156 182 215 130 104 102 183 195 181 129 105 129 62 105 58 69 88 100 96 60 87 116 67 143 153 131 134 66 85 108 97 96 91 73 149 158 99 184 174 108 115 154 132 110 182 87 100 136 157 194 181 204 181 118 187 157 111 130 182 177 165 134 100 156 177 70 62 86 106 78 163 173 118 99 79 161 116 73 155 134 114 140 119 118 148 127 144 60 71 71 71 141 141 105 113 125 68 159 70 156 123 100 185 183 135 104 64
105 100 97 103 110 124 131 141 153 153 147 155 176 197 200 203 186 186 198 201 189 177 173 153 142 148 155 161 170 161 158 155 155 154 161 162 167 165 162 151 163 173 181 194 202 168 170 173 160 161 185 156 171 157 118 118 113 167 148 201 198 167 153 100 127 108 92 95 115 109 114 91 136 91 106 143 127 119 127 133 115 128 76 81 90 90 93 104 164 149 101 101 72 70 93 86 97 100 104 85 115 142 107 144 130 137 106 114 101 158 158 80 86 143 169 170 136 150 143 125 98 170 92 67 86 122 92 195 183 255 122 100 141 196 180 196 194 194 202 194 106 104 209 118 210 147 103 111 174 160 74 79 171 172 149 85 74 112 165 149 136 93 148 174 192 152 153 147 105 163 82 91 128 131 85 160 79 55 152 116 143 138 65 150 146 165 214 145 194 102 157 90 70 120 121 92 129 174 134 179 166 116 43 76 62 72 59 58 121 79 147 127 122 120 175 190 154 141 161 112 96 184 214 159 186 117 122 166 89 178 189 210 122 161 193 87 78 63 124 162 142 95 176 94 174 159 160 135 49 63 146 87 134 150 140 150 167 104 207 180 109 128 132 157 161 104 204 231 190 172 118 177 162 126 95 157 166 164 173 81 83 134 190 190 134 159 184 172 139 157 72 76 75 86 76 163 172 83 145 185 197 105 187 189 119 132 118 170 189 94 81 141 136 131 147 55 50 157 152 105 78 68 124 80 140 151 72 128 173 191 191 111 144 111 130 102 66 159 66 118 112 95 74 103 166 181 124 154 83 73 121 87 175 125 160 149 66 110 188 196 150 167 86 92 106 54 150 147 143 80 99 100 90 198 208 211 195 174 161 167 85 118 87 162 149 124 76 190 176 108 103 174 70 149 154 75 122 135 170 112 123 179 200 99 181 189 194 134 119 130 193 137 123 112 195 101 93 94 166 81 82 99 119 126 145 58 143 156 96 85 98 113 152 106 71 111 70 136 76 168 156 200 208 208 117 119 159 200 188 190 161 92 163 108 108 204 166 122 156 88 82 80 147 148 103 139 119 109 98 145 66 59 45 128 101 78 137 132 135 79 75 163 139 145 54 130 156 175 109 194 148 62 57 17 118 37 114 140 153 93 147 146 75 92 176 105 87 133 95 77 173 76
100 101 106 118 124 134 138 151 158 159 158 164 169 187 196 183 187 181 198 193 196 173 170 148 143 139 162 174 172 169 166 166 167 164 171 177 178 172 172 156 177 183 188 193 181 194 149 150 166 156 169 134 164 159 179 132 138 154 135 172 166 158 96 141 138 83 124 141 112 149 139 142 118 136 98 78 131 135 155 159 157 74 120 84 122 107 100 95 96 93 116 80 72 133 96 107 88 94 90 115 79 115 119 93 110 106 152 142 168 166 117 109 85 113 90 128 181 136 114 120 89 89 86 58 65 165 91 94 190 104 114 118 189 211 116 255 190 131 100 178 187 111 154 128 224 118 193 187 92 91 93 164 156 113 173 165 106 144 157 189 138 197 141 199 210 200 183 158 149 148 132 94 187 100 169 137 155 112 75 163 89 97 103 168 96 133 212 116 119 114 180 84 159 142 177 131 184 145 175 139 163 116 74 74 148 76 157 159 157 90 175 186 165 191 115 88 71 128 54 130 91 203 204 171 166 155 89 83 162 177 189 111 175 120 109 157 155 74 153 144 186 162 137 134 174 129 110 164 142 62 155 76 135 170 155 146 185 141 206 206 174 113 115 147 86 113 171 188 147 206 197 156 101 96 78 135 91 179 98 153 102 104 104 179 200 147 99 178 91 131 86 170 162 86 78 72 69 166 110 188 101 110 130 115 200 121 115 100 190 91 133 115 152 161 68 97 146 131 83 147 85 117 132 65 113 139 71 158 79 87 183 163 89 95 65 89 131 68 165 82 179 103 196 202 147 96 144 85 178 98 164 154 180 168 146 78 84 150 99 202 105 173 120 84 171 151 128 126 174 129 174 165 102 255 205 105 134 179 121 153 122 93 135 107 124 180 179 102 129 181 135 182 91 146 67 152 141 119 86 97 182 183 177 160 98 78 169 99 115 187 166 160 193 100 190 83 93 114 171 94 148 117 173 150 136 56 92 70 169 178 113 181 163 161 64 140 122 96 68 83 92 134 195 152 192 168 123 204 195 161 175 169 151 133 148 123 213 205 163 120 61 74 86 104 182 183 191 185 194 124 116 84 58 68 56 118 178 154 91 157 77 121 90 64 142 55 80 170 214 127 198 79 74 110 32 25 57 172 185 123 96 108 119 134 193 133 171 159 102 136 111 105
93 101 116 134 144 140 139 146 160 164 164 155 169 185 183 189 174 185 195 204 199 184 187 177 162 158 155 174 165 178 179 179 187 180 188 181 189 186 180 174 165 174 195 202 189 188 174 167 161 154 128 144 150 128 131 138 138 124 117 98 131 115 111 128 122 154 137 143 138 90 77 84 131 54 116 100 89 146 115 98 127 83 88 155 96 139 126 157 97 79 94 67 97 72 83 132 90 123 72 63 61 97 115 86 107 124 109 124 130 140 160 152 112 161 160 147 122 129 101 152 82 76 73 153 59 155 71 171 107 113 161 206 145 110 128 86 163 156 183 148 149 135 192 132 134 122 110 185 191 174 143 68 77 139 196 188 176 174 202 193 215 171 131 142 159 183 135 147 105 119 165 158 186 181 125 180 170 90 98 83 179 174 166 81 166 186 167 147 193 109 157 94 169 127 182 191 130 162 143 160 85 147 69 127 126 169 155 164 104 131 101 177 126 117 117 90 127 86 100 87 109 185 130 189 104 106 157 156 86 143 156 128 195 151 194 90 171 163 103 156 180 130 110 135 89 181 83 73 93 161 169 133 180 177 113 90 187 154 214 194 208 193 163 77 174 176 172 218 136 178 188 176 157 176 99 151 85 91 177 127 118 85 105 111 117 156 98 172 88 114 171 85 133 188 117 96 81 102 119 99 110 145 146 161 101 112 168 107 144 106 95 101 110 87 155 93 103 128 96 77 86 109 67 65 77 75 77 115 154 123 160 97 138 95 94 62 155 75 86 164 129 106 202 201 113 255 89 184 91 149 129 147 92 170 156 139 154 177 100 198 123 185 186 176 172 160 113 161 176 146 77 165 159 172 153 94 179 159 169 88 141 151 178 141 101 144 166 166 104 164 204 157 149 63 71 120 88 107 169 108 147 112 147 156 77 155 172 164 142 103 138 117 127 125 148 160 105 157 135 139 200 158 166 61 147 56 143 114 128 105 104 196 92 163 63 146 98 163 173 82 170 207 120 135 193 206 200 162 150 189 89 87 88 158 206 214 159 103 159 130 138 100 153 133 82 179 174 115 96 186 173 152 86 115 112 125 90 144 135 108 116 147 80 171 73 147 178 207 169 130 205 164 65 77 23 121 96 121 170 95 162 107 109 118 201 95 109 178 160 118 149 139
93 108 130 145 151 148 139 151 150 156 148 153 158 181 170 174 183 192 194 211 210 204 188 192 179 172 164 174 175 187 196 202 193 193 196 200 203 203 194 186 180 186 194 178 181 177 167 165 126 158 148 115 134 137 170 117 156 148 135 78 72 77 126 85 160 156 117 182 144 105 112 58 64 63 148 135 116 106 163 157 171 108 127 106 113 101 144 85 85 69 54 61 62 77 79 113 103 99 68 67 88 53 58 82 87 133 140 131 158 152 125 138 110 121 109 171 95 112 76 74 152 103 162 113 107 164 72 81 109 102 147 121 191 144 125 167 164 162 167 172 83 94 155 189 208 112 195 199 183 114 162 69 131 128 116 153 200 185 148 138 200 213 149 180 193 190 139 94 93 87 124 157 143 110 97 115 175 175 174 104 157 111 137 79 86 184 194 195 128 105 111 121 168 138 174 192 135 210 200 195 164 113 142 104 72 159 168 109 142 76 93 91 77 170 82 148 72 122 153 75 169 133 192 187 110 123 161 90 70 113 68 165 128 186 98 178 144 71 115 165 83 172 126 177 157 129 86 82 108 75 139 93 131 105 191 187 173 188 182 187 144 182 174 170 134 145 188 195 198 170 120 166 123 167 167 135 87 180 176 190 156 119 156 166 133 132 133 168 100 125 189 99 126 201 142 195 145 118 149 156 198 124 150 184 102 116 174 100 157 177 123 125 185 96 155 170 122 69 176 97 178 159 158 165 122 135 114 113 119 146 107 106 110 128 98 165 70 80 95 98 157 197 176 100 100 111 189 167 172 124 129 99 171 78 73 157 140 111 135 151 193 158 180 164 179 155 114 139 128 157 86 133 124 63 160 136 89 103 90 78 139 146 181 200 140 173 93 145 179 182 104 190 166 99 60 53 125 142 141 146 92 154 151 125 138 155 114 91 97 98 177 114 72 82 157 156 52 53 145 114 102 193 178 146 74 79 166 166 113 138 114 146 148 159 80 148 124 162 172 108 100 136 135 108 183 104 127 152 134 135 182 119 180 92 101 119 141 134 86 125 93 79 175 107 166 148 168 146 177 114 153 82 170 88 177 122 98 135 168 95 137 115 91 146 167 80 175 137 190 157 200 183 73 143 138 52 137 49 63 61 128 123 199 102 92 161 102 108 128 97 155 153
108 124 144 154 150 140 128 137 146 148 140 140 144 165 162 179 182 176 192 208 201 215 197 205 188 183 175 184 178 196 202 207 205 200 197 201 206 204 203 196 193 195 182 191 173 161 144 142 159 153 111 149 119 157 140 123 152 101 153 153 138 150 134 131 255 186 162 168 132 173 136 101 74 64 128 138 124 176 146 183 154 185 126 132 101 100 88 107 124 55 72 54 56 105 87 95 117 109 103 69 51 67 101 92 96 120 128 134 108 150 123 112 115 130 99 90 75 79 97 55 133 127 89 157 133 81 130 88 94 150 108 197 123 106 161 67 145 153 128 164 176 176 114 103 188 138 180 176 183 126 154 82 139 97 179 126 190 90 172 188 167 140 198 139 199 110 161 155 135 138 137 150 124 153 99 178 149 93 179 188 160 114 106 181 148 158 135 170 120 149 184 101 103 159 107 99 196 157 125 155 136 140 118 80 59 148 160 148 119 114 87 90 87 110 157 73 126 159 68 77 169 179 90 187 141 135 96 64 126 102 63 115 194 152 186 174 66 129 166 164 85 63 95 106 178 180 127 84 146 81 151 116 118 166 169 189 163 87 190 125 161 167 85 105 171 93 83 101 115 151 162 157 156 160 175 110 78 123 122 96 93 162 95 168 92 128 181 174 129 113 101 163 171 114 117 111 195 165 110 106 103 155 100 153 114 139 146 101 125 111 127 133 120 112 120 116 159 100 93 100 186 110 195 190 181 128 165 134 150 116 188 208 172 207 146 99 134 169 84 99 185 85 174 110 195 108 135 145 170 145 143 101 179 152 130 160 84 98 195 139 169 87 97 146 96 109 94 107 154 175 84 176 157 104 157 174 147 185 148 167 155 143 158 159 100 126 105 132 132 180 115 189 169 104 136 42 51 53 150 109 118 158 100 155 122 80 169 167 144 108 133 168 131 82 145 50 75 60 82 154 176 148 150 67 67 123 143 172 109 168 102 166 142 153 143 151 162 80 179 134 188 109 113 190 170 182 86 165 102 128 182 130 80 164 164 117 180 126 158 161 108 69 168 178 104 117 167 118 178 170 187 130 176 188 171 115 142 85 152 157 114 156 177 103 159 162 108 119 195 113 195 184 119 99 133 106 146 147 53 93 91 93 178 172 162 122 77 164 97 161 88 113
126 139 153 156 138 120 119 123 132 137 125 137 141 158 172 183 178 184 190 199 210 204 203 198 184 197 186 195 184 196 198 204 204 205 206 203 199 204 202 203 207 210 198 188 172 159 144 160 138 151 123 154 158 160 122 154 144 149 106 138 107 138 143 104 173 192 184 177 211 143 83 100 66 129 153 169 139 118 120 135 189 210 162 141 154 88 80 86 76 63 60 58 63 71 126 89 85 81 79 95 106 103 82 105 122 134 115 97 153 131 142 146 117 161 113 98 100 69 51 133 69 73 163 159 176 170 197 199 121 164 97 94 181 118 162 62 155 146 148 162 255 189 179 179 183 184 124 86 129 162 151 160 124 93 179 184 137 84 111 86 109 92 166 79 176 176 160 95 105 156 148 149 137 68 148 130 162 193 146 158 172 182 106 101 70 101 58 91 135 165 89 190 101 101 112 182 180 89 123 255 166 140 136 55 56 155 65 98 55 114 138 152 71 156 75 89 134 69 135 78 151 89 184 183 149 172 156 116 137 147 161 175 195 104 158 161 133 65 128 72 115 136 75 138 144 113 114 155 107 145 173 182 117 129 166 93 157 172 169 172 125 161 160 83 170 176 139 154 175 96 146 112 77 123 74 126 140 81 69 159 97 98 120 158 81 173 75 170 92 176 159 121 103 152 110 137 117 89 149 189 255 104 170 171 109 172 135 130 146 133 187 116 125 110 203 104 150 75 98 177 150 105 121 151 170 172 84 179 180 144 174 168 156 211 111 137 100 130 101 162 104 156 117 165 112 139 128 193 168 158 75 181 189 101 88 80 143 102 124 117 166 187 185 184 158 161 134 161 168 151 192 128 153 147 104 70 174 116 88 122 59 148 142 128 131 183 82 123 108 100 93 124 89 135 138 71 141 79 132 101 131 167 171 137 95 159 189 181 197 192 175 74 142 86 65 50 117 144 71 134 70 116 166 71 151 90 97 114 84 135 157 172 152 168 154 73 153 95 101 154 82 152 142 140 124 162 148 183 128 98 80 158 160 84 104 123 255 129 154 114 119 71 84 100 69 137 145 82 160 179 190 117 163 203 202 196 178 103 183 171 103 119 182 90 91 162 154 187 103 100 93 87 115 127 161 124 153 147 111 77 171 94 92 110 146 137 133 60 130 164 113 156
139 148 154 147 128 105 106 108 120 125 123 135 147 161 169 181 174 185 183 187 190 183 174 181 184 197 208 206 189 186 179 193 200 210 209 202 189 184 201 214 255 220 193 174 175 164 164 169 134 173 158 165 145 175 171 151 165 175 176 135 139 124 121 165 163 179 140 141 130 178 77 68 46 126 72 114 106 163 137 146 142 149 191 107 152 79 77 78 80 75 101 85 85 106 74 80 100 93 122 84 112 122 108 135 137 125 103 104 104 95 97 97 162 92 107 76 61 56 68 123 80 71 87 80 76 94 150 117 200 104 127 132 131 94 72 152 70 78 154 170 179 173 145 163 133 148 164 122 163 116 67 158 138 173 179 184 175 171 154 160 162 91 124 165 169 175 163 176 171 176 127 100 157 145 145 139 147 125 160 198 195 130 192 104 100 147 101 52 140 165 76 88 183 189 183 183 165 85 93 158 193 176 169 114 68 114 71 61 102 97 99 129 75 81 155 116 163 95 141 77 145 145 115 190 175 178 188 136 108 137 79 186 129 148 180 113 164 165 139 77 152 163 160 155 114 126 44 124 87 145 187 105 176 197 118 156 93 163 74 151 93 75 168 81 148 149 162 128 197 120 111 166 135 133 101 123 107 124 60 92 176 172 84 90 129 72 147 66 142 106 90 96 158 123 96 93 88 142 91 154 100 184 86 84 136 120 191 116 204 117 138 207 211 156 121 114 135 172 76 156 98 188 123 143 158 85 83 84 146 88 176 101 169 135 173 107 122 176 87 161 150 94 147 186 188 196 134 199 152 100 96 102 189 106 172 68 104 182 141 186 148 186 181 128 79 99 61 67 133 178 154 123 129 120 71 84 172 179 183 169 98 169 98 165 142 134 176 91 109 111 143 88 169 103 111 147 154 149 121 123 140 152 174 172 93 184 94 109 156 177 130 79 255 77 126 133 55 155 83 136 76 78 81 156 113 68 104 84 81 120 86 114 132 164 157 113 109 84 138 72 169 102 162 97 75 111 167 164 187 103 177 135 74 164 155 100 92 174 173 155 157 162 88 111 130 128 101 172 94 199 198 116 194 204 147 204 149 111 181 84 95 123 176 105 106 146 105 91 147 180 86 78 83 153 126 76 156 175 124 93 137 111 103 148 62 100 57 112 97 71 107 97
128 137 141 137 118 104 96 112 120 139 145 156 168 172 180 184 179 180 183 184 174 179 158 162 170 179 205 202 182 171 165 187 200 207 201 184 178 180 194 208 216 214 205 188 155 170 147 168 178 182 160 149 200 160 192 169 189 168 183 167 154 107 120 157 166 145 179 126 101 119 79 65 50 51 94 89 115 144 182 167 145 138 179 156 89 99 94 146 126 99 85 139 72 87 107 73 84 103 87 92 91 116 101 99 128 90 86 87 100 120 93 152 152 94 87 159 84 82 155 113 67 142 59 68 85 180 194 127 127 95 79 102 165 77 105 173 165 165 68 177 99 96 87 79 82 57 79 82 158 162 153 163 76 106 181 167 183 149 108 167 69 167 110 124 180 180 102 122 150 96 169 158 143 120 107 77 91 196 178 192 102 127 192 167 90 159 99 83 135 70 70 118 124 178 104 163 135 81 95 190 193 178 114 98 150 66 151 96 134 149 141 129 128 112 177 92 124 84 255 159 178 113 98 102 174 192 190 84 77 89 98 113 159 95 128 117 171 155 179 177 187 90 139 161 142 136 74 142 63 106 106 202 201 111 150 192 121 166 131 163 159 91 148 83 82 187 93 187 126 168 105 175 100 122 146 123 98 107 140 53 95 127 120 98 132 87 114 145 160 150 79 98 147 141 128 102 87 181 101 145 166 93 93 82 134 145 124 103 124 212 125 123 171 207 209 148 102 171 85 118 137 147 88 185 93 110 164 163 129 72 165 87 95 149 161 111 113 198 104 139 122 161 121 193 109 162 122 104 208 211 118 185 177 166 121 153 117 79 168 189 136 192 99 150 103 136 79 56 88 99 168 172 154 156 156 87 158 125 170 164 106 173 120 98 104 101 154 84 90 165 114 183 163 74 69 120 165 85 159 150 128 138 160 76 87 124 165 96 176 87 168 139 132 124 132 116 135 179 100 136 155 173 132 132 51 106 149 72 79 134 164 134 127 170 67 161 140 86 154 68 159 130 172 77 93 141 152 86 190 172 179 69 59 123 73 148 161 72 119 98 163 166 126 134 98 142 100 114 129 105 128 205 202 133 125 127 210 148 187 81 120 96 176 105 83 94 118 160 111 153 156 85 77 149 178 100 95 165 136 165 147 138 100 170 157 105 73 70 73 167 80 177
109 120 129 128 119 116 105 115 133 155 173 174 192 187 193 178 255 187 191 182 176 166 159 147 168 186 200 199 183 179 179 193 198 203 186 171 164 173 184 195 199 194 180 177 156 145 181 188 176 197 177 207 161 163 192 153 197 190 158 129 157 146 155 150 163 171 129 149 121 124 116 131 70 66 94 79 106 218 224 156 152 189 131 123 113 81 130 130 99 108 132 79 101 83 74 74 105 113 93 140 97 108 133 126 114 108 88 96 103 108 131 87 112 99 101 130 142 102 162 156 100 65 44 54 98 88 111 183 198 90 164 140 73 71 146 103 89 128 75 112 125 97 82 161 87 151 60 142 64 101 137 75 72 74 85 154 181 162 173 132 101 131 90 166 142 104 138 155 98 149 177 178 143 124 84 172 129 165 187 190 181 99 191 90 176 155 153 162 152 148 145 170 90 156 105 110 84 171 159 142 118 195 175 135 119 61 138 98 136 114 141 146 198 151 131 90 152 87 107 105 136 105 151 177 146 108 84 80 130 94 94 203 129 166 154 140 90 79 182 189 190 146 92 175 161 95 102 88 81 90 128 108 113 202 201 99 97 171 102 171 163 91 95 170 78 136 149 144 104 115 130 106 129 137 171 148 141 77 128 82 94 154 91 102 163 149 72 146 62 91 97 144 110 102 109 82 171 95 94 179 106 126 113 105 93 92 104 107 189 176 173 180 161 176 202 118 115 109 103 172 134 101 112 124 85 91 141 157 162 69 163 85 167 177 131 177 180 104 189 160 91 83 94 154 186 199 186 110 211 125 147 110 84 146 114 76 62 112 169 142 187 156 144 134 117 151 148 146 169 145 110 119 188 103 162 136 161 157 169 81 127 173 177 125 150 91 142 137 179 109 97 181 182 171 156 150 168 113 171 168 89 166 67 114 135 108 136 99 184 79 79 71 161 89 109 118 175 139 136 201 255 79 79 136 140 136 72 72 121 204 202 188 99 145 79 142 86 178 176 76 171 157 75 104 126 114 84 106 183 159 142 88 58 146 64 171 149 150 113 150 147 71 120 128 119 91 158 129 74 148 190 127 168 143 126 111 146 104 183 140 184 154 102 176 119 154 152 187 111 87 175 144 166 163 97 129 93 130 118 201 124 117 150 163 63 132 84 119 75 148 168 96
92 106 122 129 133 125 129 140 153 169 188 210 208 197 188 191 193 189 182 180 181 165 149 153 165 182 193 191 191 182 192 202 207 190 172 151 160 174 187 192 177 185 177 170 145 161 169 175 193 167 195 186 207 192 180 198 197 150 163 164 153 120 90 157 158 134 80 95 72 64 106 132 93 138 101 74 149 125 220 169 205 170 189 170 117 84 76 98 162 106 102 137 76 69 69 74 88 83 74 78 68 113 127 91 138 97 106 149 162 118 124 82 92 107 94 104 95 92 82 72 143 66 57 105 151 141 179 194 102 187 95 74 129 85 93 112 179 79 75 125 87 81 72 157 77 101 80 163 160 87 165 146 66 117 173 175 175 187 182 168 154 108 94 190 113 203 122 127 122 104 108 139 127 176 125 91 104 104 183 150 195 153 194 185 165 158 142 114 69 130 97 144 172 188 131 184 85 92 160 115 138 203 179 153 70 44 63 176 110 169 174 217 177 202 141 102 102 141 197 164 185 124 173 150 173 147 85 128 79 178 142 205 142 129 170 89 133 167 99 174 190 186 168 112 88 98 81 160 119 181 192 195 184 174 201 203 165 186 182 161 178 143 154 100 83 91 102 191 92 187 163 176 184 94 87 134 145 41 104 131 136 53 88 123 66 135 85 59 68 134 102 169 112 81 88 171 141 118 105 89 178 86 71 133 159 97 156 161 123 160 117 137 187 111 110 189 170 224 171 175 117 93 100 121 80 95 146 173 168 103 129 70 156 171 186 142 104 189 89 123 84 95 172 198 202 191 193 150 136 118 202 116 81 153 76 132 103 66 165 162 97 116 82 146 141 163 151 95 159 83 189 190 88 99 140 148 158 102 164 90 156 100 130 154 132 107 185 106 130 85 168 182 165 157 96 74 161 147 143 173 169 150 62 105 57 167 181 181 109 65 71 119 95 195 199 110 166 141 189 119 113 151 94 76 122 56 144 172 205 129 146 134 198 136 156 182 153 156 180 140 137 100 167 130 64 104 71 178 180 168 180 122 149 52 161 164 67 101 74 83 73 154 98 172 118 130 96 133 123 171 99 125 119 191 193 158 132 112 161 179 174 193 200 118 172 192 130 186 178 110 110 148 148 144 119 96 173 107 80 97 201 101 103 125 69 69 75 77 71 100 75 135
93 108 126 136 145 148 148 148 159 185 202 215 212 204 196 179 180 191 190 174 168 174 160 160 167 170 186 189 182 188 196 208 206 187 163 153 164 180 186 192 185 183 161 141 150 139 154 178 189 164 200 182 186 208 176 164 151 147 110 125 108 121 158 98 127 120 121 108 126 142 88 81 134 140 126 135 101 113 130 152 185 119 153 133 118 89 79 90 99 121 135 88 113 63 70 92 123 106 63 57 77 58 107 94 138 131 113 143 156 98 110 122 94 108 87 98 146 161 87 84 140 49 53 52 69 173 96 195 109 174 150 174 81 88 190 188 108 153 155 128 104 112 153 63 161 65 115 161 149 150 115 130 103 60 167 169 178 94 180 149 102 168 171 131 182 206 121 112 185 178 188 119 178 144 112 136 99 171 116 167 120 168 188 176 73 75 175 157 76 154 138 109 73 112 140 191 186 168 108 113 117 126 174 114 74 112 76 84 104 116 121 198 166 135 155 145 140 212 113 186 97 122 116 136 76 144 66 79 175 102 200 106 98 136 70 57 155 163 168 180 171 180 90 99 136 122 106 98 155 179 166 177 149 140 129 194 197 187 85 186 179 166 141 79 96 117 156 122 173 146 154 84 176 111 80 63 152 107 109 135 146 100 89 154 92 141 68 160 152 128 109 150 106 110 159 79 150 99 117 94 148 132 150 145 108 129 161 157 122 110 104 149 83 127 155 114 175 224 134 118 91 146 89 85 117 135 174 114 83 162 107 107 176 158 115 123 165 108 91 189 173 118 128 109 106 197 181 182 133 201 90 162 77 93 72 114 74 118 146 112 150 86 160 171 91 193 168 176 75 102 109 171 146 90 165 127 93 175 100 139 180 155 140 142 99 183 96 183 153 142 97 184 128 133 134 140 158 144 152 148 103 166 95 92 135 66 166 146 120 155 152 67 184 109 173 191 190 101 169 120 181 92 144 143 56 55 158 142 123 137 128 118 103 184 111 196 100 97 97 124 86 90 143 161 159 82 142 187 129 106 158 136 80 115 168 165 68 72 149 79 169 87 89 86 127 166 149 120 80 183 128 130 149 150 189 141 106 97 127 186 195 146 130 122 191 167 160 108 111 155 86 82 152 113 191 255 161 73 150 77 132 89 80 113 142 56 66 101 99 74 70 124
108 119 136 148 153 155 160 153 157 171 193 193 198 180 185 180 194 189 179 180 170 176 161 164 163 159 175 168 172 169 182 197 197 184 168 165 179 192 205 200 194 173 159 128 115 148 160 151 153 184 158 185 188 162 184 187 167 146 138 118 126 156 100 148 138 113 119 58 128 75 113 137 96 94 68 64 143 101 184 170 113 134 113 114 109 154 84 107 131 158 132 124 87 65 70 87 91 79 95 74 53 93 100 83 132 147 118 90 150 82 120 97 63 76 80 108 103 148 90 134 66 91 63 64 74 158 88 164 186 171 131 151 86 124 101 155 183 104 104 154 50 139 136 102 156 89 168 158 189 172 170 69 156 136 146 156 108 186 190 153 121 150 119 159 142 113 181 192 128 160 160 123 149 141 203 107 138 150 141 196 121 203 89 75 123 158 79 95 136 166 103 154 74 114 125 103 178 192 123 179 180 98 137 71 57 50 151 133 127 115 202 109 149 161 100 193 111 123 204 185 170 175 84 105 130 76 171 178 193 128 201 165 105 171 108 111 115 83 77 135 73 119 174 129 193 151 106 136 186 108 140 184 96 186 197 194 118 171 167 156 186 92 166 165 159 132 141 173 165 71 98 158 114 146 70 169 89 72 128 128 68 58 73 110 78 84 59 164 176 166 88 93 159 85 163 142 125 154 94 160 82 96 116 111 162 92 118 202 115 95 134 108 62 69 184 202 225 135 133 179 113 88 138 151 78 143 85 92 186 152 110 164 113 187 111 128 79 167 84 90 182 115 129 127 103 124 126 183 191 175 139 150 108 50 105 131 181 187 187 190 172 84 103 161 104 205 213 196 183 147 89 127 100 181 100 143 83 80 116 86 117 196 161 186 121 193 185 132 194 191 200 154 144 156 190 156 110 188 166 87 75 61 121 127 109 77 116 80 61 93 122 62 110 146 142 209 189 194 155 133 169 149 82 71 132 117 131 124 152 135 136 197 99 183 156 125 111 107 191 96 89 146 67 100 93 127 149 105 184 97 84 166 163 92 183 184 162 171 81 126 178 97 187 152 147 177 183 149 168 192 165 161 164 191 87 167 126 157 80 172 207 124 187 135 156 181 156 135 74 91 159 74 77 80 123 171 80 148 140 123 162 117 152 86 134 147 69 131 144 92 255 133
114 120 131 144 157 166 164 154 153 160 162 170 179 166 177 172 171 176 169 170 255 177 160 160 159 156 161 155 156 164 171 182 185 181 174 175 183 200 200 187 182 179 165 146 149 139 158 162 178 171 177 158 173 134 168 126 148 104 101 178 162 133 179 105 103 88 112 140 140 93 145 103 156 105 161 150 164 97 109 162 103 97 122 112 103 140 92 99 105 149 120 104 141 91 96 113 92 82 90 44 69 88 105 116 85 98 124 126 105 112 93 67 86 68 98 139 88 133 131 86 125 143 95 73 75 62 73 72 123 169 110 87 94 97 104 196 91 163 110 110 104 137 75 114 64 99 84 183 161 158 95 134 111 102 164 104 173 131 178 188 172 160 164 179 125 213 199 193 141 164 98 162 210 217 137 179 184 140 187 176 195 199 178 103 122 180 108 99 111 163 108 72 76 86 103 195 166 179 154 202 131 176 99 85 161 55 92 162 81 171 190 181 127 139 146 164 102 197 100 145 155 155 73 150 132 89 94 115 150 118 197 181 90 64 94 102 149 166 176 173 100 147 107 129 115 178 193 193 82 125 163 111 190 130 179 89 117 168 70 115 124 106 170 107 166 110 91 131 114 95 149 136 57 65 121 184 169 83 160 87 63 162 166 68 69 87 93 86 152 117 91 117 118 91 60 91 164 123 181 151 143 114 88 117 130 185 170 118 96 91 81 143 70 64 178 189 126 139 133 123 193 102 186 91 169 95 162 98 93 107 100 150 169 118 181 79 96 144 184 104 187 186 128 162 153 131 159 204 197 112 73 106 136 137 146 76 183 182 135 176 101 91 88 171 126 205 223 215 159 174 165 179 87 87 125 124 172 177 180 97 177 128 196 176 164 191 179 156 148 106 114 184 190 146 188 188 193 92 142 149 91 72 82 48 105 64 155 96 56 41 140 153 118 179 164 172 201 130 94 80 161 153 103 83 156 145 95 74 114 105 130 91 90 170 210 210 214 114 111 127 138 159 126 91 180 185 186 194 100 122 93 154 129 185 195 177 131 111 183 184 176 154 187 86 124 150 180 203 161 186 120 188 93 121 179 119 185 186 154 176 197 140 212 127 141 99 136 132 96 100 85 85 147 72 163 132 62 77 72 103 62 118 172 171 71 137 61 86 168 83 130 84
118 118 122 131 152 162 166 155 153 145 155 161 152 160 157 167 175 159 166 163 171 175 172 167 152 153 154 169 168 170 171 170 179 180 178 176 182 190 182 177 173 165 168 166 168 158 156 143 166 149 139 169 138 177 187 165 120 133 161 109 133 155 187 131 119 123 107 118 144 122 101 113 156 84 92 114 122 106 101 100 126 91 63 89 83 112 95 131 111 113 112 108 130 79 97 141 128 90 62 62 101 78 83 82 82 131 103 134 90 82 72 105 73 109 148 124 80 96 88 95 103 102 153 108 170 109 72 61 138 62 132 87 155 178 99 135 150 174 159 92 145 47 125 156 68 114 94 188 109 179 180 181 157 128 171 136 91 148 109 181 108 69 128 152 208 222 200 192 88 108 126 174 138 203 208 119 193 110 144 135 136 191 199 140 96 126 161 163 80 70 166 140 150 163 99 197 204 129 117 181 105 99 153 158 141 61 65 83 94 83 176 154 150 149 79 72 130 183 177 168 135 127 146 106 152 125 143 123 208 198 102 94 167 60 138 105 97 103 173 87 84 151 146 70 162 204 201 188 86 160 155 178 149 157 198 119 155 66 156 120 174 112 102 109 109 180 86 162 144 135 132 109 138 66 79 170 181 96 146 126 160 139 160 124 116 145 81 160 77 91 123 112 160 60 62 87 176 109 131 150 118 94 112 144 164 94 156 110 89 125 58 144 133 100 81 104 196 134 178 142 212 127 185 83 65 60 99 60 75 89 137 173 106 136 75 128 144 167 140 182 87 121 102 122 107 97 100 128 118 155 101 145 132 142 122 93 160 147 144 186 165 89 170 147 196 171 203 180 119 181 166 129 168 151 73 95 109 152 152 133 190 197 159 102 182 177 133 196 184 105 116 111 170 187 114 201 152 82 148 72 102 46 68 65 155 104 79 101 48 131 113 104 122 167 136 122 146 156 187 113 150 86 134 159 128 137 121 81 99 157 146 164 177 99 203 121 183 204 125 99 93 116 86 178 188 175 95 177 94 137 85 138 165 182 174 174 186 177 139 179 182 192 115 159 75 132 116 195 204 154 169 112 127 111 144 112 201 125 120 118 151 128 130 197 161 164 138 64 72 125 125 69 79 91 122 73 76 153 141 53 119 80 90 123 75 96 73 163 102 173 110 103
116 111 112 120 140 255 161 162 145 147 137 148 150 163 162 165 149 153 145 147 168 168 168 182 171 176 176 189 182 189 183 173 172 170 169 168 169 173 176 173 165 161 168 163 171 193 162 165 169 146 176 174 154 155 174 165 167 113 149 128 135 183 148 115 188 164 146 120 159 183 175 162 85 147 91 148 156 145 142 159 89 53 73 60 117 91 98 130 127 103 156 98 99 75 104 87 110 63 61 67 74 75 61 92 98 111 130 98 101 138 115 81 98 120 169 98 107 175 141 162 112 141 188 108 86 141 56 55 132 62 122 84 186 92 167 97 85 174 65 97 50 133 60 66 147 174 83 151 94 164 144 165 74 171 176 99 132 169 196 203 190 107 161 195 184 157 128 178 160 115 161 195 132 150 128 114 184 116 190 180 191 200 133 127 186 183 123 114 65 166 171 168 83 145 119 173 120 116 165 105 191 159 179 142 105 86 156 73 84 144 79 136 125 140 164 174 83 117 176 100 73 156 102 97 177 100 132 127 161 178 95 111 79 55 138 56 87 170 206 108 160 161 132 159 176 188 143 177 127 122 159 171 198 135 131 88 77 166 127 182 130 167 201 104 187 108 118 78 71 156 45 52 130 58 178 176 109 183 98 109 160 94 166 153 110 75 165 106 140 74 93 74 70 113 67 154 122 142 182 196 116 126 101 111 104 179 119 112 83 84 116 62 111 107 183 169 127 131 180 131 149 188 105 255 151 58 45 50 91 77 148 156 71 167 158 137 183 159 132 112 157 123 61 158 107 94 93 192 162 79 114 132 97 140 136 86 174 168 145 148 142 90 179 142 179 216 225 188 192 159 72 80 127 62 144 131 96 170 142 204 144 149 136 199 135 190 124 103 178 107 149 149 170 170 128 197 83 148 87 69 135 125 63 117 111 126 146 54 53 62 62 77 91 145 63 173 108 156 110 146 149 102 180 145 148 50 42 91 133 77 132 115 145 122 123 178 132 189 103 151 91 146 189 192 197 194 204 111 193 103 150 190 188 109 197 149 84 157 179 172 118 217 107 182 173 154 87 184 177 87 139 156 70 112 178 139 108 109 202 201 155 135 173 205 200 188 82 74 131 164 86 130 78 176 115 122 72 78 128 143 65 81 115 166 89 88 183 93 107 175 134 152
136 126 120 122 136 150 162 163 153 141 130 140 159 168 173 171 167 145 156 151 167 172 185 177 180 190 190 205 218 212 190 176 166 158 153 155 158 164 168 168 163 149 160 165 191 181 182 165 159 148 180 188 189 190 186 190 183 173 138 97 151 184 164 150 174 177 146 130 200 170 100 159 126 134 118 127 152 122 129 119 123 52 41 36 45 112 85 121 121 84 80 95 110 117 75 86 66 54 94 69 79 73 69 93 83 115 110 106 89 87 89 95 125 133 141 123 97 139 92 164 116 112 118 118 110 69 77 50 63 157 185 104 106 87 170 72 77 158 113 85 144 151 140 139 146 143 152 107 123 168 110 142 156 75 174 161 173 107 102 108 141 180 154 186 149 170 141 190 164 94 101 153 202 131 104 180 91 186 173 177 154 127 146 106 136 75 106 151 139 110 125 100 171 78 139 142 185 156 193 179 255 175 169 135 69 76 89 163 140 77 89 93 93 156 190 193 133 94 185 144 166 255 132 83 183 176 126 179 149 83 64 73 95 147 79 81 130 193 184 101 179 145 77 147 166 182 167 174 103 123 80 162 200 122 168 192 95 137 94 184 166 146 152 129 112 87 153 154 168 140 55 140 69 147 103 181 150 115 93 159 110 189 117 187 175 124 149 67 134 137 150 118 64 87 164 185 128 131 160 174 148 95 144 85 123 89 153 189 184 99 132 117 169 120 173 128 141 187 154 187 195 181 98 162 65 92 107 130 60 72 68 71 68 94 80 162 176 91 98 149 151 142 146 121 113 157 186 121 137 164 65 64 134 149 91 94 174 193 132 200 193 92 184 111 195 209 214 182 100 166 85 64 86 141 150 61 167 119 176 191 143 187 182 152 179 178 150 128 122 153 186 131 160 188 108 91 112 106 55 93 132 42 64 60 83 74 96 86 146 148 81 87 77 104 143 74 189 173 106 172 174 125 84 174 160 65 59 100 57 86 60 63 156 107 89 157 106 129 184 184 163 204 181 174 113 130 137 190 102 90 88 191 154 103 92 99 135 161 166 117 136 120 127 190 113 169 94 119 84 142 112 125 99 157 164 99 171 183 99 102 195 137 201 165 211 169 175 110 170 75 81 168 85 147 194 100 78 109 94 93 67 78 157 86 92 165 174 89 110 128 145 183
155 144 132 127 137 153 159 160 144 143 139 148 174 184 176 178 175 155 163 162 164 176 171 186 194 201 206 224 226 214 194 171 155 149 146 143 156 166 164 168 160 150 134 161 171 183 176 140 140 152 176 169 182 180 162 162 166 130 147 119 107 164 181 159 109 110 180 166 127 127 150 155 168 137 96 95 190 189 168 116 101 125 47 38 39 94 139 125 130 115 92 77 85 85 88 81 65 57 57 67 73 78 84 87 70 88 93 82 88 145 86 131 106 112 116 137 181 100 98 143 103 96 142 180 101 144 73 138 81 180 109 193 194 164 70 116 93 176 114 173 162 66 66 76 105 73 151 132 114 150 112 73 136 117 130 162 129 74 160 159 109 145 149 121 159 164 163 182 169 90 97 124 124 168 174 152 143 183 164 166 159 176 125 169 146 94 63 151 158 129 157 114 173 122 66 140 138 161 153 112 172 125 105 96 71 101 135 125 78 83 147 131 159 174 200 114 177 107 95 85 150 184 174 118 116 164 96 79 76 140 155 122 130 98 152 168 109 154 157 138 184 97 179 168 79 122 83 166 168 128 181 185 114 200 105 137 194 193 121 111 187 195 187 90 166 138 147 69 131 132 57 63 136 58 75 110 143 95 122 130 138 157 187 202 110 86 91 92 148 127 167 168 144 146 175 101 147 124 121 144 143 186 97 78 83 108 108 146 207 200 137 172 98 95 104 195 123 112 151 95 79 170 146 125 54 59 70 119 156 170 149 82 79 92 130 154 85 91 149 103 131 153 61 149 75 125 171 142 82 73 106 168 171 189 160 163 158 164 143 128 187 115 184 176 149 183 132 98 160 130 114 107 75 73 167 154 125 98 158 111 189 95 102 85 179 116 176 180 135 129 166 193 158 157 138 187 89 107 159 78 78 56 62 85 152 83 168 70 84 91 97 166 184 96 96 127 159 205 101 146 81 157 87 156 161 147 73 81 81 81 69 159 64 147 85 91 167 194 190 127 205 171 125 153 89 140 155 116 171 109 149 87 186 110 162 127 43 118 162 143 136 115 208 183 183 81 106 150 128 126 58 65 72 80 147 92 171 77 89 163 91 183 209 192 205 146 121 130 169 126 127 168 115 182 177 181 82 134 81 51 89 71 88 76 171 86 89 161 121 184 175 114
171 155 137 128 133 144 148 143 140 136 146 144 163 186 197 182 176 169 167 157 157 169 176 191 190 197 209 220 225 215 191 166 150 148 145 154 159 161 173 161 158 139 141 139 163 151 181 172 132 161 148 168 159 181 146 188 136 175 131 118 130 172 144 87 118 165 140 115 175 113 153 122 83 128 99 92 149 103 185 133 145 123 65 114 88 105 63 63 50 40 74 94 82 130 90 91 86 97 81 89 98 98 80 116 84 89 81 132 107 101 147 98 98 115 181 161 139 98 101 92 155 132 145 99 164 124 112 71 87 113 117 112 169 176 71 116 81 92 99 117 172 71 115 112 71 151 148 141 96 79 120 59 116 156 153 126 139 60 171 159 151 148 155 113 212 217 167 193 186 144 178 107 188 134 107 187 94 179 140 93 88 92 124 164 141 114 118 125 113 203 193 117 186 92 148 128 148 161 111 113 154 72 41 83 125 78 91 158 114 170 99 110 180 194 127 213 159 170 182 183 179 193 163 131 131 104 187 119 126 168 79 65 138 138 72 101 188 161 178 107 127 191 182 110 160 118 168 118 103 105 83 103 199 185 167 178 183 133 191 203 184 131 178 78 87 156 68 159 118 59 87 61 81 104 55 140 111 106 179 178 163 179 132 109 171 117 69 154 90 70 113 174 157 76 185 103 208 150 136 198 140 95 86 77 101 198 202 176 160 140 103 83 146 93 95 181 143 161 95 157 71 128 162 50 99 86 58 160 173 114 175 94 187 122 170 170 150 159 120 113 69 95 117 170 134 163 98 156 167 169 168 105 177 127 114 88 81 148 87 168 170 163 100 186 187 190 170 174 90 154 92 156 124 88 178 94 144 194 117 107 189 140 179 129 87 122 82 147 104 186 154 108 174 197 102 108 152 136 172 164 153 95 114 72 136 184 108 179 184 91 100 196 127 159 146 120 131 222 107 188 137 129 172 114 152 149 161 166 96 152 116 149 165 98 156 112 171 116 182 203 170 153 189 108 143 188 176 116 179 172 118 160 164 163 126 125 87 144 77 141 113 193 120 199 147 92 80 143 80 63 146 103 116 105 133 157 64 73 171 89 173 174 208 204 181 237 226 131 216 99 84 133 130 107 119 96 76 145 121 74 64 146 74 138 116 132 172 183 179 114 126 184
155 143 130 124 133 137 143 137 134 134 139 144 168 183 193 197 182 188 175 151 145 156 175 178 199 205 206 199 206 206 183 160 158 163 170 172 169 163 166 156 144 131 131 124 161 160 163 181 188 174 162 129 166 156 157 189 193 142 192 132 144 130 101 145 109 144 136 159 113 142 169 175 126 126 148 123 92 138 158 168 156 175 153 65 112 59 66 62 48 42 45 61 100 81 132 120 81 91 66 85 89 88 88 88 118 113 77 74 65 127 78 116 105 104 105 88 94 136 113 83 99 106 127 130 169 159 153 100 90 145 135 118 121 143 159 176 173 172 81 145 137 94 96 71 127 161 167 66 156 76 74 107 160 139 72 44 71 137 68 107 123 159 202 208 147 185 207 129 177 176 126 105 161 107 119 194 166 122 194 160 139 90 96 147 148 142 91 175 155 211 143 129 148 193 88 77 135 109 160 61 150 112 110 111 68 112 99 125 104 145 169 146 199 129 198 106 111 167 168 79 180 189 190 183 154 107 199 179 138 95 99 100 109 157 101 199 203 210 161 152 104 97 164 60 149 63 144 136 171 83 127 109 180 79 81 94 84 189 134 153 183 135 143 119 172 99 130 149 64 86 130 70 130 57 136 105 145 187 94 110 78 122 130 100 110 83 138 65 155 92 73 171 114 178 185 144 126 98 177 86 128 146 177 172 166 110 155 147 184 146 116 64 89 169 101 102 105 132 159 165 75 74 91 88 47 114 107 98 144 182 203 178 188 86 128 61 63 158 70 147 167 78 102 187 122 88 165 167 114 140 176 176 81 158 69 70 170 77 172 104 80 89 124 190 169 100 169 115 91 152 120 71 82 83 149 200 167 194 110 183 93 173 131 101 162 124 145 191 102 183 179 212 109 122 147 200 175 145 159 122 98 167 174 109 176 163 168 196 133 170 133 108 150 166 171 211 195 161 106 182 153 110 112 117 74 117 149 181 91 75 255 159 66 107 62 155 173 163 113 198 111 197 183 154 77 123 118 115 160 159 73 68 155 130 54 32 31 48 152 171 101 185 203 179 198 186 172 176 138 186 109 186 125 109 113 64 122 124 92 96 105 109 124 148 233 234 228 193 120 99 88 76 178 160 145 151 109 89 85 126 111 135 133 168 82 162 177 132 96 122 185 183
133 128 123 126 129 136 135 128 128 137 143 155 153 172 171 186 189 187 182 159 157 159 174 178 201 192 190 192 198 183 168 160 163 174 185 176 173 156 151 138 131 123 114 131 165 186 203 207 203 184 134 151 135 185 190 195 143 182 180 130 136 167 111 151 106 109 114 135 129 181 126 170 87 138 102 133 124 92 176 110 113 107 161 141 64 70 69 62 72 120 63 78 83 75 87 87 102 98 101 100 92 134 93 139 109 75 69 113 79 101 127 102 167 96 139 77 99 92 87 77 122 99 60 130 63 97 98 73 155 177 128 186 113 166 130 184 83 77 155 83 88 130 142 140 60 100 75 86 79 162 106 179 141 155 154 62 50 64 123 161 118 126 176 187 140 206 137 187 176 180 87 99 103 160 166 114 160 125 133 144 161 77 62 127 125 187 99 179 96 101 110 177 176 103 135 123 99 82 64 63 130 63 133 136 117 108 113 144 199 118 179 156 167 174 92 160 186 104 167 123 121 117 177 92 170 101 157 120 128 92 180 122 81 123 110 215 191 172 114 192 94 126 172 100 52 140 54 76 172 173 85 111 82 129 84 134 158 153 143 177 180 171 99 91 153 133 188 98 118 68 129 93 51 86 51 160 164 142 180 80 140 70 75 122 104 177 105 136 54 145 64 167 101 167 132 142 187 114 93 154 88 135 106 172 169 106 115 104 175 79 84 109 66 107 93 177 78 91 68 76 176 140 68 54 48 127 158 122 210 155 158 184 166 135 60 78 157 68 70 78 159 93 93 183 182 98 147 159 175 99 196 163 159 94 56 149 94 92 125 107 116 129 88 188 189 123 98 141 157 153 158 116 168 166 101 198 118 106 191 197 130 183 123 189 151 190 144 102 162 192 132 193 115 180 106 126 150 168 167 155 94 139 189 172 174 140 98 97 193 114 105 115 131 199 214 143 205 120 180 128 98 72 130 162 105 79 155 88 169 138 151 111 149 56 62 64 172 191 194 200 119 115 192 86 86 172 167 139 155 102 81 151 96 79 147 108 82 124 140 78 194 103 200 101 127 101 102 131 255 128 208 130 163 103 163 73 76 89 175 108 99 93 192 143 124 164 144 125 165 83 133 88 162 86 174 150 68 175 177 151 188 129 93 90 86 175 149 195 189 98 97 174
115 121 127 135 141 142 139 138 140 146 153 153 163 156 174 192 195 187 180 172 155 148 163 174 195 193 185 176 171 171 161 156 163 178 188 182 177 160 133 123 122 121 137 149 153 182 204 211 198 194 161 162 183 157 177 197 150 165 170 155 150 128 163 175 104 120 123 158 105 137 129 117 104 86 87 71 83 103 133 109 172 150 119 135 80 73 79 83 117 131 83 105 76 83 90 91 98 95 108 97 93 122 131 122 114 122 93 70 101 126 151 98 179 119 164 143 85 86 86 82 97 69 95 137 60 70 156 75 77 144 197 187 103 96 123 160 168 81 108 121 124 174 72 106 122 148 113 145 148 140 153 99 158 170 143 160 67 170 174 185 196 186 158 168 203 124 166 179 186 187 173 112 145 116 138 203 178 116 194 108 97 45 90 111 98 177 162 80 166 115 171 153 92 125 174 128 183 164 85 145 64 106 70 104 86 91 86 172 148 184 105 192 182 151 76 73 101 91 172 160 93 85 136 90 94 101 181 179 188 104 138 147 191 196 212 151 161 133 196 133 86 180 179 131 148 113 137 156 132 174 74 153 136 149 80 165 177 183 190 142 179 159 153 187 161 183 102 115 80 147 45 37 101 139 102 146 91 188 183 80 144 64 137 131 142 135 100 86 60 82 62 67 59 137 71 167 94 145 162 77 95 191 97 86 92 159 125 144 88 100 79 75 139 91 97 174 145 83 76 154 166 159 151 121 62 105 183 209 134 157 176 100 90 73 93 153 89 76 129 90 179 114 132 196 103 133 112 135 165 109 199 176 168 157 138 41 104 150 102 137 62 163 126 114 126 165 82 167 154 88 83 170 142 94 92 189 154 103 138 144 144 196 185 184 144 149 112 168 142 184 107 175 125 170 198 117 192 104 198 159 136 192 94 88 110 177 178 106 120 180 192 142 130 223 220 137 201 173 138 160 83 91 84 81 165 184 95 84 149 139 75 89 157 65 75 164 170 190 112 104 183 202 101 118 90 125 153 72 152 162 170 174 160 75 160 155 54 55 125 173 166 194 151 168 151 164 178 171 121 145 129 138 87 89 100 73 120 73 127 148 92 79 176 147 201 200 150 104 75 103 89 128 137 92 147 128 108 74 103 188 184 112 207 200 113 193 119 93 93 138 70 66
118 131 145 152 153 153 152 152 144 147 161 167 162 159 165 178 203 196 192 182 162 160 158 172 171 179 168 168 159 152 145 148 150 168 173 183 178 154 131 109 115 136 149 153 174 189 187 201 169 159 179 169 180 175 175 198 152 175 164 168 140 181 183 138 176 137 131 142 126 173 115 94 137 92 127 104 84 104 170 153 160 91 123 75 73 84 100 116 111 156 93 78 111 68 137 106 138 98 130 126 90 109 95 86 113 113 85 82 104 130 157 151 123 181 91 132 70 73 83 141 152 136 82 118 164 153 98 94 80 164 134 104 124 195 165 194 108 183 84 180 84 81 156 58 56 46 49 143 145 135 181 188 164 202 110 188 190 157 172 206 153 105 197 210 188 200 123 117 154 166 170 177 113 133 156 116 185 179 91 150 63 88 115 133 119 129 84 101 152 153 88 171 74 88 164 183 159 168 152 157 69 99 86 175 80 184 171 96 156 183 147 178 124 77 96 72 89 185 154 149 127 94 161 179 170 79 161 108 255 101 99 186 174 156 214 194 124 131 121 115 97 90 157 160 114 54 152 155 143 137 77 159 131 154 184 182 93 169 109 192 191 190 170 167 146 152 178 164 176 149 53 35 111 85 156 103 91 176 92 78 62 66 255 108 92 151 150 150 60 150 62 56 47 44 61 168 173 102 106 81 92 115 179 94 140 103 165 192 177 128 113 123 87 77 176 79 165 74 88 142 113 150 84 164 74 83 147 123 212 118 95 68 136 92 67 70 93 76 151 85 109 170 187 188 101 138 74 143 170 145 127 127 172 73 45 133 57 114 119 81 149 155 91 104 181 148 90 171 171 133 145 97 100 80 131 191 158 95 146 102 204 216 219 192 194 148 111 78 71 90 172 96 174 123 196 192 193 95 178 107 160 191 164 81 137 65 129 91 128 112 161 128 118 117 210 136 140 183 157 86 116 122 192 102 102 150 87 73 70 119 95 78 166 107 173 133 181 143 100 109 200 121 123 196 186 173 99 174 175 83 168 126 128 170 87 105 169 132 74 99 94 95 180 172 143 189 164 182 178 157 136 137 85 71 151 147 173 82 78 105 131 71 165 100 140 174 84 66 143 54 157 147 153 114 144 143 107 114 116 134 179 195 193 111 141 172 108 138 73 65 76 135
124 140 156 163 163 164 157 150 149 145 161 166 164 165 174 181 194 198 190 171 166 169 161 162 161 157 164 161 151 136 142 142 145 156 168 178 178 171 146 124 122 126 160 170 167 159 185 186 162 182 187 178 185 146 171 182 142 155 186 160 197 130 126 169 121 95 159 105 94 148 108 130 118 134 116 134 150 84 98 155 133 71 60 64 80 129 121 178 128 147 89 69 82 90 82 105 100 103 132 92 100 87 99 87 98 90 134 112 124 134 151 134 119 121 95 79 133 109 136 160 139 113 177 100 96 167 82 167 79 108 85 178 137 190 99 93 179 96 154 87 149 156 166 127 137 119 68 123 95 144 148 179 214 162 147 188 210 175 214 127 124 188 168 165 119 157 195 182 105 118 166 127 170 88 163 138 166 86 91 138 84 46 140 138 180 186 147 93 130 140 121 99 120 78 178 136 156 65 116 148 93 161 158 142 95 194 141 103 186 142 112 96 93 173 148 167 90 115 207 144 196 183 177 119 125 100 137 185 109 188 110 88 97 189 210 214 159 170 169 171 148 182 184 175 126 84 115 129 164 174 92 126 123 159 255 162 153 109 151 143 155 116 173 156 108 140 164 105 128 74 84 50 124 66 148 72 96 91 133 82 112 92 110 175 187 82 69 67 153 58 97 100 76 135 76 127 106 192 97 188 140 180 137 117 127 122 110 163 107 85 185 150 98 110 154 77 72 106 88 93 139 180 128 107 138 95 200 121 166 114 124 101 114 51 62 147 161 74 74 79 77 176 162 194 191 99 89 91 131 118 92 108 88 93 60 136 122 87 82 122 105 130 168 145 120 188 143 93 104 150 152 120 136 158 133 176 178 90 102 193 146 221 129 128 98 163 101 94 122 124 165 123 172 255 156 181 145 162 195 192 104 151 86 139 150 66 171 160 115 200 149 168 107 115 129 149 161 73 171 155 129 99 196 157 144 171 161 67 154 135 168 92 171 174 141 157 101 109 108 107 192 98 124 117 162 91 170 113 168 98 136 122 110 158 169 160 173 83 184 118 115 164 184 106 188 161 145 123 198 104 157 178 129 148 62 119 95 83 172 101 152 121 109 135 186 180 175 128 87 134 62 172 183 166 127 110 110 152 95 78 131 152 195 117 103 106 117 79 127 66 140 98
121 136 154 162 162 162 155 143 142 134 152 158 159 161 173 174 185 193 186 176 178 173 162 148 138 162 167 169 155 142 135 138 141 144 159 177 189 175 163 132 141 147 163 172 160 177 177 170 138 151 161 192 190 182 175 176 135 134 178 165 190 156 187 191 151 124 92 150 72 84 123 141 89 105 158 145 81 140 69 107 74 59 80 124 89 179 137 198 118 101 89 78 122 64 68 94 105 97 100 122 143 91 91 107 130 115 102 113 81 73 105 98 144 114 97 159 60 72 152 118 214 146 128 108 101 195 140 175 172 75 126 97 155 179 179 83 87 120 131 177 86 80 157 82 64 136 56 54 61 166 167 139 208 141 218 186 146 215 222 191 112 170 196 137 152 154 121 157 196 140 116 103 164 122 134 113 157 84 61 157 146 85 95 96 130 184 142 155 101 60 166 145 155 131 90 93 82 147 137 122 70 96 155 111 98 162 116 113 155 103 122 157 89 141 176 85 102 120 128 203 155 110 117 137 94 185 150 177 126 168 101 95 89 189 182 147 103 185 165 90 175 129 105 168 146 98 70 159 177 172 133 170 172 144 94 126 99 168 188 201 204 205 156 189 205 200 170 127 70 70 135 64 81 141 105 164 117 94 180 109 174 196 169 170 128 98 148 68 138 127 133 47 108 49 121 171 204 158 202 189 99 166 189 92 97 112 143 114 173 255 188 169 105 126 83 77 73 150 97 99 186 154 255 131 97 137 184 132 207 179 123 77 118 93 56 134 165 89 169 103 128 78 184 152 197 122 118 118 85 159 143 154 81 171 108 152 74 113 101 50 41 138 132 109 187 187 159 99 139 163 88 80 142 167 184 173 189 134 162 175 132 203 169 157 175 163 156 117 104 154 171 113 117 201 208 113 132 119 144 190 185 138 172 155 147 78 112 98 171 211 117 105 99 183 152 255 125 156 160 180 112 116 111 207 116 189 84 65 73 149 167 184 110 190 204 106 122 113 115 203 169 109 190 153 124 100 184 135 171 148 150 145 118 98 165 120 166 87 177 193 122 111 152 129 184 98 174 112 179 189 152 75 134 65 155 168 125 175 103 88 96 141 117 173 146 180 148 119 69 73 67 112 165 101 83 168 88 61 91 102 83 146 173 104 164 90 78 116 75 79 163 155
114 127 142 154 160 153 150 132 129 122 145 161 169 159 174 255 175 170 175 167 159 154 151 148 149 158 178 172 167 163 147 142 140 152 170 182 200 193 175 158 149 160 164 167 154 165 174 168 169 171 181 180 176 154 171 156 144 126 173 197 163 205 154 193 136 184 97 72 65 141 131 134 81 84 107 166 82 109 139 76 133 89 80 74 102 121 188 135 110 88 128 84 62 78 85 75 108 97 93 104 106 96 137 110 91 123 118 96 132 91 67 90 117 112 104 80 84 76 119 188 144 157 155 164 182 166 110 146 168 152 124 56 154 85 131 72 73 165 184 101 183 93 137 70 155 109 100 173 176 177 144 190 162 207 216 146 196 145 223 160 105 167 109 176 216 120 124 191 184 180 129 178 87 81 147 73 86 157 126 120 115 170 140 106 115 153 134 75 118 144 157 138 99 150 136 140 162 97 95 142 84 177 138 97 111 154 98 120 199 139 117 123 101 184 142 114 100 208 120 213 185 129 176 159 102 101 110 146 191 121 121 143 174 150 95 133 186 184 182 181 173 93 75 77 159 66 95 165 178 117 178 171 84 152 70 74 79 128 177 162 107 174 140 114 206 199 116 176 171 79 148 83 65 134 111 142 170 179 154 207 121 110 128 207 116 92 174 151 89 136 94 125 57 154 143 201 117 118 165 192 201 121 99 115 126 110 179 146 200 94 185 194 153 101 164 150 94 107 152 135 98 123 151 160 178 134 118 153 221 175 176 118 137 66 124 72 145 72 135 152 86 85 86 150 95 193 192 104 110 80 115 128 149 85 153 151 103 186 150 147 97 144 68 179 183 187 180 167 138 171 157 129 107 157 141 179 187 95 79 86 162 108 115 83 141 162 163 93 170 86 119 95 136 170 149 113 199 164 105 188 105 157 154 61 146 86 77 104 200 188 145 157 153 83 107 165 157 155 159 161 98 194 117 201 177 195 85 142 138 75 126 170 207 212 111 103 166 156 113 202 111 180 149 180 138 183 172 92 133 63 145 48 148 86 138 140 166 84 103 187 212 180 138 133 175 133 201 107 116 182 87 150 83 150 168 81 160 109 144 72 41 64 150 140 118 85 168 161 96 163 154 184 93 191 152 180 132 68 69 83 118 146 132 143 91 121 68 167 115 119 82 160
113 123 132 145 147 143 132 124 115 120 135 141 166 156 171 171 165 163 149 147 146 159 158 152 153 161 183 193 179 172 154 144 146 155 178 193 203 195 180 174 173 161 169 166 172 156 169 171 135 159 168 158 160 177 157 124 163 165 183 128 154 199 166 175 162 104 92 141 136 123 93 60 129 75 110 135 86 152 108 91 76 83 70 87 109 164 125 163 134 81 135 80 90 89 100 105 89 90 109 99 94 103 101 83 123 90 96 136 85 97 76 79 113 174 114 96 84 90 145 157 150 208 127 119 189 118 150 102 170 110 128 51 74 162 74 59 125 91 87 102 149 152 176 86 174 164 193 101 98 182 126 131 156 126 145 130 205 213 227 166 189 200 148 197 127 196 167 121 182 161 145 110 126 154 68 83 83 130 152 161 93 186 128 151 144 121 94 73 110 171 169 104 111 134 106 167 121 142 50 53 135 80 185 98 122 164 76 92 156 100 89 106 107 198 198 162 171 103 102 188 180 178 166 132 182 119 113 110 166 167 124 87 188 172 136 80 92 130 170 97 120 180 92 170 145 153 162 183 147 179 168 172 166 107 96 132 167 167 117 149 84 163 97 186 141 149 212 186 177 183 164 112 169 165 116 162 139 101 117 113 133 119 110 120 136 142 167 75 120 175 179 158 161 125 87 193 162 125 95 189 106 104 121 90 186 134 138 170 108 97 103 109 128 139 186 103 83 166 81 180 86 188 109 102 121 140 157 116 126 153 103 80 67 53 47 70 147 152 170 153 76 138 162 171 125 156 92 92 191 174 171 73 101 157 181 138 164 201 169 144 122 92 160 173 147 176 104 105 186 173 114 77 116 140 79 142 187 134 100 96 183 98 122 114 89 171 123 121 132 112 205 107 194 181 195 139 199 186 113 106 175 73 154 95 108 106 166 155 146 102 65 156 159 79 160 128 167 88 118 99 182 112 114 150 173 181 157 161 156 73 141 151 183 193 103 94 189 118 105 105 88 78 83 109 181 99 153 82 104 49 135 145 99 91 83 152 161 79 191 153 118 207 105 104 89 137 128 188 187 157 147 121 110 158 131 76 130 52 63 90 101 119 138 139 137 66 59 131 157 168 161 142 154 105 122 168 95 157 148 75 100 75 77 130 75 111 158 128 150 152 86 170
130 136 144 153 150 146 133 124 116 114 135 147 159 155 166 158 149 153 152 158 161 158 154 147 151 159 180 193 191 182 164 153 150 160 181 196 203 193 187 182 192 189 168 169 169 182 183 170 173 172 141 165 129 142 157 136 122 154 182 165 154 173 192 139 141 147 94 110 134 93 114 77 107 152 151 126 90 94 145 127 91 138 76 132 121 180 158 108 114 111 114 114 85 88 78 70 67 69 79 92 106 136 118 97 107 87 115 110 100 94 130 101 94 114 85 104 119 75 159 174 225 123 107 179 176 107 184 198 101 79 60 51 133 58 156 51 146 102 92 131 103 190 163 190 199 117 144 144 178 185 76 143 68 135 174 138 200 191 195 123 111 98 180 98 107 100 183 127 195 195 126 94 78 130 87 158 149 131 115 124 181 122 99 121 100 156 69 135 98 88 96 148 206 181 155 116 71 147 123 72 160 106 187 102 75 69 64 142 178 107 84 83 108 141 132 193 160 151 85 92 178 104 128 109 106 192 175 124 90 145 79 92 175 132 93 77 133 104 152 154 100 94 176 180 122 171 94 183 130 154 137 78 106 151 162 145 147 138 160 83 161 83 177 133 119 154 124 184 145 168 184 122 93 167 122 140 166 167 129 104 94 151 163 110 108 106 177 97 184 178 99 86 111 78 87 97 108 89 156 118 183 156 127 113 199 130 209 154 102 188 139 166 164 128 110 205 103 103 103 111 123 166 173 166 201 144 100 123 178 119 207 164 156 155 55 152 65 88 173 175 77 120 81 146 120 161 121 158 189 153 161 151 155 74 174 200 109 148 90 160 74 70 130 93 99 118 147 188 172 101 155 79 65 78 161 197 108 99 151 115 186 177 127 132 108 147 126 188 187 159 189 111 185 124 191 140 124 194 147 179 146 68 76 156 158 92 165 69 93 141 149 145 152 125 180 95 135 166 173 183 183 82 83 97 146 151 132 165 114 167 90 179 95 189 190 134 166 95 188 94 154 76 80 109 95 125 135 173 134 132 84 134 161 144 167 172 135 167 103 95 202 198 191 93 63 93 109 152 195 187 143 151 119 113 81 53 40 131 131 67 128 162 76 74 124 78 146 160 92 90 132 194 107 174 203 170 189 130 161 157 91 89 103 69 149 59 57 126 77 128 94 183
147 154 160 166 165 154 138 128 129 122 133 142 165 171 167 141 152 139 158 168 166 161 148 154 145 153 158 187 192 188 165 160 155 168 183 193 199 188 185 198 205 193 179 181 190 196 172 143 169 171 162 130 162 120 159 173 144 186 148 149 146 194 146 151 126 180 147 72 134 59 85 68 71 140 114 130 114 160 165 136 136 89 126 84 145 102 118 99 118 68 81 143 157 110 102 125 62 67 111 124 110 138 130 119 63 61 97 97 94 99 82 85 88 102 75 128 134 138 110 175 132 190 114 91 96 98 113 120 103 179 68 51 85 150 132 57 70 132 135 198 195 144 121 117 168 207 212 181 142 112 172 161 144 149 90 114 200 204 175 126 177 101 101 130 161 126 140 110 183 153 170 84 112 138 255 121 154 98 89 154 94 128 172 128 108 170 132 164 168 182 200 133 190 109 104 129 130 165 69 149 111 108 181 117 165 111 134 113 138 101 142 121 137 190 124 148 152 121 90 96 165 120 163 159 181 128 168 136 89 146 107 175 158 88 94 128 159 160 96 116 198 158 105 104 93 93 178 150 168 92 69 165 90 163 72 127 60 118 89 168 154 106 188 105 115 120 159 204 160 132 209 176 88 144 154 157 178 100 160 126 97 168 176 194 199 156 100 98 117 129 92 172 153 78 117 188 107 77 80 169 179 195 191 202 108 152 167 187 92 183 134 135 210 194 218 184 120 105 117 123 199 128 189 172 106 175 169 152 105 175 114 168 97 141 155 131 168 99 185 88 148 170 78 75 119 86 182 187 126 157 81 125 148 104 169 195 164 86 84 97 91 103 172 167 109 186 182 124 139 70 156 82 169 167 111 195 204 114 105 120 112 154 118 187 135 133 120 201 149 146 173 190 156 174 99 152 131 120 148 175 70 66 116 62 134 116 83 84 128 66 78 154 80 98 153 194 98 89 171 157 135 164 160 146 170 160 163 161 118 173 114 130 87 179 183 157 146 167 75 129 133 125 85 87 176 187 150 112 152 65 55 71 181 191 187 80 133 159 131 172 87 105 179 120 141 84 99 162 195 175 173 85 79 121 112 57 40 107 97 119 170 138 166 178 67 123 127 76 106 163 135 202 138 162 110 132 127 167 136 87 66 75 59 52 52 149 81 106 154 109 156 104
163 171 178 181 177 166 158 152 145 141 148 160 168 163 151 137 137 153 169 179 181 163 163 157 154 155 168 182 197 199 183 168 164 172 185 193 191 192 197 198 210 209 202 184 195 193 162 161 147 158 151 168 146 162 108 115 173 133 185 174 164 124 145 147 171 124 131 86 87 103 58 146 143 149 146 85 105 177 137 122 102 144 92 136 146 89 110 109 57 89 88 110 119 110 132 125 69 88 101 152 119 108 115 90 66 95 51 70 70 115 90 143 101 137 134 82 140 69 106 158 121 84 98 151 171 184 119 112 110 91 79 152 67 68 111 146 144 59 85 195 171 124 189 101 197 193 203 192 120 187 77 64 154 152 63 123 183 166 154 191 172 90 150 99 125 110 143 148 165 147 136 156 157 132 214 121 142 100 161 107 168 151 133 102 173 175 81 131 176 170 106 255 191 128 137 144 184 149 161 91 128 205 120 184 149 65 104 114 92 86 178 165 205 126 110 106 135 139 118 123 171 136 137 164 125 169 170 122 139 143 76 65 156 164 118 160 73 121 120 199 255 205 197 98 151 182 124 189 155 163 154 158 174 132 67 113 153 74 138 201 112 168 198 201 187 203 110 153 189 167 154 131 118 150 99 86 93 105 177 121 142 145 141 94 90 111 141 116 127 160 103 168 80 176 127 103 185 73 61 148 80 91 149 180 180 138 133 109 93 98 129 188 186 151 196 183 125 155 118 100 119 195 122 175 118 91 80 108 167 201 143 121 84 66 97 86 158 194 176 86 79 98 66 155 166 80 183 197 109 94 169 56 90 169 106 118 169 86 143 117 155 108 121 170 91 140 134 157 138 101 142 156 153 127 154 127 165 130 96 86 189 171 126 189 166 201 158 150 191 141 127 91 80 152 100 105 211 205 203 181 82 83 78 133 121 127 156 152 65 122 155 116 118 134 102 123 82 180 123 99 82 70 62 161 146 130 169 122 165 189 148 105 162 133 109 162 99 85 165 100 76 89 176 146 123 200 178 87 82 87 132 160 138 163 106 170 57 115 55 155 162 150 171 67 40 112 148 152 113 97 182 157 106 155 71 107 94 45 144 89 75 194 144 125 81 75 145 92 125 97 148 110 102 131 189 149 106 190 157 102 70 92 148 61 133 153 82 118 178 162 138 148
163 169 176 180 176 171 166 162 255 141 142 148 162 153 150 135 140 154 162 177 178 188 175 158 146 155 166 180 202 210 198 181 171 173 181 189 194 197 204 209 209 193 193 193 187 176 162 157 151 154 129 176 157 151 104 127 160 175 178 196 155 185 117 142 171 98 159 124 83 101 69 131 102 86 153 158 113 108 155 141 113 78 78 95 118 80 64 64 53 70 98 114 152 113 133 90 85 75 97 162 116 132 100 104 75 75 73 101 98 160 99 97 83 80 106 88 141 84 151 88 114 124 110 91 136 142 90 114 171 84 180 83 119 94 79 156 57 65 103 90 194 203 207 110 206 192 100 175 186 170 179 73 75 162 103 132 187 106 108 166 149 108 95 100 118 70 63 89 145 95 102 117 181 165 176 178 132 121 150 121 153 177 124 93 183 131 180 148 165 183 197 192 118 128 139 200 101 113 153 103 165 127 137 194 177 78 89 159 108 154 182 177 189 204 103 153 80 79 89 89 136 149 154 158 104 186 98 185 90 94 74 128 134 148 146 88 139 138 126 157 168 142 123 165 189 97 142 98 142 92 155 178 120 119 130 130 83 155 104 191 114 141 195 186 177 106 90 179 123 138 110 153 116 134 98 150 120 95 130 126 136 175 165 167 147 115 160 176 128 75 69 107 125 99 179 104 96 134 155 82 103 90 181 97 101 170 73 163 147 158 164 111 156 186 139 167 129 122 100 190 122 200 202 119 191 107 149 157 89 192 115 134 181 72 139 112 147 175 153 83 84 101 71 127 137 108 134 109 162 120 83 131 148 182 138 113 118 103 163 171 157 176 185 141 95 113 146 77 96 165 80 99 158 196 177 208 188 112 69 153 134 174 86 178 116 114 142 84 103 114 138 170 153 174 172 95 255 141 100 185 149 124 106 97 160 78 170 81 146 58 154 99 96 152 144 98 172 174 123 177 168 122 146 60 134 96 147 121 185 88 131 93 166 117 159 159 134 145 97 82 153 128 142 102 120 181 194 177 112 158 144 128 105 170 156 146 132 102 121 88 132 180 175 143 140 143 76 72 141 132 141 168 167 159 169 81 111 48 129 75 157 178 112 118 125 169 150 91 120 127 116 165 178 81 80 181 121 156 93 80 175 82 74 60 61 166 114 193 184 103 164 127
156 159 161 167 166 172 165 164 157 134 147 158 159 156 149 149 157 158 178 189 189 189 179 156 157 151 156 179 200 210 203 189 174 171 175 182 192 201 210 206 191 174 173 179 184 179 136 152 125 113 136 133 153 152 112 94 118 123 159 173 186 161 132 93 88 103 81 145 102 103 105 60 80 107 88 111 127 141 130 162 98 156 152 120 113 78 130 54 61 87 104 172 130 115 95 77 69 79 96 119 124 123 102 100 135 86 65 109 115 106 155 162 81 125 79 78 151 87 115 84 152 143 93 162 133 84 132 106 78 106 145 94 98 101 189 92 108 165 141 117 200 115 187 206 109 188 188 190 96 178 164 158 161 166 85 185 103 183 102 135 159 149 159 115 180 127 65 115 106 111 129 87 119 180 205 207 205 142 127 51 76 150 146 96 105 165 126 127 128 196 136 149 126 110 123 132 203 145 106 115 183 199 145 190 192 152 149 147 167 114 196 196 157 116 163 137 161 146 133 134 119 145 164 163 116 161 168 178 134 163 121 46 77 79 43 116 64 122 104 118 85 133 105 174 168 174 89 158 83 103 167 186 185 115 120 153 134 168 186 203 168 121 186 172 101 103 86 79 90 74 98 107 67 81 119 105 172 160 104 127 185 197 118 141 91 71 76 82 120 146 75 68 69 161 114 162 108 97 142 126 109 93 141 194 161 107 98 59 66 77 186 200 156 169 218 134 148 90 108 89 109 95 101 108 175 95 71 75 156 199 167 139 171 168 81 170 170 183 90 77 155 166 76 174 135 83 99 137 94 179 75 170 100 109 146 133 58 121 94 192 193 120 145 157 181 148 98 183 137 176 135 98 99 175 134 204 183 63 154 255 62 151 82 162 168 72 164 151 64 141 131 112 85 158 83 99 173 97 160 184 191 186 151 161 118 150 169 103 145 145 57 161 176 162 144 173 108 129 169 155 60 58 91 122 133 125 180 138 182 171 91 180 134 203 123 203 120 101 145 82 123 158 123 130 137 101 169 179 114 117 161 174 120 255 98 136 89 40 158 145 143 124 115 107 87 96 128 74 106 74 68 79 125 140 88 79 144 135 58 96 147 179 101 172 114 117 143 181 155 127 122 174 122 155 149 148 115 93 185 164 94 127 112 60 89 100 101 113 96 141 191 255
141 143 145 151 155 163 166 155 151 136 150 165 172 171 154 139 156 163 172 191 189 194 184 174 159 139 147 160 179 192 192 187 172 167 167 183 192 205 203 205 191 176 168 172 174 161 153 137 145 155 164 169 165 154 145 127 156 169 152 174 144 144 156 106 90 126 100 148 72 146 96 92 64 106 89 118 120 180 191 132 185 167 176 91 83 116 72 58 255 94 119 115 142 108 141 105 66 65 76 135 101 128 146 132 137 121 83 98 112 119 138 110 105 74 96 145 136 84 85 105 167 109 98 174 77 69 63 86 169 83 89 145 129 148 103 92 78 75 178 115 117 137 209 212 108 177 174 143 184 171 101 170 126 137 172 184 194 198 132 154 130 146 141 169 168 185 164 96 119 52 135 137 149 170 191 141 185 113 93 131 154 133 115 146 90 91 196 174 186 175 185 100 83 123 184 114 140 118 122 176 149 223 140 223 129 124 133 106 156 107 171 147 144 121 150 164 89 183 191 170 89 156 169 81 118 84 86 178 78 138 60 127 99 149 124 59 119 125 78 153 61 161 158 71 167 128 58 107 126 111 139 151 197 140 94 111 65 173 103 120 184 112 136 79 131 132 108 79 78 170 95 142 113 58 121 79 80 89 165 206 203 139 192 69 89 131 67 156 74 85 145 63 81 93 171 189 121 101 115 155 192 182 114 180 139 95 111 112 106 168 156 106 192 118 113 186 135 255 122 119 155 128 176 76 115 102 82 94 154 112 171 138 96 82 101 184 98 152 94 163 169 85 166 177 158 106 182 101 79 96 164 133 64 147 106 133 124 170 170 137 124 177 128 209 218 223 215 204 183 174 104 155 102 199 129 171 139 157 97 92 90 111 101 93 133 134 144 168 165 78 123 149 153 165 180 168 171 142 149 181 96 107 179 193 125 85 189 192 155 165 57 62 91 176 87 169 152 174 80 161 148 110 134 40 84 81 151 137 88 150 165 99 95 116 110 135 115 134 93 88 86 104 170 144 110 81 133 173 144 77 74 150 137 75 56 75 126 134 94 110 126 171 125 110 107 93 75 124 153 137 162 156 161 140 84 130 166 109 159 104 92 118 182 140 119 105 197 178 167 167 162 137 119 149 47 90 102 164 183 84 106 109 94 82 162 85 130 195 185 174 113 137
132 132 136 139 147 152 162 161 157 155 169 183 180 175 163 140 145 170 168 187 192 181 188 178 154 139 137 140 137 163 168 179 173 173 171 182 188 193 202 195 186 166 172 177 159 172 142 156 137 154 169 145 166 168 169 135 138 149 161 131 149 99 106 121 112 148 165 111 135 86 71 119 61 103 91 103 129 144 114 113 165 151 122 95 95 128 73 110 131 91 161 118 104 93 85 75 108 79 84 90 92 135 104 110 97 100 89 83 103 111 131 115 86 114 73 86 83 78 86 135 162 182 134 171 98 70 76 138 168 108 84 139 160 99 165 95 154 80 149 105 220 218 142 209 122 182 172 173 104 175 181 175 83 165 161 119 104 196 153 116 98 81 181 163 196 171 138 84 85 136 87 177 183 157 207 183 155 143 147 149 85 94 89 100 99 183 141 98 120 182 177 76 165 86 165 119 170 183 197 119 153 131 159 138 114 167 193 182 193 150 182 135 185 219 120 150 171 95 189 170 128 92 121 68 139 155 94 143 98 158 164 84 157 139 152 62 135 152 53 82 106 77 119 148 54 61 114 56 132 142 162 255 134 173 89 169 74 169 155 105 94 95 156 70 164 138 169 85 99 188 179 149 153 91 68 90 114 134 169 196 119 113 86 81 117 93 60 109 131 171 155 131 137 124 182 146 109 201 198 167 111 197 146 111 185 170 89 89 120 82 113 93 136 202 121 171 185 174 183 151 162 140 78 128 163 87 174 89 98 138 193 102 182 101 97 108 168 188 117 81 159 85 172 94 93 97 175 85 65 65 140 77 148 70 38 39 70 76 188 111 119 123 177 216 124 137 217 139 173 206 144 178 100 185 206 192 140 83 63 65 73 101 141 173 87 124 179 120 187 94 81 87 170 85 159 87 136 76 165 171 136 109 114 199 177 101 167 109 91 89 119 130 74 89 87 109 97 125 84 126 93 75 139 55 113 93 181 153 93 140 164 140 162 169 183 92 89 74 148 121 192 103 188 163 157 139 79 152 167 160 129 126 173 165 60 134 86 62 190 206 151 217 199 107 127 155 127 172 177 84 121 102 177 95 173 165 84 83 133 127 171 78 92 149 138 142 181 203 206 180 129 118 131 157 151 156 117 120 191 86 94 73 157 158 149 86 186 103 106 122 107 123
128 128 129 134 144 151 153 156 157 169 183 192 198 181 162 150 146 167 170 177 177 174 169 170 151 137 127 126 123 141 154 168 174 173 173 182 182 196 191 198 191 182 178 181 180 172 173 175 183 190 177 157 160 151 161 189 169 132 167 173 130 106 162 93 146 124 152 145 137 74 62 84 53 105 111 100 115 129 206 146 172 133 170 100 162 113 68 72 70 137 138 103 118 111 104 109 141 94 88 115 131 92 144 99 96 105 99 92 128 105 87 74 121 96 69 75 166 96 172 120 123 126 120 139 71 72 113 132 81 86 157 80 176 89 165 153 77 78 85 115 212 152 210 131 207 197 106 203 127 193 103 158 193 191 142 182 172 172 187 82 173 113 167 104 194 192 184 108 86 156 153 124 179 139 211 211 159 183 139 123 137 168 83 137 186 169 91 174 178 154 121 112 166 132 153 173 165 201 195 209 131 145 202 205 193 108 94 194 134 155 174 146 132 209 115 153 108 185 178 102 98 189 183 151 129 118 173 147 112 155 140 125 175 133 152 60 61 71 145 139 70 44 124 49 145 72 132 131 70 161 128 154 147 122 179 81 79 114 182 137 187 174 74 59 58 126 80 161 148 188 158 97 147 153 74 163 99 114 169 134 134 156 147 141 74 117 80 175 99 102 172 117 105 126 139 143 149 115 99 111 103 103 111 136 112 98 67 63 76 118 179 147 134 102 139 183 104 166 92 122 64 153 139 84 87 82 152 175 96 94 155 138 178 77 138 143 107 110 168 148 136 114 179 85 255 169 97 71 157 122 121 166 137 50 75 110 79 135 164 185 206 114 197 198 166 213 215 255 186 198 184 167 87 140 127 199 195 155 91 71 141 77 110 172 164 158 194 110 160 172 72 140 75 134 149 117 129 125 81 98 184 122 181 126 129 103 135 147 106 165 143 145 156 81 185 97 124 109 157 119 158 129 119 62 134 141 160 161 145 161 166 129 95 153 110 92 103 73 71 97 111 201 144 97 114 113 51 89 112 166 71 157 122 92 74 113 143 165 193 210 193 183 185 177 81 71 87 173 85 151 163 144 108 172 122 143 121 166 108 109 84 120 119 87 103 144 188 189 187 206 152 163 97 122 71 166 99 99 184 184 147 80 255 129 124 98 129 104 125 97 184 172
137 134 132 132 144 153 158 160 165 177 186 208 202 185 169 157 148 170 172 181 176 175 169 159 140 138 130 123 124 132 146 160 171 171 180 182 185 191 199 199 196 187 171 185 192 181 167 182 186 204 202 191 149 185 143 192 164 175 171 175 137 174 120 178 142 125 180 103 152 152 64 116 68 143 95 151 132 120 146 145 129 126 153 130 99 91 88 139 102 133 92 153 105 95 117 130 117 117 105 97 108 117 116 130 108 109 83 107 88 79 72 139 87 69 110 100 104 120 168 129 119 134 189 139 88 179 81 84 185 97 98 99 172 136 100 114 179 134 172 100 114 210 224 129 122 112 197 189 183 106 136 193 143 151 180 128 183 179 195 188 172 100 129 132 112 104 194 133 142 118 178 109 146 123 187 209 115 163 134 121 107 129 99 86 93 120 180 101 150 153 175 100 98 124 82 131 190 186 119 206 207 189 189 128 172 163 155 132 200 204 152 199 149 194 121 176 189 157 132 185 150 146 176 101 126 146 137 195 193 156 107 173 120 179 178 145 50 106 117 137 51 37 108 141 82 155 149 135 158 165 192 102 178 176 121 181 87 185 96 98 171 134 102 100 124 73 134 159 98 128 169 92 63 119 108 163 140 125 157 102 148 86 78 153 74 103 73 145 100 157 111 155 114 193 199 173 200 187 116 132 104 131 102 163 135 174 69 106 128 200 103 201 100 97 110 144 176 167 101 77 102 115 112 113 88 98 195 93 119 133 99 125 166 111 85 182 150 181 175 161 69 157 141 153 169 83 86 170 160 159 98 173 165 57 52 41 141 170 137 101 112 122 122 98 107 165 168 136 129 141 179 98 114 167 112 116 109 140 95 130 105 69 76 102 80 168 121 117 189 95 83 133 98 136 166 143 137 163 106 168 115 87 255 177 154 186 105 119 91 134 102 128 84 133 187 182 136 151 143 137 140 108 75 71 131 183 186 174 114 179 185 129 93 119 116 72 135 159 135 180 108 102 185 142 120 94 156 80 71 107 103 176 176 89 150 52 58 166 110 199 188 131 80 131 98 70 72 115 152 192 117 201 104 192 136 178 166 153 196 119 180 113 145 178 167 184 122 89 177 171 123 198 161 160 187 118 98 106 155 102 134 117 139 182 107 120 176 98 102 128 137 174
147 143 139 135 142 153 167 167 169 168 179 191 192 173 162 155 161 169 185 182 188 192 183 173 146 149 140 141 127 138 146 158 168 174 178 176 179 188 195 197 196 185 173 189 191 173 156 156 180 202 182 185 182 143 148 159 169 161 129 164 134 185 137 140 150 182 172 123 105 114 63 101 143 86 133 147 127 125 135 132 205 146 140 113 112 104 149 97 109 72 255 90 123 95 164 113 121 131 135 100 114 67 108 94 91 93 99 82 125 120 86 71 73 77 126 107 114 134 179 123 118 101 107 98 195 103 190 176 190 96 116 142 88 184 154 90 80 68 146 92 175 211 192 228 189 122 190 98 108 154 79 88 141 126 168 107 169 176 136 150 130 173 102 168 81 152 112 187 152 188 119 181 190 191 199 196 133 150 114 162 62 130 141 130 180 87 96 162 206 177 206 197 174 159 93 165 141 198 197 128 187 116 85 170 103 104 153 126 143 208 146 168 151 180 159 154 96 145 180 186 170 185 178 154 100 92 112 114 108 177 198 182 104 145 255 162 57 141 255 77 60 56 102 149 67 77 167 92 94 147 181 181 172 85 102 102 101 142 181 187 158 83 86 143 159 155 68 92 174 180 82 147 114 67 124 116 73 108 85 116 165 162 172 161 127 174 154 116 173 148 152 188 157 183 115 213 210 191 100 93 90 175 94 154 135 88 110 86 128 117 192 108 105 149 115 86 89 163 149 81 106 117 83 92 116 115 138 174 185 165 112 173 159 142 92 99 118 110 163 85 143 119 70 55 114 157 176 167 128 146 122 172 101 76 155 52 59 171 139 113 192 102 157 149 164 182 158 172 162 177 150 143 175 115 168 153 185 187 81 99 50 64 70 73 157 154 92 111 166 123 100 88 131 70 81 188 118 179 175 155 91 84 136 121 70 176 192 107 177 184 139 166 165 88 102 201 159 116 208 201 209 108 183 136 174 181 99 132 181 165 135 134 89 139 162 76 125 166 79 109 101 170 155 188 102 180 177 173 180 133 190 153 200 114 128 82 85 170 190 197 171 152 73 58 105 90 87 125 97 195 170 100 191 130 132 132 147 91 187 172 144 188 114 101 111 163 74 166 113 124 154 130 199 200 153 99 154 201 186 103 93 107 176 141 193 103 131 103 184 172 219 171
156 151 144 136 144 153 165 169 175 168 169 170 176 179 169 163 173 164 186 188 191 199 191 183 169 155 154 152 146 146 148 153 158 170 173 179 181 184 188 188 185 167 164 180 180 185 172 168 182 163 174 180 158 171 180 141 194 141 149 180 196 129 141 113 160 96 171 157 113 93 145 68 149 74 124 85 149 165 129 128 122 115 114 159 140 155 143 94 101 82 70 75 99 111 137 142 127 120 111 84 84 76 81 71 79 88 136 136 103 131 107 103 85 91 99 106 143 126 180 99 140 167 94 185 120 131 118 189 113 196 109 102 103 183 184 106 132 160 102 82 183 178 124 214 165 188 110 174 65 78 153 170 92 137 125 143 149 181 107 175 114 71 156 161 79 137 175 106 184 150 199 148 149 117 196 211 184 208 120 133 151 71 146 119 106 161 188 110 187 158 206 210 201 255 192 115 180 171 105 169 175 185 82 120 93 168 104 192 110 130 132 127 151 103 139 63 69 140 97 146 172 110 167 150 172 176 130 91 142 164 178 110 91 89 167 116 76 53 71 161 115 154 161 81 179 173 130 171 168 157 163 170 121 129 152 171 200 209 141 255 143 153 123 160 151 164 157 151 135 83 169 96 64 143 145 156 96 167 94 101 129 141 130 148 114 174 100 120 174 133 80 89 169 184 145 163 123 117 156 156 115 146 188 106 168 93 136 92 177 113 191 199 102 193 105 96 123 174 102 88 117 109 151 186 166 111 119 126 184 118 92 85 69 136 159 79 121 87 95 71 117 148 51 51 60 139 170 163 102 136 169 167 101 80 169 91 161 73 144 145 96 183 177 163 111 178 109 148 165 159 102 166 134 111 123 137 117 185 100 129 94 73 140 161 149 145 56 94 158 145 59 89 143 175 153 90 129 149 178 86 86 172 91 94 71 89 112 112 174 113 169 76 70 170 129 162 200 106 157 117 106 93 167 182 185 92 162 98 107 191 101 131 184 169 81 91 63 75 114 83 97 152 80 91 174 129 107 192 97 144 139 124 214 103 176 86 139 77 188 104 92 139 158 150 141 71 122 142 103 180 172 166 95 112 102 157 106 138 165 106 185 120 190 110 191 183 102 144 189 180 197 136 195 155 182 180 191 189 195 164 185 183 132 94 96 162 173 138 144 107 115 178
155 151 145 141 142 157 166 167 171 163 154 168 171 165 170 162 178 184 180 195 204 201 197 193 164 163 156 159 154 150 149 146 152 162 170 177 182 179 174 175 174 177 171 157 157 174 183 180 173 159 137 163 147 155 170 163 189 171 192 194 185 144 176 153 99 111 115 157 111 85 127 111 86 100 98 101 94 176 127 189 111 150 149 172 130 93 130 125 86 67 107 111 132 83 96 131 115 127 146 104 97 54 72 85 83 127 133 255 105 121 100 112 112 97 101 125 178 179 159 96 72 102 91 127 183 126 192 101 102 103 102 118 182 178 176 98 164 55 144 121 166 195 208 164 123 103 174 158 87 108 145 114 78 182 92 155 180 146 151 113 97 59 113 166 170 153 125 170 182 191 183 161 190 122 199 167 193 203 171 162 144 62 148 136 85 82 119 101 165 113 199 111 188 131 159 160 164 110 164 126 190 188 93 143 87 104 133 108 157 146 123 189 89 68 54 55 84 56 148 154 165 78 87 182 79 170 139 124 158 70 71 149 128 104 166 165 69 124 102 126 128 187 109 90 145 90 97 89 164 79 105 76 150 68 105 92 198 169 137 121 154 182 177 95 174 101 156 117 121 99 121 103 97 100 129 121 177 128 98 79 178 153 91 158 180 88 107 107 73 95 164 101 92 88 136 184 104 125 208 119 168 106 103 115 72 154 120 93 193 100 102 180 105 116 198 157 102 135 185 136 84 162 189 101 108 191 155 137 114 164 83 180 146 145 84 113 177 142 149 168 166 134 74 110 138 147 140 105 117 168 174 68 163 105 94 90 70 157 65 171 177 138 189 185 186 154 126 98 156 148 95 174 119 111 124 143 198 155 158 91 61 146 115 132 121 52 149 135 160 149 151 85 158 107 162 134 168 99 146 99 111 155 147 130 125 107 175 148 219 196 185 66 100 106 133 111 125 99 132 159 161 88 78 171 102 132 169 192 112 179 146 91 159 88 158 163 81 66 88 130 115 93 146 128 107 199 123 109 201 200 189 204 110 104 104 161 144 124 184 173 84 80 129 71 149 67 119 98 196 140 154 113 145 174 105 176 140 119 108 190 180 140 109 143 114 162 127 125 180 217 123 168 204 103 99 190 127 95 114 103 154 77 97 94 154 90 110 177 141 107 147 148
150 147 142 137 139 150 158 173 174 171 161 158 166 162 162 178 181 179 182 186 208 204 188 184 168 158 144 149 157 151 146 144 142 161 174 188 181 181 177 182 174 174 151 162 145 169 182 191 152 159 137 150 126 163 169 156 188 158 128 180 184 159 152 161 155 99 103 132 118 99 161 134 93 129 92 88 115 126 110 101 115 103 101 113 145 80 142 100 65 52 84 62 68 96 93 93 155 122 143 132 88 97 91 84 88 118 107 154 103 144 125 141 138 124 94 94 111 168 148 86 124 133 160 90 109 208 109 112 196 110 192 162 108 89 178 122 70 149 55 137 166 112 179 204 131 94 90 73 134 149 86 140 70 152 119 185 117 180 87 164 129 73 90 158 114 112 142 158 149 104 151 115 190 197 168 132 212 197 140 92 68 60 107 118 144 108 106 107 104 191 131 136 142 154 91 160 157 147 168 135 117 176 191 185 104 141 90 177 129 113 193 89 134 157 56 157 151 123 117 147 84 255 96 81 165 82 81 109 125 37 28 126 129 123 141 153 151 127 181 132 112 202 103 189 184 179 158 164 168 76 96 185 133 86 137 115 120 130 188 144 151 157 157 178 125 98 82 124 124 78 99 144 140 121 138 147 81 181 159 186 104 105 90 96 178 112 170 92 128 146 60 143 62 151 95 82 106 148 139 117 129 116 119 126 71 98 93 77 148 101 140 167 92 147 206 194 186 108 145 123 90 136 82 125 173 144 169 198 170 90 84 91 176 116 137 112 138 201 90 174 94 175 133 88 146 177 142 126 105 150 85 171 164 96 161 185 125 157 60 108 159 101 169 174 171 115 148 72 121 92 168 200 201 194 170 136 125 177 138 110 135 108 175 177 128 159 79 138 128 85 161 149 68 151 132 133 84 83 154 191 142 196 188 141 97 127 141 131 137 112 143 143 93 137 83 177 196 133 170 162 119 131 64 149 103 157 98 172 193 146 156 118 175 135 93 157 158 163 135 160 74 70 86 181 102 199 137 164 198 199 122 116 195 172 175 68 118 163 161 170 134 150 166 166 171 149 182 101 188 93 180 88 106 72 102 104 138 188 171 150 109 181 184 181 213 177 160 112 135 192 183 148 106 184 129 166 104 92 81 128 66 147 167 140 175 176 92 178 95 92 155 82
144 143 138 133 132 139 149 161 169 172 181 166 170 169 184 181 173 180 186 185 191 190 182 167 150 149 157 161 162 161 153 147 154 170 185 196 193 187 186 177 194 183 157 162 167 163 175 180 187 166 116 255 134 162 140 149 171 182 189 123 121 147 128 103 91 111 149 187 178 181 161 117 110 100 159 141 144 124 154 106 122 164 163 127 90 128 83 81 60 85 49 61 123 83 84 109 135 111 138 124 107 120 71 99 118 103 141 105 98 103 180 136 165 113 72 73 122 101 82 75 123 149 154 110 123 135 109 171 99 96 95 125 179 98 164 104 73 55 117 123 80 191 201 168 194 93 178 170 93 147 164 150 84 143 116 184 143 150 131 94 173 143 169 78 163 170 151 161 172 147 168 104 127 120 200 191 192 194 158 83 125 145 118 187 114 186 167 190 154 140 159 186 167 114 96 82 171 74 149 141 112 170 90 156 141 146 104 129 103 150 186 93 91 166 72 168 88 113 77 140 138 78 75 123 70 70 75 138 52 79 23 96 133 136 150 163 141 171 118 107 202 201 108 187 81 181 186 141 87 96 125 195 126 172 131 67 186 121 219 136 198 147 177 77 156 126 101 109 106 169 150 142 59 138 46 123 90 91 195 111 159 161 156 125 144 177 97 186 178 172 78 115 114 66 170 84 96 176 138 169 125 106 164 156 74 96 65 71 69 97 171 175 95 119 214 134 125 146 182 87 62 91 161 136 102 109 132 149 99 106 155 100 142 194 169 117 115 162 131 124 111 156 185 172 162 163 101 120 125 152 119 177 89 118 136 165 80 148 88 130 181 188 149 182 180 171 101 111 180 178 109 165 116 180 139 153 103 96 149 93 110 180 167 146 130 151 135 103 163 85 83 70 162 74 107 163 171 85 93 180 175 205 130 169 132 103 109 186 164 201 156 164 155 74 175 176 167 85 79 125 74 104 147 75 153 69 180 172 185 108 185 184 99 183 102 74 68 165 75 172 100 85 137 132 143 114 134 138 97 178 157 97 132 153 156 82 157 155 137 154 99 64 167 92 137 113 175 126 114 164 172 163 114 163 169 150 91 181 194 117 141 123 188 114 208 213 150 180 160 97 99 181 160 128 160 140 110 95 157 144 150 70 76 168 169 84 135 189 90 151 105 66
138 141 138 134 128 131 134 154 161 170 176 180 255 190 188 191 175 173 179 191 179 173 159 149 132 149 158 178 178 179 168 165 170 182 198 206 205 200 197 199 197 178 173 162 159 182 169 171 166 169 149 134 118 159 179 160 153 192 137 145 133 141 177 165 145 95 159 128 196 165 165 97 149 97 102 140 148 136 110 127 172 123 93 97 114 137 88 96 56 48 58 78 107 89 74 68 74 123 130 97 99 92 88 123 87 122 115 111 140 131 144 146 155 74 65 127 86 81 110 80 152 60 74 169 168 105 106 125 103 181 113 115 183 180 111 175 145 93 100 150 159 103 111 109 187 139 115 132 184 175 156 166 157 177 139 101 134 201 193 185 167 179 172 118 163 148 128 168 104 117 103 196 197 123 134 180 183 189 174 150 68 107 131 84 112 154 180 198 177 181 172 94 122 198 198 147 147 186 105 191 157 134 127 147 173 131 190 110 162 114 119 146 92 101 174 155 95 154 127 163 156 148 168 100 88 89 88 99 69 87 32 81 148 151 109 184 255 120 73 102 92 199 114 112 99 174 165 83 170 99 92 185 123 162 130 128 143 153 164 129 166 169 175 168 73 112 163 186 177 143 144 139 141 73 101 54 141 95 201 185 108 126 87 126 71 176 174 91 180 120 96 146 116 151 90 182 155 132 177 147 102 90 153 91 119 121 122 78 66 97 96 110 150 177 189 135 157 117 185 158 138 98 79 72 122 142 102 183 98 71 161 176 110 212 122 115 172 98 77 78 172 139 195 176 145 109 121 216 181 203 96 100 109 202 148 198 89 158 178 174 109 161 197 153 151 153 158 172 181 184 123 164 215 124 169 191 120 166 198 135 146 180 134 141 149 177 163 121 157 135 133 139 80 78 87 83 170 129 101 132 100 131 108 130 192 154 85 182 139 103 182 151 76 160 177 192 114 90 171 162 156 76 63 53 64 78 152 117 207 148 134 109 93 129 89 72 164 169 102 157 182 191 92 118 161 97 126 164 178 176 80 170 80 84 78 116 137 115 96 93 118 72 79 159 105 178 158 142 56 124 169 175 178 157 91 63 83 117 133 169 200 152 198 159 186 155 199 194 143 108 152 108 188 220 175 119 149 133 155 85 70 163 132 138 100 126 183 126 151 75 74 157
138 146 149 144 136 130 133 136 145 147 157 169 184 201 201 186 179 173 176 178 185 157 159 144 143 138 167 194 194 193 184 184 185 188 200 205 211 209 207 198 189 194 185 167 162 183 187 193 199 166 176 151 162 173 194 183 193 176 152 147 140 187 163 168 115 149 131 167 114 170 131 76 160 160 96 170 99 188 121 116 151 170 105 117 113 110 105 114 81 65 73 100 122 123 88 72 58 97 122 91 88 86 83 89 123 98 78 83 103 110 125 95 100 83 76 78 90 144 98 154 79 159 144 95 184 101 100 108 176 94 98 145 95 82 81 125 123 84 72 169 97 187 149 105 121 114 181 175 189 187 184 204 118 196 104 150 146 191 150 195 164 136 83 121 83 170 123 165 152 111 124 117 136 135 139 115 186 188 157 166 125 97 133 91 106 111 208 128 183 96 169 94 183 193 206 212 218 180 204 165 177 152 109 177 171 102 94 112 191 141 170 86 81 104 155 121 83 127 148 101 90 131 136 176 85 134 86 174 102 85 117 130 83 179 156 189 145 169 69 149 162 114 192 138 74 110 101 178 163 87 189 186 197 166 141 178 98 119 203 192 169 106 100 127 72 118 120 182 184 212 198 160 153 147 64 162 141 135 121 134 208 113 94 128 102 67 138 119 137 148 90 180 172 97 190 95 101 134 149 162 191 100 93 93 106 177 95 76 111 61 80 135 93 184 189 107 158 98 122 132 126 153 77 115 87 106 155 92 125 58 159 104 98 189 149 197 167 169 147 171 179 91 110 201 180 107 131 174 112 197 112 107 199 111 181 113 129 144 187 172 183 103 194 100 179 80 165 84 100 156 225 229 168 213 128 115 99 134 138 112 109 167 89 164 141 165 179 187 166 120 91 187 115 85 171 184 92 112 183 189 155 105 159 123 178 157 119 144 93 175 99 105 165 151 178 159 185 114 108 163 137 83 94 123 54 154 160 178 175 134 220 118 158 186 151 135 125 87 108 178 93 108 165 104 177 142 147 97 155 158 162 154 89 79 170 162 76 126 134 131 49 122 171 188 137 98 131 123 66 141 148 159 98 106 151 107 94 137 75 179 133 198 121 100 190 146 191 103 202 109 112 115 122 209 146 121 114 129 111 103 74 165 93 113 162 114 156 255 108 80 73 168
140 152 162 158 149 134 128 118 123 131 144 165 195 202 192 179 168 186 188 190 183 165 142 142 136 150 179 199 210 204 201 192 194 187 189 200 207 195 200 198 196 194 195 180 189 180 171 184 177 185 185 179 173 160 195 196 204 212 186 140 183 128 144 145 110 128 159 179 114 107 122 144 114 102 104 108 119 169 176 113 125 152 131 162 172 147 146 144 77 109 153 103 105 132 84 75 89 72 74 96 81 70 81 91 62 67 107 83 104 99 151 255 157 78 85 114 100 101 116 157 112 69 71 110 84 83 118 73 176 98 112 155 127 79 132 69 161 152 80 145 210 129 113 126 136 91 179 196 176 184 159 194 108 139 103 147 123 204 170 174 135 109 91 127 133 177 143 186 177 110 129 117 108 155 142 197 184 136 161 92 122 79 168 80 78 187 147 196 193 178 96 142 129 157 111 213 183 153 112 195 90 129 165 114 86 188 117 99 176 104 153 181 170 126 95 185 95 148 174 147 129 157 146 167 145 114 176 85 162 63 148 79 163 130 102 107 116 138 155 151 101 86 138 170 107 108 124 86 125 172 185 140 186 130 183 148 103 142 117 82 168 71 165 141 105 119 151 182 152 191 136 180 119 122 64 82 147 130 133 122 120 192 153 150 156 134 83 120 88 92 142 195 118 98 153 75 90 91 144 106 112 132 82 94 86 139 157 123 148 124 99 120 172 125 82 103 172 165 96 177 156 142 104 89 107 98 94 170 168 91 111 85 80 186 187 190 150 190 145 174 190 179 196 195 113 198 166 130 101 152 94 199 200 153 169 119 199 185 179 115 129 167 178 126 133 79 140 167 166 120 168 203 161 169 152 193 184 193 194 164 115 122 176 167 85 163 158 185 119 96 96 116 145 103 162 187 148 141 96 187 108 189 201 177 94 143 85 91 113 69 127 154 133 85 195 200 140 120 113 71 68 89 85 58 52 57 83 181 147 207 131 118 195 198 101 164 158 89 172 108 170 77 147 151 70 149 88 137 120 166 159 70 73 165 147 168 125 78 41 77 129 129 107 182 99 148 144 146 62 125 127 169 159 82 115 98 118 87 132 162 86 109 172 126 117 166 190 197 111 173 189 122 113 129 141 209 208 193 198 106 152 92 161 197 123 114 126 175 134 91 165 116
146 159 169 167 151 138 125 255 106 109 135 167 189 190 177 170 177 183 179 188 173 168 140 135 134 149 172 190 196 197 200 200 190 176 174 184 181 189 182 185 183 190 204 203 197 177 175 160 172 178 160 175 145 136 182 177 209 160 165 160 174 193 131 144 122 120 126 108 102 105 81 121 108 100 154 123 195 140 176 165 90 78 98 90 97 116 104 131 95 84 150 113 105 162 130 92 82 83 79 59 47 66 48 60 82 59 99 108 130 138 114 104 118 149 101 125 119 184 100 107 84 89 94 115 73 68 154 126 155 84 91 177 179 165 139 127 114 137 90 111 220 215 154 184 184 100 129 189 189 99 154 153 172 150 181 118 193 134 167 95 170 172 93 141 149 191 126 121 135 181 164 152 150 169 177 104 133 118 151 164 97 123 90 120 149 124 136 155 153 88 182 158 89 96 101 204 182 169 153 190 91 68 120 166 86 92 166 131 188 187 145 154 97 97 92 164 175 87 81 174 134 88 76 162 180 186 96 184 74 159 61 96 78 86 104 186 177 172 156 147 134 147 76 144 157 157 94 186 94 100 79 79 92 132 181 135 124 101 106 94 163 168 112 75 166 104 136 122 128 158 103 80 133 158 115 152 196 120 168 213 198 154 161 86 66 83 87 93 168 137 101 128 107 135 137 67 90 178 192 132 165 101 171 81 160 77 85 76 86 81 83 182 120 104 131 58 118 79 185 178 149 124 167 92 174 92 113 88 88 82 91 162 106 93 195 160 130 160 107 117 119 104 146 180 166 147 90 182 171 72 81 192 165 136 194 134 193 174 172 187 100 145 172 80 92 82 172 128 131 137 124 160 212 177 198 187 109 99 131 160 114 143 80 131 78 162 145 87 143 199 122 104 174 113 82 170 101 184 133 140 132 131 199 94 136 157 143 62 93 142 99 155 105 140 104 135 176 185 103 128 107 94 159 117 104 66 145 188 215 141 208 198 139 113 148 92 94 112 85 134 103 140 158 96 171 94 170 201 114 190 171 148 135 147 174 165 61 122 42 46 98 138 151 255 87 164 137 134 68 118 152 81 161 159 160 144 78 134 55 138 75 90 167 100 78 77 101 114 106 103 101 150 170 102 106 143 142 217 200 197 108 106 204 155 176 160 169 189 191 174 149 52
147 159 166 163 144 130 126 121 109 119 135 148 172 175 176 179 174 189 187 179 158 154 149 146 141 142 162 178 187 188 206 200 187 166 164 164 167 166 170 179 175 197 209 194 171 181 151 169 150 175 161 154 174 145 139 163 176 185 216 201 188 194 163 202 130 159 169 143 168 93 85 95 115 163 152 155 180 124 111 89 66 78 97 91 144 132 105 76 114 94 157 100 101 146 96 118 115 112 87 52 58 27 29 61 35 65 92 89 114 118 136 112 95 120 124 126 108 155 169 90 78 69 75 71 108 139 71 142 108 138 145 128 71 64 163 156 138 85 94 111 218 129 204 121 115 88 128 184 191 194 106 171 76 155 179 191 136 180 173 147 165 102 165 182 196 183 156 139 124 143 127 187 102 126 121 138 151 86 163 165 156 81 155 120 139 86 149 70 76 146 147 185 174 151 100 94 188 103 119 109 122 165 138 94 85 93 182 95 87 159 99 92 86 177 141 152 180 163 93 168 123 79 74 165 107 126 104 130 166 152 56 90 147 171 133 169 149 110 133 123 72 75 163 152 128 55 163 92 180 94 63 132 161 112 96 177 176 82 143 142 175 117 166 111 131 180 169 142 192 177 161 121 149 158 176 104 121 127 212 192 147 117 112 105 65 133 145 105 133 155 186 96 82 73 149 75 135 73 194 171 136 122 132 122 74 94 255 126 86 85 105 116 164 112 64 59 139 132 94 139 106 99 155 187 154 104 177 164 164 151 145 167 82 184 98 116 109 202 173 122 106 193 113 98 179 127 84 173 133 63 140 150 86 137 168 95 109 176 178 133 194 171 143 160 128 90 159 171 169 162 193 152 182 166 91 163 157 81 114 117 68 167 113 72 155 163 113 102 119 208 209 183 90 165 131 167 113 87 85 180 168 183 105 82 135 56 55 71 132 101 59 145 79 92 200 203 150 105 192 164 71 164 142 86 149 84 88 120 135 171 183 163 115 192 86 159 144 152 76 82 168 166 169 171 100 174 170 127 185 115 180 82 160 76 150 98 109 69 91 56 140 156 63 101 86 103 75 71 121 120 142 47 133 147 122 148 79 68 58 66 65 156 66 61 121 155 87 161 154 117 146 83 79 176 75 158 103 103 171 148 174 102 143 125 205 204 103 96 191 133 82 112
145 154 159 149 136 129 132 128 129 132 138 149 153 175 171 179 196 197 187 172 156 157 149 157 159 160 159 167 177 184 195 191 175 166 158 154 157 160 167 179 190 204 207 194 166 158 162 155 153 174 160 171 194 187 137 167 184 200 219 205 197 187 128 171 129 137 179 168 111 100 156 155 158 127 140 203 196 126 109 85 62 51 75 97 123 72 86 104 124 93 110 106 96 105 110 126 165 106 122 63 71 48 77 55 34 37 61 98 110 135 146 94 144 112 100 112 107 176 105 92 119 84 148 72 74 162 71 63 165 77 178 168 62 128 57 138 171 128 192 198 129 109 160 106 94 147 106 186 109 104 85 155 61 162 130 120 200 202 191 161 94 125 146 147 132 139 155 143 116 115 115 156 166 157 90 116 88 89 72 144 176 155 139 162 152 135 143 98 169 93 165 186 132 81 94 127 88 163 145 169 155 67 136 162 85 82 99 107 90 98 160 108 144 168 77 164 104 125 142 78 152 170 168 170 165 157 178 119 127 134 104 80 165 111 165 64 106 86 133 109 148 107 162 139 127 88 143 189 183 161 93 122 150 176 182 184 90 173 148 193 131 163 67 173 116 103 148 96 173 98 94 158 136 115 85 96 192 199 184 174 107 76 63 132 158 70 141 190 104 171 197 90 143 54 44 137 118 165 144 211 230 164 172 124 84 56 75 85 61 134 101 121 79 156 78 120 88 80 106 105 122 190 87 100 169 72 63 124 91 144 122 188 163 130 183 161 115 164 104 117 102 189 95 117 121 102 104 75 109 90 153 125 69 97 136 155 84 123 106 139 182 165 156 151 136 180 188 180 191 159 177 169 121 177 135 132 153 94 141 66 83 157 97 149 178 99 95 126 168 198 188 98 129 124 161 120 127 116 92 147 92 175 180 71 129 70 143 55 150 105 93 61 114 187 146 206 117 124 116 103 140 55 107 62 71 123 186 125 119 128 93 121 94 169 181 80 151 161 168 97 137 177 87 151 192 165 187 180 186 174 83 78 111 115 140 78 142 116 128 143 129 93 45 112 66 126 95 80 119 66 114 94 64 100 91 98 91 70 91 143 98 65 63 133 136 67 165 97 121 157 111 177 168 68 153 55 114 172 102 173 176 187 148 97 162 164 186 115 190 151 50 78
137 144 147 143 134 128 133 142 141 147 142 157 164 174 184 203 201 204 186 155 139 155 147 171 160 170 174 164 159 172 179 178 173 162 157 158 158 164 166 183 196 183 204 196 189 167 169 172 166 201 179 219 208 189 153 181 163 211 219 197 143 170 157 177 180 148 116 111 142 111 98 83 165 132 126 168 128 123 117 128 63 57 98 59 135 70 130 124 104 117 102 110 96 96 85 100 162 124 99 108 99 49 59 68 76 40 105 91 150 169 160 94 75 88 121 127 107 103 104 105 123 104 141 73 105 73 107 158 157 92 174 85 120 149 81 162 81 96 90 186 173 185 174 150 82 179 158 100 164 202 169 154 160 154 140 86 196 148 181 81 174 86 100 179 119 184 124 105 156 165 134 193 178 162 139 41 112 86 153 74 98 95 99 138 110 123 108 84 167 163 197 102 177 146 159 101 166 180 158 64 129 86 148 118 117 157 122 148 84 186 169 107 128 118 65 130 110 166 140 143 162 113 154 112 102 136 182 94 151 140 124 93 78 80 124 77 172 84 183 108 87 76 109 43 135 146 156 102 175 157 86 87 161 178 190 178 200 129 167 200 183 91 149 132 184 108 176 173 149 64 65 150 100 135 112 192 104 163 103 193 113 109 138 120 125 58 70 75 170 152 103 171 171 64 153 62 66 101 194 155 217 148 117 143 121 71 54 255 64 153 92 177 186 183 107 98 109 76 147 111 210 109 173 131 122 103 127 125 86 81 127 184 96 96 94 107 95 188 96 119 91 103 155 168 94 118 167 96 155 142 62 66 255 104 157 90 113 179 136 199 191 98 146 106 67 171 176 169 167 77 80 175 127 175 117 73 147 116 117 126 64 85 138 90 140 122 198 165 123 106 101 92 172 163 70 160 165 136 108 81 101 170 129 128 151 123 151 124 153 173 165 136 89 144 149 132 138 126 144 162 145 143 86 162 69 121 128 168 109 166 157 93 71 116 88 120 162 114 85 178 176 163 96 177 123 161 174 188 157 182 152 166 74 66 157 120 110 164 140 118 85 38 81 154 170 160 194 181 79 122 35 37 141 104 174 122 167 71 123 125 61 126 68 64 107 101 101 109 126 135 168 129 93 109 106 104 48 60 156 158 82 73 83 173 190 118 109 103 185 107 61 131
126 132 136 135 134 140 141 143 135 144 162 165 180 192 197 202 210 198 182 161 150 158 161 173 176 176 175 158 150 150 155 161 164 167 173 170 173 179 185 186 188 189 190 193 171 185 193 184 207 200 200 213 164 182 154 192 162 179 151 183 193 163 134 133 129 146 180 198 185 156 96 84 115 137 97 95 93 127 100 92 67 74 133 61 126 102 108 85 99 147 148 107 98 87 99 98 99 123 128 123 78 90 98 49 49 44 100 101 137 118 96 115 132 113 142 109 108 115 154 160 73 72 63 100 79 151 112 78 79 126 185 180 67 107 56 123 168 117 183 151 171 164 78 171 156 175 184 104 155 201 194 102 174 94 124 134 182 140 134 163 156 184 185 191 169 135 139 139 151 168 116 167 103 132 90 66 106 137 149 108 169 169 101 167 99 117 132 148 177 102 171 189 138 177 123 186 100 179 79 158 115 148 153 115 72 169 133 87 89 158 79 72 165 66 110 167 82 95 138 93 94 164 178 81 168 103 114 101 98 103 60 119 56 150 163 180 176 171 205 104 174 161 144 61 117 112 126 92 146 165 143 158 165 110 185 144 153 167 152 147 188 191 81 129 118 151 177 86 126 64 152 71 128 101 176 113 121 127 126 170 88 159 84 90 118 104 51 159 88 182 107 127 182 153 80 89 121 95 122 109 139 136 139 106 115 81 60 136 57 141 139 96 110 139 200 104 82 81 97 204 146 255 135 100 141 157 112 126 85 78 153 84 136 102 81 149 81 76 177 82 116 122 92 123 99 130 130 198 92 146 147 98 150 129 128 147 114 161 135 103 190 128 153 153 96 166 176 75 134 89 178 136 87 88 101 94 155 138 51 124 43 85 58 93 185 145 197 129 198 190 156 159 162 87 124 130 170 72 165 138 84 82 75 166 69 113 77 129 109 190 110 105 122 192 217 230 228 201 176 67 63 95 61 143 111 145 81 74 118 127 62 154 74 132 172 169 106 82 86 105 198 150 126 194 185 113 167 96 100 102 60 86 67 105 134 170 147 77 70 112 47 123 84 145 89 203 162 171 137 78 33 59 60 64 146 88 101 114 84 76 97 150 102 119 169 77 183 129 166 159 200 166 91 89 67 68 96 147 150 52 149 79 80 178 94 129 109 142 134 139 75 151
119 122 124 129 134 141 134 138 129 147 155 184 185 195 202 194 197 185 194 187 180 159 146 152 167 170 169 156 146 138 135 154 165 178 184 192 194 196 193 192 176 181 186 197 195 205 193 184 182 209 194 195 192 155 180 169 155 138 177 165 175 126 138 135 125 151 118 130 181 150 84 85 161 125 156 107 106 113 143 149 129 78 139 72 77 72 70 78 108 139 104 117 101 135 111 89 88 93 91 110 105 114 66 60 42 91 96 143 118 135 85 105 118 118 107 127 129 115 104 152 66 95 51 126 50 76 98 157 85 184 92 184 83 118 75 96 82 174 154 177 74 163 66 162 164 76 165 167 197 108 187 94 161 162 169 138 172 140 164 110 169 173 125 188 129 97 162 72 167 168 112 163 158 77 129 119 140 102 63 78 102 169 84 129 138 90 104 107 101 195 110 105 168 95 150 189 97 129 105 133 160 92 91 74 136 74 167 96 177 119 91 145 109 101 162 80 126 183 153 196 145 133 92 184 110 169 139 144 61 52 73 42 124 104 146 197 133 164 206 175 116 68 137 69 133 139 152 153 76 159 154 160 166 76 171 101 192 166 126 131 172 130 98 128 199 197 197 90 126 92 79 146 111 158 182 153 131 96 113 102 76 111 159 60 116 141 82 119 143 140 151 198 161 93 106 94 96 145 189 124 97 125 99 113 166 94 65 76 71 122 144 172 112 104 103 120 179 81 100 110 158 113 125 97 86 127 72 79 108 132 108 75 70 65 149 153 144 153 142 116 86 91 99 197 195 196 155 130 197 179 82 131 125 92 52 109 112 97 124 184 131 109 72 86 163 162 140 68 99 106 95 190 165 114 132 72 143 140 137 36 39 129 53 167 147 164 181 146 155 158 167 102 141 82 169 80 79 78 74 163 72 69 95 78 180 156 88 107 180 167 168 100 197 164 174 232 149 147 170 160 161 128 143 158 177 145 151 163 81 120 83 104 102 170 155 167 82 172 176 132 115 105 92 102 173 171 79 164 89 87 94 147 157 158 184 149 89 140 171 79 151 103 153 135 92 166 198 149 76 127 123 128 255 100 82 111 137 116 157 163 136 71 163 183 166 186 120 197 187 136 137 191 115 99 83 152 161 57 148 119 109 92 138 90 126 94 138 123 100 97 83 132
120 118 117 123 128 129 124 121 132 147 166 188 193 201 198 194 191 179 186 186 170 164 151 147 159 180 176 152 143 140 140 162 174 182 191 197 202 206 206 197 183 178 176 198 212 212 209 200 212 188 206 163 169 164 151 141 141 147 164 166 138 182 193 161 136 139 202 120 165 138 157 85 154 78 122 121 112 136 145 68 116 71 139 90 99 93 113 81 84 131 161 112 126 117 99 102 113 81 83 107 118 104 99 53 60 57 113 114 141 92 120 73 108 171 107 131 121 118 141 84 72 67 45 106 66 95 145 98 75 117 95 185 164 180 185 142 94 83 160 79 171 80 84 149 146 83 151 198 121 181 185 162 127 124 190 163 160 255 157 128 107 133 104 152 122 114 151 154 142 106 100 89 159 126 52 59 156 162 152 125 77 136 174 164 114 139 146 110 88 193 133 201 171 164 132 121 175 160 155 152 176 131 77 68 121 72 142 120 165 135 150 86 92 139 148 107 109 164 127 172 191 101 149 140 177 167 74 122 145 165 81 96 75 60 167 198 140 151 156 118 103 57 112 137 133 112 74 148 156 168 124 130 87 75 121 77 142 97 164 255 106 107 113 142 107 199 166 105 187 150 103 127 131 172 114 139 109 119 133 72 65 62 90 132 60 66 118 173 189 123 122 179 195 188 200 99 93 182 110 177 101 140 144 197 97 120 119 56 70 61 58 63 117 103 148 187 170 181 190 188 140 197 127 131 114 168 115 95 200 181 153 168 91 153 142 131 73 97 72 170 89 93 99 173 209 139 207 152 116 170 132 161 68 140 81 138 125 139 171 177 177 160 80 69 67 143 135 141 155 75 190 189 96 102 157 69 70 63 118 98 92 149 87 163 96 165 165 159 186 170 78 169 96 79 89 80 157 128 162 70 83 87 173 169 119 182 129 81 104 110 167 192 149 159 205 236 218 215 116 94 87 114 146 201 187 117 90 121 81 169 89 102 113 163 81 68 166 151 185 122 129 117 178 76 159 165 159 90 158 113 90 105 94 182 107 127 113 95 178 97 109 96 110 173 144 88 183 144 63 91 66 118 63 147 132 106 133 134 157 113 146 105 123 194 128 145 144 155 203 109 107 97 177 97 147 120 84 112 156 144 149 101 101 100 200 95 168 77 77 93 184 127
134 128 118 114 117 118 113 124 126 152 167 187 195 189 185 181 174 158 166 165 163 146 137 131 157 174 173 170 159 157 156 170 187 191 191 188 194 199 201 194 187 183 191 208 215 213 176 167 171 196 194 163 154 109 157 120 143 158 184 130 191 183 127 158 184 168 177 179 138 94 118 72 83 119 147 113 130 78 81 74 112 70 77 137 78 148 142 78 79 81 127 97 130 122 94 91 88 69 74 82 131 132 102 81 113 75 99 101 101 67 89 68 112 102 107 150 136 128 110 94 74 76 49 141 66 113 57 53 72 72 86 114 99 124 105 191 184 176 110 83 102 88 95 140 80 179 150 195 167 181 179 91 184 185 180 180 168 156 125 151 102 115 188 132 89 147 121 176 193 193 112 155 160 100 67 140 156 76 152 65 162 165 180 142 168 155 89 116 134 180 101 94 111 124 124 164 140 200 215 138 145 132 153 120 147 151 81 103 168 123 122 121 80 99 71 151 125 200 199 201 191 145 110 166 177 98 64 126 169 181 179 164 151 150 67 144 151 194 194 131 160 60 87 147 73 151 145 159 131 139 161 87 93 72 168 100 185 93 105 102 114 197 153 165 202 117 135 184 105 175 189 148 172 129 168 146 160 134 94 168 95 82 69 149 61 89 177 171 106 112 189 116 137 163 118 161 94 171 121 181 156 89 113 152 179 89 114 116 154 66 147 67 136 108 95 139 140 118 119 118 159 132 175 89 94 91 183 176 179 195 145 176 112 104 86 83 113 97 97 93 194 193 190 196 129 130 120 214 110 96 141 166 160 79 85 58 151 88 176 158 171 173 127 128 135 99 125 73 96 183 125 134 163 78 125 67 63 85 119 165 123 57 58 164 174 159 179 139 144 141 169 139 95 95 189 123 170 83 87 165 129 175 97 89 94 180 177 71 167 109 183 95 103 124 125 173 168 211 115 104 189 123 178 124 135 128 86 176 112 104 190 132 156 160 143 168 122 156 117 117 180 178 65 160 171 138 192 146 67 56 126 101 88 167 118 130 130 176 97 192 150 156 114 167 134 137 143 157 98 139 110 143 55 115 104 112 187 207 171 210 118 199 209 104 98 198 119 209 195 104 94 93 77 173 108 128 87 77 150 66 93 136 100 124 177 98 141 75 77 115 106 148
146 138 125 116 107 103 103 114 131 149 163 179 193 189 186 169 156 144 149 149 153 125 120 129 154 175 182 184 177 170 181 191 195 194 182 183 180 178 187 187 185 188 199 190 204 210 177 165 148 165 143 138 169 162 156 162 173 121 154 122 132 173 170 189 204 159 139 125 158 115 119 136 102 82 102 98 121 115 136 94 77 67 86 114 124 152 155 95 80 76 90 87 98 114 120 94 110 79 89 116 131 108 106 129 129 119 95 107 66 43 67 54 91 90 135 203 220 152 157 154 75 67 58 152 163 75 74 59 69 164 94 196 192 117 139 114 195 135 167 165 143 166 86 133 182 108 135 183 187 184 67 160 161 114 172 161 164 159 140 144 107 171 91 102 143 139 149 194 137 175 142 98 135 115 159 150 76 124 78 87 105 151 142 85 142 152 110 171 106 162 183 183 165 78 60 58 80 106 202 122 111 188 99 191 144 140 152 110 170 139 184 136 139 75 68 102 174 104 184 94 193 187 91 87 170 143 92 162 108 102 197 180 133 121 65 145 186 101 108 174 86 94 170 164 65 155 145 64 125 157 87 98 164 83 139 150 186 105 194 147 209 156 110 102 187 117 107 145 165 160 110 139 108 176 172 164 131 179 157 115 78 102 86 56 89 82 176 94 141 137 131 163 170 196 103 101 121 170 129 104 119 114 165 195 98 99 83 109 165 154 145 65 113 109 101 87 95 167 173 110 151 183 81 166 123 111 134 144 104 110 117 152 138 165 186 95 153 79 178 151 197 102 113 119 113 109 157 155 130 124 183 88 165 107 99 115 84 157 82 113 91 102 167 154 69 111 69 128 177 187 126 202 137 76 158 88 132 156 147 178 179 151 158 91 101 166 129 164 115 170 144 102 98 196 192 97 148 146 145 184 163 146 165 160 83 114 173 120 152 83 170 101 128 202 210 180 128 213 133 139 105 211 147 131 192 134 175 177 174 167 196 162 192 174 174 84 85 156 189 113 184 82 149 84 94 96 113 179 138 74 72 118 177 217 124 203 189 95 146 174 199 98 123 156 132 135 134 101 141 48 89 156 143 138 93 194 101 121 158 145 129 212 217 204 179 173 147 200 130 140 89 120 128 77 76 91 88 161 81 71 95 158 118 174 111 162 170 162 129 135 105 121
152 149 140 128 114 107 108 117 132 146 159 170 188 181 181 172 142 128 136 126 145 141 138 153 167 170 190 183 188 179 185 193 195 196 185 171 163 163 162 173 168 185 195 207 221 255 161 159 127 161 178 179 159 157 166 139 146 129 111 164 150 159 109 185 123 152 136 178 134 147 114 87 100 156 143 122 132 120 136 96 90 138 120 127 132 88 88 89 144 138 74 80 95 156 114 116 85 94 76 126 152 126 144 127 129 94 100 86 100 69 52 108 57 91 169 123 137 210 103 74 89 64 150 91 157 96 81 150 113 81 187 100 114 211 127 206 150 93 118 143 95 149 191 94 142 99 193 122 196 186 66 61 109 153 109 91 68 148 118 155 75 122 136 103 122 129 120 181 136 154 119 98 175 71 147 131 71 64 70 67 151 130 195 96 124 68 142 69 82 97 177 163 140 130 59 137 126 166 116 109 138 177 96 199 132 211 131 149 217 217 127 111 164 107 70 157 149 140 78 155 255 172 145 77 152 129 181 146 156 150 210 184 126 162 171 148 84 81 88 77 161 173 176 174 169 82 147 78 140 167 88 168 179 189 142 255 187 189 163 204 140 208 141 135 128 164 113 136 205 206 125 182 87 138 163 198 214 194 155 147 127 138 76 108 71 63 154 88 186 155 115 99 182 84 95 92 90 176 97 90 190 137 105 116 117 83 88 85 97 114 157 126 187 91 152 131 104 105 193 184 193 89 62 73 63 160 170 120 151 82 89 128 120 151 140 87 102 175 82 169 197 132 105 140 156 202 154 148 178 174 181 80 143 133 175 185 123 137 157 60 134 118 108 157 125 81 126 90 192 127 200 188 130 95 134 80 124 159 173 207 187 167 144 65 131 154 127 129 138 178 167 160 193 98 115 129 188 96 163 196 149 110 155 154 120 158 163 135 162 101 128 101 187 94 186 196 156 106 176 124 198 187 129 145 100 113 128 119 144 184 135 134 216 199 118 105 101 139 208 173 115 83 137 144 106 102 160 137 107 128 129 117 180 226 194 112 161 93 139 184 176 190 102 66 85 125 80 36 130 106 95 173 156 199 156 172 95 146 154 132 130 193 211 115 210 215 148 205 147 142 91 139 155 64 96 164 112 148 51 57 77 189 200 128 198 85 85 163 89 104 183 199
140 148 147 139 127 123 122 127 133 139 155 172 175 172 168 169 142 137 143 138 138 155 166 165 183 183 198 190 190 182 191 197 202 193 178 163 147 145 159 164 176 185 198 189 210 204 179 131 144 144 164 171 170 163 181 180 146 136 101 101 92 136 132 141 133 123 114 145 175 117 111 108 173 163 86 169 160 131 164 78 82 60 66 74 153 136 96 99 88 80 255 86 128 108 124 117 87 106 115 108 156 123 131 141 134 117 109 94 81 49 29 40 98 78 143 170 158 115 146 93 69 102 66 163 180 139 139 87 95 84 95 128 178 176 229 198 200 176 165 65 169 164 194 103 185 187 201 190 207 165 168 64 158 166 166 162 133 160 173 83 170 138 150 173 132 176 114 106 176 193 159 101 85 168 89 147 149 69 128 90 144 121 101 123 108 147 84 78 92 119 108 97 174 91 87 171 159 101 175 132 168 154 179 182 123 211 228 126 117 185 110 130 119 191 169 126 134 51 122 162 173 89 114 83 162 163 161 195 120 220 226 142 156 111 181 82 148 181 116 180 183 121 87 143 102 77 173 95 175 162 70 74 120 110 204 184 178 118 137 217 203 213 161 115 171 89 87 105 156 135 203 198 153 193 178 175 201 138 150 134 180 182 80 77 75 80 71 99 156 182 96 180 74 87 72 145 130 151 82 100 104 159 118 90 136 121 161 86 176 178 185 104 169 149 93 167 169 87 126 101 152 167 86 101 58 72 129 178 89 106 126 81 104 168 124 136 74 134 113 178 102 161 201 110 191 165 190 90 159 94 109 148 140 134 126 197 128 205 146 93 51 126 52 148 92 96 177 133 127 202 116 188 167 68 142 149 172 116 141 220 109 136 159 120 64 148 163 107 124 177 125 93 128 166 120 142 106 130 121 195 107 184 171 65 162 159 145 166 104 155 190 111 139 96 104 153 174 185 130 204 143 211 199 107 88 164 100 113 176 122 173 199 204 155 115 122 170 199 160 109 166 166 141 158 88 192 109 122 73 72 180 127 170 212 119 147 97 149 80 123 119 172 161 155 46 41 131 57 39 126 128 158 115 123 103 186 116 142 163 187 180 206 132 191 122 188 162 142 104 91 70 94 73 82 76 166 160 58 34 55 159 103 210 123 106 148 140 85 128 95 181 117
122 139 153 153 144 135 132 139 142 150 160 168 161 151 147 151 147 149 150 150 157 167 182 191 201 204 209 204 183 183 182 192 193 177 162 148 145 148 157 167 182 185 194 192 198 187 177 142 119 137 144 114 167 125 173 151 195 188 171 162 128 132 109 137 151 116 153 170 106 169 188 137 144 110 126 89 83 146 126 97 68 125 106 88 95 102 106 124 121 91 97 108 137 113 131 87 84 80 79 102 109 141 140 105 121 125 95 86 72 55 59 108 46 79 120 136 142 122 84 65 42 49 155 78 143 106 104 196 95 178 168 107 103 118 125 196 197 175 165 162 166 141 199 161 191 206 110 112 111 191 168 83 172 142 84 166 166 146 93 179 98 152 95 174 109 169 197 126 209 162 160 139 174 80 127 81 122 47 43 53 104 137 183 156 121 81 98 82 191 128 101 119 183 133 98 184 139 83 136 111 127 70 162 165 137 125 220 153 155 141 111 102 199 109 173 73 132 38 41 49 140 114 85 129 71 111 100 114 122 129 216 190 166 212 154 194 120 146 115 196 134 167 122 78 172 82 154 165 130 122 169 82 89 112 119 150 212 127 113 174 202 206 199 145 71 90 108 99 98 115 212 124 215 167 255 140 149 231 134 149 100 98 150 117 62 92 66 133 147 141 78 166 65 67 86 75 100 120 87 174 140 99 170 175 79 81 171 122 85 85 184 192 96 179 85 75 136 89 164 98 142 152 146 68 161 130 101 93 155 80 129 89 147 76 146 149 62 149 142 174 86 108 189 112 197 199 93 140 66 162 76 169 164 176 209 153 161 103 181 73 99 66 73 83 162 145 155 116 191 175 198 140 83 143 72 75 79 152 169 207 138 114 159 151 157 62 166 155 98 96 148 117 136 87 145 133 107 188 135 210 123 106 146 85 169 177 149 208 110 157 133 144 113 149 75 142 80 159 163 167 106 137 145 173 61 96 66 144 134 180 184 121 149 185 134 156 159 168 198 194 176 151 132 172 176 131 180 183 71 74 123 162 99 100 164 132 111 136 71 177 160 184 165 167 141 66 148 138 32 117 84 119 144 162 126 136 167 169 170 96 159 97 103 167 166 229 237 214 196 81 157 146 108 166 133 101 166 101 34 40 62 115 198 172 105 158 81 93 115 97 183 87
108 127 147 155 149 144 144 139 143 156 158 159 149 143 139 139 159 169 159 165 152 167 170 196 212 221 217 215 202 193 187 188 180 165 152 141 143 145 173 190 200 193 172 188 156 180 172 134 132 147 121 153 135 178 170 158 156 141 111 150 163 123 158 171 116 111 160 153 168 118 201 174 186 151 85 72 76 154 95 87 123 148 151 140 142 158 178 167 124 97 70 72 80 119 101 106 99 119 76 127 104 120 161 150 139 107 113 93 113 97 84 47 93 67 135 94 120 117 97 125 58 76 116 135 91 110 126 119 95 79 154 82 199 115 195 209 107 111 157 129 79 93 205 209 206 156 106 104 138 196 162 170 178 99 75 76 147 121 126 122 106 74 171 178 130 200 169 206 209 161 124 133 165 164 152 109 137 104 93 117 131 135 182 191 194 127 150 119 167 165 152 110 180 179 167 173 111 124 169 92 81 140 161 125 141 120 182 171 157 101 74 143 176 134 88 155 138 67 40 93 62 58 132 151 84 175 82 185 189 135 118 134 206 155 213 201 193 142 112 107 116 91 168 167 149 167 143 112 118 188 121 181 90 178 131 202 151 111 186 172 205 188 90 172 61 58 142 100 174 155 176 208 179 213 143 209 203 172 176 197 199 149 133 90 142 91 129 64 149 150 72 161 115 102 120 118 104 107 175 131 109 104 135 169 102 89 71 169 124 78 148 148 178 143 167 79 144 128 173 255 173 113 168 100 111 87 168 170 95 141 111 79 158 163 156 66 73 134 61 68 110 104 126 193 128 119 192 103 158 115 69 80 130 132 144 141 127 196 127 67 99 46 146 167 195 174 126 133 201 193 108 100 78 68 100 132 141 168 114 154 182 148 170 164 147 72 113 185 181 141 158 85 143 89 89 100 151 158 187 207 207 158 161 79 99 101 212 204 117 180 139 159 155 141 97 98 78 163 175 140 118 190 181 170 157 128 129 167 120 136 130 76 146 85 184 202 130 159 141 169 152 114 100 82 191 193 173 102 104 128 153 170 122 110 142 65 72 46 60 74 173 176 177 164 89 100 165 153 138 44 128 84 82 98 179 171 143 184 156 164 164 180 98 165 136 215 132 188 179 155 104 87 154 73 174 88 146 153 125 95 104 72 124 98 184 148 100 90 86 113 70 78
110 126 143 152 154 151 144 144 151 153 164 149 131 126 111 126 144 170 165 159 159 163 171 188 208 215 214 225 212 199 190 174 169 162 153 146 151 165 187 200 210 209 193 162 151 167 158 163 128 140 129 172 187 149 165 147 145 167 119 112 127 122 157 171 194 131 145 183 181 203 133 206 146 113 73 101 138 98 148 95 169 108 171 103 135 191 118 177 96 87 80 69 85 98 102 117 106 118 82 119 135 114 123 157 142 88 83 75 112 78 84 73 68 129 71 107 155 152 99 77 124 48 126 140 187 105 183 93 80 146 147 79 103 197 186 141 103 160 149 118 169 90 199 105 150 188 128 146 189 193 191 165 143 174 94 166 98 180 155 103 75 92 146 176 185 171 135 214 116 153 132 165 156 172 130 113 150 133 127 77 145 93 186 118 163 126 97 191 126 222 156 116 153 205 130 168 96 90 147 140 77 117 152 94 194 106 78 58 39 140 122 86 142 97 166 179 117 116 118 29 61 107 80 131 157 156 80 119 93 106 133 121 205 193 120 115 201 117 202 167 158 123 162 161 156 116 101 89 176 184 162 163 112 146 181 179 177 139 93 95 83 80 142 122 149 63 131 150 156 127 210 191 225 164 179 119 182 203 110 181 113 116 130 178 80 90 92 142 176 123 85 77 105 173 154 87 87 161 123 110 136 84 93 66 58 154 63 128 70 69 139 124 126 79 98 77 77 80 86 108 103 163 92 150 141 165 103 175 100 177 80 155 82 166 67 90 76 133 89 64 147 68 179 199 133 214 120 96 92 134 129 153 104 178 235 209 154 181 88 164 140 55 108 84 100 110 99 176 162 156 158 98 99 148 145 121 121 189 191 161 95 85 95 175 148 161 175 86 160 88 90 156 80 93 179 143 183 117 181 107 197 205 197 186 129 185 149 121 162 170 164 138 77 125 142 50 112 124 136 132 84 177 87 144 66 74 111 149 177 108 145 78 111 95 175 176 207 161 102 134 183 83 149 87 101 191 203 127 98 173 100 67 138 56 92 128 32 32 72 54 153 71 170 95 123 147 134 182 98 128 136 61 71 85 147 154 124 197 149 117 154 167 117 80 176 193 216 199 207 103 190 103 119 96 106 109 149 123 149 79 50 68 86 99 141 76 86 82 143 59 66 147
135 143 150 154 153 148 143 141 151 150 159 149 125 113 104 134 140 173 174 157 143 152 165 177 191 213 218 220 212 209 194 188 176 174 165 170 169 184 191 216 222 201 193 173 161 159 128 161 121 115 165 172 191 196 164 168 139 170 102 126 141 136 141 177 196 134 172 170 121 180 145 141 185 108 82 122 102 72 86 170 107 99 97 106 136 149 137 101 149 71 60 96 80 152 146 104 118 90 78 117 119 142 163 118 110 80 74 70 83 86 72 78 58 123 80 87 137 91 98 106 153 58 115 107 176 106 93 86 116 70 68 86 191 161 184 87 87 127 144 54 158 175 88 188 186 186 187 188 189 186 92 149 98 139 175 185 122 190 183 159 128 82 149 182 191 142 135 136 108 116 147 122 160 120 126 181 96 145 145 125 157 162 82 174 126 178 123 204 172 119 116 120 185 125 192 176 158 158 182 87 100 158 88 148 112 173 65 61 94 56 123 102 145 133 187 185 116 70 56 63 37 47 162 100 158 146 174 176 135 99 95 185 194 159 205 196 119 179 177 196 194 92 166 163 93 134 107 76 126 164 75 74 90 80 131 151 161 100 80 142 122 110 117 152 51 95 126 128 101 105 192 127 195 179 224 207 146 176 185 108 193 193 92 84 83 151 71 76 177 198 111 192 181 186 160 193 144 93 132 177 97 166 80 133 148 69 81 88 80 78 88 175 98 99 66 72 113 106 159 96 127 190 111 77 110 182 181 185 164 142 182 95 179 166 168 63 72 158 70 70 107 85 158 88 105 180 184 162 181 192 174 164 124 169 144 128 210 153 86 70 110 79 131 105 85 158 81 164 176 147 117 179 175 136 111 188 169 170 109 135 103 146 184 118 174 101 95 176 166 120 105 116 88 171 150 126 183 132 100 165 162 183 192 155 92 104 192 99 137 86 126 81 92 169 159 82 142 107 174 87 76 73 77 107 133 132 153 89 192 193 94 165 119 133 123 139 188 172 146 101 165 177 110 159 185 115 127 99 144 89 157 69 111 56 49 106 113 120 58 58 89 141 157 168 123 204 196 146 80 139 105 108 71 147 144 78 162 105 175 172 103 98 106 102 170 148 157 193 102 117 193 173 205 100 113 155 95 146 59 69 98 72 127 99 148 94 72 153 62 106 136 163
166 165 167 161 156 151 148 142 153 157 154 139 126 126 120 131 162 176 167 165 141 153 168 179 179 174 181 200 202 209 205 199 193 190 191 192 196 204 214 220 213 208 187 169 159 140 162 154 154 140 141 175 188 192 201 183 176 154 103 155 149 82 104 137 201 136 165 96 164 151 122 171 103 165 107 107 92 107 84 167 152 123 96 140 113 138 109 103 89 120 111 73 79 102 101 115 89 107 105 92 97 103 105 99 91 77 66 117 89 136 68 86 90 105 77 100 102 82 115 100 89 97 68 72 129 159 93 90 162 102 124 89 174 102 158 160 78 98 139 151 155 108 123 122 70 111 130 180 98 181 108 167 145 188 104 171 203 202 108 130 159 154 145 174 187 149 170 155 145 85 155 145 99 120 137 131 164 165 107 78 177 108 126 75 152 153 181 198 166 130 201 204 206 150 183 121 110 135 85 172 173 183 200 210 211 177 92 75 66 70 60 87 171 77 137 156 143 169 85 48 136 97 118 154 171 148 89 99 159 105 191 91 183 105 94 116 141 166 118 95 185 96 172 163 165 83 167 121 154 137 76 73 116 70 121 59 163 112 105 109 91 135 95 78 138 106 67 139 84 191 111 135 206 126 189 183 178 157 80 170 144 161 90 113 76 86 146 177 178 109 140 200 142 103 146 188 114 172 108 93 164 77 66 150 44 42 45 95 145 94 102 255 73 154 95 88 91 73 70 128 106 113 116 73 76 97 143 191 183 102 184 204 159 146 163 77 153 106 85 163 69 77 88 175 174 146 103 123 134 136 200 189 164 205 189 194 135 93 150 138 157 123 158 150 70 162 93 85 163 81 85 194 131 189 114 199 120 181 207 201 181 96 105 166 119 157 168 171 125 145 148 82 89 115 112 103 137 169 106 122 134 102 159 102 112 108 91 83 70 163 85 187 143 166 123 168 167 174 255 130 147 97 92 74 74 156 86 119 107 192 209 195 106 138 103 111 187 188 149 161 120 109 118 133 94 151 101 119 76 156 63 125 128 139 135 37 70 135 47 68 154 157 120 90 133 184 114 172 169 95 79 161 113 76 124 95 153 145 151 209 203 187 137 176 87 128 154 82 136 100 116 204 204 148 101 97 103 87 64 84 115 115 144 87 180 122 69 159 70 68 103 129
182 181 178 167 164 154 147 145 150 154 158 157 143 143 150 147 169 186 164 154 155 150 155 168 162 146 162 166 180 197 203 209 209 206 204 206 212 217 223 219 202 198 181 164 151 134 164 138 153 151 163 163 164 146 191 185 189 156 150 117 139 134 113 182 189 172 189 183 115 179 109 160 108 72 67 99 90 122 110 160 121 127 123 120 122 117 110 125 99 121 62 116 75 133 89 87 135 127 95 101 139 118 96 116 70 69 77 67 97 103 67 73 67 99 93 80 82 147 88 161 80 57 86 76 102 101 177 97 81 160 74 117 182 131 177 158 91 185 138 109 149 56 135 157 139 136 165 79 89 86 156 180 102 88 183 162 187 207 118 184 104 168 179 193 175 163 126 128 90 121 158 173 162 85 178 191 191 108 181 188 186 168 102 122 136 169 124 191 103 193 93 182 111 165 114 162 130 61 113 97 132 140 105 117 210 94 126 120 148 146 159 74 158 77 166 79 99 120 61 132 130 142 173 119 198 115 149 187 100 135 104 133 187 187 156 163 146 73 115 141 128 173 77 126 185 113 144 170 98 117 164 139 57 121 49 255 161 116 128 159 183 147 76 130 54 68 72 72 111 176 173 138 124 202 167 155 105 82 122 67 149 89 136 162 146 173 158 116 94 99 101 198 101 155 110 211 117 145 112 163 97 105 60 51 80 63 129 89 69 148 172 69 97 93 61 83 133 51 73 129 167 166 128 173 132 188 161 190 180 97 116 137 173 175 144 98 141 92 94 181 82 90 141 90 78 87 120 145 119 141 180 192 186 168 171 86 139 63 60 79 71 82 145 75 92 72 77 150 141 85 93 116 132 150 187 202 181 198 136 138 207 124 160 177 154 108 102 180 99 62 149 72 173 161 177 136 148 142 127 74 79 138 155 136 184 120 76 78 56 60 129 191 192 95 86 177 136 149 181 162 137 168 132 72 79 83 179 180 174 187 146 193 174 192 188 148 159 128 194 188 154 172 131 127 74 100 133 75 167 154 148 109 79 125 51 72 55 134 141 140 144 119 157 122 109 105 198 102 134 166 146 137 121 162 148 81 109 171 138 187 147 104 131 91 136 75 64 62 158 146 184 215 134 194 165 123 140 80 92 110 173 118 182 91 117 164 185 103 82 81 91 173
162 166 255 161 157 147 150 145 142 161 171 167 160 157 152 161 168 187 176 161 162 149 161 145 134 138 129 151 166 184 197 205 208 206 205 203 208 216 219 212 196 191 174 146 158 160 153 157 133 115 127 156 175 127 124 139 181 138 136 135 105 118 151 139 147 202 131 162 113 106 135 92 117 61 99 94 108 83 62 135 108 148 153 156 150 135 165 108 89 72 70 65 117 91 94 68 75 67 85 98 91 101 117 85 70 63 68 94 113 107 82 57 99 75 96 92 158 122 90 127 96 60 47 139 80 166 108 126 76 93 155 160 75 95 92 142 171 122 104 139 64 154 155 68 110 134 137 78 182 175 78 135 78 95 87 165 161 103 152 190 194 194 151 154 148 188 132 82 165 157 126 174 132 114 156 151 151 187 200 108 108 110 76 94 165 161 177 202 203 96 166 173 189 181 128 152 59 49 90 119 179 115 194 122 144 101 90 169 175 178 176 117 149 53 145 160 159 110 123 83 158 140 171 95 186 101 112 101 103 160 168 111 98 183 80 147 143 149 162 167 141 125 173 186 199 131 183 119 172 183 87 166 126 53 140 48 124 177 212 124 180 102 164 63 112 70 108 84 171 159 180 109 85 99 190 119 162 156 142 69 123 172 120 109 85 179 121 149 80 149 80 167 136 116 112 160 114 189 143 90 123 94 112 140 87 55 97 59 151 168 121 61 66 45 43 135 133 131 83 148 78 96 99 133 105 85 167 94 84 110 199 199 198 136 168 168 122 88 89 166 185 94 141 159 158 161 156 108 147 109 93 177 170 104 146 139 125 121 143 111 174 150 98 83 151 79 146 140 65 106 125 202 112 190 123 177 197 127 140 203 151 109 200 185 119 206 209 167 102 149 147 78 149 67 80 146 113 116 69 134 112 146 79 89 125 162 136 94 142 154 174 187 100 131 90 173 85 150 98 188 186 163 79 107 130 80 150 109 113 128 143 212 122 195 101 131 191 102 104 191 167 180 179 98 69 143 102 167 103 97 151 147 106 120 154 147 115 108 86 171 123 179 90 158 149 108 167 165 68 158 154 76 89 132 122 64 80 105 190 183 178 126 144 140 97 87 68 111 81 182 153 200 148 132 206 149 188 79 164 150 165 103 82 118 93 172 188 109 91 132 166 157
127 140 152 152 145 140 134 135 146 161 172 183 176 167 162 166 183 178 178 163 158 158 159 150 132 135 133 135 156 169 187 191 198 198 195 195 198 204 196 190 184 181 173 158 149 131 144 161 132 155 141 116 114 155 128 148 124 134 138 131 159 123 164 169 177 219 176 205 198 140 131 109 126 119 60 105 70 64 74 85 95 175 99 162 167 191 127 135 157 117 81 72 72 71 89 63 79 86 112 77 81 86 90 95 82 79 89 128 123 86 113 93 142 97 101 181 106 179 107 76 115 45 93 53 100 118 182 81 59 135 87 43 56 76 91 99 121 97 130 138 68 148 158 149 130 93 127 178 107 169 71 81 129 124 71 81 97 177 181 180 179 113 190 158 170 114 150 129 141 139 178 107 177 140 87 124 179 128 140 193 164 123 103 169 130 84 193 197 188 107 167 119 176 180 163 49 89 71 55 132 164 106 149 186 164 138 99 93 109 101 160 72 127 70 144 169 176 171 112 126 100 70 96 157 177 183 139 122 133 173 184 193 188 90 96 152 143 155 179 197 171 198 190 107 98 110 128 203 220 213 146 109 113 119 151 153 77 180 98 110 111 139 176 145 151 131 67 167 110 88 135 132 86 101 118 112 104 85 103 63 131 101 133 83 96 130 105 65 62 59 149 137 75 163 104 107 120 99 108 83 178 119 151 61 126 124 81 68 159 162 75 113 85 43 45 82 70 76 68 166 158 89 74 72 116 122 146 159 171 108 133 115 163 110 181 90 138 142 131 189 118 109 175 140 121 154 112 178 161 166 175 141 150 58 116 31 115 64 91 136 162 147 203 182 162 126 168 163 104 155 115 199 139 90 93 125 133 120 152 111 200 141 255 166 217 221 170 172 123 147 46 144 115 149 152 80 148 116 96 62 61 116 70 82 151 116 163 161 156 69 110 123 104 118 182 176 182 173 124 139 167 129 93 68 121 147 86 123 168 122 113 154 171 180 166 98 184 191 94 121 187 191 148 118 88 175 122 109 108 189 110 140 152 168 166 93 101 129 111 146 118 134 89 133 164 196 99 81 66 147 93 96 102 98 57 118 78 141 92 153 153 95 79 83 182 120 81 75 157 134 165 102 96 201 205 217 156 107 196 114 96 89 158 181 115 105 198 156 177 182 101 106
95 114 133 139 138 130 134 137 137 161 175 183 166 172 166 163 182 176 174 185 166 161 158 158 154 146 144 145 152 165 175 172 181 179 179 184 184 187 184 177 170 169 161 151 141 157 166 162 164 160 148 158 146 135 110 134 170 152 163 179 128 184 169 156 152 160 196 180 149 218 157 167 91 137 99 117 118 157 92 154 105 115 154 132 156 124 132 121 121 105 141 98 84 86 119 79 116 97 75 101 80 70 64 99 92 98 112 116 98 147 97 75 76 96 178 118 147 183 120 86 129 52 61 135 108 81 135 98 122 59 56 38 49 124 167 127 101 76 70 127 162 102 64 156 72 98 119 183 91 86 117 144 105 164 144 94 126 125 188 187 106 189 138 184 176 104 195 193 151 160 118 192 125 150 141 108 109 108 163 106 164 135 144 151 99 94 184 98 202 161 189 150 196 175 76 128 140 61 86 132 144 109 178 81 77 108 120 112 113 117 176 74 153 87 63 74 106 155 122 124 100 83 129 86 64 120 96 88 89 150 142 176 161 165 115 166 93 148 195 131 207 175 107 108 147 189 199 193 128 191 198 183 188 122 123 61 67 135 169 134 199 100 149 102 132 100 135 78 135 130 112 144 99 163 120 115 179 135 154 120 77 167 97 87 71 67 107 133 38 89 113 49 65 78 155 172 169 72 164 105 125 165 115 163 67 77 96 82 126 76 159 144 73 147 101 118 95 124 91 96 156 163 79 172 142 88 135 109 174 159 94 202 113 138 112 199 149 162 98 192 102 98 168 148 64 154 95 90 176 182 152 161 81 119 125 35 130 47 163 151 167 211 217 216 118 154 124 99 176 180 152 157 104 102 149 70 103 156 178 194 97 174 129 149 207 149 207 159 85 162 154 96 61 142 155 71 125 78 81 78 141 71 82 78 168 123 148 78 63 67 80 151 178 188 130 106 165 172 141 172 130 190 77 91 156 82 132 189 186 198 194 148 185 183 105 99 188 188 147 87 139 255 203 102 190 191 149 124 221 162 169 84 140 164 97 176 171 179 182 80 74 97 111 168 170 190 195 190 135 95 78 45 60 68 91 103 170 128 94 184 156 104 130 134 87 154 169 78 84 180 111 186 188 98 154 192 179 190 117 179 149 141 133 184 109 121 141 88 184 138 101 132
90 108 128 141 143 135 131 136 136 149 167 164 163 168 167 164 174 177 194 188 181 172 160 158 165 157 142 148 156 162 170 172 171 171 172 178 181 175 158 156 140 147 158 154 140 145 162 164 157 130 125 138 160 131 125 144 144 118 144 183 125 190 124 205 174 160 230 160 177 199 148 162 140 98 119 177 122 150 181 136 127 93 135 116 95 133 118 131 115 106 134 143 131 143 142 93 78 94 105 80 87 87 70 77 87 135 106 104 157 96 108 118 148 118 161 186 143 122 86 147 74 125 96 99 81 172 66 51 135 50 141 60 44 139 155 115 80 61 101 143 74 134 156 70 92 101 79 143 98 105 84 120 161 151 170 144 162 111 186 198 203 124 146 149 172 135 127 138 203 182 209 137 187 174 186 179 178 181 84 165 113 70 93 156 95 115 151 103 122 182 108 176 143 121 133 102 143 134 178 150 119 181 176 171 168 148 182 182 115 127 196 161 162 149 131 138 100 123 127 75 101 150 47 110 88 107 76 87 181 121 149 170 188 99 184 170 162 94 118 113 205 128 191 191 122 96 181 192 157 191 183 159 158 173 117 81 160 145 162 102 148 191 176 179 82 109 91 155 72 79 124 77 105 166 107 183 102 127 64 71 136 123 102 103 64 54 111 37 86 38 143 110 79 75 66 121 168 86 89 162 114 140 210 102 131 133 119 85 112 151 92 153 74 157 90 120 103 170 130 110 162 170 189 166 80 83 165 175 111 112 191 169 192 137 193 177 115 103 98 197 101 96 132 152 171 96 130 147 165 145 131 119 150 80 136 131 139 56 80 159 169 201 220 222 188 112 83 114 150 142 95 103 167 57 90 157 120 159 185 184 179 151 142 102 193 205 162 162 175 105 100 70 142 165 84 134 180 89 176 102 175 92 83 139 65 122 133 70 106 156 136 102 93 181 135 88 158 167 208 205 162 98 77 64 158 165 155 172 139 172 188 115 114 182 91 97 165 97 154 153 98 187 166 179 100 190 176 126 224 182 99 154 170 94 175 98 125 185 176 162 162 138 141 159 87 169 108 133 149 77 144 126 133 85 95 142 120 102 104 170 84 114 143 140 142 148 73 175 127 88 165 114 144 91 134 99 101 193 198 192 169 132 114 151 172 88 148 86 154 83 177 96
103 113 130 142 153 146 141 135 143 147 150 157 148 146 160 163 178 189 191 179 171 167 169 168 169 170 152 145 146 150 165 160 156 161 173 180 178 168 144 149 142 147 143 145 149 153 172 161 170 167 133 161 148 132 131 179 151 172 173 174 165 190 154 186 200 139 211 200 132 124 170 154 105 160 173 108 122 112 185 193 110 87 113 96 117 149 151 114 150 104 116 96 122 145 98 97 143 102 255 123 73 58 88 77 132 133 104 91 109 93 92 88 78 157 93 190 118 108 132 77 84 63 61 74 77 103 82 68 92 105 62 75 136 152 155 96 143 43 42 154 165 135 171 151 107 166 113 93 173 173 149 74 158 113 204 194 169 138 188 159 194 172 111 172 184 108 110 111 195 148 164 137 171 118 119 149 182 109 154 145 111 83 135 115 168 89 177 92 138 255 181 185 135 169 93 106 160 136 135 118 178 150 109 174 163 77 124 90 200 115 191 110 170 62 102 144 141 164 101 154 153 62 96 123 127 114 110 153 158 82 162 162 187 116 94 121 177 100 140 120 169 213 205 137 166 117 77 183 127 180 165 184 119 132 162 155 116 149 66 95 85 163 132 157 179 156 157 139 78 110 99 85 115 122 189 99 147 108 98 178 143 177 157 160 100 75 145 40 45 50 63 133 75 73 161 155 100 102 146 209 124 225 157 130 125 89 84 85 193 173 90 118 74 156 74 108 115 207 133 132 182 148 170 140 91 86 114 95 154 168 184 121 114 127 166 109 193 117 105 195 122 127 84 175 83 182 163 185 167 90 71 73 80 138 103 158 82 71 170 177 181 131 135 130 223 115 138 130 83 127 117 175 170 160 153 112 170 204 119 191 118 164 119 88 179 103 132 124 146 139 99 122 154 78 171 83 156 163 181 88 96 107 183 157 159 58 154 78 151 139 106 87 188 139 117 170 146 99 193 159 117 99 183 150 173 164 160 119 206 149 125 87 83 89 120 177 133 91 139 166 86 152 131 255 140 97 202 179 226 212 135 151 87 109 175 137 174 182 132 168 71 160 165 130 89 186 201 159 175 137 90 128 45 135 175 198 161 168 176 103 178 184 182 111 198 94 114 139 177 140 79 151 159 142 175 143 124 105 188 124 208 108 178 110 104 84 96 130 89 172 91 99
124 126 138 150 156 149 137 129 130 133 140 136 147 149 150 152 172 189 198 194 181 175 162 172 156 162 150 147 142 150 161 161 154 162 175 179 181 164 154 149 144 142 124 137 143 151 174 140 171 167 158 156 165 152 177 182 121 165 154 168 176 150 124 162 125 144 191 138 194 106 132 146 159 114 192 144 108 191 136 151 152 105 119 121 97 161 138 116 172 102 95 101 146 129 95 137 102 161 141 92 117 75 53 73 134 106 107 99 87 130 121 144 93 78 100 147 126 129 104 120 85 99 71 84 98 184 167 87 81 78 111 168 169 76 67 67 121 40 62 57 161 130 151 165 129 122 94 97 119 121 78 132 101 115 197 106 135 183 104 158 210 211 198 131 190 112 159 205 122 193 210 149 176 201 170 119 146 161 150 87 36 27 133 104 117 131 201 184 115 82 133 169 147 149 83 144 154 119 87 109 197 187 134 88 75 88 77 109 103 202 199 105 147 150 110 116 157 70 109 77 98 131 59 45 42 120 155 111 155 87 96 174 116 190 115 106 165 128 89 105 102 123 188 190 176 176 90 133 165 183 152 116 128 119 81 67 165 93 117 139 133 194 206 130 185 96 164 161 145 141 166 138 172 172 149 169 96 181 92 183 177 185 111 83 76 59 51 109 148 61 154 146 96 80 75 109 175 127 193 143 223 226 238 182 112 182 105 92 113 161 89 158 89 88 117 102 173 170 150 212 140 131 123 110 192 135 185 136 187 177 111 123 108 164 182 108 126 157 106 181 186 184 175 96 82 95 181 86 84 88 43 88 159 108 117 120 174 104 185 113 88 122 185 126 123 172 168 122 166 170 133 128 160 138 118 101 195 213 182 182 143 69 79 160 79 109 162 158 185 85 158 172 138 173 165 171 78 75 76 125 154 101 107 72 132 113 70 157 117 81 79 175 143 137 141 141 178 187 147 129 195 111 107 147 171 105 161 199 216 194 86 137 160 101 151 191 183 121 120 144 158 173 117 179 118 122 184 212 129 213 172 104 94 166 152 95 84 122 118 92 155 175 152 166 173 179 147 202 114 168 82 54 137 87 146 125 116 88 175 89 109 138 200 206 119 100 165 170 124 174 101 110 155 78 161 161 84 96 86 195 166 115 97 172 75 113 166 89 165 92 144 71
140 138 145 155 157 148 132 115 126 120 121 137 144 138 148 145 159 180 190 198 174 159 163 158 161 149 133 141 135 154 161 160 152 161 174 184 178 160 155 155 160 151 150 151 162 170 152 144 172 159 159 143 165 137 178 182 147 194 184 150 122 162 100 133 114 109 123 178 94 93 134 121 172 153 188 187 137 124 122 153 107 94 147 89 178 167 116 130 154 107 147 129 98 92 102 90 116 134 159 95 110 91 75 78 132 109 130 90 99 106 91 98 91 91 107 151 132 181 99 86 80 77 89 78 86 90 124 173 183 110 110 89 167 97 76 108 151 116 134 142 162 98 83 92 176 180 98 97 105 182 92 162 181 100 184 105 136 164 203 168 219 216 200 162 160 205 116 173 191 211 135 188 105 193 185 140 135 179 148 158 144 103 105 129 160 193 105 102 179 130 165 100 66 97 158 64 140 69 86 88 185 93 184 83 125 104 85 90 103 123 168 192 174 125 71 137 100 153 134 145 101 111 130 90 132 154 129 184 104 108 158 167 84 93 120 179 189 85 94 181 103 187 176 133 172 179 98 102 185 151 114 143 188 133 144 95 131 86 148 103 110 139 213 169 203 150 115 139 162 123 106 119 91 147 158 139 144 123 175 113 180 149 95 110 154 83 53 116 126 111 78 121 81 175 137 187 168 195 203 135 146 194 213 136 204 101 84 89 138 129 174 111 87 152 100 96 160 121 126 130 173 220 178 166 255 180 93 192 116 193 114 195 127 181 185 98 161 151 191 94 98 157 164 107 94 80 167 124 91 56 65 108 82 161 98 157 152 148 104 108 90 93 176 190 130 182 92 185 135 169 107 112 132 190 128 183 188 183 130 126 151 66 128 86 153 166 180 90 131 186 103 123 151 132 167 145 80 136 68 70 71 79 147 141 151 161 89 104 151 171 173 176 129 155 100 188 173 121 113 165 117 175 166 201 170 193 120 195 121 186 100 128 168 166 175 124 179 139 166 186 88 74 87 88 172 171 99 204 184 215 124 145 89 171 113 90 152 71 172 113 187 109 123 109 175 164 96 134 98 116 69 148 153 98 98 175 85 171 114 117 125 176 169 189 112 100 141 156 82 105 97 78 73 133 94 70 71 92 139 104 174 83 166 162 94 162 81 113 153 52 122 48
141 142 148 162 165 148 134 126 121 122 121 126 127 131 143 140 160 167 192 184 172 170 165 154 155 147 143 141 147 159 156 164 158 156 171 177 172 149 158 160 170 161 164 163 172 159 177 172 156 143 162 150 166 173 131 153 174 202 156 188 147 144 140 170 161 132 120 124 81 136 143 157 179 160 171 183 105 150 155 137 139 105 118 112 169 131 115 156 175 116 111 122 160 97 94 92 104 123 141 92 100 71 93 94 110 117 107 140 138 117 173 99 123 166 175 125 140 122 122 161 78 77 87 146 74 172 183 184 79 120 88 155 67 109 175 137 66 85 77 119 104 165 74 75 171 178 167 175 136 80 168 178 173 167 137 144 91 171 213 191 192 148 109 187 171 120 158 202 171 131 204 175 193 132 182 220 133 134 191 91 178 88 63 67 81 189 107 181 152 127 102 62 68 111 120 56 154 109 93 138 182 130 157 92 174 176 99 140 170 147 154 91 101 112 178 120 129 155 104 57 50 51 48 63 87 126 185 184 154 94 110 78 113 129 170 159 175 127 94 156 188 180 138 134 68 178 91 150 133 118 176 129 105 90 108 153 145 179 96 167 185 166 131 214 152 171 163 93 138 144 156 155 102 137 99 160 202 144 153 114 171 103 132 103 143 65 53 92 153 168 78 80 171 76 123 114 179 178 148 148 229 153 141 198 176 112 123 163 124 187 116 82 85 87 97 192 183 95 111 149 152 153 188 127 187 178 178 193 116 121 197 140 97 131 128 106 121 205 195 151 82 171 167 153 80 171 144 193 179 162 94 80 188 99 174 162 119 139 174 153 178 170 176 120 145 186 105 164 118 166 140 194 145 117 102 193 170 139 132 192 117 76 58 137 119 132 89 135 180 104 137 151 185 126 182 169 118 145 147 84 95 69 128 149 73 175 95 170 112 100 150 120 179 173 121 164 142 79 157 100 183 202 218 186 158 119 213 131 212 137 175 149 151 86 159 70 129 176 106 117 145 137 159 72 87 85 160 139 121 183 91 81 116 88 178 78 81 71 82 186 172 122 201 121 185 179 103 157 75 82 163 122 74 154 142 81 83 150 96 113 180 118 111 192 101 171 173 95 182 93 110 116 99 163 154 66 161 70 90 79 107 77 77 112 85 124 71 62 145 117 55 117
129 136 148 160 164 159 143 136 134 144 129 130 133 135 129 132 139 169 175 183 184 171 171 165 155 156 153 157 160 167 163 174 168 163 166 169 160 155 160 167 173 167 159 167 174 153 164 180 178 154 155 123 159 155 181 166 196 158 157 187 162 164 109 138 153 163 156 138 131 167 101 127 149 212 203 163 110 113 138 129 144 183 107 159 103 108 170 117 114 121 127 132 133 168 97 121 104 112 120 130 107 85 95 141 145 138 131 120 126 135 124 127 163 117 195 170 120 172 140 134 142 84 122 81 69 99 140 153 145 90 60 57 120 120 181 84 110 103 77 74 155 65 147 69 168 161 157 83 166 114 107 84 153 133 74 151 84 165 205 179 213 180 191 98 147 125 198 207 185 130 133 200 196 138 203 207 175 140 109 165 130 131 130 175 169 82 158 111 132 118 153 130 100 131 57 131 86 105 188 163 166 158 142 176 155 109 199 127 70 57 87 86 92 121 94 130 173 150 121 96 63 145 44 26 119 72 154 104 192 192 178 130 157 89 88 160 76 160 79 191 164 186 165 104 135 137 188 185 107 174 118 105 149 168 180 183 186 93 151 84 189 201 189 220 182 119 151 64 110 157 168 170 122 106 182 156 185 112 183 120 133 99 164 101 76 136 135 161 154 142 145 103 137 80 184 159 128 144 119 121 172 231 154 103 83 161 103 77 97 180 95 129 80 103 119 114 143 105 85 170 156 176 93 169 89 162 161 130 204 119 176 185 165 118 112 197 128 207 124 109 131 140 84 137 161 163 190 101 96 179 81 99 100 114 150 164 159 90 161 91 186 190 117 177 179 111 107 133 170 137 131 178 183 110 154 190 151 235 190 132 116 114 115 149 154 144 136 83 126 122 147 119 119 153 188 127 77 66 84 173 137 129 142 144 81 127 184 205 104 184 82 93 185 201 183 124 159 93 153 165 205 209 153 158 210 198 208 174 177 113 99 123 111 131 66 87 89 84 91 152 171 67 61 121 161 173 208 157 205 111 81 155 164 117 160 116 88 119 135 111 95 198 113 158 176 143 171 95 78 89 113 174 109 74 78 99 83 161 139 99 149 107 194 98 181 83 154 82 111 255 131 164 85 97 64 56 58 64 89 87 164 166 167 152 139 96 161 155 104 138 52 42
111 119 135 149 161 156 149 150 150 151 141 131 134 139 142 142 153 159 179 174 170 178 170 176 168 176 175 167 160 172 181 185 179 178 172 167 158 160 161 169 176 171 166 142 167 169 157 148 176 151 134 134 155 187 177 149 188 147 146 115 139 141 130 99 89 161 90 146 134 150 114 131 150 197 138 115 169 151 141 135 144 114 121 86 150 94 145 116 96 113 122 129 158 127 103 98 103 107 135 123 128 109 154 171 161 147 134 147 184 158 125 182 122 122 119 108 105 126 75 61 68 74 132 172 78 172 98 97 154 70 104 83 81 121 191 163 93 82 73 169 163 160 64 161 102 157 163 149 98 121 167 134 142 119 142 136 135 190 206 173 180 178 177 145 170 154 120 200 159 190 161 175 190 162 192 161 152 188 149 180 204 207 176 167 133 116 165 166 78 142 162 122 56 47 146 151 169 105 182 157 179 75 84 122 177 122 104 98 74 133 116 173 187 166 105 186 133 153 176 161 80 147 93 15 76 39 65 117 155 187 121 105 101 120 87 153 68 94 178 112 213 203 177 81 146 173 91 113 178 177 182 91 187 172 190 157 153 89 105 170 190 198 216 205 176 177 132 166 109 178 107 110 140 86 136 85 93 95 138 129 147 88 78 171 87 97 170 174 138 143 143 109 92 64 146 186 107 111 206 121 133 129 115 107 87 100 95 73 172 79 78 123 88 138 103 82 78 74 154 131 164 178 83 81 125 99 113 184 190 109 122 172 99 127 161 189 196 120 126 187 168 95 90 179 143 155 161 112 132 184 142 107 175 135 184 169 73 148 91 168 193 202 196 127 179 101 164 180 93 133 123 141 150 108 142 205 145 154 183 199 113 153 159 163 146 171 81 87 130 180 153 86 176 199 109 132 170 151 98 107 166 175 67 139 178 121 146 135 182 157 80 188 139 98 181 75 82 83 138 183 99 129 142 203 181 111 107 179 123 126 189 123 77 66 143 69 87 80 164 166 87 78 122 171 173 203 197 117 161 72 70 126 134 102 179 145 176 82 177 126 109 108 155 127 138 76 124 145 123 149 169 98 172 119 81 139 163 100 110 171 91 161 140 108 146 89 100 167 90 167 154 196 102 141 130 68 59 127 161 125 92 151 86 76 147 156 104 159 153 56 60 56
101 107 119 128 139 143 146 141 149 153 137 136 142 140 154 162 162 167 169 162 168 165 177 183 190 191 184 177 163 173 176 189 187 188 183 175 166 163 168 165 174 154 141 162 158 168 183 189 151 255 169 162 182 185 186 158 178 154 134 166 142 105 125 169 141 130 166 144 185 118 139 147 255 151 180 162 177 109 134 115 115 175 105 86 98 81 67 67 85 95 106 124 117 103 136 104 121 165 106 115 92 114 152 135 173 137 128 121 108 119 140 134 128 137 116 135 136 145 87 61 79 127 80 171 90 181 84 111 75 72 100 86 118 105 105 196 96 187 187 137 81 111 154 137 101 179 99 152 151 78 161 90 102 146 155 146 76 150 202 132 199 179 136 79 110 154 130 185 123 125 112 157 126 185 146 130 155 114 188 185 150 99 117 171 116 180 81 170 125 79 72 122 117 54 123 72 187 205 114 103 147 111 100 191 196 109 198 140 106 151 160 76 125 105 125 173 144 128 168 202 113 150 60 40 110 58 148 142 77 119 97 129 145 106 186 79 60 62 177 106 143 126 131 130 143 180 103 97 171 142 181 83 180 181 120 121 104 175 176 102 196 146 205 171 102 154 96 98 96 123 127 133 108 160 121 155 109 126 107 120 167 98 127 79 75 146 83 125 143 153 77 140 131 89 87 126 127 106 122 115 120 174 166 201 177 117 78 74 156 156 98 126 72 81 86 139 138 100 147 170 104 116 94 82 146 94 79 91 87 81 90 134 166 66 155 124 104 163 122 97 97 182 175 170 168 135 162 172 174 163 174 161 178 191 80 158 100 139 158 117 159 169 136 109 171 139 157 73 94 109 76 153 106 85 174 203 185 195 192 132 160 145 135 152 108 120 144 154 102 80 74 158 175 132 111 158 188 167 167 104 104 173 151 177 188 122 98 177 123 116 111 156 148 95 108 130 149 148 164 96 122 199 141 135 109 91 115 91 97 174 102 124 148 190 116 185 139 105 70 153 120 150 111 176 192 197 209 197 150 109 37 120 150 133 132 91 155 83 166 173 80 90 95 111 120 65 153 56 76 167 88 131 106 126 189 167 180 160 74 115 150 168 76 111 75 133 112 111 182 96 138 101 120 156 114 80 76 82 84 97 144 167 185 84 75 74 120 115 86 173 111 78
105 106 109 113 120 130 132 133 146 147 136 128 141 152 165 167 163 145 154 154 158 170 169 171 192 196 192 164 161 162 173 187 193 194 193 182 166 156 169 177 176 167 164 164 175 186 190 172 175 193 193 197 191 159 117 125 111 135 161 154 141 151 119 140 140 113 160 139 185 160 139 158 130 114 159 95 155 82 123 120 123 184 154 93 77 123 56 117 71 70 142 85 83 121 96 119 153 130 119 120 90 140 154 137 171 130 117 116 96 147 103 128 142 114 104 101 98 129 59 138 95 108 73 84 94 93 100 84 105 96 177 99 198 140 104 140 187 204 207 199 87 87 147 160 180 124 108 100 153 167 127 82 78 164 158 91 148 100 199 102 167 99 161 124 68 139 104 114 108 92 179 159 183 173 88 145 134 97 81 156 176 173 168 146 142 158 134 131 65 155 116 139 71 82 152 126 111 180 181 109 139 92 181 158 176 139 134 108 93 158 137 87 175 151 191 188 157 146 204 213 205 177 80 132 127 52 133 88 99 131 147 185 201 153 188 148 165 164 98 133 195 191 198 172 93 175 179 133 111 94 155 185 133 103 102 82 157 166 176 190 193 112 195 108 89 133 195 142 93 178 171 92 110 128 159 71 104 54 144 112 78 91 137 101 76 167 186 94 193 128 98 133 74 150 114 112 115 105 105 112 137 145 146 113 99 192 97 86 86 153 72 103 153 94 138 72 137 169 98 119 198 150 101 169 64 69 79 80 89 165 165 81 159 116 146 170 102 185 193 107 79 123 161 83 177 186 92 160 173 161 159 122 83 172 170 141 138 127 126 83 130 80 130 62 66 160 69 66 72 158 149 149 96 168 178 101 180 172 129 154 146 154 191 155 198 139 103 180 163 140 154 127 112 152 161 101 108 175 179 189 159 156 189 89 163 165 93 175 148 99 171 94 94 160 95 143 85 163 139 81 182 111 113 101 82 122 158 102 125 87 183 185 149 116 113 155 175 158 67 55 57 131 123 86 119 125 188 143 147 86 25 126 110 158 194 185 166 105 75 160 158 82 86 164 69 109 142 107 132 113 82 113 185 255 143 112 139 163 83 60 54 148 124 140 160 137 172 109 98 94 185 116 202 196 198 110 140 85 97 73 89 141 122 192 115 144 82 126 190 100 142 173
122 120 116 113 118 123 133 137 141 135 146 131 144 142 147 154 155 136 148 153 152 153 165 177 189 198 185 175 161 153 167 180 192 198 201 191 179 169 168 175 173 172 163 174 175 188 184 173 184 191 158 201 163 166 158 135 133 134 123 145 135 137 105 147 171 192 152 184 255 178 110 181 133 109 68 70 106 154 124 92 163 101 146 115 67 66 61 113 48 52 83 117 76 75 93 143 139 145 111 93 114 115 131 124 129 151 111 89 108 73 135 151 172 99 117 115 94 97 60 84 71 58 108 169 90 89 130 149 155 82 85 178 132 186 95 167 94 104 187 197 104 150 141 142 179 112 192 182 144 179 84 134 89 146 173 184 137 135 134 187 177 160 140 141 89 142 107 100 127 130 81 158 170 132 120 120 114 171 96 151 112 99 156 71 182 174 170 91 63 102 77 74 140 171 151 84 190 113 204 193 190 111 85 91 166 186 98 170 104 170 169 113 185 104 200 100 191 103 176 209 230 178 83 121 91 98 149 127 130 125 148 133 115 144 145 92 255 78 80 172 183 148 188 127 182 79 170 169 78 169 185 176 170 189 137 138 78 152 168 91 178 181 181 168 175 185 161 140 191 85 152 109 164 102 92 95 110 138 97 74 170 92 172 172 105 133 141 198 127 108 156 167 115 121 184 124 144 106 107 188 115 211 141 157 160 151 105 88 86 78 118 134 85 127 182 166 81 154 181 122 142 157 158 173 166 93 78 174 136 73 125 98 162 72 171 151 177 166 173 87 68 113 84 167 88 103 105 180 97 70 61 94 157 170 71 47 99 58 149 134 176 166 162 145 65 99 171 82 171 82 148 79 162 88 146 72 161 132 78 75 90 95 177 175 129 127 147 187 170 146 168 97 164 73 173 90 92 189 91 114 163 159 134 116 187 173 189 94 91 93 180 117 144 205 179 148 171 88 168 164 143 106 164 95 131 114 128 148 89 93 180 118 135 200 204 150 126 103 113 60 62 145 171 143 196 196 150 99 83 42 50 43 139 184 192 176 131 128 153 156 172 141 153 83 57 150 148 148 139 75 154 178 120 101 121 217 149 107 80 71 120 118 55 66 151 156 191 111 183 92 101 152 121 203 112 137 195 97 166 143 173 114 114 164 127 136 83 91 100 198 190 117
137 138 136 130 130 138 152 153 151 150 140 134 136 138 143 136 142 139 141 155 165 168 158 166 186 197 197 186 174 156 159 173 184 190 194 196 190 183 179 170 171 166 180 183 177 196 169 201 179 161 198 161 190 138 118 126 132 151 142 170 140 87 123 124 164 158 182 164 189 165 180 147 159 86 85 100 75 118 116 81 127 117 65 58 62 123 96 56 58 104 57 61 74 118 92 121 108 116 112 90 89 101 114 110 121 106 127 93 106 80 122 161 122 138 93 100 123 112 149 148 79 72 85 71 83 144 163 77 118 88 116 159 101 157 163 77 86 136 165 130 166 52 133 53 156 157 107 94 145 85 159 186 111 117 186 91 141 179 138 183 135 123 95 109 145 136 125 144 77 106 144 151 136 136 149 100 183 118 119 165 98 105 143 127 98 189 161 150 72 85 135 141 160 191 117 120 150 203 127 159 99 105 133 97 175 94 195 113 166 70 165 114 186 190 206 203 154 117 204 164 144 172 179 166 75 96 173 118 196 146 179 144 103 101 113 103 162 178 170 163 86 73 75 179 162 118 145 88 152 125 178 151 173 129 137 91 111 77 89 95 177 117 140 158 165 148 135 94 92 104 107 126 116 157 98 86 72 137 75 139 177 110 92 120 109 93 127 104 115 201 201 135 173 119 163 108 196 104 101 115 108 181 96 101 109 166 255 172 81 175 151 175 144 198 98 146 139 88 99 110 128 166 94 93 166 113 169 81 97 152 93 93 159 119 81 142 166 123 187 153 67 155 151 167 114 168 157 96 86 94 67 128 120 86 63 142 52 86 155 136 166 165 136 76 126 138 159 154 163 188 149 104 255 127 160 126 147 137 163 136 122 119 166 164 191 150 180 93 165 180 104 83 110 74 159 108 165 118 127 80 83 83 124 139 179 90 189 182 180 84 190 104 118 220 152 211 96 162 119 122 123 159 136 102 143 160 85 177 93 177 171 148 101 195 116 223 221 130 178 155 56 64 121 178 137 193 184 157 152 140 148 159 106 197 201 100 113 143 110 91 95 117 134 112 152 149 49 96 59 163 106 75 108 96 175 210 141 135 175 158 148 107 153 89 106 128 149 106 132 159 155 120 205 207 200 100 148 184 164 173 111 154 175 188 191 103 146 194 156 195 176 98
145 151 155 153 155 161 172 170 173 174 155 144 135 127 127 127 136 141 166 177 174 169 175 164 192 204 207 191 186 179 171 171 176 180 195 204 204 199 183 181 155 156 162 189 176 186 198 182 202 185 164 154 190 161 126 139 164 147 184 181 115 124 85 101 102 151 162 163 149 98 95 137 75 138 117 94 128 77 131 99 78 52 47 52 74 66 118 65 59 55 81 106 62 79 92 119 156 101 106 139 94 114 139 116 134 120 144 142 98 97 115 115 103 95 146 122 81 120 64 68 74 74 74 67 79 89 140 93 78 149 172 86 113 171 152 75 70 72 131 164 80 43 60 104 121 182 188 141 156 160 163 187 190 110 190 156 178 183 179 118 92 96 151 69 169 167 94 165 90 103 114 137 77 83 116 140 104 107 155 154 170 163 138 95 169 172 155 159 66 116 166 100 142 209 149 99 104 98 165 103 177 177 88 126 96 190 193 125 168 103 139 97 189 120 133 210 132 147 216 214 219 153 153 170 110 165 188 172 199 88 152 157 177 87 180 83 137 110 103 80 151 153 108 73 76 155 105 98 129 71 104 75 156 174 168 142 148 149 84 186 128 140 169 142 160 94 170 150 155 183 106 166 72 70 164 86 109 117 59 79 100 112 174 74 143 110 97 122 171 159 187 151 139 92 139 92 100 152 134 179 109 97 153 145 143 156 206 102 187 166 109 123 109 204 190 100 183 109 95 130 109 129 106 80 146 76 79 165 150 195 117 168 167 136 114 135 82 145 99 149 175 160 174 106 185 191 207 203 104 82 116 172 76 161 161 118 141 135 165 184 109 171 178 165 65 72 72 97 129 185 181 171 173 174 167 80 162 163 77 125 135 151 172 132 180 139 73 140 76 179 119 162 165 170 66 135 130 120 172 88 158 100 166 164 155 146 139 180 176 145 156 197 144 151 202 125 156 145 141 255 74 138 103 154 156 165 167 165 170 123 170 86 170 100 195 210 146 173 102 145 67 133 85 185 126 184 178 165 89 81 116 93 137 198 174 104 89 91 158 194 180 134 111 95 83 153 126 125 155 80 84 84 147 93 208 181 156 122 88 156 154 144 70 74 139 134 169 100 167 195 192 107 191 105 165 98 102 141 112 167 164 179 115 114 135 109 143 150 193 162 127 161
145 155 165 168 168 174 184 194 202 202 181 160 138 128 116 127 133 152 177 180 187 177 171 177 194 200 209 205 190 182 173 168 169 176 193 198 207 206 198 183 173 171 172 180 160 166 200 208 174 175 196 194 182 185 138 175 171 191 197 152 109 113 106 148 88 177 158 155 171 93 79 141 89 140 87 155 116 99 102 99 111 87 46 94 99 106 137 72 140 71 85 89 78 100 129 92 115 93 88 85 128 122 119 104 91 119 85 90 90 117 101 114 111 116 153 98 73 90 129 101 74 64 62 151 77 160 78 165 109 110 94 89 178 77 162 255 88 90 112 52 138 126 42 55 173 87 185 112 113 172 161 85 186 184 173 183 163 98 170 189 113 163 89 93 110 150 77 156 155 152 89 174 92 139 122 179 146 129 176 98 121 130 64 94 84 114 104 155 157 98 172 172 138 114 113 117 188 114 112 131 172 185 97 192 112 164 142 176 104 124 113 149 161 192 123 187 173 175 192 128 186 141 97 120 143 90 160 195 122 82 163 54 115 86 81 130 181 137 175 124 120 153 85 166 128 127 132 34 68 84 86 104 80 118 164 108 153 127 118 174 179 103 161 98 118 138 116 117 95 135 83 149 166 131 151 81 110 107 114 103 121 196 181 126 137 99 149 116 192 158 162 80 67 73 92 123 110 76 116 167 101 89 93 109 118 210 114 103 190 146 96 192 120 121 115 148 191 163 90 189 190 103 127 135 98 96 82 146 126 185 151 213 156 130 103 137 77 91 102 105 111 131 177 102 108 169 162 169 143 153 181 164 145 163 75 96 136 81 178 157 101 113 92 131 129 145 99 180 106 204 179 176 182 184 164 141 132 115 78 171 80 85 143 184 147 128 95 136 144 110 189 132 85 130 116 172 92 149 160 136 124 170 132 130 97 131 102 159 73 105 88 96 206 190 213 179 193 131 172 97 72 126 116 179 154 127 93 94 151 108 94 125 89 169 201 139 157 158 127 172 143 80 140 166 98 128 184 172 147 76 113 203 190 125 189 173 158 173 203 155 193 178 88 160 62 79 61 157 161 75 80 88 95 88 113 137 153 123 101 92 81 96 145 84 135 100 60 136 156 181 165 183 148 112 135 183 144 98 109 135 155 73 91 149 176 129 102 199 122 104 90 111
140 150 164 168 177 178 186 205 222 213 208 179 155 135 136 140 136 165 170 196 198 183 181 189 201 196 203 203 194 186 174 168 169 180 195 199 203 202 196 177 172 169 161 149 151 178 162 175 200 199 162 157 150 169 195 142 195 210 167 142 102 114 139 105 131 144 170 122 92 132 133 85 155 88 111 92 156 88 112 96 116 47 76 44 67 74 81 94 157 148 91 107 146 110 94 111 122 87 113 82 87 98 114 133 94 89 92 128 135 145 97 169 96 94 90 70 125 139 80 76 136 131 65 142 77 83 151 108 182 154 99 94 91 176 144 119 129 35 39 134 48 51 66 148 181 184 182 167 74 80 141 134 164 92 143 135 174 119 141 100 178 159 143 115 76 112 152 132 180 164 186 186 158 156 122 167 154 120 185 172 142 161 122 97 161 79 127 127 159 149 124 133 174 197 198 182 174 166 135 110 149 116 105 190 152 113 103 182 107 93 84 94 170 169 143 117 155 124 189 219 146 144 102 190 94 193 170 157 184 176 149 117 49 92 181 118 123 168 129 171 163 164 162 170 138 68 119 145 147 77 113 152 147 155 61 156 151 144 122 142 76 142 128 172 98 150 93 142 98 121 138 163 128 75 128 117 131 83 91 112 122 190 165 128 135 161 129 122 111 193 138 147 90 113 152 150 157 96 152 65 100 176 130 126 179 101 98 133 114 187 181 100 108 183 148 112 102 110 173 102 105 140 83 137 92 149 97 107 129 181 152 226 196 118 128 99 135 166 103 110 209 176 141 166 103 156 184 121 108 89 134 82 150 76 123 140 55 75 89 103 149 106 101 136 132 146 91 149 176 198 154 170 138 181 138 184 101 164 169 101 155 85 153 172 176 102 81 143 170 82 102 166 99 113 111 155 97 184 180 204 114 97 134 81 71 187 185 120 85 165 142 95 206 214 125 209 201 159 165 72 80 135 159 113 122 192 179 100 112 71 138 135 88 162 115 133 185 88 186 165 95 145 158 87 182 188 172 95 89 162 96 131 120 103 176 179 183 142 205 183 141 158 87 70 95 99 159 154 91 173 161 102 164 92 100 127 154 119 104 142 82 141 103 54 118 86 125 158 72 75 171 176 91 166 149 150 105 162 96 75 79 76 152 87 185 183 199 168 204 103 98 187
129 140 154 163 165 166 173 190 204 219 219 186 165 138 137 142 147 160 174 187 195 197 188 192 201 198 191 193 189 180 170 169 171 191 206 207 208 194 185 170 180 175 163 155 134 167 172 199 195 190 169 192 193 156 198 168 146 205 192 173 255 138 153 137 149 147 97 96 140 95 140 121 113 180 174 182 140 144 109 84 79 125 57 48 90 120 156 125 116 133 139 154 127 151 142 120 115 102 85 66 95 69 79 124 126 91 148 105 124 141 97 111 152 89 81 72 70 102 117 93 71 82 67 155 153 110 100 115 95 92 89 181 85 173 155 146 95 139 129 134 115 161 77 145 94 95 174 95 177 155 84 142 95 85 133 88 135 98 101 197 175 94 70 146 96 112 76 157 190 131 116 192 99 159 131 106 119 100 162 165 96 110 53 86 145 168 171 147 121 99 92 61 170 96 147 164 72 164 119 178 199 211 117 199 155 193 204 210 175 145 161 99 184 183 191 200 199 118 164 186 143 122 112 193 152 194 140 196 195 149 48 34 135 149 191 180 124 115 177 93 108 173 169 173 175 75 126 170 74 120 158 156 149 110 94 81 123 127 157 116 159 82 134 164 137 157 142 99 169 102 89 76 142 146 103 74 62 69 101 118 222 173 121 88 129 98 92 171 156 134 109 180 143 108 117 133 83 94 74 79 152 163 171 131 153 96 112 176 169 90 107 101 103 109 172 187 172 76 153 79 94 84 160 74 119 145 140 178 183 181 157 142 182 166 176 170 98 201 154 169 191 202 121 115 93 174 104 124 174 173 167 180 110 156 121 105 64 155 175 149 168 146 178 62 86 100 131 173 133 148 173 132 101 93 128 138 101 169 90 59 63 81 75 148 74 71 68 166 84 113 161 113 119 166 154 201 111 116 123 196 188 72 150 62 140 119 174 90 112 150 179 182 196 166 215 178 204 189 114 144 41 70 123 144 192 119 119 105 116 151 97 173 121 140 137 91 118 176 152 150 138 95 99 157 107 190 96 162 167 123 162 101 160 141 174 162 107 170 163 159 143 192 129 120 63 156 105 177 181 135 173 166 129 118 145 148 189 134 183 139 81 63 93 45 70 124 131 142 68 163 112 100 110 147 193 143 109 150 80 133 167 105 138 110 150 103 191 178 108 186 115 112
113 122 134 146 152 152 151 167 188 199 201 191 161 148 149 148 164 173 179 177 191 197 196 192 198 192 194 195 186 175 169 169 179 197 211 215 207 186 184 171 169 179 167 129 122 152 159 167 164 190 168 146 189 201 201 193 139 142 157 144 153 133 108 112 176 150 82 132 145 85 174 112 123 180 143 139 131 91 66 62 146 149 115 75 70 134 147 107 123 129 132 128 122 129 146 129 101 112 78 57 64 49 58 72 84 94 134 114 126 148 106 96 99 169 113 153 149 74 87 144 118 73 137 88 168 125 130 255 183 86 168 122 134 127 160 109 73 61 59 64 162 95 177 145 99 187 173 89 87 172 133 125 160 151 163 105 94 178 101 100 144 165 92 105 75 154 160 128 109 202 197 175 152 96 102 167 170 88 151 116 90 112 50 86 89 133 192 170 176 87 63 100 134 131 69 59 58 160 174 202 124 157 176 198 190 105 199 120 169 216 169 96 147 136 179 157 131 191 228 178 209 152 187 105 175 205 137 200 89 85 121 85 119 68 114 131 205 197 188 202 192 89 175 111 172 255 99 184 106 177 183 166 119 139 122 125 90 80 120 126 119 119 160 149 91 138 184 85 165 83 163 142 67 154 147 146 143 78 92 200 221 223 114 102 187 172 198 208 131 197 168 189 106 169 98 76 54 71 69 119 86 121 167 180 119 174 82 143 171 71 104 116 177 112 189 98 84 154 77 103 72 156 69 149 93 108 152 192 145 108 203 140 123 97 167 143 115 166 192 142 172 175 112 127 91 169 88 86 161 156 186 87 173 164 155 145 68 156 98 99 197 94 131 121 95 70 175 151 134 176 77 76 160 165 84 146 91 151 73 136 64 138 113 141 165 73 145 88 193 116 113 202 111 196 178 207 101 188 197 98 84 164 125 164 88 166 173 187 99 89 90 198 133 161 210 188 116 150 68 80 72 115 155 111 199 112 127 115 71 72 102 142 79 178 110 104 84 169 99 190 91 130 173 104 185 99 96 162 70 158 107 188 167 102 144 119 74 133 171 94 174 95 107 157 169 124 95 175 117 85 174 109 135 116 97 109 164 105 181 129 159 155 92 139 142 150 136 157 81 93 163 68 153 181 179 183 137 103 77 101 82 76 78 95 101 103 159 173 96 110 170 193
104 109 119 128 134 135 131 136 155 177 188 185 159 147 149 162 179 176 186 183 189 185 183 184 186 187 182 189 255 171 158 172 187 205 211 218 204 194 183 179 184 185 180 159 150 125 156 160 172 186 181 187 189 192 177 163 130 170 159 163 134 177 137 202 195 105 153 134 95 165 173 184 185 116 196 119 110 136 140 109 145 85 72 97 71 119 163 125 170 120 167 131 141 131 114 110 86 74 74 72 91 69 73 68 89 130 165 158 113 135 130 95 117 172 101 94 129 71 108 152 130 101 137 95 116 116 131 180 150 80 149 72 139 168 113 103 174 167 80 98 162 172 84 78 112 192 193 190 195 179 78 147 102 151 141 154 83 130 173 140 81 166 110 90 159 104 148 156 177 115 105 190 163 146 74 120 98 155 75 166 152 162 153 90 151 190 189 113 169 98 153 106 100 113 133 129 57 76 158 140 123 180 209 178 94 93 162 160 193 175 113 104 89 124 92 109 181 196 230 145 219 197 139 117 142 177 200 154 157 137 63 133 84 63 89 171 179 169 199 192 100 99 85 180 180 138 183 98 206 203 123 157 156 130 156 161 170 78 169 150 137 160 166 179 115 124 123 169 96 87 169 177 149 121 163 74 71 82 105 143 176 149 143 124 164 118 107 141 102 128 169 139 135 152 88 141 111 64 68 114 115 152 76 95 182 122 74 74 67 137 62 107 143 95 180 113 76 72 97 77 255 67 149 83 93 113 141 93 149 179 145 200 194 116 182 130 178 150 129 96 97 98 159 109 182 119 124 92 184 141 196 112 189 135 158 96 75 145 106 185 140 128 136 93 98 166 180 187 162 168 113 165 145 76 255 136 85 75 145 131 131 93 70 92 138 112 77 135 159 216 123 199 215 168 202 176 187 86 92 181 87 95 178 131 134 119 90 163 145 115 105 175 118 195 181 117 112 110 64 89 95 140 106 127 110 179 160 117 112 90 95 111 138 136 117 170 111 165 94 168 102 113 122 82 174 194 190 174 109 164 94 135 189 177 181 176 76 169 180 88 148 136 144 155 134 141 90 140 177 173 157 84 160 135 91 141 92 159 159 144 74 156 79 125 71 159 147 125 174 89 119 76 79 175 183 155 204 182 155 137 79 178 95 156 107 92 82 162 145 171 193 114
112 112 114 118 128 132 136 141 148 158 177 185 170 164 167 171 180 184 191 193 182 189 174 177 177 176 184 170 162 164 164 167 177 197 204 207 201 189 174 176 180 178 184 167 155 150 155 163 154 171 169 144 172 178 185 185 184 131 147 126 177 187 192 207 124 123 138 116 99 160 91 103 107 154 118 107 114 88 58 59 100 73 74 78 132 108 122 87 109 104 165 111 169 171 115 118 120 87 79 53 51 40 63 72 136 144 141 98 159 123 115 107 119 111 121 125 85 105 88 81 73 161 85 98 115 125 167 100 95 82 135 66 135 129 88 114 188 81 153 169 178 172 88 78 121 198 200 173 200 174 155 123 155 162 169 173 89 166 157 150 159 91 157 179 122 185 175 160 150 163 184 111 118 73 114 137 129 114 137 135 160 165 95 144 185 178 164 100 102 60 146 141 67 166 62 56 152 115 195 116 194 225 148 145 99 152 183 182 108 110 198 107 93 178 85 133 128 161 203 222 126 255 198 172 199 217 211 105 90 152 124 67 136 149 170 186 103 196 154 168 172 89 126 163 183 82 183 178 195 130 169 156 80 122 61 99 149 181 154 134 169 168 153 179 88 169 109 103 88 169 154 123 109 126 113 103 78 76 95 191 113 194 205 107 102 113 101 165 90 116 118 180 191 108 186 86 86 114 108 98 126 148 170 93 190 92 163 94 64 122 158 94 95 159 102 117 102 96 112 141 90 180 147 72 80 86 179 183 122 98 191 174 103 115 152 109 99 93 90 86 82 176 133 182 108 103 191 126 109 197 162 201 180 139 165 108 155 95 175 77 150 120 101 162 130 177 158 100 176 163 189 91 189 137 176 196 105 86 79 142 137 105 163 162 158 104 178 117 165 212 217 186 160 115 187 175 94 156 126 170 119 91 104 93 182 118 94 82 166 255 114 209 145 178 179 192 142 76 60 137 255 162 202 141 128 80 75 123 109 145 156 88 85 93 171 79 166 81 127 125 94 89 168 84 99 197 146 186 87 112 191 107 103 114 104 170 96 156 132 177 100 123 154 190 197 101 189 145 122 108 100 147 147 85 76 88 76 130 127 111 148 102 158 87 181 182 121 99 113 126 122 163 79 182 145 118 136 190 94 181 83 185 185 140 164 76 122 149 178 132 99 145
138 130 123 126 130 144 147 148 150 161 173 186 176 171 174 174 166 187 196 197 200 186 166 157 154 160 167 166 156 158 151 160 173 181 190 192 190 183 178 173 171 182 184 176 160 155 155 158 148 182 162 182 156 155 124 180 135 122 158 159 153 190 164 165 171 170 158 142 135 127 116 102 94 98 113 108 140 127 104 61 68 101 141 112 156 162 81 75 82 88 102 92 139 102 114 144 142 113 84 73 57 80 71 125 130 136 100 82 85 85 90 114 149 110 179 107 172 135 144 103 152 78 175 147 183 109 104 157 85 151 85 153 79 82 183 194 96 91 81 142 110 93 147 105 96 177 180 119 106 172 122 179 88 149 83 161 154 92 72 51 90 98 182 123 120 125 165 154 177 150 113 131 147 154 141 139 91 88 99 132 79 84 92 194 198 175 100 89 154 140 46 122 121 73 172 126 132 104 202 216 200 208 132 127 94 164 94 139 130 180 194 111 165 94 156 97 182 199 183 193 147 99 116 122 144 149 180 100 98 105 141 140 49 161 98 179 138 168 73 162 157 153 140 167 77 173 117 94 103 108 179 149 114 72 72 102 96 124 176 139 128 130 171 146 82 163 165 104 100 123 129 179 191 148 140 150 158 160 100 172 118 136 113 96 93 133 167 82 175 80 155 159 187 107 101 191 123 123 135 148 164 97 84 183 195 107 180 68 134 57 77 77 132 127 184 192 159 189 178 255 187 111 100 71 127 86 135 177 183 163 122 185 104 82 94 80 88 176 110 139 106 156 77 80 120 191 207 213 209 116 208 163 110 185 195 116 68 81 147 153 66 68 99 165 181 169 106 102 166 125 105 166 135 155 214 203 156 185 89 108 154 156 167 139 142 134 82 98 90 158 119 159 187 195 189 176 129 82 96 143 74 149 160 183 81 75 161 162 93 190 205 144 145 222 117 133 181 98 161 82 161 113 188 197 103 135 154 137 93 187 161 158 103 81 112 91 90 89 116 105 108 112 175 186 155 152 98 134 184 198 114 206 206 115 123 190 128 103 163 124 103 161 165 96 198 129 124 159 103 87 128 106 107 170 142 144 112 105 78 67 152 148 142 200 164 202 111 204 129 191 98 172 129 184 202 137 141 116 189 165 89 160 143 120 178 145 110 95 187 147 93 113
163 153 139 132 140 154 164 163 159 156 172 185 179 178 161 154 159 182 193 213 205 179 167 153 151 153 161 164 163 150 155 155 157 158 167 173 182 181 179 173 174 176 169 153 140 133 136 150 163 181 178 162 126 160 139 134 129 159 125 102 158 110 179 156 173 136 189 127 161 129 111 146 150 118 149 67 64 63 67 105 130 155 139 103 101 147 75 69 137 77 131 118 91 111 105 115 122 145 129 119 78 97 85 92 131 112 94 108 87 144 88 120 87 105 112 137 110 138 96 69 150 178 122 119 166 125 107 180 102 177 193 99 182 143 149 171 100 132 90 158 112 152 177 119 180 106 151 208 191 196 184 175 87 170 171 85 149 61 148 84 144 143 143 190 103 105 91 164 119 132 98 158 147 89 149 153 78 73 171 158 176 135 124 150 185 181 157 79 72 147 150 82 92 148 81 76 126 142 161 194 162 205 154 144 185 185 184 181 157 132 156 112 140 171 152 141 187 188 142 129 136 146 105 184 138 126 116 169 114 140 50 154 76 86 86 100 81 101 63 57 71 159 160 103 158 90 105 84 182 173 145 156 131 90 108 143 141 106 185 102 103 173 106 81 137 183 188 173 154 118 217 197 104 97 105 133 178 147 183 113 200 105 88 88 83 116 142 114 92 138 157 112 153 182 120 152 101 97 131 98 93 90 187 178 103 108 112 129 140 52 70 78 83 84 87 110 165 188 112 185 184 178 141 93 104 82 121 150 165 147 173 147 109 172 78 143 171 144 82 116 99 61 103 72 180 193 154 144 133 211 121 175 202 119 96 81 88 93 55 117 141 161 149 104 201 158 123 121 127 159 200 206 214 151 219 129 167 157 114 132 97 156 136 145 135 104 156 159 162 117 165 110 184 143 175 165 137 47 46 90 112 141 70 122 150 165 93 157 119 141 205 153 135 189 168 205 120 183 142 130 168 123 101 155 174 156 158 75 175 189 187 110 66 164 128 157 174 148 255 134 134 175 89 189 171 191 113 137 144 122 170 177 167 181 119 191 154 148 105 173 198 187 187 124 119 142 142 108 77 118 184 187 109 112 140 157 101 134 87 140 167 111 170 123 184 190 163 172 157 105 171 94 86 104 147 117 211 132 151 176 101 129 126 191 177 95 99 182 97 163 106 179
168 161 147 142 145 156 173 172 157 158 167 172 176 177 156 149 156 168 205 200 202 178 148 141 145 159 156 163 172 166 159 148 143 135 149 162 182 188 184 182 176 175 161 166 162 145 156 144 178 149 177 127 118 133 141 170 115 118 119 133 174 173 169 108 149 169 119 137 145 139 140 116 130 91 136 62 94 70 125 93 108 104 187 137 165 143 145 129 102 89 127 87 90 110 161 138 122 127 114 99 94 112 105 85 127 60 53 56 73 80 82 77 79 148 126 107 103 93 138 150 154 96 115 99 94 97 118 103 152 193 186 125 120 89 145 170 103 99 189 101 105 194 199 193 192 192 202 146 178 163 170 150 179 180 87 185 146 170 104 140 139 73 176 115 181 126 128 170 161 169 115 115 179 89 94 165 116 127 175 90 84 189 141 176 200 178 174 63 78 57 132 116 138 140 188 183 106 103 200 105 104 120 107 76 84 188 133 144 181 180 187 186 128 82 160 80 146 155 145 176 167 88 141 185 165 193 123 105 173 109 136 171 177 99 141 189 128 70 105 138 116 153 114 140 94 141 158 152 103 170 139 76 144 161 203 204 185 108 190 100 156 196 157 89 137 156 163 140 218 141 138 168 150 95 145 164 191 187 197 171 131 92 86 82 170 166 76 146 166 84 94 97 84 109 143 198 184 110 187 105 116 97 103 103 114 100 98 66 82 51 81 127 118 88 94 81 156 121 133 142 121 100 87 156 114 92 75 168 87 77 255 170 149 166 156 173 75 171 120 156 152 48 71 78 177 157 118 168 215 113 204 204 205 106 186 152 130 118 66 70 141 102 177 186 163 143 206 189 99 123 164 193 197 134 173 101 153 181 132 163 105 195 148 88 133 161 82 137 139 79 139 172 76 102 69 97 71 78 136 132 99 145 131 153 111 116 91 79 83 168 202 118 109 113 197 195 120 115 149 121 117 100 121 179 102 161 140 71 87 98 108 161 171 108 181 91 164 109 169 107 162 166 169 142 148 97 172 123 196 222 159 148 186 109 193 147 181 159 179 154 107 193 179 89 177 166 163 146 164 88 87 127 153 70 65 101 162 67 60 117 150 133 147 151 194 191 149 118 138 137 165 108 104 183 152 130 108 112 104 125 127 195 103 100 126 125 207 202 162 200 159 103
155 150 142 135 137 156 171 178 168 158 154 164 162 171 156 153 151 160 185 192 190 173 143 142 152 151 164 177 177 174 169 156 140 127 136 159 178 190 176 182 170 169 166 163 144 142 156 157 183 180 150 159 109 144 162 168 123 171 138 162 114 147 146 96 150 114 101 123 103 99 66 64 134 153 146 125 105 77 145 92 114 179 164 124 175 142 77 109 82 142 98 147 136 94 106 108 126 122 129 129 109 130 99 78 92 67 63 65 72 86 135 105 145 101 93 121 109 124 86 168 101 181 105 192 184 98 102 90 177 168 103 188 167 95 98 85 182 92 93 131 195 116 192 191 97 151 173 197 197 198 192 180 97 178 184 148 190 188 170 143 150 158 150 163 177 101 83 140 115 177 197 182 183 119 117 114 167 156 99 150 185 171 105 117 199 137 153 87 148 71 124 177 182 169 102 96 157 186 110 160 182 164 163 65 128 101 143 166 97 138 154 80 70 57 87 94 91 114 139 192 171 140 121 151 99 206 110 105 102 165 165 171 191 126 111 197 102 160 73 70 152 58 146 135 110 47 156 163 135 75 154 171 102 123 210 119 208 104 125 182 133 124 190 150 169 70 165 100 127 134 146 121 100 91 149 90 135 179 167 216 204 170 92 171 87 110 72 79 104 178 179 178 86 88 92 124 210 146 119 211 125 166 145 169 120 91 84 63 56 152 84 57 83 154 161 110 76 87 108 102 145 125 143 81 136 156 176 123 144 107 86 176 93 94 79 164 124 169 150 109 70 139 108 61 159 182 117 190 182 133 212 214 186 186 88 58 137 154 160 155 89 107 162 182 125 165 142 148 112 176 174 188 184 134 163 157 78 127 174 153 181 175 146 104 147 136 158 128 132 65 58 155 146 134 65 131 95 151 150 89 154 65 163 88 120 104 100 112 139 139 185 185 127 181 85 101 133 139 209 173 109 105 91 123 96 85 141 105 102 181 148 99 177 86 146 194 193 126 196 140 164 114 91 129 101 198 190 116 212 126 199 197 178 166 163 189 100 101 165 188 188 181 131 160 151 174 149 111 123 122 117 89 134 116 159 166 109 68 88 160 128 153 206 134 134 215 108 162 135 94 188 94 193 184 82 144 97 203 154 119 115 104 163 163 100 127 114 193 121 163 203 106
130 128 122 118 121 137 151 170 169 148 137 148 144 158 157 139 153 154 175 169 175 160 158 143 157 166 181 180 184 182 167 157 138 132 142 162 172 186 180 182 176 173 166 148 165 166 164 188 195 181 173 157 142 127 131 128 166 165 165 156 171 161 118 115 95 94 105 137 102 99 115 75 95 90 138 132 68 59 98 142 102 165 145 149 97 87 99 78 93 99 108 97 107 117 89 118 117 111 126 107 96 71 73 115 84 104 116 125 104 89 64 86 126 145 124 177 132 110 112 106 179 133 121 173 92 93 167 178 142 148 185 78 120 169 93 137 81 131 92 92 97 140 94 98 173 102 102 162 130 175 199 140 105 154 162 159 179 179 179 162 154 128 136 144 124 145 149 100 194 186 145 191 174 121 84 122 158 85 84 108 196 127 151 213 204 186 176 113 154 156 72 177 87 89 98 119 176 139 96 176 89 119 158 89 106 87 109 164 189 192 170 131 130 65 117 71 85 91 120 182 146 107 168 95 128 136 156 133 199 174 180 94 120 90 92 128 182 107 80 71 153 65 144 134 134 136 68 142 151 128 147 191 183 198 203 156 209 149 194 101 177 125 186 156 101 159 160 140 125 185 110 184 108 159 155 102 178 114 122 118 178 125 174 73 76 82 178 115 146 126 116 154 72 96 124 255 195 119 190 134 138 160 103 183 104 164 66 149 96 89 145 68 49 58 73 80 98 130 97 152 102 181 78 166 91 100 125 163 144 89 109 103 86 160 166 72 98 154 122 152 106 141 50 71 168 202 164 146 103 117 189 205 201 91 158 82 60 154 127 144 194 159 93 162 176 91 190 94 92 178 130 106 152 79 56 102 152 110 106 193 155 130 210 118 190 174 113 146 96 157 156 64 133 126 153 159 91 62 66 83 85 166 107 185 115 153 164 167 113 162 136 165 87 149 108 134 179 183 174 172 165 197 143 174 255 90 179 81 92 88 152 181 97 161 102 151 142 157 164 104 184 83 187 198 140 199 181 178 106 131 188 95 152 200 110 194 102 162 108 85 172 191 190 147 94 121 119 132 104 165 143 126 100 79 105 78 68 159 64 136 78 153 100 204 117 139 102 182 166 151 167 107 191 95 86 76 184 196 199 141 87 136 149 117 120 171 201 177 129 125 157 104
118 113 110 104 108 118 140 164 167 151 128 134 143 150 155 146 154 159 155 159 152 146 149 161 165 174 185 187 188 180 172 154 133 136 149 164 170 173 173 174 176 163 173 154 164 170 176 161 194 181 176 126 133 150 146 162 189 154 104 146 170 124 112 175 166 147 145 80 86 133 124 129 88 158 113 52 81 51 85 71 121 124 72 147 148 105 132 90 123 106 106 143 88 96 123 117 105 91 103 77 106 68 79 118 90 120 114 99 139 72 128 92 93 94 97 97 116 130 120 130 83 129 96 123 91 88 174 101 179 153 163 106 172 78 144 79 131 172 146 91 159 111 136 189 101 196 206 105 104 156 133 99 92 162 96 164 189 115 94 113 112 151 124 130 114 106 117 96 100 133 156 149 131 102 163 135 88 150 87 172 181 205 165 150 184 164 126 76 54 128 159 153 166 67 152 92 186 107 159 156 86 101 82 158 68 152 170 115 118 156 189 86 108 105 75 148 173 167 143 70 121 119 81 95 184 119 193 176 197 103 176 157 155 148 121 135 177 113 109 110 107 75 162 89 114 61 82 75 149 186 138 176 105 151 100 106 168 206 183 136 132 204 189 173 74 156 141 80 104 115 192 144 161 102 47 77 138 136 108 186 175 132 174 94 117 110 178 104 162 188 180 166 105 87 92 116 122 193 176 126 133 121 100 109 81 83 91 71 54 151 58 108 116 104 78 188 157 183 144 90 117 183 106 129 160 181 120 136 180 151 100 164 87 105 106 65 82 128 79 71 54 124 158 97 112 174 190 111 160 150 168 197 200 173 112 125 152 81 162 202 133 85 67 152 142 162 158 175 100 103 132 140 152 148 131 140 65 178 124 98 180 213 223 255 166 189 122 125 113 84 125 85 153 107 110 65 156 87 108 88 127 127 103 142 196 180 164 96 116 183 182 173 92 155 127 146 149 91 113 136 103 166 114 145 196 130 164 100 185 147 89 180 135 128 180 196 142 126 110 151 122 92 189 204 119 108 128 118 197 139 88 97 145 205 205 154 92 172 125 186 166 188 184 166 186 187 187 95 172 90 184 146 137 130 127 152 154 162 174 89 157 162 176 150 125 201 113 182 141 85 133 186 181 133 86 99 91 87 95 145 81 157 68 178 190 153 119 135 175 208 108 194
111 108 105 103 108 113 129 156 166 157 130 121 133 141 152 163 156 161 145 147 143 156 151 161 163 174 177 185 184 181 168 151 139 143 156 166 168 162 166 167 178 195 187 158 137 131 169 169 185 149 170 147 154 158 160 194 186 142 123 102 151 144 126 111 108 136 156 130 66 63 128 101 95 125 121 81 86 46 116 82 89 72 118 79 132 104 95 112 159 103 108 126 101 85 80 116 104 76 85 64 94 89 97 106 110 149 116 108 90 107 101 100 86 143 113 121 98 180 103 84 137 138 172 116 85 115 139 118 73 58 94 128 132 153 92 182 82 134 174 90 179 104 184 189 187 114 120 217 120 196 90 77 86 127 157 176 107 199 102 88 164 140 192 175 148 110 167 134 176 133 166 155 93 82 111 88 172 165 187 160 170 137 216 145 182 127 144 170 107 146 117 161 58 79 104 126 158 90 113 99 95 110 107 137 89 75 130 164 174 158 151 93 90 103 177 126 185 154 105 128 62 75 130 175 176 180 157 185 177 162 165 51 43 88 58 161 144 152 120 213 203 148 181 171 87 84 76 156 114 180 186 174 113 128 158 149 113 141 113 178 170 163 159 160 127 80 109 86 95 165 117 111 82 65 145 58 163 96 88 169 79 151 98 103 179 93 120 98 146 140 107 74 138 177 92 137 202 195 97 194 106 203 105 97 75 92 154 74 156 154 84 82 70 61 179 101 160 93 176 101 113 160 94 91 143 176 128 90 126 140 99 95 179 76 73 111 77 90 172 115 79 151 118 93 200 113 159 164 64 79 181 188 146 163 97 166 78 86 98 207 126 97 255 64 64 90 97 152 180 165 174 108 143 135 117 116 164 93 95 144 195 164 174 214 142 209 207 189 150 87 164 127 70 112 70 66 132 57 115 94 107 170 182 161 204 203 201 171 141 119 163 133 84 85 183 153 164 150 150 174 189 183 173 128 112 155 185 171 189 179 173 198 180 130 99 149 215 205 108 181 169 110 125 145 191 117 193 123 184 187 187 97 154 183 189 140 173 89 95 179 192 189 184 110 87 118 119 121 115 193 141 203 127 101 152 113 104 115 120 169 78 79 143 151 176 105 190 159 198 118 171 169 182 80 88 61 122 88 175 96 83 62 76 135 177 197 131 200 206 107 106 186
120 118 116 120 118 126 124 138 149 147 143 133 129 134 148 160 155 162 162 160 143 148 138 155 167 164 164 175 173 168 155 139 139 144 164 175 173 162 159 174 195 204 198 178 161 150 143 157 167 141 141 102 148 124 190 190 140 139 147 146 128 174 135 145 138 177 124 110 145 124 73 156 72 137 117 50 70 106 109 81 109 102 112 106 82 93 133 95 105 109 150 154 128 141 105 134 68 96 53 74 104 91 106 80 106 116 146 123 138 73 129 126 82 110 102 164 93 101 105 153 83 150 69 77 123 87 181 137 80 49 106 45 63 170 169 123 174 90 177 182 94 89 88 130 138 123 187 225 118 184 115 182 178 80 82 108 177 175 179 191 197 115 205 159 159 120 183 181 131 117 118 74 115 126 119 129 109 130 132 147 195 188 186 123 180 211 167 109 165 165 113 99 156 103 103 144 156 180 147 101 159 194 200 97 132 99 102 130 119 115 70 136 81 162 153 145 135 144 69 78 83 127 122 202 113 113 168 159 155 113 95 122 125 50 62 170 163 211 229 223 201 179 131 133 172 87 153 67 163 160 152 170 68 151 116 106 108 147 155 96 134 185 189 186 96 70 160 141 160 107 143 105 72 135 66 94 129 106 113 91 124 133 90 126 176 86 162 154 190 91 176 80 76 128 131 106 99 106 97 136 121 181 139 177 76 68 77 112 73 91 98 99 145 145 91 183 97 169 91 96 103 102 147 172 179 117 102 112 85 170 83 169 161 78 71 82 147 141 166 137 123 166 104 173 108 192 193 77 161 140 169 149 184 140 183 93 154 105 132 113 192 132 167 138 51 122 77 136 102 84 176 89 111 60 124 123 98 116 185 98 170 132 218 228 227 223 203 152 186 88 184 139 120 134 169 87 141 111 132 197 119 185 126 183 102 135 108 145 102 130 84 158 130 165 173 180 184 111 93 99 194 104 124 149 190 151 191 107 113 185 169 106 112 128 106 140 215 162 180 99 147 178 164 147 155 103 142 203 201 132 140 199 170 201 124 129 104 160 158 190 113 108 160 143 163 169 120 188 201 162 118 134 120 172 172 166 170 173 134 119 170 114 148 90 180 105 209 115 174 164 89 86 144 75 97 70 90 68 68 120 102 152 162 88 188 187 145 190 197 99 116 120
128 131 134 140 142 134 129 137 142 146 155 143 146 132 136 139 146 162 157 143 144 144 150 166 160 172 162 167 164 149 145 140 140 153 170 179 180 164 162 173 196 206 194 178 164 162 149 150 140 139 126 141 130 167 179 164 153 109 138 175 121 188 200 118 151 146 148 156 144 124 79 94 125 127 122 66 54 124 73 94 128 164 97 92 101 123 83 113 90 163 100 106 104 106 100 87 66 74 65 60 65 89 80 82 116 108 157 103 89 82 116 76 88 81 78 80 122 159 165 76 120 98 144 56 162 82 165 159 86 45 97 103 82 149 182 107 145 162 155 163 175 168 172 182 114 219 224 203 213 187 201 187 193 197 184 180 157 152 176 168 199 120 120 171 134 108 110 142 166 88 139 137 92 87 98 116 98 129 142 198 124 196 114 198 188 126 154 136 80 147 131 121 72 58 111 86 116 174 103 113 98 166 196 205 199 137 93 143 169 58 90 114 158 138 178 183 84 111 82 107 163 177 182 198 116 196 92 177 166 74 124 74 66 98 88 101 202 215 129 213 191 154 197 180 163 129 91 65 95 150 167 164 83 54 55 61 85 155 161 149 155 83 116 148 101 179 74 150 140 113 172 99 165 88 56 82 143 144 62 163 134 164 197 147 96 169 157 109 96 96 162 150 161 189 101 103 150 132 135 168 200 152 104 82 104 118 124 137 178 74 62 150 140 104 84 169 131 133 85 168 93 154 113 97 174 200 160 108 144 145 155 94 163 71 157 78 103 98 183 90 161 83 181 125 171 130 195 108 141 141 147 88 186 141 141 97 93 89 139 145 177 180 107 143 87 159 72 159 164 70 137 146 121 170 94 140 180 140 168 172 145 129 223 204 183 133 153 147 83 133 166 158 193 99 131 141 117 164 93 201 193 118 93 162 174 97 92 168 170 154 78 151 93 93 179 187 134 109 77 185 115 153 188 177 90 169 177 92 139 177 100 151 195 190 187 165 140 184 166 87 152 127 93 110 141 105 196 157 149 187 195 126 214 188 106 182 202 109 136 135 100 143 179 161 79 109 95 105 188 203 109 198 98 143 84 116 88 141 138 118 111 121 103 150 154 154 129 134 135 182 89 153 83 105 67 156 149 84 61 67 152 105 114 97 125 197 98 138 157 101 109 160
143 147 151 157 156 149 140 139 146 156 167 148 149 146 141 142 150 147 156 145 142 136 132 152 171 160 157 162 151 156 147 141 141 154 167 182 179 166 152 165 177 182 184 166 169 175 172 139 146 134 139 146 144 162 163 138 116 123 142 140 195 140 127 154 129 131 207 165 101 152 137 110 130 63 114 101 122 125 87 119 103 140 110 155 115 101 154 116 88 106 96 101 154 108 98 91 80 70 79 73 81 76 75 91 94 112 133 163 98 95 108 79 80 118 78 147 122 145 67 142 105 84 54 66 82 72 76 162 71 50 41 56 109 117 98 90 169 123 150 169 169 169 97 117 208 216 120 196 153 197 120 212 128 218 124 176 158 134 104 109 145 138 171 180 171 166 114 131 150 98 102 136 139 156 122 165 176 190 191 192 147 167 200 127 81 144 138 141 187 140 88 115 156 111 87 129 70 120 171 165 97 84 135 161 209 102 186 117 80 129 80 87 158 151 180 160 146 80 116 87 106 148 124 99 126 106 193 110 180 178 95 187 176 82 91 90 191 158 152 156 149 136 97 135 63 55 139 116 137 117 122 100 158 94 168 89 138 65 60 69 126 68 165 180 192 170 133 88 168 173 96 115 149 78 57 141 44 109 135 109 176 122 127 205 198 176 195 108 103 120 107 185 157 146 102 131 116 112 126 91 190 128 152 98 153 88 145 138 128 84 76 60 120 134 151 115 131 99 146 87 182 89 159 89 129 106 117 125 185 147 110 89 159 61 146 60 83 76 180 137 186 183 85 159 186 141 118 191 84 170 255 165 111 192 172 200 183 160 182 139 154 176 69 145 63 118 116 141 75 106 70 95 176 105 122 122 184 171 139 175 142 136 189 137 128 165 163 158 157 69 175 98 184 203 197 137 134 118 182 111 170 100 157 172 155 87 161 139 103 76 86 180 168 169 103 190 137 108 142 172 184 144 104 102 135 169 158 111 173 154 178 89 149 96 161 192 155 107 180 109 108 78 174 169 121 115 172 123 179 127 114 113 194 193 202 185 179 160 101 192 110 143 96 164 74 75 183 109 198 102 190 124 104 155 181 83 88 151 190 134 125 192 175 71 84 126 169 159 174 160 157 92 75 113 164 97 159 68 102 67 74 150 82 109 138 167 171 115 139 167 117 80
150 156 162 170 166 156 143 150 161 175 164 160 146 135 133 150 144 150 167 151 255 144 150 161 158 161 165 166 161 162 152 144 144 150 167 178 177 166 154 161 155 176 156 154 166 190 172 179 150 161 130 133 128 152 140 126 145 102 119 140 145 201 183 117 131 172 213 208 144 152 95 168 132 89 92 146 167 166 91 170 101 124 188 189 109 99 90 150 114 134 93 99 109 97 115 106 116 88 77 81 71 102 93 85 93 255 122 157 113 150 90 85 148 95 90 91 83 102 58 129 78 108 129 136 157 147 82 71 68 86 56 162 71 133 113 146 80 154 146 181 120 100 155 191 200 192 138 182 187 130 160 202 238 226 200 197 112 177 141 187 192 195 173 120 151 92 161 169 167 149 68 84 99 135 85 180 120 168 177 151 191 137 101 178 152 124 83 103 100 98 178 79 99 114 152 156 121 110 71 56 89 90 100 154 204 106 166 160 138 52 111 118 101 69 166 73 142 165 96 83 71 135 101 90 185 187 146 168 189 111 198 136 112 149 163 107 88 114 104 184 97 186 178 159 145 63 139 142 144 152 83 173 90 180 152 191 166 121 121 76 43 83 164 180 99 168 122 84 93 103 111 107 116 109 99 82 127 59 255 116 91 97 112 189 117 101 113 188 157 134 121 118 97 193 190 121 182 117 113 88 162 109 80 89 150 143 119 121 133 128 114 80 126 108 120 117 112 129 153 119 178 145 96 161 155 129 112 166 93 83 150 99 66 91 94 150 123 137 92 106 107 88 83 166 135 180 112 181 166 117 113 119 209 211 131 122 183 90 160 138 99 84 166 60 110 161 178 179 168 130 121 169 185 193 198 169 111 178 175 92 143 172 131 128 145 106 78 108 95 141 163 118 200 122 179 100 163 178 106 200 170 177 104 174 95 158 162 152 153 160 106 144 116 168 188 186 106 115 128 158 202 179 201 192 154 158 162 172 150 168 121 170 94 141 102 116 88 72 98 165 162 167 75 105 89 113 181 187 112 199 111 188 96 144 137 200 202 97 167 109 83 77 148 168 161 148 160 101 114 173 109 113 129 83 171 104 147 152 212 192 215 209 143 81 95 97 197 147 216 182 150 173 83 82 169 72 81 69 112 59 71 127 117 132 189 170 94 94 192 185 163 85
149 156 162 167 160 148 151 164 175 177 180 159 150 155 155 159 161 157 172 172 168 144 148 155 166 172 166 172 171 169 157 146 145 145 156 167 160 159 164 161 164 168 167 179 172 163 175 156 166 173 255 129 148 133 120 114 161 145 134 188 197 138 123 164 195 155 160 141 187 117 106 120 89 99 117 91 149 106 99 100 167 105 126 194 109 162 83 83 95 115 123 99 142 96 95 111 92 116 94 89 86 78 80 125 96 119 137 169 125 124 130 94 85 84 68 66 62 55 59 97 118 105 97 72 154 78 90 83 130 104 110 107 179 157 61 101 93 66 155 190 177 193 104 162 178 175 169 161 78 189 158 225 203 184 196 120 170 160 159 186 115 110 183 110 147 135 96 81 99 107 62 143 118 143 143 181 114 140 161 194 139 152 190 126 121 148 118 129 182 134 162 64 147 118 100 86 142 157 159 57 147 57 164 89 102 146 127 102 37 116 108 104 143 116 129 65 74 82 115 183 161 157 148 111 145 151 102 176 199 201 196 187 156 152 147 147 71 173 199 146 93 83 255 154 144 63 134 43 46 51 65 154 169 108 201 204 193 122 73 150 98 54 69 161 146 87 171 143 75 105 122 172 168 81 90 145 82 137 166 85 102 88 166 96 191 126 163 210 118 131 125 209 176 170 92 144 106 88 79 76 168 87 110 149 78 164 78 103 165 80 98 157 95 134 95 179 148 155 177 147 137 105 112 177 164 201 190 106 146 101 51 60 87 96 63 109 94 133 166 143 151 84 174 84 86 95 104 197 187 195 190 255 127 216 116 194 179 72 114 160 107 181 125 115 152 82 77 147 165 129 179 146 159 181 105 124 184 98 115 167 154 81 189 186 97 128 80 64 116 123 163 187 149 179 153 106 190 105 136 162 180 180 153 174 72 125 133 108 81 186 187 163 94 89 173 173 171 181 170 146 100 120 187 119 162 103 200 192 165 160 162 178 134 124 118 153 136 100 115 123 89 159 79 115 158 153 161 91 102 99 134 167 139 165 116 207 187 143 160 99 115 139 149 110 97 147 175 180 114 185 132 152 83 88 164 168 101 124 166 145 126 177 112 79 125 137 114 126 153 114 84 144 88 153 115 111 125 127 124 119 106 90 105 85 96 163 80 93 121 157 106 77
137 147 154 157 147 145 149 162 179 190 179 163 161 155 160 157 147 159 173 164 173 153 146 159 165 173 170 176 179 172 164 153 145 145 148 159 163 172 176 180 172 177 161 175 162 175 165 154 166 175 177 185 181 155 185 171 177 113 116 149 177 172 131 129 130 207 212 190 152 165 168 173 88 92 152 152 99 137 99 111 90 150 159 109 116 105 94 143 95 92 97 77 75 86 94 113 90 91 67 72 91 120 103 90 95 107 142 138 131 180 98 87 147 71 127 63 60 61 81 133 150 75 77 170 75 177 178 185 171 181 155 176 255 172 133 87 94 105 84 102 206 111 106 121 157 158 67 163 124 94 187 224 168 242 224 135 153 109 166 183 200 103 184 80 150 71 132 114 170 155 65 100 102 164 178 165 180 109 132 198 182 156 144 90 153 185 96 104 191 150 94 73 156 158 99 133 81 88 77 118 88 157 146 94 146 171 65 142 109 107 119 98 99 90 159 147 144 84 88 136 102 57 132 55 133 127 177 95 197 139 114 81 143 149 132 123 153 82 200 112 130 142 170 85 150 139 118 128 59 61 129 149 168 170 131 198 99 116 133 80 101 60 152 91 164 96 161 157 78 125 77 171 117 79 157 72 77 177 160 106 143 81 101 84 168 102 111 213 173 127 119 125 106 125 142 185 188 171 79 109 120 93 77 65 68 110 176 169 121 95 76 134 98 79 176 126 110 89 142 94 168 148 185 127 97 192 200 154 90 122 123 52 100 76 161 88 195 203 162 163 172 155 170 75 170 152 127 120 98 189 197 103 180 121 176 165 145 118 105 82 168 177 133 157 131 150 129 179 187 121 113 109 176 89 69 151 83 163 124 149 156 140 145 114 82 74 102 60 71 84 84 133 188 148 108 122 184 125 193 85 178 175 173 168 91 91 138 139 171 183 182 95 160 110 131 98 152 170 86 125 189 116 143 204 190 129 211 108 179 97 176 83 125 171 93 130 77 117 156 154 174 114 81 137 107 125 126 76 77 101 151 167 176 155 115 159 190 93 183 97 183 178 80 116 138 175 181 202 171 154 97 46 49 97 113 153 172 145 178 148 200 104 170 156 81 81 120 149 158 128 146 115 186 160 182 85 81 69 137 106 69 67 172 105 94 169 75 178 130 86 161 52
121 131 143 147 141 132 141 155 176 170 170 157 170 164 163 145 146 139 164 171 163 162 155 153 166 172 173 179 185 178 172 159 148 142 144 155 162 176 187 193 182 180 160 162 143 162 150 141 141 169 162 189 157 200 168 163 175 149 156 138 123 152 181 184 183 194 133 160 168 144 103 125 91 92 121 93 183 122 183 166 107 121 165 100 137 83 116 80 124 84 92 115 121 67 114 115 68 63 58 67 86 105 114 112 103 144 118 141 148 126 98 87 105 63 54 119 67 75 62 79 60 146 68 78 104 139 121 109 107 201 149 125 187 139 80 87 79 87 132 127 170 116 188 88 76 158 175 95 101 146 202 208 208 199 108 178 159 151 153 135 191 185 99 139 98 104 143 177 91 78 153 125 153 123 123 105 165 170 96 185 145 95 130 87 130 185 181 153 153 186 134 92 102 186 190 167 105 192 122 93 72 134 88 92 169 101 127 54 36 120 63 90 145 155 66 111 68 82 90 161 107 145 123 56 53 62 129 139 117 178 78 163 149 135 137 42 156 151 134 104 193 106 182 82 145 157 77 62 114 61 129 146 154 73 114 172 134 134 83 98 140 70 135 100 113 162 142 56 125 119 70 157 134 118 164 84 132 155 125 183 93 187 116 163 136 200 145 128 226 214 111 167 105 145 161 106 163 131 123 164 131 77 115 84 172 119 137 107 166 103 95 117 75 80 98 95 137 105 134 111 184 101 170 86 157 117 188 198 191 159 57 90 149 78 144 99 197 118 191 174 125 138 122 75 87 156 138 153 92 174 108 183 128 106 171 85 136 167 88 173 93 188 149 143 112 150 150 179 169 153 137 109 190 170 72 255 154 139 73 116 149 125 158 102 62 69 88 161 173 157 197 192 144 180 184 100 189 102 164 171 162 64 80 100 162 160 66 136 175 132 107 90 175 126 156 186 133 129 74 158 147 120 102 121 205 218 116 115 160 87 80 117 174 173 164 137 68 154 130 184 146 181 152 109 161 77 69 84 158 56 68 148 91 179 165 201 173 180 80 169 100 178 132 61 156 100 95 105 107 184 136 120 45 135 127 106 118 119 173 131 128 170 91 85 116 95 106 199 102 88 126 69 81 123 143 135 64 149 89 133 160 71 130 158 183 84 107 113 123 79 84 50
108 120 133 141 137 132 141 153 162 163 155 163 167 158 156 145 127 125 143 152 155 160 161 156 169 166 178 185 192 192 181 158 149 142 145 153 169 178 186 197 195 182 184 169 151 151 151 148 152 147 158 185 181 161 163 191 165 98 156 141 117 116 165 178 113 173 168 115 137 152 136 141 81 82 100 150 116 142 197 128 115 144 99 143 79 82 69 109 79 67 69 111 114 61 62 91 89 64 109 84 145 156 108 97 105 138 134 113 108 115 140 91 75 138 56 119 56 57 86 71 61 151 156 93 110 179 132 186 193 189 225 141 143 115 115 87 122 149 164 172 113 213 202 176 186 189 156 193 128 173 94 162 119 117 123 164 131 147 92 96 152 167 145 183 155 132 119 103 121 157 128 126 128 157 137 161 124 119 96 156 153 168 99 171 183 176 92 125 131 79 124 100 177 109 138 210 128 213 177 202 162 160 151 131 96 74 138 111 82 107 118 39 118 64 79 66 86 128 154 76 75 147 105 137 135 160 99 110 103 98 86 150 122 58 146 100 158 91 127 204 141 191 179 124 117 99 167 161 172 157 127 54 125 126 170 146 117 111 83 133 158 139 128 118 167 72 89 92 85 125 158 94 69 112 76 133 102 149 135 164 111 108 133 88 184 115 120 222 226 211 172 140 106 92 95 107 190 95 84 138 134 156 85 129 115 119 82 162 58 64 99 148 95 188 101 89 99 75 69 100 175 128 175 105 90 107 121 112 149 119 68 85 75 61 168 93 194 143 167 110 79 135 165 169 77 159 159 156 123 88 57 70 165 112 134 91 90 70 129 142 99 95 176 114 113 99 134 84 92 136 145 194 124 70 93 110 80 66 158 135 146 55 87 118 146 158 129 87 184 193 112 207 167 143 78 81 157 172 100 118 152 75 84 87 65 64 64 125 125 152 113 160 163 100 128 120 91 142 131 96 174 177 134 107 180 207 151 182 190 110 94 77 85 182 91 75 161 185 119 99 137 115 178 170 136 111 129 81 76 145 50 56 94 145 178 194 87 108 154 61 76 120 91 112 73 168 90 103 146 100 127 143 137 69 147 100 86 80 163 151 151 74 73 166 174 126 162 107 188 89 139 63 90 96 170 65 122 56 155 133 90 123 181 128 175 136 127 153 136 161 80 140
100 114 133 147 148 145 144 149 149 150 147 158 157 161 150 135 128 135 133 151 161 166 168 168 173 180 179 186 197 199 189 167 160 154 152 161 182 195 191 198 190 192 168 170 158 151 130 158 156 170 172 188 156 176 173 174 122 159 89 151 157 134 147 114 146 118 94 103 111 91 115 172 81 80 73 165 153 134 124 129 107 114 94 106 142 69 121 107 62 84 71 115 100 68 78 60 64 55 104 95 130 124 104 115 89 125 101 116 112 120 140 166 118 104 53 39 45 50 43 108 104 149 113 117 99 129 88 91 122 129 145 151 228 177 119 103 200 109 201 196 205 201 126 201 194 201 200 174 193 177 75 161 64 139 156 74 133 117 143 119 103 182 140 179 161 120 206 147 140 163 77 87 147 167 177 145 134 184 122 61 155 132 151 185 145 174 123 80 77 112 106 104 96 213 149 204 121 161 125 154 91 154 122 155 73 162 128 56 80 94 133 135 138 53 126 51 137 124 171 82 113 99 81 128 138 119 176 189 97 166 96 89 136 127 78 151 189 107 116 129 201 167 175 114 106 94 177 184 184 112 63 77 130 113 151 159 172 148 141 132 174 82 122 117 156 95 128 165 165 123 70 72 141 75 99 70 137 88 184 107 202 202 191 98 153 180 193 179 224 201 90 96 95 101 122 125 94 123 151 168 92 118 116 169 136 126 109 66 107 97 133 148 163 185 187 173 110 84 63 106 69 83 188 191 182 162 179 212 176 111 64 59 70 151 155 104 93 190 184 166 127 76 167 135 70 118 74 115 132 143 76 87 138 148 183 109 159 132 147 110 176 151 149 161 143 123 101 101 143 102 192 196 147 168 92 70 106 153 89 66 55 52 147 124 175 103 144 145 174 148 212 213 129 177 95 63 73 159 171 78 152 169 80 173 127 71 140 163 153 124 172 152 89 145 108 93 95 126 173 170 119 182 123 155 166 157 120 104 185 178 76 169 129 105 180 80 150 183 192 191 180 170 182 158 147 150 169 73 162 78 80 146 66 144 156 98 120 67 71 43 144 97 128 60 112 75 179 183 92 170 161 75 143 148 126 144 113 75 99 89 81 136 77 119 73 116 190 195 205 187 79 86 72 80 90 80 155 126 61 66 83 87 124 94 175 177 186 178 154 68 126 102
102 117 136 150 155 154 145 151 144 149 161 156 166 166 156 150 133 129 130 157 155 162 179 181 186 183 178 182 194 189 187 168 172 168 165 173 193 203 200 183 179 187 184 168 152 148 148 155 161 170 190 186 186 160 171 165 139 115 100 168 124 116 120 99 140 145 105 80 101 104 186 112 103 108 146 109 123 128 187 124 190 101 87 116 71 105 72 128 68 124 70 128 117 71 68 79 95 89 88 145 154 106 90 87 78 102 81 97 150 160 105 133 163 65 67 42 56 36 57 46 87 119 64 77 87 104 76 183 128 127 143 189 199 175 202 167 152 199 103 154 178 108 140 120 158 185 191 89 173 156 109 151 147 92 82 147 166 148 175 145 165 134 160 120 153 218 177 198 116 109 147 63 74 155 162 186 119 94 114 161 147 113 175 138 112 82 167 68 148 106 74 175 171 183 186 140 184 197 187 208 181 169 160 149 164 160 131 130 130 98 162 151 72 62 57 107 161 179 110 138 170 122 154 156 169 92 95 100 91 106 92 152 64 106 89 124 138 165 119 215 132 201 102 144 152 161 178 151 180 103 166 70 130 156 162 162 156 154 175 126 178 155 92 145 84 187 140 170 123 82 87 61 117 126 149 79 159 143 136 111 90 188 101 87 108 106 121 222 132 128 128 160 72 72 121 118 101 122 159 179 86 157 159 130 115 157 93 140 52 88 69 113 171 168 146 182 155 149 131 149 72 171 159 184 144 151 190 177 198 89 70 116 92 120 57 105 74 131 183 141 176 143 84 136 154 164 99 68 152 113 92 104 152 193 130 73 131 166 149 147 168 160 64 78 155 117 98 115 135 153 179 122 150 153 141 81 123 72 152 48 137 65 92 156 90 149 177 87 154 156 156 116 132 160 77 85 86 151 180 153 182 184 109 99 134 172 154 119 157 96 164 101 93 156 89 101 170 189 160 178 170 204 206 105 178 175 159 111 101 180 98 142 163 90 176 174 154 79 132 164 126 161 158 85 122 173 101 174 119 158 120 115 149 160 130 160 130 139 45 117 121 123 92 94 63 168 105 137 165 91 153 98 82 144 72 169 149 121 149 121 95 89 123 59 108 81 154 192 108 109 80 143 161 84 102 84 73 114 155 106 130 64 130 129 163 167 94 89 170 110 63 52
107 121 135 145 149 148 144 154 157 168 171 174 164 153 146 142 133 140 139 158 161 172 176 184 180 179 175 174 182 181 185 178 179 178 176 187 197 201 204 195 182 187 174 150 139 147 138 139 182 163 196 172 199 193 207 161 151 177 129 182 128 127 118 82 127 140 137 157 87 151 126 152 103 179 99 156 165 200 124 180 164 168 128 124 117 91 131 120 78 78 78 136 121 68 97 96 76 91 109 115 118 96 98 98 70 64 65 77 73 109 100 139 93 104 110 64 88 65 82 142 71 71 107 78 151 66 72 154 178 122 154 222 119 110 127 104 132 98 194 160 193 170 189 130 98 164 177 169 144 153 143 143 140 141 136 106 113 165 169 166 151 147 81 146 190 190 203 102 110 113 118 101 77 129 130 123 104 120 133 81 67 124 83 86 96 165 92 63 131 154 173 108 208 124 223 115 119 104 133 184 129 176 163 137 137 153 115 84 169 187 113 185 126 80 82 174 106 100 194 100 186 173 104 138 107 125 186 106 87 84 87 74 79 85 173 155 136 217 132 134 149 121 100 136 164 125 197 141 203 166 122 125 152 159 70 93 126 170 101 94 178 89 176 84 133 103 150 124 159 128 131 159 138 110 79 81 130 151 141 128 117 127 73 101 81 115 136 194 158 184 149 144 64 72 76 166 184 154 91 85 89 119 128 189 166 146 131 78 157 51 48 68 116 95 175 157 162 181 122 69 96 108 117 170 119 204 207 110 192 166 58 117 127 149 70 73 72 78 179 139 255 153 162 71 97 79 120 94 94 135 112 179 198 175 178 165 116 64 107 255 144 151 62 131 128 133 109 190 99 182 174 128 171 169 129 108 132 159 66 146 75 149 156 102 184 188 137 102 58 120 81 194 201 201 96 183 148 183 185 126 111 168 124 178 93 150 169 177 99 178 82 108 59 132 115 145 90 87 179 185 203 132 116 206 106 143 166 166 76 105 144 117 127 166 170 175 129 82 74 132 64 72 117 191 151 130 136 98 89 149 151 134 94 115 85 157 86 54 135 73 66 149 153 168 102 115 75 170 166 109 113 102 66 78 121 167 79 71 139 134 141 89 87 48 136 67 84 100 105 121 173 109 90 67 67 255 54 149 112 107 130 85 84 163 144 127 159 124 137 74 148 64
112 122 130 137 132 134 140 161 179 191 187 175 174 160 142 146 131 152 154 174 174 180 181 179 184 175 171 163 175 177 178 180 182 183 186 191 189 198 194 170 183 162 172 150 150 139 165 158 191 159 203 202 175 217 221 178 162 143 152 120 143 177 130 123 68 125 97 89 172 163 134 133 127 109 128 133 191 183 162 121 178 162 67 109 80 78 90 92 96 119 82 83 104 81 98 72 82 89 93 113 104 103 69 58 49 73 57 59 124 74 105 104 87 97 52 92 57 84 88 95 108 154 159 75 106 109 66 122 96 162 200 156 204 110 109 145 96 189 119 201 126 109 205 138 179 100 174 87 143 157 76 53 139 97 107 132 98 79 123 155 137 106 153 153 192 152 143 90 82 129 124 135 96 71 174 92 128 126 186 162 128 168 171 140 72 82 92 159 159 164 168 140 157 123 202 109 106 178 171 146 124 85 137 142 77 126 157 156 161 170 175 199 169 90 94 134 195 104 194 93 182 158 126 112 106 146 133 101 118 170 148 173 136 85 119 134 190 209 205 191 125 196 122 120 140 185 184 224 214 111 186 167 132 120 91 127 170 84 138 108 121 118 157 98 144 184 145 110 173 90 159 88 122 81 143 84 72 92 143 81 152 74 74 163 96 176 124 159 105 147 173 107 83 69 81 85 91 174 132 131 96 100 112 134 116 111 101 113 170 108 96 78 97 119 131 143 167 187 122 96 158 124 74 158 97 202 177 117 173 176 81 132 65 92 169 121 98 93 185 146 87 174 66 144 157 172 185 141 143 131 97 178 143 145 185 165 60 155 71 161 135 81 154 171 121 170 180 158 96 100 161 99 113 91 115 145 121 108 77 120 151 130 156 106 91 102 176 72 135 127 61 172 106 199 129 116 139 185 171 190 164 168 108 92 158 155 91 179 184 100 143 168 124 139 70 74 145 176 96 198 186 151 126 208 109 80 131 142 61 135 178 82 129 110 100 91 160 132 82 147 119 62 177 121 154 123 175 118 166 88 166 86 146 95 93 104 138 51 44 131 63 90 145 99 123 122 67 166 95 148 109 114 146 123 100 97 92 97 81 119 97 186 126 58 255 65 141 125 100 94 86 76 159 121 95 53 101 123 142 55 75 84 185 175 67 146 147 155 82 119 71 126
121 126 130 130 121 127 142 160 190 195 201 190 163 144 135 134 147 146 165 178 178 184 180 178 173 177 170 167 167 169 174 177 185 191 188 190 190 185 181 174 159 159 170 163 147 144 177 191 184 192 183 196 186 211 203 143 142 176 137 120 161 113 138 150 88 111 111 141 120 135 116 139 161 107 167 115 154 186 113 121 119 108 132 51 67 79 88 123 91 129 141 128 114 76 96 124 77 101 91 125 101 83 109 71 91 52 59 54 56 68 79 107 76 59 73 47 57 73 93 175 136 151 114 137 123 52 64 106 100 103 109 107 198 153 118 126 175 176 92 104 118 133 197 100 91 186 109 125 156 167 100 70 58 136 71 77 121 96 92 169 168 154 138 161 125 148 115 136 64 134 142 135 89 111 83 94 174 114 191 115 137 176 121 143 91 87 138 81 154 78 128 180 175 202 201 169 134 106 95 147 162 162 93 153 115 144 167 169 166 137 214 193 106 179 199 110 134 193 103 92 154 119 159 140 158 182 175 113 140 136 179 183 98 173 107 185 129 104 106 111 128 147 197 124 213 132 148 187 129 152 106 162 169 84 176 183 89 122 143 65 125 73 79 179 148 130 200 112 118 193 156 189 102 170 156 87 89 116 79 56 94 73 105 111 93 119 126 132 109 171 111 79 136 86 115 182 142 122 81 191 111 111 133 92 176 97 150 197 85 77 151 160 105 98 126 255 115 175 180 89 144 168 172 147 101 99 112 171 138 110 121 125 122 70 149 144 188 158 116 145 84 81 84 59 159 127 185 173 114 198 105 175 196 177 161 66 61 62 66 120 153 156 73 167 175 138 145 172 163 84 126 69 142 92 95 139 148 147 135 172 121 156 86 164 179 125 94 103 142 95 83 169 161 196 183 214 149 201 174 119 197 109 99 80 129 94 159 143 104 132 188 100 61 99 106 64 140 170 126 131 172 190 208 132 173 162 57 141 97 135 117 183 169 170 162 83 113 163 64 147 139 147 132 176 191 100 173 194 138 162 134 152 94 123 153 57 92 71 144 125 58 164 75 121 114 135 140 111 95 155 186 255 139 191 151 171 156 124 167 113 197 96 81 130 45 145 159 77 175 173 146 86 144 140 155 48 105 134 71 158 123 99 94 170 102 136 108 137 104 91 61 142
142 143 138 130 121 129 145 165 186 201 191 179 168 151 137 147 151 169 168 191 186 178 178 166 175 174 167 156 162 160 173 182 182 185 187 183 184 180 172 157 162 155 162 159 175 187 192 195 198 203 207 214 216 179 159 126 166 160 149 96 148 131 126 83 87 153 164 116 122 173 97 111 104 255 105 93 173 170 133 169 131 140 76 125 61 68 78 142 103 117 92 91 79 104 112 79 116 128 121 103 119 112 92 57 86 87 53 77 59 61 126 94 67 40 39 47 84 122 116 173 129 105 142 74 56 108 69 161 97 196 176 174 100 128 108 139 187 114 172 96 156 131 190 187 192 178 179 169 186 156 98 84 151 120 160 174 126 83 164 96 160 193 145 187 146 157 150 145 158 98 128 161 175 141 178 157 161 139 181 184 82 142 105 158 141 152 136 76 136 165 101 153 90 158 191 174 184 151 90 81 143 57 147 67 104 159 125 176 200 138 107 142 169 92 163 151 129 145 112 139 118 145 90 161 77 163 174 153 99 165 188 180 91 95 106 98 132 181 128 110 187 146 206 173 145 132 217 218 164 205 153 143 134 128 193 199 138 152 104 110 124 154 171 184 192 182 132 146 177 197 152 154 107 170 136 154 97 87 173 109 81 114 185 91 93 179 194 112 141 146 151 79 68 94 152 181 88 155 85 103 158 134 112 107 140 125 109 114 84 73 83 86 95 149 161 194 158 88 174 78 87 159 109 168 82 159 169 136 99 96 78 86 57 139 69 180 100 103 111 185 164 159 136 66 162 162 148 92 101 97 91 161 80 172 103 84 143 101 69 78 161 128 111 161 140 105 97 124 67 79 126 45 135 164 175 159 145 99 107 105 110 176 139 178 121 154 100 104 92 155 128 84 109 121 123 206 147 124 121 103 197 169 147 121 112 103 151 80 114 202 167 124 85 74 111 109 97 133 153 193 201 117 115 165 193 93 89 64 107 78 171 146 158 162 71 113 140 129 159 102 119 143 137 78 73 182 133 107 130 98 81 86 172 111 110 61 137 137 82 70 64 117 131 87 156 59 87 86 175 207 175 179 119 122 193 144 195 186 110 105 101 121 177 70 145 124 97 90 136 150 167 97 81 127 144 62 117 110 142 135 140 113 100 73 59 57 94 135 78 162 161 176
170 166 157 144 138 139 144 163 171 184 182 182 164 160 153 157 150 158 175 197 185 188 159 169 172 173 166 163 160 157 171 180 187 188 190 180 176 180 172 163 150 151 174 177 183 186 208 189 179 174 180 179 186 194 172 128 149 128 96 147 159 125 118 150 95 157 174 182 179 149 132 116 112 156 111 106 167 89 158 136 96 76 101 141 64 78 125 137 101 147 121 88 75 71 118 116 85 73 81 98 94 87 76 61 57 77 52 76 81 76 81 74 53 79 121 109 119 78 102 171 103 90 85 80 64 134 71 83 185 98 184 166 145 173 193 132 187 84 168 174 154 153 169 165 188 152 178 154 183 185 149 131 159 175 135 143 160 94 169 144 115 95 175 157 141 119 104 134 146 97 174 199 176 181 176 177 153 130 91 147 126 149 98 102 172 186 111 95 128 135 90 52 104 144 162 182 104 171 135 84 109 137 64 130 175 172 195 193 164 175 185 174 142 101 189 146 100 153 79 66 68 122 145 66 73 149 158 145 155 191 188 141 84 132 92 169 103 82 164 126 132 107 197 197 112 164 183 147 161 211 200 109 196 161 110 115 138 72 106 139 146 165 163 171 191 170 193 188 194 188 190 103 136 139 79 87 128 112 165 178 135 182 181 189 138 92 106 157 149 96 170 70 129 119 114 85 93 86 129 105 145 197 192 141 106 113 193 95 129 124 123 194 128 158 140 169 137 184 104 159 161 104 166 99 75 172 91 104 182 88 90 61 95 92 66 77 115 120 100 128 143 114 113 158 109 142 125 141 123 116 77 96 81 71 114 86 159 79 141 77 159 151 166 127 108 151 93 127 149 149 120 59 65 143 170 158 186 154 191 185 85 173 169 154 197 149 190 176 132 162 158 187 118 195 162 181 164 157 151 136 124 137 162 141 139 121 69 170 104 132 113 114 74 87 83 48 121 143 177 94 194 122 118 189 191 179 85 94 159 163 151 134 99 135 140 134 133 168 166 115 77 155 151 103 104 144 140 132 146 106 125 91 173 151 90 87 140 79 62 120 156 64 114 150 150 156 169 120 203 212 190 108 132 117 191 182 178 112 169 104 138 94 129 118 126 148 78 58 138 62 161 147 86 164 71 99 119 130 150 163 144 78 119 143 147 121 157 161 142 98 163 206
191 184 172 156 147 142 143 143 147 157 160 162 169 159 160 159 157 168 183 193 196 182 166 150 158 166 162 153 157 158 173 179 189 187 189 183 182 179 164 170 167 176 182 187 196 202 207 207 196 188 206 175 158 186 138 165 136 107 160 146 140 120 159 127 173 154 169 160 169 125 92 96 98 99 156 149 98 124 89 126 84 78 93 83 70 58 94 61 94 124 94 111 96 81 72 56 56 52 89 255 117 116 106 76 97 67 67 77 83 123 120 75 69 63 73 104 76 141 73 73 90 84 82 158 136 82 122 97 85 74 78 155 196 166 201 101 162 111 164 136 68 75 153 169 80 156 170 86 183 159 199 102 120 195 115 98 180 97 124 177 173 136 161 169 92 116 155 138 102 169 132 123 166 194 108 134 159 179 175 169 168 91 200 146 212 112 172 83 113 166 110 115 79 67 80 151 121 122 165 146 80 98 103 175 150 120 207 174 141 165 88 149 76 162 92 101 181 162 88 133 102 146 89 136 125 148 149 157 84 81 142 118 166 122 77 93 83 157 145 154 178 179 125 173 102 188 92 101 119 197 180 177 133 189 153 166 120 95 154 149 165 140 111 99 175 179 180 173 183 126 133 115 119 88 180 173 131 133 155 88 93 179 108 108 186 109 151 90 116 141 75 158 60 101 77 148 153 125 105 128 119 116 154 109 116 131 135 162 108 126 170 145 105 136 192 99 186 83 80 78 89 184 87 155 84 118 83 69 85 168 171 153 116 73 103 121 143 131 97 97 84 85 109 154 125 169 163 70 74 130 135 57 150 110 54 53 126 85 133 89 147 157 176 105 115 178 165 173 92 93 69 82 103 136 92 133 170 182 101 164 104 180 135 127 209 255 95 157 167 142 168 188 190 95 176 118 162 204 196 104 151 97 85 122 88 115 54 116 103 196 113 97 160 56 127 137 141 68 102 88 184 173 193 181 103 170 154 176 107 129 173 94 98 174 76 114 150 74 181 98 174 141 146 91 52 82 174 102 99 130 128 125 176 157 117 80 76 174 120 168 149 67 82 142 146 153 169 95 203 121 156 145 121 93 163 121 129 166 87 82 78 114 58 112 109 140 147 120 111 127 127 162 134 115 167 144 114 157 142 145 82 66 66 165 85 138 146 99 118 194 115 162
193 186 175 168 159 151 137 133 121 134 145 149 160 160 161 145 149 149 178 176 185 167 159 155 159 162 160 157 157 165 175 182 190 184 189 175 177 178 180 176 178 185 188 186 192 172 182 189 197 198 174 159 190 190 174 147 180 175 129 114 92 116 120 175 201 139 169 172 189 115 139 156 112 130 161 128 82 164 150 128 104 105 87 133 110 69 49 86 114 91 92 78 75 65 63 64 91 60 47 70 124 92 82 102 100 122 86 153 165 119 101 90 93 122 68 134 78 109 133 76 94 177 112 100 141 82 155 113 78 166 121 81 127 107 110 135 174 151 75 163 84 98 123 158 144 160 156 126 143 159 185 141 213 200 121 190 141 173 176 80 157 140 130 139 147 90 155 104 112 159 194 112 204 185 118 180 145 78 155 158 88 183 108 120 183 185 122 140 84 83 167 166 158 165 94 133 151 133 105 146 188 154 90 193 123 126 194 169 129 149 183 87 179 89 116 144 187 145 148 150 88 161 153 102 149 155 73 74 118 81 158 167 127 91 167 111 171 85 183 180 86 177 123 140 150 83 161 185 164 156 115 92 169 203 140 134 166 100 121 162 166 90 175 161 68 91 140 127 183 190 192 113 180 112 178 156 196 177 163 86 188 183 170 101 160 105 93 79 174 86 148 165 88 110 75 69 105 167 194 165 137 199 97 114 101 151 97 81 90 81 128 113 142 105 88 183 85 125 135 126 114 179 103 157 185 154 78 64 95 169 90 96 76 138 155 81 156 168 88 96 185 127 87 146 167 73 98 69 77 74 158 119 158 156 156 66 130 159 111 104 99 162 183 168 136 143 123 106 114 108 123 59 70 132 142 75 143 143 155 91 110 113 98 107 117 184 142 181 150 144 180 83 170 80 135 183 95 202 169 159 141 113 115 79 133 88 123 128 111 185 174 195 105 118 152 149 141 81 155 111 94 137 164 172 114 167 198 184 134 79 108 170 177 90 116 69 164 96 187 135 164 81 167 56 140 105 98 111 184 152 177 95 180 178 74 90 126 97 87 83 113 161 97 49 114 75 88 137 109 148 111 128 133 103 89 78 156 76 144 64 59 149 85 85 120 119 152 134 78 44 128 150 116 73 89 84 174 118 100 171 115 90 69 80 180 108 99 148 128 202 185 223
180 174 165 160 164 159 136 124 111 116 126 144 150 152 142 133 141 141 161 165 178 166 152 149 143 160 159 156 167 176 188 194 196 190 183 173 166 170 177 187 193 197 176 191 187 176 181 183 181 181 194 185 205 196 189 156 182 159 165 95 141 87 152 167 153 147 170 175 132 125 95 106 144 96 115 120 125 91 140 100 142 127 139 91 79 62 89 66 74 144 89 86 73 102 104 51 81 55 52 61 110 76 77 81 114 136 104 125 129 132 124 130 109 92 78 88 83 155 154 82 183 134 91 67 83 124 151 167 174 100 169 75 116 102 203 172 147 175 67 119 163 124 132 154 66 83 128 139 67 82 128 205 191 165 210 132 195 137 187 145 153 101 131 157 80 70 155 144 150 155 131 185 191 187 124 168 179 69 150 145 61 120 105 177 142 109 138 152 173 180 162 171 183 108 80 78 125 112 158 101 157 163 181 129 128 178 186 145 123 147 173 172 109 174 193 117 172 82 83 174 164 172 176 89 66 134 68 150 76 88 89 164 170 188 175 149 182 170 96 136 173 91 78 81 165 123 137 182 161 161 96 140 150 173 201 205 192 124 151 91 144 179 80 125 151 62 117 134 110 146 86 99 98 193 186 116 168 184 84 174 171 102 92 159 78 66 82 139 163 160 80 71 134 140 76 53 117 145 129 126 124 170 97 86 98 84 81 92 158 76 86 114 115 116 136 149 183 147 93 110 93 96 111 94 138 101 87 159 124 134 111 163 69 153 157 161 198 105 149 166 99 190 180 132 162 90 167 87 92 143 88 74 80 166 157 80 151 82 129 174 159 94 130 157 166 152 119 127 123 159 149 43 75 139 80 164 92 74 163 122 169 114 161 151 157 173 102 121 111 178 78 77 151 76 133 170 95 168 115 107 107 96 128 122 170 79 79 154 78 126 110 146 99 151 153 95 144 69 74 171 102 170 177 89 124 132 101 186 106 87 79 110 174 127 65 159 75 151 153 201 105 90 82 131 152 67 158 123 185 127 178 100 105 100 172 91 163 191 102 145 83 163 100 110 152 93 84 143 105 110 202 124 202 191 113 72 62 134 60 151 111 59 65 140 47 89 123 135 36 37 85 74 66 136 172 93 134 187 196 135 143 181 75 71 109 125 178 181 180 199 123 225
155 149 147 154 163 165 152 138 117 116 124 131 142 140 138 127 127 139 164 166 159 168 167 161 156 158 165 160 174 184 189 196 198 193 181 168 160 163 255 195 202 184 199 191 160 170 171 173 176 168 194 157 200 189 199 169 147 190 117 101 77 120 97 98 131 171 152 133 182 131 165 113 160 146 130 145 166 170 144 102 98 97 94 96 81 71 62 62 138 78 82 81 82 68 75 56 53 51 92 64 82 122 102 128 124 102 118 131 150 126 168 188 121 111 86 97 66 65 139 92 117 114 170 61 107 129 75 175 95 92 104 172 84 181 173 88 149 67 74 162 166 131 148 170 139 96 63 149 136 75 180 140 119 133 210 210 204 193 140 171 158 75 134 126 94 174 152 125 145 100 104 189 171 113 199 152 140 159 114 60 131 174 156 146 111 186 164 74 79 126 197 108 138 144 103 174 186 166 140 109 154 145 174 94 139 192 170 128 96 147 142 185 152 198 145 161 123 184 93 144 173 198 148 167 156 163 164 175 142 173 186 170 161 104 97 142 93 178 82 172 172 174 80 173 171 134 116 167 109 89 157 142 113 101 189 111 106 90 131 152 89 96 86 95 101 125 150 182 136 118 115 85 175 123 142 153 136 161 125 104 116 82 166 99 80 126 70 155 191 97 161 79 72 63 134 51 151 131 161 191 209 117 167 103 95 78 88 104 94 103 76 69 154 127 80 137 104 190 97 100 95 89 90 112 116 196 98 176 74 119 114 92 80 94 131 203 176 118 138 164 102 103 124 87 160 135 147 152 175 108 85 169 160 153 84 146 124 88 189 179 165 112 149 109 100 77 104 89 174 120 56 126 82 255 150 102 91 134 135 134 122 123 200 193 177 160 153 86 84 175 74 67 96 87 86 91 164 190 144 70 64 146 118 93 168 60 63 134 149 113 206 161 176 87 126 101 59 132 114 153 173 163 89 123 86 181 99 141 138 148 103 96 122 64 156 163 90 180 136 107 163 130 110 158 164 108 81 79 166 186 192 142 129 125 134 125 164 159 125 173 110 73 102 146 139 73 143 123 156 152 161 105 103 130 156 151 111 153 99 87 170 144 161 59 39 34 45 65 53 132 117 60 127 168 179 132 98 145 188 128 139 187 97 82 82 76 166 172 104 104 141 221
132 129 130 143 161 172 168 155 135 126 131 132 135 128 126 113 121 134 157 167 158 171 167 170 154 167 165 179 187 190 196 197 200 193 185 167 156 162 175 195 203 189 201 189 178 167 135 171 168 184 187 255 202 202 191 162 145 133 123 140 151 128 98 83 117 179 158 182 121 135 179 88 163 163 131 116 134 106 162 127 109 168 86 87 86 128 79 91 130 114 103 98 128 75 109 255 77 100 93 76 96 112 79 95 138 120 85 103 136 154 125 129 150 114 164 164 74 69 71 174 95 114 172 72 57 72 66 161 89 94 102 84 74 88 79 161 108 65 92 79 75 177 142 89 124 149 76 127 113 133 176 184 201 130 228 218 116 118 144 116 106 166 94 120 127 111 192 174 177 187 185 180 172 127 102 190 183 110 151 138 141 172 144 109 196 93 162 70 74 149 206 192 200 115 140 146 191 197 111 176 136 170 121 99 169 111 116 190 129 95 122 93 96 126 105 161 152 141 113 172 194 139 180 119 131 102 171 90 97 186 140 93 90 147 97 151 96 91 72 130 153 75 86 163 165 107 128 164 83 105 159 164 72 111 132 207 204 140 177 163 113 161 162 159 155 118 255 135 180 83 91 138 121 201 111 199 188 83 97 108 144 135 175 167 122 76 81 168 177 187 89 81 134 72 115 71 81 136 119 210 136 151 124 109 65 111 81 156 78 78 148 74 74 63 133 116 108 152 118 190 93 174 104 123 189 183 108 101 157 150 177 96 99 192 194 210 204 205 167 203 176 159 156 110 64 84 152 192 190 195 175 87 125 56 85 135 149 88 196 98 99 101 173 98 160 168 74 87 164 142 79 114 109 101 128 74 133 135 92 180 131 191 193 95 160 89 162 144 101 157 88 166 107 149 134 145 127 160 173 62 142 149 117 162 95 82 120 134 76 86 111 200 148 147 175 68 153 124 138 167 91 146 141 77 99 87 176 105 114 144 127 187 111 139 95 119 183 153 174 151 195 127 104 180 160 66 109 94 175 191 121 215 162 151 116 107 102 171 83 72 133 72 149 85 164 128 94 145 203 206 113 177 134 135 114 69 154 59 94 159 144 124 182 99 145 47 119 34 34 112 142 86 78 91 176 120 92 194 111 120 118 101 147 86 112 81 143 70 83 123 196 220
120 124 130 149 164 185 183 177 164 145 144 147 143 142 126 117 137 137 165 168 169 170 175 173 173 175 187 197 199 184 186 185 186 188 179 162 158 162 181 194 191 191 202 192 166 178 171 171 163 190 159 195 196 164 150 176 133 153 162 179 170 152 138 109 98 152 146 165 169 106 118 165 80 162 76 149 90 138 184 127 156 100 156 108 82 149 92 82 80 80 129 117 84 71 88 95 98 101 142 87 99 119 105 82 79 90 127 115 99 140 140 157 150 131 135 107 152 81 102 170 107 101 157 86 66 67 82 73 89 168 119 178 71 62 69 157 97 152 70 74 79 103 182 187 106 177 183 109 183 84 178 159 189 128 125 208 142 175 156 126 72 102 89 106 139 121 186 125 185 182 169 88 184 174 113 172 190 166 146 184 121 144 128 196 198 162 173 116 90 186 182 210 207 124 122 167 196 204 149 114 150 102 110 110 62 109 103 172 73 70 171 170 89 183 115 76 100 122 190 177 203 179 100 156 131 123 86 154 107 165 197 99 87 95 75 131 134 147 159 114 100 115 159 109 135 134 106 64 165 96 172 108 74 122 112 205 117 189 119 149 113 134 153 93 66 143 93 98 109 175 113 145 162 96 178 161 149 168 133 141 172 81 109 148 152 92 104 142 143 193 111 90 77 68 157 163 171 178 163 107 181 142 196 109 73 92 100 135 99 102 91 121 76 58 157 99 196 112 100 99 135 98 134 191 104 123 126 202 105 118 136 135 91 178 134 158 94 192 177 109 93 192 141 165 84 111 165 168 184 139 179 78 150 112 133 58 130 92 128 173 181 99 121 155 160 164 163 110 98 59 159 155 126 73 165 98 120 130 70 92 123 146 112 95 142 160 128 144 102 126 176 155 181 178 123 162 107 131 144 161 120 150 86 101 82 96 106 137 140 176 166 93 189 139 146 152 94 72 74 114 155 171 85 106 171 82 154 188 103 101 193 96 175 71 118 90 96 193 111 132 195 140 142 93 166 150 170 95 125 103 222 193 130 192 192 172 93 149 145 124 147 135 156 178 154 135 100 112 121 205 195 121 93 83 162 143 85 152 162 126 123 156 96 164 83 62 112 50 34 71 97 136 134 136 105 182 189 255 186 133 192 155 135 69 82 68 80 165 144 196 135 109
125 132 145 157 169 178 178 165 153 152 153 148 163 143 143 132 149 161 166 162 156 172 170 170 177 187 197 201 198 194 180 175 182 178 176 163 159 170 178 183 181 190 187 205 194 190 187 177 177 180 151 176 143 165 127 110 166 123 177 150 180 140 109 109 133 154 167 181 176 127 110 86 153 78 148 98 129 124 121 142 98 110 126 94 81 121 110 147 146 92 97 69 124 101 77 95 114 127 103 95 104 88 92 87 103 71 131 86 159 110 110 136 124 113 115 133 104 156 86 141 151 116 108 90 170 100 155 121 139 82 166 172 78 164 155 124 63 87 176 129 98 82 173 182 98 100 179 150 186 128 179 171 133 193 208 105 79 79 154 110 159 134 94 166 171 99 145 79 151 171 170 137 166 175 172 121 112 178 168 168 179 186 98 187 172 119 163 164 159 166 145 148 167 199 165 166 201 162 139 125 138 81 127 68 146 118 143 115 139 166 145 143 143 115 167 84 175 169 112 114 188 184 136 92 65 154 156 113 164 210 209 101 132 167 74 100 139 53 57 142 61 152 52 143 132 68 138 151 80 88 155 174 151 88 161 186 181 195 90 80 156 159 155 80 116 110 121 171 132 115 99 85 112 122 135 135 195 190 166 184 162 167 95 125 94 111 144 150 175 118 177 85 170 131 73 94 158 106 185 94 192 99 143 80 55 38 137 104 84 133 155 111 65 68 101 185 144 97 89 117 149 134 94 125 100 115 105 117 115 154 199 133 80 140 123 168 171 118 141 181 94 132 181 82 149 136 138 155 133 152 140 163 99 70 51 119 152 154 97 188 160 174 106 99 86 95 79 159 100 117 169 144 130 82 178 109 108 172 83 80 94 171 153 177 177 193 196 199 199 158 101 195 191 170 128 110 172 88 172 78 62 139 145 56 150 142 148 83 162 101 177 153 88 146 139 94 139 154 90 146 193 170 85 143 129 178 141 146 91 172 153 153 179 138 170 168 194 203 184 107 159 137 190 155 180 93 149 179 188 130 135 234 228 197 99 84 61 59 112 95 104 122 91 99 186 133 103 205 175 199 193 106 144 161 89 124 70 81 113 109 82 144 170 85 159 102 146 120 59 26 95 51 73 79 161 96 98 107 199 99 163 129 63 129 151 160 76 82 171 156 100 156
132 140 151 160 163 163 162 158 149 151 162 164 180 172 156 146 146 165 173 162 150 160 174 181 186 193 202 213 207 192 170 172 173 176 168 156 158 163 175 177 175 174 201 214 211 203 191 197 196 184 180 132 173 142 142 142 165 131 163 168 184 175 131 129 99 142 165 107 191 136 180 138 146 135 66 92 102 123 102 161 120 134 127 102 93 93 97 154 94 109 119 67 60 113 94 106 124 95 89 95 101 101 90 101 82 118 78 115 121 94 120 150 147 176 143 182 118 120 130 121 126 206 196 93 97 167 129 100 56 63 72 161 89 162 121 62 150 152 89 144 176 171 171 192 125 198 176 104 198 189 186 89 179 157 179 183 170 67 160 157 99 129 173 149 175 104 130 157 159 135 114 172 91 142 114 131 147 106 198 115 85 170 136 122 123 151 179 104 182 85 119 104 173 131 205 179 215 205 193 193 188 157 105 110 124 138 139 132 71 121 157 94 160 98 82 182 178 112 207 139 192 113 78 142 150 78 184 191 189 175 116 181 89 68 105 48 48 46 133 137 54 54 47 140 81 121 48 132 129 80 166 73 99 160 163 139 191 189 97 131 102 73 102 138 132 129 145 186 136 126 166 165 125 132 107 89 158 125 104 184 144 145 172 178 131 126 88 82 83 96 130 89 72 80 100 103 157 66 82 114 117 128 175 77 132 59 79 103 84 180 155 87 142 138 128 89 185 96 92 84 113 112 134 100 150 85 182 100 198 193 197 89 162 139 75 165 68 110 133 103 140 130 160 99 188 190 186 112 138 109 141 154 144 140 135 66 70 160 140 97 166 167 123 144 63 55 158 66 163 93 84 189 178 100 151 146 140 171 138 160 150 72 154 113 84 131 154 193 132 137 127 160 128 156 97 110 152 110 191 136 89 161 64 148 126 156 119 76 73 91 157 91 98 92 175 97 75 159 170 198 120 132 188 186 172 82 165 161 86 95 106 175 94 107 162 182 103 107 106 189 180 84 167 194 128 183 186 150 140 177 223 175 218 187 71 86 139 137 69 68 159 143 101 120 200 176 131 171 185 170 100 159 92 79 167 109 102 109 158 77 133 139 130 169 174 79 76 58 108 49 63 135 153 152 72 90 143 109 186 103 129 143 70 68 105 94 103 148 85 90 127 90
127 133 137 138 136 133 136 137 146 145 160 160 176 178 162 149 156 171 165 167 157 145 167 178 186 186 197 202 192 191 179 182 174 176 165 156 156 168 176 178 177 176 206 217 216 194 187 198 188 182 154 157 166 151 148 119 159 149 157 133 190 184 162 133 85 135 169 114 124 178 184 174 181 167 131 85 109 164 94 110 71 66 105 124 106 93 134 145 106 120 94 82 70 108 108 79 108 87 88 89 131 91 124 134 87 81 115 114 90 99 101 113 93 125 108 187 136 175 191 163 128 119 193 116 152 71 79 135 50 65 72 175 177 82 63 54 151 164 177 181 182 173 105 168 96 190 157 172 98 180 182 105 191 162 134 180 145 91 177 83 82 106 121 81 79 141 152 138 163 173 174 136 177 174 152 154 176 108 130 167 104 158 122 163 143 179 173 88 179 128 115 140 175 179 204 214 201 184 130 106 163 97 82 64 47 132 48 66 157 141 164 167 164 168 86 167 137 112 130 177 128 145 171 155 130 186 144 125 130 200 170 99 122 172 65 99 108 123 132 80 114 132 104 98 33 126 56 142 134 112 97 151 163 81 80 121 165 146 108 98 78 144 135 43 103 133 100 89 90 176 109 85 86 157 77 83 142 125 185 123 169 169 83 144 87 80 85 113 78 138 124 117 166 64 75 67 85 65 166 79 187 111 170 65 54 66 88 66 140 83 162 124 108 147 158 98 100 117 74 129 105 107 96 168 114 88 135 120 99 102 159 100 138 86 159 130 127 162 128 77 132 188 109 202 166 100 171 96 95 95 162 141 174 161 75 167 92 143 82 126 174 180 105 146 94 150 141 166 76 120 97 123 134 105 93 176 188 181 114 119 147 134 93 134 79 178 191 153 140 133 92 168 93 141 139 136 173 209 148 156 154 95 80 137 102 160 163 110 124 87 183 171 184 169 117 149 122 85 129 204 207 200 96 84 171 127 81 114 100 163 156 178 171 123 148 180 162 200 148 113 176 155 187 167 180 110 115 112 182 177 168 146 123 182 144 147 41 115 126 40 142 81 118 185 193 141 156 192 152 117 171 131 71 123 93 98 165 91 101 79 155 104 109 66 120 86 108 156 103 143 113 138 66 152 60 121 97 136 88 101 85 105 136 145 165 112 75 131 118 163 64 59
113 116 117 116 114 119 135 144 148 149 155 158 172 178 175 166 160 173 175 159 153 142 156 182 181 186 185 183 187 186 186 188 183 172 165 157 166 171 189 177 189 195 215 199 198 198 176 185 174 178 160 130 156 133 122 96 100 116 169 142 165 193 144 178 143 100 156 124 190 144 181 106 150 134 86 130 94 89 140 89 133 113 82 58 92 129 133 96 117 89 118 100 131 71 69 120 78 108 87 87 99 122 101 99 112 97 112 94 63 85 76 81 99 94 107 125 163 125 202 123 172 118 95 166 88 75 128 101 66 143 108 85 145 124 64 65 152 157 177 147 176 83 166 78 185 132 131 89 109 83 176 177 174 87 181 84 164 182 169 173 154 125 108 165 159 147 144 117 87 156 191 143 168 89 87 115 118 117 122 95 105 76 96 138 185 132 159 175 96 117 77 157 92 184 175 103 180 101 197 171 199 132 99 75 54 107 108 77 104 185 194 144 132 123 175 187 191 171 109 198 190 97 86 178 135 165 206 131 147 185 185 123 187 172 178 167 144 150 143 93 35 105 113 132 133 134 143 60 143 130 98 161 92 133 109 167 194 153 123 113 155 82 63 132 103 133 157 182 160 174 161 152 116 84 176 91 155 86 156 83 135 104 172 150 164 150 137 163 84 142 181 154 164 92 61 65 73 98 88 131 125 155 84 93 90 121 147 94 106 80 113 153 88 122 107 157 158 146 132 168 86 141 136 61 99 60 62 164 90 144 192 183 104 142 127 128 144 130 76 168 183 195 108 132 171 169 89 91 98 255 182 178 145 138 141 91 86 172 137 127 183 171 148 93 146 55 155 69 73 131 140 168 143 103 174 157 153 171 73 146 73 135 77 130 161 144 170 149 149 172 136 162 81 119 96 201 124 213 145 184 138 110 84 169 84 105 66 88 130 84 123 176 103 153 103 184 96 169 120 122 114 107 85 142 113 137 136 117 80 155 181 114 144 155 87 87 180 211 211 165 95 91 117 192 156 155 136 203 166 126 199 146 152 93 131 149 43 87 69 39 54 155 86 98 161 177 150 120 187 120 194 145 160 116 176 189 126 68 60 126 101 105 152 68 107 115 88 159 131 129 152 73 143 84 74 73 76 68 70 81 69 151 77 78 143 132 61 151 69 103 74 110
102 103 104 103 102 114 129 147 155 158 154 148 163 169 182 179 181 184 189 167 167 148 162 172 166 179 169 178 182 184 193 192 176 175 168 175 176 192 199 203 204 213 207 224 214 198 189 184 164 151 167 116 159 107 130 148 145 146 139 124 159 129 186 140 107 102 113 121 158 106 173 165 123 114 93 103 76 109 82 111 81 81 82 37 45 58 74 87 88 99 106 126 87 91 90 74 101 121 73 115 68 87 125 89 116 123 89 72 51 75 68 65 88 103 108 102 111 126 163 170 196 96 90 99 122 82 157 87 103 182 128 146 113 123 80 61 73 172 108 188 176 157 125 106 82 183 133 80 163 107 124 70 100 162 84 134 162 186 165 171 181 167 137 168 170 175 139 170 193 173 203 173 98 124 95 89 125 139 159 108 161 161 105 90 186 193 106 155 91 77 165 164 100 149 97 91 161 132 116 126 179 145 198 93 158 129 53 63 153 98 112 204 115 160 170 179 122 172 149 156 164 88 146 122 109 122 162 194 112 143 173 114 201 166 146 142 172 92 65 60 135 139 88 50 152 153 111 133 134 145 151 78 97 147 79 121 188 141 224 216 191 101 131 99 169 122 165 182 105 90 110 93 145 136 86 175 126 108 115 109 86 179 141 145 83 61 79 107 159 134 115 131 142 95 85 72 146 127 96 149 139 157 121 87 67 125 82 112 106 88 139 135 114 131 153 96 153 70 154 75 161 132 76 89 63 100 147 156 116 134 175 200 185 163 116 182 74 74 148 163 147 142 118 111 175 192 129 101 88 111 157 175 177 145 135 178 114 106 98 92 112 96 137 89 155 147 119 98 163 116 103 101 172 101 168 148 83 129 126 163 106 94 63 122 74 77 85 145 137 129 58 115 77 99 107 106 125 162 201 169 97 131 187 161 145 153 154 64 162 81 143 177 149 93 172 183 115 201 190 107 167 138 75 91 62 148 74 106 71 173 205 178 183 91 84 95 185 174 214 115 95 181 112 185 177 94 195 166 114 199 175 114 158 97 170 62 67 35 124 47 157 145 100 80 156 167 164 118 217 143 192 107 97 156 111 169 89 127 96 64 59 60 159 128 120 101 136 99 144 119 72 120 76 100 136 150 149 152 76 137 73 81 116 95 180 95 67 52 52 120 114 67
97 99 102 110 121 126 131 140 155 161 158 163 159 172 186 196 203 195 191 165 168 146 153 163 170 175 181 184 184 193 199 194 177 178 184 194 203 204 207 201 211 209 205 214 204 186 185 178 179 133 151 154 152 138 109 94 154 149 115 133 132 178 171 149 136 165 104 98 128 153 96 132 143 89 76 75 87 102 106 146 57 39 103 48 38 54 108 135 82 101 91 141 116 86 73 85 86 87 112 90 69 74 72 83 94 107 119 83 95 70 85 100 86 96 105 132 163 110 133 185 132 168 160 97 128 179 83 98 167 143 145 164 138 159 84 171 170 82 92 179 122 100 148 116 177 170 161 80 86 120 152 162 112 139 125 141 180 159 160 154 175 176 121 128 197 178 201 147 210 202 200 194 161 164 157 166 78 175 116 168 173 86 136 107 121 96 107 154 175 83 166 84 95 119 139 185 140 80 179 183 103 201 106 85 161 147 113 131 129 175 182 201 105 158 128 153 135 83 149 82 86 161 93 98 196 165 201 156 198 103 140 108 172 124 202 103 93 167 175 170 159 87 134 80 76 77 163 64 86 157 159 137 87 181 164 167 173 198 124 181 162 140 141 94 101 124 163 97 78 91 129 147 173 103 88 136 105 77 172 109 138 89 123 141 85 151 134 137 56 114 94 178 97 127 75 86 157 87 166 96 169 184 127 99 159 58 60 98 89 97 182 162 120 99 96 123 150 148 67 100 168 79 156 82 157 69 71 116 100 137 201 125 144 198 121 194 123 176 167 141 155 111 128 193 128 130 131 93 110 101 98 75 173 87 163 129 74 170 177 92 178 160 171 154 149 166 111 130 156 142 174 144 141 78 83 155 63 152 69 73 95 153 145 145 81 102 115 162 173 149 145 153 107 84 140 192 188 155 139 178 179 196 158 97 101 58 103 128 71 89 95 126 150 136 174 128 180 190 178 179 92 168 124 151 148 141 146 60 142 78 102 162 113 176 116 151 203 121 206 190 195 118 148 90 126 152 127 196 104 171 110 171 82 131 153 129 128 85 100 146 149 87 134 103 93 185 196 118 222 227 133 107 77 160 170 118 184 157 82 137 160 141 114 181 146 158 144 101 68 113 134 176 172 78 121 56 70 120 103 147 73 163 191 159 139 84 156 64 57 70 69 170
90 93 104 120 132 136 138 138 149 161 176 180 183 187 186 194 210 201 186 176 165 146 159 152 153 164 173 191 187 195 204 198 185 188 198 217 220 211 205 197 212 194 204 201 174 168 195 187 144 163 135 132 166 161 126 148 108 100 144 141 191 114 145 117 133 129 101 147 82 150 128 121 113 123 90 66 145 79 155 138 121 109 109 37 75 105 68 119 128 90 132 81 110 76 124 81 102 126 121 114 74 76 62 98 92 128 145 159 125 110 70 77 153 112 115 147 119 125 121 103 179 88 129 118 145 101 151 185 115 113 131 187 131 98 186 95 107 167 75 162 72 151 162 145 181 109 87 170 165 153 102 126 144 151 146 114 134 186 193 107 189 131 146 195 203 172 154 117 191 157 109 137 125 162 111 122 85 139 169 133 97 178 202 183 161 161 137 94 195 128 179 176 94 161 106 145 151 126 170 135 174 165 194 169 170 77 135 176 136 151 109 162 163 146 87 174 117 93 130 162 156 92 176 93 93 140 134 164 119 206 180 198 140 213 123 119 100 189 146 185 179 167 143 102 117 174 77 140 81 78 151 135 176 148 183 122 150 141 184 171 154 143 187 92 144 105 110 74 88 129 69 144 162 128 99 170 87 182 182 183 139 149 150 90 114 99 72 80 135 73 134 97 129 136 112 89 171 157 140 206 118 168 115 150 100 49 89 62 111 101 104 111 128 89 79 100 108 137 137 79 113 114 155 164 178 148 135 113 180 172 114 221 162 194 134 204 109 102 145 171 135 86 90 161 173 107 89 158 118 165 76 145 138 91 137 167 112 172 123 93 87 184 177 99 155 152 168 105 175 151 117 111 145 166 163 70 60 150 108 102 127 161 168 172 171 187 95 168 96 58 149 56 70 103 177 116 123 99 105 166 141 113 190 176 121 67 144 112 75 118 124 196 194 186 122 185 102 116 110 187 127 84 112 152 150 59 75 125 71 145 174 163 94 177 93 125 169 128 111 141 107 86 92 68 92 123 179 98 176 105 181 79 130 101 111 78 170 108 62 154 153 166 138 188 174 190 123 198 220 214 181 186 122 175 81 111 190 187 100 105 160 76 122 153 174 207 197 149 121 115 100 126 168 124 122 88 59 142 155 163 113 137 162 182 99 116 183 127 117 81 175 182
83 91 107 130 144 147 141 139 147 165 182 180 195 195 189 201 209 206 189 178 161 148 153 144 150 167 168 190 197 195 205 194 192 195 209 228 228 215 203 196 186 200 191 186 184 189 181 166 183 159 169 165 148 116 134 107 145 105 176 153 168 150 147 165 126 154 133 136 151 91 90 92 153 80 84 81 83 132 98 95 70 82 73 64 100 58 79 146 76 61 62 113 82 80 78 79 100 93 94 89 107 68 66 71 120 150 159 151 133 106 142 150 97 116 121 98 92 136 120 133 86 83 166 144 100 87 87 158 128 107 175 174 153 104 193 176 125 73 162 60 158 160 176 160 197 109 120 178 173 76 77 66 101 147 158 156 129 108 178 176 162 207 157 210 189 187 192 193 124 136 178 102 176 106 160 181 121 100 119 96 131 138 196 111 165 73 179 190 169 102 188 189 187 89 147 173 161 149 106 193 200 175 180 153 84 162 170 77 80 98 98 117 103 123 182 166 178 176 173 165 156 104 126 141 181 104 128 185 189 107 197 164 111 205 198 132 122 137 121 165 108 162 88 107 91 151 187 186 106 152 89 156 111 162 104 90 170 199 152 120 212 177 140 121 102 160 100 147 143 95 122 170 169 143 169 76 180 111 173 167 123 126 114 89 115 135 185 85 69 116 77 99 162 120 118 191 100 104 107 127 112 100 183 75 124 132 65 81 71 110 162 95 92 74 95 76 167 85 91 184 172 175 94 110 157 99 154 140 90 112 113 192 186 140 163 198 213 204 184 89 106 83 108 147 174 109 164 90 185 101 90 172 106 134 162 102 169 91 146 174 79 150 190 150 193 118 181 104 173 115 133 170 137 125 175 80 98 87 162 81 154 173 170 187 116 98 185 132 151 155 107 146 144 76 85 92 191 120 199 100 182 176 190 103 105 94 130 115 129 171 180 97 184 162 132 166 166 155 170 186 182 163 159 96 168 155 103 75 76 127 74 94 143 87 137 98 115 110 190 112 152 81 135 146 124 52 72 142 195 176 128 81 103 142 165 156 181 162 114 145 140 149 84 168 133 172 149 159 201 114 110 140 104 127 144 179 134 198 161 164 100 146 172 148 185 120 124 96 98 131 127 137 176 86 81 164 159 159 67 143 91 145 111 115 144 200 205 157 97 186 168 147
78 90 112 130 142 148 144 142 152 158 178 174 188 192 188 184 194 206 190 175 159 145 164 171 172 175 168 178 188 200 205 201 191 197 213 228 221 211 193 187 188 175 172 167 145 177 173 175 179 182 173 136 173 110 140 115 105 168 155 172 142 153 192 150 91 92 137 94 153 128 94 90 90 98 178 108 138 128 106 130 74 81 101 55 78 77 115 86 134 76 52 56 107 96 69 89 94 86 82 70 52 55 58 88 91 132 145 186 178 127 114 113 88 124 165 93 155 179 135 96 90 181 168 178 84 122 128 98 125 105 104 140 161 194 113 94 134 143 80 108 73 179 180 159 166 199 199 165 110 171 166 162 83 153 98 169 120 142 104 166 108 134 141 208 130 192 165 168 108 163 118 159 183 143 114 165 154 93 179 203 146 209 104 177 164 107 85 137 203 110 134 182 175 78 83 164 78 118 196 131 182 205 102 148 119 73 84 157 90 166 86 166 131 127 103 125 108 146 166 66 60 73 64 79 97 129 96 141 136 87 107 156 187 139 198 188 198 123 206 197 122 199 189 118 180 160 188 186 90 171 126 151 158 106 112 184 95 201 141 218 212 215 187 102 98 184 178 173 166 135 95 108 151 139 90 175 98 108 138 117 198 106 123 171 193 191 106 198 84 141 175 147 112 108 200 180 97 183 166 132 178 166 187 174 63 55 97 57 107 82 88 79 94 72 77 91 91 74 145 167 161 199 107 175 190 105 139 80 98 170 126 162 165 219 207 214 205 147 109 120 115 155 139 179 81 74 85 162 103 174 82 74 108 178 176 181 136 88 111 144 151 151 187 186 192 127 199 101 119 188 95 147 177 147 156 119 157 170 105 173 126 171 170 101 184 105 85 158 162 71 78 110 149 71 115 178 119 198 104 164 157 94 158 171 196 103 104 170 155 144 102 167 99 171 94 121 98 130 178 89 180 172 163 140 84 127 58 142 68 79 78 147 161 124 174 133 183 119 161 113 143 78 88 144 136 118 65 94 89 82 74 147 78 76 175 177 182 136 157 130 52 53 156 143 192 160 175 174 151 164 128 153 110 150 78 170 124 160 190 204 200 186 192 146 205 211 131 134 76 163 80 166 181 91 110 175 132 84 88 70 166 78 145 148 206 119 180 205 138 92 175 127
92 106 125 140 145 149 152 153 164 155 165 178 184 178 177 172 172 183 187 184 174 159 176 182 192 177 159 156 177 192 196 192 186 191 204 216 211 200 185 176 164 175 162 159 151 149 146 179 181 177 164 173 162 137 102 141 123 142 129 191 180 188 160 123 102 83 115 147 122 71 138 133 140 138 114 148 170 160 113 79 73 70 107 71 127 156 112 93 138 61 72 75 92 135 72 75 81 105 116 89 42 67 72 77 67 114 132 134 152 136 113 87 107 105 95 112 111 160 173 121 96 94 170 115 73 81 137 139 107 170 104 184 149 188 148 255 87 91 94 138 173 178 87 183 184 189 105 131 80 139 134 165 68 138 128 136 180 143 160 158 190 117 155 187 132 138 146 144 139 69 91 100 123 129 168 128 128 163 197 207 105 168 191 152 147 100 194 173 203 105 94 90 84 153 69 66 90 186 112 217 212 181 101 114 123 145 65 160 103 172 120 108 137 133 134 181 98 157 84 135 62 80 90 79 107 97 100 147 166 140 57 66 79 176 107 204 186 159 133 121 146 198 144 183 198 128 196 122 103 115 107 80 64 168 144 188 183 150 130 211 214 211 194 184 148 162 87 159 172 142 99 155 180 181 93 95 100 106 136 132 188 115 135 89 136 109 113 203 96 150 93 166 133 194 204 173 195 104 114 122 146 102 133 103 126 83 116 162 75 100 143 110 87 132 112 98 145 165 86 98 158 120 151 124 184 99 173 75 82 103 148 151 108 166 151 195 146 255 174 91 165 172 101 92 119 144 100 100 179 117 86 69 101 171 164 177 83 88 53 120 132 84 169 102 171 202 101 180 120 176 131 125 123 178 159 176 125 181 100 169 141 152 94 127 103 186 179 75 137 173 141 75 163 118 172 90 141 150 146 132 175 92 188 177 151 121 167 174 163 59 94 135 165 154 169 186 85 174 68 162 151 154 145 184 179 73 112 61 130 80 97 180 170 169 120 171 114 87 159 175 182 168 107 65 102 86 70 121 113 71 73 60 147 147 161 134 137 143 146 146 150 156 146 137 92 89 162 181 122 126 137 168 121 98 157 148 102 91 155 116 201 203 198 180 137 146 161 98 173 77 80 181 182 103 110 139 184 148 92 126 156 107 163 109 147 212 172 184 100 173 145 134
108 122 139 148 150 151 156 163 166 160 166 161 166 171 170 176 177 180 184 179 177 178 193 201 191 181 156 151 161 180 187 186 182 185 193 206 196 187 163 161 165 157 164 151 148 148 147 168 144 168 131 143 132 122 150 109 146 149 151 191 148 146 154 184 113 67 130 85 121 105 77 95 159 189 191 170 103 165 115 77 69 142 70 127 94 156 111 111 147 71 88 90 90 129 129 91 86 89 112 48 47 46 59 48 85 79 132 127 143 165 98 135 98 112 160 161 103 93 97 109 185 102 93 97 83 143 121 143 154 175 202 110 96 85 157 80 168 119 92 114 93 183 83 78 159 133 166 175 128 165 152 163 161 173 159 148 146 154 129 166 144 132 153 102 166 191 122 98 156 151 84 94 132 118 175 172 98 202 124 194 189 107 118 133 108 193 197 154 112 177 180 163 77 162 158 147 76 84 101 203 126 183 190 132 128 144 158 124 117 132 77 84 114 116 155 73 171 122 160 74 76 138 68 133 86 161 108 99 132 86 143 69 164 148 147 142 158 115 172 160 156 105 153 195 186 165 97 118 173 100 71 110 74 185 186 112 176 172 177 209 164 219 124 159 94 137 172 158 118 159 140 86 187 182 182 175 183 126 145 197 153 120 187 161 190 109 103 187 182 156 146 109 163 176 106 148 147 156 115 141 207 104 120 144 85 170 118 83 140 153 158 137 109 79 152 91 112 89 115 93 162 98 105 105 172 106 147 101 67 56 117 172 94 115 121 174 193 187 77 74 134 111 161 186 116 113 188 117 109 158 74 155 154 175 166 192 102 148 80 60 36 89 156 187 156 128 180 180 80 129 172 131 126 172 158 131 175 112 155 122 163 78 101 149 119 144 112 82 171 160 149 158 104 146 128 88 112 134 196 97 154 161 108 129 200 159 186 161 60 84 51 87 156 79 176 114 149 122 55 156 129 107 101 191 94 164 118 124 79 90 88 133 88 141 99 96 144 104 173 158 157 154 159 101 117 129 99 69 136 87 57 146 129 141 119 149 164 122 160 168 167 161 178 96 105 170 172 142 137 77 133 156 157 69 72 70 128 154 132 193 211 154 153 103 146 98 190 85 138 155 90 165 90 88 154 123 161 109 64 115 154 110 113 134 219 123 115 96 174 122 114 132
127 139 153 162 166 168 172 171 169 158 166 166 170 166 176 174 165 172 182 180 175 181 175 182 170 173 154 165 175 185 178 184 183 182 193 191 183 174 163 152 161 165 161 145 142 135 154 161 149 164 143 158 141 160 151 164 136 132 164 140 127 126 147 112 118 100 68 123 92 80 143 145 178 190 159 178 138 140 137 77 79 68 78 83 93 108 112 255 129 115 103 96 97 151 101 109 129 110 71 110 98 51 43 77 50 74 116 121 132 150 141 141 78 124 161 84 165 163 115 138 114 144 90 156 155 156 93 107 174 151 198 115 175 115 160 164 150 95 87 87 87 179 74 161 145 63 97 153 86 186 166 153 127 152 106 192 189 162 142 163 172 104 169 138 168 103 173 165 73 141 97 104 81 171 143 159 122 136 107 96 162 80 139 141 149 198 119 118 172 105 117 96 117 94 102 92 119 137 103 185 200 99 126 91 74 79 83 127 147 74 74 155 122 142 134 168 83 87 97 160 88 106 175 160 123 117 180 100 72 141 108 60 102 165 106 211 209 142 132 188 107 172 178 161 179 177 157 166 73 106 75 168 155 117 210 139 169 122 185 98 106 179 167 132 179 158 167 87 110 141 94 155 200 169 208 203 132 209 176 147 199 178 190 86 157 88 92 88 172 169 74 74 129 95 155 93 147 93 187 126 181 126 98 95 173 96 168 99 62 46 45 132 79 165 175 148 91 118 159 84 166 121 175 182 83 87 77 158 86 60 96 118 100 184 181 102 164 80 67 67 98 107 193 195 161 169 123 156 99 111 103 119 68 87 154 99 181 77 45 129 134 154 151 100 101 101 172 139 180 156 171 109 160 95 153 157 84 191 191 115 127 77 162 188 126 193 184 188 146 165 84 79 86 80 106 105 103 86 85 164 123 167 180 103 99 153 99 155 124 133 44 155 86 156 94 81 101 60 64 144 112 92 116 140 188 185 140 181 140 167 170 140 105 126 128 163 82 132 69 68 163 159 92 57 54 145 94 163 126 118 68 94 46 114 68 105 152 88 108 165 158 97 107 150 179 113 104 75 146 126 106 85 87 114 52 141 107 101 163 87 185 110 183 100 127 176 83 82 73 178 87 84 109 84 167 107 143 158 106 78 167 149 142 173 177 190 145 104 108 78 176 179
128 139 153 164 174 174 177 183 177 167 164 166 182 181 179 176 174 178 174 165 176 167 157 151 156 152 160 167 185 187 188 189 190 190 190 192 181 170 161 141 156 150 151 161 147 149 155 140 170 149 182 181 165 158 162 143 139 153 187 121 153 144 170 136 108 108 149 145 96 80 69 110 120 101 185 127 151 177 161 132 78 72 93 157 89 126 125 74 93 80 82 148 93 84 137 126 89 93 115 115 96 61 80 61 87 126 101 125 161 149 111 93 149 99 129 96 82 94 100 138 159 132 86 86 83 184 105 113 119 200 188 160 109 164 103 154 78 64 101 141 179 105 95 67 153 71 82 170 171 186 86 94 144 119 187 168 141 169 159 113 85 88 141 84 85 160 176 157 143 127 146 81 166 77 165 157 150 173 149 165 167 112 101 80 183 163 172 135 184 181 87 165 107 47 52 135 60 53 68 74 103 188 106 165 71 47 75 56 142 65 150 139 67 93 133 184 188 91 103 115 89 168 137 171 141 132 121 101 174 156 82 166 104 195 176 202 217 131 205 172 167 160 124 139 176 80 72 160 73 117 157 173 112 121 121 145 203 105 114 126 93 124 110 165 176 162 161 82 125 164 196 101 151 194 166 202 174 206 182 159 143 100 104 140 175 118 132 73 134 68 71 147 149 92 106 134 179 163 152 201 167 142 181 160 90 104 156 81 116 71 127 139 68 148 122 146 178 174 104 144 101 158 188 113 130 159 185 128 140 85 152 85 185 188 96 152 147 106 64 70 169 183 181 86 173 118 129 100 159 176 93 105 158 175 160 142 76 161 151 131 128 129 161 91 119 125 158 101 197 124 182 134 171 160 147 59 170 140 107 143 89 155 185 102 128 171 94 122 185 162 120 130 121 174 108 171 77 171 142 162 154 169 178 159 93 183 129 112 132 67 100 166 121 174 194 136 146 114 144 167 117 100 179 117 165 157 156 171 117 146 255 109 175 179 86 67 96 91 141 130 163 159 72 65 135 64 56 163 101 126 139 128 149 49 110 151 70 184 195 103 133 196 98 102 79 123 150 153 74 141 77 100 71 144 78 150 100 71 58 90 108 195 196 94 78 66 58 98 81 156 159 162 82 158 129 118 130 140 161 129 113 113 119 189 201 111 84 99 116 95 84 109
130 140 151 166 174 178 179 186 173 171 164 181 182 189 170 175 175 171 169 170 150 155 151 141 136 149 169 187 195 201 201 194 198 198 197 185 181 167 166 158 156 139 160 162 153 152 162 154 172 171 172 203 193 207 199 194 195 202 189 156 160 107 163 107 120 148 113 124 117 159 105 75 85 122 163 94 141 170 105 98 132 95 119 100 165 89 79 73 76 101 85 144 109 103 113 85 89 108 77 78 108 78 60 62 73 89 134 127 140 182 130 97 87 95 88 159 151 100 89 120 170 94 140 102 86 92 180 187 93 81 116 78 163 149 117 53 76 82 148 155 132 78 143 124 121 114 125 108 153 131 143 170 141 177 106 180 120 111 77 95 158 144 85 92 183 184 149 125 110 62 72 116 152 171 84 146 103 115 181 78 68 97 137 152 177 119 136 179 81 179 147 110 69 59 106 82 144 51 78 77 170 179 119 102 115 81 78 53 57 94 149 84 104 85 156 171 196 174 85 90 154 162 177 171 181 181 149 172 123 76 120 80 174 162 147 137 172 199 118 90 74 157 149 157 164 166 159 144 70 104 82 140 152 113 214 187 178 146 255 81 87 128 197 89 160 106 152 136 112 194 108 127 173 108 125 120 168 107 151 186 161 189 176 163 96 91 154 78 81 129 82 108 85 106 189 143 91 94 120 118 191 83 123 96 111 139 155 102 66 28 41 153 171 96 108 145 164 102 165 85 181 163 101 153 181 106 145 163 90 131 106 125 130 111 180 111 83 81 101 99 121 103 167 134 62 123 153 122 176 182 98 143 197 113 109 143 158 163 88 102 85 177 168 149 166 132 126 189 203 119 107 144 111 63 137 49 145 169 172 182 112 107 106 96 122 175 133 118 178 82 159 180 94 83 80 128 119 110 68 75 149 100 169 88 90 141 99 162 57 143 101 93 163 126 145 107 77 89 72 116 149 181 98 102 134 102 195 181 162 69 180 113 104 174 89 152 78 70 166 80 79 112 73 95 150 121 92 136 177 168 155 173 143 80 54 128 145 151 199 102 153 192 134 90 170 155 78 111 167 76 112 96 144 91 97 91 101 134 137 116 75 174 188 150 136 147 84 53 125 132 78 150 121 131 145 116 113 95 166 184 107 139 209 154 184 121 100 102 88 130 166 96
127 134 146 157 166 171 168 175 170 171 163 174 182 171 162 170 157 173 159 163 146 149 142 136 150 158 170 180 186 200 203 195 195 196 191 182 179 174 159 162 153 138 153 153 163 145 161 156 174 161 194 199 199 209 185 215 190 208 172 174 163 165 108 159 124 165 152 165 188 124 120 146 80 90 104 136 91 108 136 97 125 77 126 94 165 92 133 107 119 101 98 133 132 112 59 64 58 96 75 76 104 74 69 88 100 136 131 135 141 119 102 86 93 145 87 131 89 160 87 141 114 137 103 87 97 98 176 173 111 145 131 255 70 64 110 138 124 122 140 153 71 167 165 100 178 110 88 175 104 83 141 153 126 92 122 163 127 158 112 116 117 99 164 175 182 138 115 160 155 126 168 123 171 103 132 124 151 168 136 123 71 104 163 148 117 130 89 154 97 170 75 111 62 60 140 126 65 150 78 131 140 96 169 109 113 147 58 154 67 79 105 131 135 175 116 207 132 137 138 106 69 141 121 98 90 176 81 119 145 106 75 107 80 72 86 171 195 117 160 96 63 154 113 153 116 127 121 133 92 85 75 185 162 206 185 138 88 108 156 68 144 169 119 119 80 125 165 113 156 202 155 108 128 99 86 105 94 128 113 140 122 84 166 112 165 87 89 115 83 157 166 76 163 94 191 148 96 104 206 111 128 102 117 77 95 117 84 144 50 129 82 173 138 180 136 106 93 91 140 109 160 143 177 124 136 93 94 133 121 122 108 198 171 170 194 189 169 176 79 79 168 104 96 50 135 115 42 152 98 182 98 107 142 189 100 140 161 163 159 160 151 165 103 136 163 117 126 183 206 190 169 122 150 97 133 124 134 68 167 81 181 108 148 105 191 109 111 178 175 160 190 104 182 140 157 137 142 70 134 84 167 168 148 90 139 88 142 150 126 115 151 181 156 158 156 104 91 181 85 91 92 181 189 193 114 97 187 175 152 107 174 145 134 84 75 142 81 151 103 159 101 192 84 121 172 135 140 171 90 125 190 205 100 154 66 59 67 75 87 102 184 92 109 172 72 163 134 155 183 188 132 207 138 158 98 149 72 149 143 82 147 185 156 131 81 82 129 57 72 42 85 120 115 123 142 149 74 94 94 86 191 216 124 135 134 188 167 99 69 164 147 171
135 139 144 151 153 147 157 164 169 165 168 165 170 177 163 153 147 155 154 147 145 148 146 156 156 169 170 181 197 202 196 192 193 189 181 178 170 175 174 167 143 138 147 154 164 173 176 174 168 158 170 201 211 221 216 184 172 159 161 182 143 174 118 143 140 174 113 156 180 124 175 95 109 86 112 69 82 97 173 105 107 74 134 161 112 97 91 141 91 93 91 92 70 68 45 55 35 48 69 70 73 115 84 125 142 149 101 104 101 148 85 87 100 62 88 133 121 144 122 108 127 113 99 91 99 108 146 146 121 86 82 67 91 164 59 59 128 122 133 48 147 119 168 160 165 84 166 163 186 165 163 124 155 163 136 154 134 170 156 100 91 153 120 123 185 164 150 100 154 153 100 117 169 155 103 158 153 141 69 102 97 84 167 190 115 95 115 140 106 108 172 94 87 140 78 82 101 70 150 152 95 171 95 159 155 86 69 71 154 134 96 84 83 185 183 124 139 161 178 149 127 62 150 81 181 100 110 174 172 171 165 82 55 147 150 99 175 81 159 88 131 58 118 67 159 66 100 53 92 153 101 144 96 98 187 176 163 121 157 141 126 186 99 191 90 165 92 170 145 143 200 196 103 154 115 152 160 110 107 94 93 91 108 91 152 124 171 84 81 169 86 88 182 141 167 129 98 109 127 100 115 87 106 86 187 184 165 131 166 75 105 179 128 127 136 103 156 127 116 177 162 186 102 103 120 170 166 83 143 117 124 114 209 121 196 143 136 90 174 177 136 107 104 79 131 133 42 71 167 139 188 189 91 117 80 155 153 108 129 139 150 171 131 188 89 167 182 192 191 107 178 170 100 101 109 81 120 122 116 120 94 152 163 135 175 137 85 73 112 173 131 171 165 112 171 142 71 165 141 141 180 186 150 68 158 70 115 112 158 74 129 144 164 163 187 156 143 100 175 145 93 107 107 126 195 182 159 91 169 84 153 80 169 171 165 111 160 90 121 193 192 126 113 94 182 105 144 73 178 190 108 185 194 191 152 95 100 64 145 172 86 181 88 165 98 74 177 181 130 194 179 188 142 199 123 150 155 131 63 131 89 159 134 166 110 177 173 92 67 155 87 147 111 79 174 96 68 80 117 156 96 175 125 170 143 106 120 135 124 151 106 87
143 143 142 143 140 133 137 152 165 156 159 173 182 183 168 155 163 165 170 148 150 153 157 166 182 180 171 184 192 198 200 189 180 169 170 168 170 172 173 167 153 142 119 144 158 175 174 152 172 163 171 179 196 203 199 206 190 255 146 183 151 137 180 160 115 128 147 186 199 131 163 148 133 133 89 97 135 128 112 103 89 86 83 90 89 83 100 125 128 145 119 86 107 62 67 48 31 25 69 62 89 122 78 81 115 136 104 137 113 90 95 71 80 81 77 93 151 118 109 83 91 146 93 159 147 174 143 113 159 166 122 148 80 133 144 77 32 124 76 46 144 78 177 81 166 161 182 169 163 123 139 168 169 153 70 149 162 80 101 151 67 100 101 156 130 200 188 131 153 114 169 138 172 163 164 146 137 68 162 155 181 119 109 191 182 75 149 153 97 191 155 177 189 117 139 107 169 136 116 70 170 174 78 97 82 93 78 182 177 105 142 172 123 135 119 157 188 191 97 171 162 151 154 160 103 105 129 167 163 167 126 137 60 136 128 65 100 136 80 126 136 59 160 151 151 98 52 134 150 98 98 93 123 94 157 62 137 55 112 98 96 91 196 134 117 159 135 94 91 165 137 117 146 112 111 86 168 169 100 77 166 73 116 145 96 156 123 187 107 156 93 135 183 150 188 94 176 105 202 195 144 133 153 120 152 103 105 87 79 95 164 93 166 107 153 94 171 116 156 85 139 103 127 138 88 153 170 140 70 120 182 112 109 180 175 128 86 85 72 81 174 78 60 48 142 88 121 63 169 173 144 124 121 95 138 67 117 94 136 152 164 131 187 167 122 91 90 196 192 113 124 91 93 136 98 28 128 96 155 79 101 66 105 89 117 154 152 78 116 204 221 141 198 192 137 75 62 160 172 82 97 86 105 147 140 70 142 104 94 101 90 162 83 177 110 170 193 186 160 104 89 114 179 179 105 180 123 103 105 93 137 152 158 94 165 162 139 87 189 197 125 197 195 120 194 127 106 109 148 116 198 207 196 149 182 96 134 73 131 160 77 87 182 137 134 81 145 97 205 186 201 190 114 191 190 112 125 120 147 131 150 121 171 183 158 196 100 118 83 127 171 151 178 139 140 171 127 166 158 142 93 144 152 208 112 119 178 94 172 100 164 59
152 149 144 142 139 139 139 147 161 162 172 179 177 183 177 159 150 160 155 148 152 152 168 183 193 189 186 194 195 198 202 187 170 159 154 159 165 170 169 161 149 145 137 145 150 173 170 188 178 169 168 181 149 190 168 185 196 181 169 161 114 139 117 154 166 190 183 132 153 123 129 93 137 152 140 132 71 97 140 119 110 88 95 73 82 72 68 85 82 119 83 87 69 60 57 55 64 33 64 63 113 81 92 99 101 93 141 78 73 94 117 60 74 64 139 91 185 120 170 83 87 102 105 91 152 175 190 180 104 99 98 84 85 86 127 119 138 33 38 140 149 188 179 97 104 128 76 103 94 161 86 151 150 135 76 170 155 154 123 146 89 121 116 144 191 151 99 179 131 112 194 191 105 158 167 146 155 76 107 165 161 127 115 190 189 130 64 161 126 208 197 177 138 172 136 154 180 100 97 106 175 80 165 148 100 174 168 188 163 202 208 174 107 154 169 154 204 169 121 177 162 74 66 169 85 177 130 144 163 163 164 152 107 118 48 74 57 122 41 110 48 149 82 154 91 146 55 104 144 178 195 194 120 151 148 143 46 144 66 151 133 160 108 99 167 144 186 167 98 158 189 142 127 118 124 146 136 140 131 111 103 144 156 149 99 198 156 116 195 108 113 193 94 143 137 139 90 100 102 192 181 184 186 158 123 179 91 162 79 67 116 128 192 110 106 190 146 138 174 95 106 181 159 198 112 86 79 155 77 175 173 107 99 112 171 110 164 107 166 168 98 70 89 154 161 95 167 143 173 79 90 101 110 68 66 67 62 143 93 140 112 175 163 181 137 104 160 210 183 160 155 133 124 90 54 71 58 143 157 122 73 65 79 77 66 154 132 99 102 155 194 192 110 124 174 63 146 50 129 165 85 162 134 54 142 51 61 170 129 95 141 94 119 169 182 103 109 202 119 138 105 108 129 199 194 113 94 174 94 64 40 94 136 145 163 140 173 179 184 198 119 157 137 95 100 184 134 57 151 164 183 181 117 164 179 115 153 136 129 73 82 122 114 155 122 67 156 112 126 105 201 142 175 180 97 180 166 82 106 76 71 126 77 177 152 117 181 206 172 95 103 137 108 87 86 79 85 165 152 169 108 199 179 134 105 96 165 133 174 157 134 53
151 150 149 145 143 150 255 166 171 168 184 173 174 168 173 165 170 170 168 154 148 156 162 178 200 205 201 204 203 197 195 186 165 151 147 154 164 169 169 163 159 159 139 148 162 155 187 171 149 135 168 183 192 255 136 185 128 166 171 128 168 170 170 166 186 121 202 163 128 138 136 130 112 87 121 149 140 141 145 112 131 98 69 56 121 127 69 92 102 159 147 140 89 76 58 81 50 65 80 80 76 84 86 76 83 114 112 82 65 94 125 101 96 96 99 92 129 169 174 170 177 177 100 101 157 127 126 106 91 93 105 100 101 71 62 136 50 105 138 84 99 96 171 77 154 76 60 160 119 158 68 70 134 131 180 172 149 125 131 165 150 107 171 180 188 119 135 86 173 185 198 138 115 169 72 156 59 118 154 164 111 148 188 106 85 166 67 146 159 129 234 141 186 120 111 103 190 128 191 100 120 153 142 60 90 88 143 141 99 186 179 191 164 167 171 128 122 176 100 107 255 135 106 80 173 90 168 108 90 159 164 89 73 99 105 56 59 63 28 116 116 92 139 148 127 90 129 79 169 88 172 182 185 133 115 134 64 141 156 163 85 149 121 105 166 189 172 97 151 121 176 170 116 129 189 141 107 89 176 130 147 98 97 125 139 112 152 137 141 208 103 93 183 82 115 79 128 84 125 143 185 92 159 188 109 104 76 82 100 58 160 115 121 151 149 127 93 83 82 108 190 122 209 126 180 89 150 146 168 82 150 75 124 73 165 157 111 111 149 132 70 130 79 170 102 135 90 140 78 87 89 167 124 168 68 70 75 151 77 78 64 87 153 169 114 103 204 217 120 112 78 64 62 122 157 156 68 83 128 110 143 125 134 155 117 62 70 146 158 176 108 144 159 97 176 106 41 43 139 57 85 135 86 111 57 90 153 171 110 179 90 142 176 178 143 183 111 96 95 173 110 155 159 96 104 87 185 168 161 126 89 30 128 74 81 108 178 159 194 135 200 157 142 185 169 80 62 50 87 130 147 172 155 204 210 126 112 172 114 163 176 144 150 159 154 95 129 140 90 174 171 173 159 157 175 97 164 103 67 118 95 94 90 160 110 125 149 118 168 142 82 94 170 102 74 85 117 82 181 122 126 110 201 191 164 168 100 94 63 142 147 54
143 147 149 153 150 155 161 173 176 179 182 168 171 153 160 155 164 163 152 155 146 158 161 185 202 212 214 214 206 200 198 187 175 160 149 160 168 176 165 175 183 180 170 166 167 176 200 183 190 161 154 151 142 185 139 135 176 152 162 181 143 183 202 191 135 181 129 174 185 120 177 77 96 113 60 66 150 103 116 177 113 99 80 102 65 85 82 114 121 168 118 130 74 77 53 39 75 37 32 103 70 89 77 110 99 88 119 94 73 88 91 73 77 110 154 164 95 103 153 159 95 129 120 103 151 81 85 174 179 186 97 103 102 101 72 64 85 54 155 100 85 136 159 69 160 117 164 82 165 98 132 164 78 172 178 145 157 180 177 162 93 176 152 154 121 85 90 129 141 119 202 120 161 146 105 135 149 77 157 131 146 151 145 191 140 145 161 97 200 121 179 138 190 104 182 97 163 103 186 142 206 140 93 151 154 77 183 123 169 111 130 158 190 195 162 163 104 195 102 146 102 116 145 160 73 167 65 110 120 54 106 85 75 159 125 135 158 44 27 103 146 177 191 196 181 133 172 66 99 87 101 158 171 152 48 108 96 73 60 122 111 64 125 91 111 94 153 157 90 106 141 131 185 126 101 83 86 105 108 176 172 168 212 112 138 190 199 224 202 125 154 166 78 69 89 61 163 125 160 113 138 101 123 173 180 110 154 94 70 171 101 160 120 192 114 96 127 161 150 123 168 143 114 96 107 166 132 88 124 110 64 115 114 72 127 70 104 136 98 74 68 114 115 123 176 144 85 119 153 124 89 95 132 173 145 174 94 153 124 135 53 63 67 163 185 124 192 118 115 157 171 85 121 145 113 128 112 167 151 90 102 144 174 132 129 70 74 88 78 78 79 84 141 97 144 64 55 44 36 146 80 175 87 84 161 70 137 121 168 173 91 185 125 100 122 147 166 161 114 85 163 180 175 95 180 114 92 128 168 87 46 38 125 112 76 119 121 190 172 190 138 135 153 94 92 66 43 38 25 122 60 167 102 147 129 154 160 124 181 183 104 91 163 69 141 90 89 186 134 155 120 134 141 163 184 195 96 85 79 56 86 134 88 164 127 205 200 124 112 123 162 91 107 156 64 85 64 180 110 108 140 198 165 184 159 77 147 61 134 81 49 46
132 140 146 149 143 149 157 167 168 169 164 156 156 158 163 168 175 170 154 167 164 159 172 185 209 212 221 219 206 188 191 182 182 164 160 162 172 184 179 185 194 192 169 167 171 166 177 186 173 171 138 145 165 166 114 164 134 137 151 180 183 194 207 172 137 170 188 149 210 128 139 125 115 88 106 63 65 81 123 128 121 97 104 96 95 105 107 118 143 164 127 140 86 46 37 41 77 56 57 71 113 114 80 72 80 84 91 96 81 78 77 116 72 90 85 95 93 162 105 158 89 98 102 94 81 83 74 157 121 163 199 126 202 176 147 81 154 58 108 162 75 75 163 152 152 84 93 176 173 159 166 140 90 147 159 141 131 121 84 169 113 127 193 138 128 176 119 124 163 172 182 141 141 157 145 145 127 163 154 159 110 156 184 115 77 71 67 73 127 201 124 105 99 158 181 177 116 125 131 213 210 188 99 140 146 134 104 133 147 129 158 130 111 120 183 121 97 189 135 111 112 201 150 126 162 159 144 156 142 149 94 84 158 170 137 153 150 81 88 139 146 109 190 123 194 186 171 145 131 156 89 122 168 161 133 130 76 55 77 127 150 62 138 104 176 127 116 255 59 159 106 158 128 206 97 159 164 104 205 198 218 237 223 140 141 211 130 178 157 98 113 158 166 137 156 144 81 101 98 98 138 100 102 106 109 199 115 105 133 152 104 175 109 112 86 162 124 87 67 141 143 100 149 152 78 99 160 157 90 68 51 142 64 118 93 70 114 80 161 132 69 60 167 177 123 192 158 132 164 126 136 86 111 90 84 121 168 120 132 67 109 147 98 151 187 150 154 134 178 146 173 106 100 86 94 150 85 114 105 131 109 148 85 121 126 118 107 161 68 158 100 147 67 109 157 73 138 46 101 117 99 185 145 89 180 88 186 166 166 99 90 177 95 195 104 172 127 172 156 157 104 82 88 173 185 114 111 152 75 149 136 39 103 159 83 99 164 184 120 131 162 92 180 165 158 145 65 91 118 48 78 89 196 109 208 224 133 178 177 165 144 176 171 137 94 90 190 98 104 154 101 150 144 160 135 170 177 172 94 57 146 152 147 124 92 129 144 179 124 99 81 156 164 165 83 146 86 92 155 169 110 173 171 184 166 61 62 144 57 146 116 139
128 135 138 139 139 139 148 159 164 164 160 141 144 160 168 173 173 175 176 172 193 191 198 203 211 218 222 219 201 177 178 181 183 171 167 172 177 183 186 186 191 188 184 183 166 176 191 187 162 146 164 143 107 116 142 170 163 134 164 114 141 171 172 128 166 105 191 139 152 137 110 108 105 59 76 66 73 102 122 127 103 98 102 146 154 105 112 169 160 164 178 100 75 82 56 57 43 69 59 79 74 80 78 96 89 129 141 125 87 90 109 113 74 75 93 84 94 107 97 129 82 95 170 101 90 79 90 121 94 158 108 133 158 185 121 146 146 124 159 159 127 156 104 98 185 183 114 84 135 159 176 148 146 150 75 128 76 173 156 164 142 131 216 135 120 177 144 123 181 177 137 195 125 135 79 70 104 70 151 111 123 93 145 98 107 159 146 69 171 167 132 157 111 86 87 114 189 181 188 125 135 118 157 120 148 144 158 136 182 168 222 136 112 188 96 87 170 151 88 164 193 202 127 177 85 139 86 147 127 148 80 108 118 184 207 139 198 96 59 87 74 73 124 156 143 164 176 109 144 104 72 167 83 108 146 117 39 139 135 131 86 154 171 85 105 153 185 107 164 151 129 174 133 147 121 110 191 156 200 217 138 198 217 129 169 197 146 171 143 150 70 64 62 80 152 112 180 144 99 98 173 110 141 150 213 219 212 107 114 186 140 201 96 89 93 60 67 77 45 104 85 113 148 149 131 91 135 172 164 57 60 46 157 109 75 74 148 133 164 157 126 147 72 134 157 92 91 96 148 100 67 154 89 167 75 172 166 60 115 68 54 123 165 106 124 115 169 190 139 214 178 198 106 155 182 121 192 186 104 167 110 151 121 165 188 165 147 153 99 158 107 148 62 138 76 156 146 103 112 101 77 141 139 163 182 97 166 202 202 127 104 166 104 170 194 187 107 90 101 171 128 191 190 188 178 105 169 99 140 152 118 130 71 136 177 116 95 93 108 112 167 99 173 103 62 52 72 51 132 68 98 110 102 148 113 118 129 211 197 160 81 169 172 77 90 120 184 90 157 116 127 148 125 93 179 149 123 101 158 72 155 136 169 131 174 94 143 82 67 57 126 129 107 101 71 120 118 101 118 186 210 136 95 78 81 69 137 152 105 158 106 62
134 134 133 131 129 139 145 149 162 155 151 148 149 162 172 189 180 180 185 183 209 206 209 212 214 210 204 205 192 177 166 170 174 176 174 177 178 183 179 171 177 168 169 168 173 158 169 156 166 169 152 135 155 115 100 127 164 138 117 147 138 184 117 129 95 165 175 182 181 165 179 172 77 146 106 53 133 94 77 89 127 144 104 101 133 89 105 122 137 129 116 144 87 111 103 60 68 76 85 85 68 87 78 80 121 112 150 91 81 106 78 76 110 87 80 75 89 121 102 119 159 106 95 163 122 163 147 167 184 96 158 204 201 182 160 103 171 66 87 56 61 62 70 130 185 97 110 150 183 143 190 175 147 158 126 79 149 166 84 92 189 170 222 154 141 94 172 182 104 173 189 125 191 88 84 67 125 162 73 137 180 84 158 128 147 72 77 164 122 152 152 137 163 69 163 98 133 105 187 161 114 185 170 127 114 69 126 130 146 124 213 195 165 164 134 162 147 112 164 108 166 184 163 93 164 116 171 140 165 65 156 72 144 197 210 214 132 156 98 128 67 138 135 166 143 168 81 139 146 120 151 77 130 84 63 144 69 62 67 68 129 148 165 125 167 162 203 197 126 132 101 113 177 143 193 126 170 114 115 134 152 178 180 179 121 142 225 183 142 167 106 150 57 143 84 75 94 104 101 100 142 109 122 144 175 221 172 124 100 160 179 162 85 151 128 135 40 44 120 69 88 89 174 163 163 84 168 89 152 67 141 51 90 80 175 89 92 82 95 167 151 139 77 69 81 136 89 155 77 73 163 73 77 129 80 117 141 57 112 60 106 143 169 174 160 86 149 157 154 162 157 197 168 197 193 159 204 211 156 184 165 146 108 158 117 144 84 82 158 98 63 141 73 96 154 83 119 66 100 138 120 128 121 180 92 98 102 124 185 146 98 111 84 171 156 147 80 86 71 167 168 153 105 121 190 163 184 161 79 80 127 63 115 98 173 136 139 89 173 180 107 102 175 85 77 157 143 144 55 110 86 96 191 108 150 116 106 103 191 175 136 161 132 90 91 99 85 176 85 133 121 164 148 112 190 115 178 83 97 151 145 67 110 85 94 157 112 150 62 107 86 95 182 87 147 81 76 128 116 141 143 146 93 137 110 139 171 189 173 72 77 62
142 135 126 126 130 134 140 146 154 147 155 154 170 182 192 185 195 194 186 201 219 220 216 210 205 194 203 199 187 174 166 155 167 171 176 182 180 177 175 167 152 162 147 152 159 165 173 182 178 161 156 167 161 129 112 174 139 156 162 128 134 124 155 151 138 81 160 127 104 169 160 106 81 144 134 53 105 106 123 81 112 97 89 109 109 133 79 135 135 102 101 105 65 52 108 112 84 79 80 125 80 83 77 77 89 134 100 137 127 74 82 78 81 92 74 70 92 85 92 106 124 148 111 88 60 94 76 79 135 138 97 202 107 136 193 191 86 73 154 74 59 157 176 191 114 87 165 74 121 185 175 139 170 155 113 164 160 158 140 171 208 127 205 125 175 72 153 174 183 139 169 129 179 156 91 128 109 161 93 169 79 129 170 106 84 150 147 125 70 148 101 148 110 87 178 92 178 165 167 97 133 172 167 123 164 169 74 108 181 138 237 193 121 108 156 65 143 110 100 123 194 192 162 166 81 94 176 173 156 107 66 108 138 200 164 133 198 84 164 117 161 138 56 138 153 180 109 163 141 110 134 153 80 167 103 136 57 147 144 116 141 134 166 197 141 158 167 209 158 123 133 138 168 142 188 206 191 97 95 120 182 118 111 176 134 204 173 180 183 133 170 162 61 61 78 177 120 107 126 92 180 106 198 203 163 173 176 116 174 176 163 175 88 88 53 40 50 117 108 95 119 120 145 110 174 125 95 191 172 109 159 98 86 101 156 81 105 105 103 159 71 137 64 41 88 88 83 146 163 121 159 97 141 150 108 136 80 160 76 95 162 160 144 138 163 183 161 208 219 247 233 153 206 165 130 97 134 203 173 198 108 173 168 102 107 135 111 173 152 110 77 142 73 80 128 80 150 156 89 74 136 139 160 166 164 112 138 128 108 189 142 74 164 170 80 81 152 77 91 98 98 129 199 153 110 92 182 180 81 161 52 128 61 141 161 183 177 188 94 160 128 182 148 156 132 160 136 163 87 108 195 143 126 184 163 179 136 166 153 109 75 145 103 121 186 88 100 133 172 105 118 94 179 102 100 101 194 90 173 147 78 109 75 116 93 95 145 175 134 88 135 173 191 144 85 137 81 88 188 113 142 111 159 111 92 163 129 214 149 151 121 125
142 131 117 118 122 129 134 144 140 147 158 165 174 181 177 192 196 200 207 197 211 213 204 255 195 192 176 179 179 168 169 166 171 184 192 188 182 177 162 173 169 167 154 140 155 159 168 176 182 161 170 145 155 139 145 172 168 157 155 142 125 183 151 138 162 152 77 88 141 111 106 101 122 85 82 91 101 64 143 150 133 105 90 84 120 61 60 73 88 80 101 66 85 50 58 71 102 105 129 109 71 98 81 107 107 125 99 102 100 111 107 76 146 80 91 108 81 94 102 99 155 80 156 121 77 74 90 108 120 103 151 147 146 185 168 97 185 172 72 137 75 171 187 188 191 159 161 96 80 185 185 150 130 76 152 166 164 97 103 99 177 143 175 99 151 89 163 175 130 171 84 142 165 164 164 98 164 152 158 158 168 113 153 149 130 172 116 165 157 83 118 182 102 91 109 134 162 83 96 71 139 163 79 92 163 147 169 94 196 185 180 154 219 169 112 132 94 51 117 92 94 169 151 71 172 85 83 78 81 156 82 135 180 155 201 179 143 141 88 83 162 153 145 143 140 94 88 150 58 78 147 83 106 160 125 159 123 152 136 157 159 139 88 122 197 107 119 176 116 178 146 109 134 203 192 200 190 129 131 113 167 186 97 149 180 161 145 122 102 91 88 147 164 166 77 138 141 97 142 97 174 149 110 179 154 210 121 125 106 89 102 167 118 84 77 50 115 129 106 114 172 106 135 150 201 200 109 140 124 177 177 107 171 178 111 77 112 170 77 175 78 153 129 93 98 94 78 83 175 164 52 62 94 131 110 104 104 67 77 124 86 75 123 123 192 187 131 119 143 173 203 151 215 97 154 190 205 207 209 107 159 86 181 96 153 106 128 157 125 133 150 170 148 64 71 124 131 98 114 71 121 160 170 89 166 177 174 136 189 90 77 88 61 84 120 177 182 154 177 117 171 184 200 105 128 85 119 120 143 119 158 59 151 157 136 133 150 136 106 134 199 194 107 105 185 178 151 174 158 119 187 101 165 140 96 110 102 150 93 179 162 71 178 115 195 87 170 131 103 138 126 118 166 94 138 119 194 109 190 116 170 83 130 101 171 87 200 203 99 101 87 95 112 118 177 170 114 169 194 158 117 116 156 103 103 118 142 122 122 169 64 87
133 125 114 112 114 119 121 123 132 143 160 173 182 172 174 173 193 201 194 209 204 189 189 191 175 172 175 170 164 176 169 180 188 197 200 191 182 181 171 188 180 179 167 142 143 129 142 158 180 188 164 177 161 174 165 165 143 108 165 147 200 189 158 114 159 151 136 124 163 92 110 140 80 131 72 71 67 134 121 136 143 113 170 142 131 57 61 69 71 72 132 74 67 54 58 114 69 76 79 79 75 101 60 86 83 93 122 138 77 108 129 110 87 64 80 90 98 131 196 118 92 111 141 68 75 147 148 154 76 85 106 161 76 173 171 190 113 153 176 117 181 112 195 118 112 93 143 137 157 118 87 178 122 176 120 100 179 145 130 153 132 184 128 107 139 134 155 111 185 166 75 65 140 97 155 179 176 100 74 143 96 172 157 133 86 172 192 97 132 255 98 104 140 152 190 182 89 178 74 153 84 131 150 57 96 134 93 136 171 213 206 236 218 156 146 74 58 136 130 126 87 159 160 161 67 111 75 76 175 93 165 106 111 87 110 87 179 89 82 177 67 52 95 126 154 159 74 64 145 65 108 82 154 145 58 140 64 58 139 47 83 165 157 127 103 154 117 157 133 176 162 182 165 174 194 180 98 86 164 175 92 101 171 88 83 134 127 177 104 131 138 103 164 96 103 149 100 94 122 81 136 77 142 125 97 107 143 151 108 180 87 80 171 66 77 116 83 88 155 126 186 124 148 168 201 199 190 164 110 115 99 94 167 168 100 175 76 169 153 168 66 157 55 152 100 110 173 78 68 100 140 121 95 113 108 143 162 108 167 160 170 142 178 191 181 176 177 201 205 167 178 157 134 79 104 142 207 200 160 194 95 87 89 153 137 112 144 150 110 176 96 103 165 83 152 133 65 147 145 166 97 151 174 167 134 179 119 188 96 111 117 129 83 102 174 142 184 148 136 198 159 175 117 156 95 157 101 171 134 144 124 74 137 109 121 180 96 161 96 129 141 200 128 103 103 181 137 191 172 141 120 186 201 180 98 176 145 172 94 184 177 176 87 98 185 185 146 150 120 154 203 154 152 181 132 135 149 198 124 120 175 93 120 167 80 90 103 139 206 101 154 184 152 137 104 98 152 137 100 98 141 125 180 178 106 139 200 128 151 73 86 144
125 121 116 117 117 120 117 113 123 141 153 158 158 158 158 165 179 199 209 207 191 178 164 158 171 163 159 161 164 176 182 196 202 211 202 193 181 182 188 191 194 200 189 170 128 138 153 170 192 193 150 180 128 172 124 103 150 157 133 189 194 177 210 174 134 91 116 157 104 116 116 117 184 118 170 162 145 126 91 152 91 112 170 151 77 78 93 116 69 68 73 79 62 84 58 71 76 89 80 123 91 73 83 100 104 92 114 133 97 122 83 123 61 114 122 142 117 183 167 125 148 110 109 96 95 142 54 109 72 141 89 73 161 68 176 171 148 146 129 179 158 214 215 190 178 89 158 87 151 69 170 140 122 157 104 150 143 115 100 193 154 151 186 160 151 131 165 104 196 187 101 155 84 151 133 94 113 94 87 91 172 122 153 95 140 191 161 137 138 197 201 148 178 103 186 98 183 148 114 105 59 83 153 161 127 75 169 81 96 191 151 227 117 114 144 128 60 50 85 177 87 114 152 157 107 146 98 89 113 156 129 159 188 181 122 174 181 190 191 122 155 106 127 152 155 67 155 77 107 146 146 146 148 103 60 139 79 121 50 114 120 158 129 146 178 138 94 179 118 181 103 111 115 154 193 156 80 87 162 107 123 170 166 92 76 137 139 100 176 124 121 175 75 86 125 190 162 165 140 109 157 123 72 74 125 115 116 198 115 200 170 187 85 144 148 106 132 136 154 152 179 155 155 142 143 109 165 166 177 198 102 181 79 140 174 107 151 91 167 107 118 114 87 67 165 108 99 136 109 81 57 133 120 138 150 90 128 54 63 166 177 158 183 145 198 132 219 194 230 169 189 144 187 91 111 185 142 126 201 127 143 96 143 80 98 189 100 104 149 136 105 164 128 62 156 106 88 170 147 171 98 88 100 92 207 212 213 139 97 89 96 149 108 109 127 147 99 102 143 124 206 204 134 99 139 114 110 186 145 176 87 177 155 136 155 186 142 119 191 150 103 115 101 100 164 89 187 122 127 80 80 171 197 142 172 81 162 92 116 186 185 168 185 138 106 137 168 172 174 150 168 135 190 178 102 106 116 162 148 188 173 191 150 75 110 90 81 104 104 152 130 175 148 200 195 89 178 167 172 126 114 127 174 145 111 127 94 141 87 111 68 102
125 126 129 131 127 126 116 119 118 133 141 150 157 146 144 159 189 195 210 207 191 156 151 152 152 165 167 166 164 174 181 196 201 208 199 188 174 170 188 190 205 189 187 163 152 116 142 163 186 165 160 154 131 171 169 110 111 164 183 138 180 175 174 123 175 150 78 155 79 106 128 145 195 116 174 135 165 158 72 92 135 114 169 139 100 122 96 92 105 75 64 75 121 68 77 104 130 102 85 123 77 108 114 69 73 118 106 113 111 134 104 100 78 143 83 106 116 154 142 101 131 89 86 77 86 66 102 95 77 155 90 99 71 78 162 122 116 116 202 183 175 187 133 137 147 105 152 82 135 163 118 170 73 102 173 86 172 149 111 117 131 171 200 191 141 181 161 136 181 174 178 106 110 129 119 160 75 88 91 164 181 196 136 103 192 142 208 118 204 186 186 97 184 151 146 79 167 164 154 85 73 150 126 104 108 81 138 75 185 177 202 124 132 163 135 115 64 76 99 163 91 121 82 119 73 163 186 182 127 197 187 128 191 89 101 166 189 158 116 120 135 137 70 156 153 161 92 44 112 46 97 98 110 140 155 81 80 156 140 144 68 88 91 115 70 164 169 185 98 163 164 181 190 200 181 88 104 107 104 95 77 165 104 86 101 92 188 138 169 109 188 177 145 97 86 157 84 77 146 82 55 94 75 92 179 99 210 159 160 127 209 133 100 159 67 117 123 104 105 99 137 122 170 135 179 100 115 127 148 97 172 185 175 134 163 160 87 84 173 79 70 161 115 94 103 170 103 68 141 53 139 63 134 131 102 142 146 63 154 78 176 181 188 144 145 224 215 214 131 234 147 226 172 154 182 162 139 184 131 142 77 106 76 159 111 153 193 193 118 178 160 135 59 136 118 75 88 183 180 108 136 145 186 120 170 170 122 111 117 187 177 157 175 89 187 100 182 88 163 181 112 99 172 163 86 141 102 102 73 129 122 111 124 113 102 162 167 103 124 89 88 182 180 169 93 89 174 143 170 134 115 118 169 161 161 166 130 174 169 99 171 162 157 149 182 177 100 82 71 95 87 167 135 190 156 174 110 177 87 161 130 127 165 165 148 156 67 159 255 96 155 108 176 102 146 84 90 94 76 134 160 141 171 112 165 91 175 108 73 89 169 172
127 134 138 147 140 137 121 115 122 132 140 148 145 141 152 155 183 192 205 206 180 161 140 148 157 169 164 169 161 172 165 176 183 192 183 180 172 180 187 187 196 189 175 169 149 148 133 159 172 190 158 157 157 169 127 158 180 133 154 150 199 205 164 130 107 106 140 86 128 162 188 142 140 186 131 95 139 88 151 144 74 104 92 96 118 141 147 78 64 95 64 76 75 73 58 105 127 100 95 121 91 95 117 68 79 115 108 131 144 183 111 105 99 126 169 142 131 121 183 149 84 96 104 140 105 139 104 74 84 116 92 168 184 107 141 121 145 175 209 196 213 126 225 215 154 177 142 105 152 176 163 191 80 164 151 117 171 177 161 194 182 105 147 189 109 179 176 186 176 194 189 124 100 103 156 157 159 109 121 171 190 198 112 157 109 177 93 192 146 124 98 103 175 87 78 127 76 92 63 66 135 96 182 101 173 72 91 92 140 193 184 208 102 131 84 66 110 117 164 174 180 124 133 139 97 144 129 191 204 193 121 114 188 198 195 198 110 113 132 111 77 86 110 255 137 105 125 68 108 144 61 144 157 85 140 170 175 165 189 148 152 162 127 150 102 143 141 87 186 101 192 197 114 130 196 115 95 134 100 171 147 111 128 97 130 96 187 118 122 153 91 107 75 134 86 78 151 141 77 72 64 167 79 137 116 103 207 150 217 144 149 108 79 72 171 148 151 130 113 100 140 93 140 100 165 88 52 142 154 189 113 161 135 86 175 88 139 180 170 164 70 169 161 169 167 171 165 164 101 71 69 57 117 57 58 67 121 111 136 65 96 97 185 121 187 212 211 157 206 224 229 227 205 128 173 132 97 112 158 138 149 116 117 60 134 159 128 140 200 184 70 121 110 153 71 160 151 123 143 194 101 162 101 157 195 201 135 111 105 153 96 175 184 95 184 133 81 167 94 93 104 86 165 136 173 171 165 59 131 77 135 113 161 122 111 165 200 114 102 164 107 124 137 161 70 71 120 149 162 96 173 105 133 170 90 174 172 175 130 106 112 156 165 181 115 130 163 113 61 126 55 80 96 101 201 158 117 106 155 53 83 167 168 142 142 74 73 131 79 97 175 95 94 105 83 147 81 81 83 64 91 93 100 159 178 96 139 85 86 87 96 180
127 136 142 146 140 140 126 122 120 129 132 139 153 153 151 158 168 195 201 193 174 157 151 148 148 172 180 183 181 161 161 158 157 169 175 180 185 191 195 189 178 181 161 166 165 129 158 169 146 158 190 188 183 184 158 146 154 172 193 154 186 146 184 147 151 119 141 160 155 112 168 193 193 114 108 92 149 124 123 64 73 77 155 89 95 97 103 80 72 53 68 92 131 63 72 72 89 106 115 127 91 107 123 82 78 110 102 97 104 112 115 121 112 127 132 198 136 148 143 128 79 73 66 137 99 56 148 74 176 185 109 161 101 199 206 188 223 205 142 133 109 205 202 179 192 82 162 68 165 190 131 126 175 132 84 153 129 131 183 201 174 170 174 172 189 124 163 164 115 163 176 170 131 80 81 117 146 129 107 170 173 174 210 116 178 155 164 75 179 186 187 179 79 158 78 83 91 164 141 83 170 158 86 149 90 112 112 160 157 122 163 176 144 147 117 55 152 75 88 111 148 154 124 181 190 193 178 101 98 124 176 192 198 126 113 209 114 161 193 98 157 116 174 82 158 162 153 148 125 63 142 120 139 151 169 153 115 108 168 201 144 164 80 143 152 69 90 173 135 130 100 196 165 175 113 115 103 115 143 126 103 130 133 149 215 199 171 86 80 99 95 95 91 116 108 161 151 151 127 134 170 93 192 192 98 100 111 202 172 165 177 120 133 106 97 183 206 146 181 157 162 145 117 138 108 79 84 115 93 178 198 110 96 85 73 99 76 178 158 107 185 187 98 179 181 88 178 152 170 135 97 66 41 130 150 66 76 63 56 140 130 154 89 101 193 109 195 115 116 207 187 217 198 140 224 106 168 108 158 122 49 114 131 119 160 83 113 163 174 118 95 73 100 142 121 255 69 108 181 172 158 191 99 112 109 150 177 143 136 204 189 109 189 87 98 71 161 133 98 92 179 168 84 164 116 145 55 82 70 151 113 189 140 153 153 190 109 172 123 153 118 78 155 73 65 80 112 79 77 84 89 139 112 108 89 125 92 181 120 105 201 190 165 171 147 158 102 163 60 149 133 156 102 152 209 113 186 160 94 54 87 135 182 98 174 159 148 140 87 72 78 123 79 70 79 131 73 86 132 94 83 128 131 133 179 111 98 180 123 140 119 143
118 127 134 133 127 127 129 126 125 123 133 151 151 157 151 147 169 171 172 177 162 154 142 142 156 183 183 187 184 174 160 150 151 146 157 166 184 196 200 195 185 179 158 149 152 138 139 160 171 190 186 188 185 186 199 204 178 139 182 159 141 131 198 172 165 165 110 141 171 113 108 198 138 118 126 150 146 148 102 141 140 78 85 101 102 104 124 115 66 60 75 96 79 68 78 126 105 139 92 83 110 113 81 103 52 79 62 94 98 100 114 112 115 120 137 178 108 158 143 127 131 162 77 141 51 132 64 78 174 91 182 197 107 107 116 180 157 142 117 107 146 83 161 130 81 174 122 184 193 208 193 163 111 169 99 152 163 82 190 201 206 136 154 155 155 156 180 152 172 117 162 111 81 80 86 68 164 161 134 89 200 215 120 156 170 152 143 69 130 113 175 178 146 73 86 182 179 76 118 90 80 153 75 81 67 102 109 81 168 120 187 191 102 82 91 58 138 176 143 141 114 130 118 76 102 86 181 108 105 99 170 190 100 192 180 130 117 96 255 92 86 176 84 182 125 81 82 124 62 150 72 160 173 149 92 168 111 200 198 199 153 120 152 93 133 125 178 107 174 95 154 190 117 185 135 102 187 102 130 134 121 147 155 205 177 214 176 76 141 135 134 169 83 161 86 133 119 158 109 67 152 175 103 161 196 182 138 162 153 184 104 117 95 98 105 154 163 197 193 171 134 155 172 188 77 54 93 39 92 91 96 172 182 118 69 145 126 169 179 185 105 178 103 178 189 169 106 155 134 67 67 134 70 139 50 147 67 59 80 80 118 88 169 170 169 174 92 186 108 157 208 206 237 151 133 113 135 168 125 66 131 34 122 97 147 84 105 125 176 129 144 80 101 132 166 152 140 140 96 150 87 143 95 110 153 154 128 207 108 109 153 128 165 170 118 80 164 132 180 107 104 120 124 112 154 60 151 100 145 103 172 93 136 131 95 99 130 127 203 190 163 61 149 122 64 152 110 90 129 144 116 77 168 80 79 169 138 184 191 131 116 180 167 177 172 143 94 90 149 153 59 76 114 99 112 99 110 130 139 137 62 178 115 188 178 87 122 113 178 152 173 87 75 160 161 80 100 152 150 141 74 184 135 199 171 194 127 152 194 144 156 98
110 117 120 116 110 117 123 125 127 128 132 142 151 160 150 144 154 168 152 149 142 147 137 148 162 191 202 207 187 179 167 153 147 142 147 160 180 184 203 202 195 184 170 163 138 159 133 145 152 181 185 205 157 196 195 160 188 181 151 160 164 149 148 180 174 121 191 181 187 189 130 118 122 122 111 91 72 106 143 139 136 148 160 100 111 125 182 97 73 63 108 79 110 82 89 97 97 90 91 63 71 75 109 75 75 71 99 113 85 91 96 96 108 137 113 179 88 91 105 127 90 98 255 45 137 139 160 119 123 123 113 162 155 200 211 124 216 228 140 199 171 110 102 138 169 103 189 118 110 119 154 194 115 149 103 123 145 106 197 170 191 182 88 129 120 140 149 167 146 107 189 164 94 173 82 158 89 88 115 111 185 213 144 161 150 73 53 126 165 184 124 86 82 87 84 85 175 74 82 68 59 56 115 48 50 92 138 142 155 94 176 90 162 127 127 108 101 93 144 78 80 110 141 115 138 66 147 170 77 178 99 107 192 139 125 156 113 189 179 88 99 141 130 188 197 143 134 163 169 150 159 88 106 129 162 152 120 180 149 155 150 108 88 162 156 162 184 88 123 89 180 85 152 103 125 186 174 149 201 118 162 172 155 118 213 177 153 173 130 127 84 107 78 115 87 91 179 75 106 77 86 196 106 189 182 93 117 185 192 138 100 100 161 109 128 120 158 119 137 122 131 171 92 85 87 53 32 32 127 142 156 145 107 70 152 124 63 71 111 170 182 123 202 157 103 143 193 193 151 106 135 114 125 139 142 59 85 90 67 115 148 151 60 164 165 166 83 94 166 103 166 117 216 225 210 104 159 176 92 158 126 97 48 64 80 90 107 194 189 210 199 146 117 162 150 87 141 129 99 170 177 89 134 119 194 207 191 184 123 152 113 162 95 121 103 144 151 181 90 101 82 71 64 154 101 124 155 165 166 106 162 127 185 103 82 84 139 178 201 102 166 128 59 133 157 122 124 148 187 117 156 131 152 60 87 155 169 84 176 193 158 182 111 97 102 189 123 129 97 149 159 88 121 116 186 179 126 149 138 147 105 158 197 195 169 117 162 97 178 187 117 152 154 73 73 153 107 76 76 78 127 102 119 148 190 152 95 99 103 110 174 77
106 110 108 104 99 106 110 124 119 122 124 147 148 157 147 155 153 159 156 151 145 153 152 165 170 186 200 200 194 178 173 154 140 133 138 145 166 181 194 197 186 175 166 156 154 155 129 145 179 191 198 195 194 148 139 177 185 162 160 148 139 156 99 160 113 153 180 186 125 201 135 107 145 95 146 149 142 87 149 108 100 99 157 118 191 177 126 134 80 68 102 63 80 69 74 100 125 110 71 58 69 77 110 77 85 78 88 85 98 80 80 76 105 131 118 100 65 68 66 92 158 99 123 101 49 151 83 107 174 79 80 80 118 139 119 203 129 130 213 97 122 126 155 93 160 175 206 117 153 203 178 191 218 145 106 85 137 149 140 107 142 90 133 111 120 97 131 90 105 115 119 124 148 174 110 112 197 99 151 118 196 136 184 108 121 69 127 109 115 159 119 179 85 102 175 102 152 171 82 99 103 149 133 61 152 72 63 68 125 162 154 176 87 147 57 142 83 119 156 145 59 115 22 19 109 102 114 160 255 171 168 195 111 108 191 136 106 126 186 145 164 98 81 177 191 197 106 124 112 176 181 101 163 108 169 175 141 179 147 167 128 63 107 149 115 175 145 93 178 78 170 156 132 149 87 94 175 115 199 187 104 188 153 198 134 113 178 115 74 145 55 123 149 110 99 100 148 116 144 70 96 115 114 188 184 168 156 110 132 90 105 109 172 128 214 156 135 139 101 178 137 177 119 106 70 109 83 113 85 160 149 86 79 79 94 145 157 74 88 191 112 104 124 126 188 106 103 98 84 153 66 139 122 59 153 59 102 61 125 78 149 136 91 76 69 79 133 175 152 139 104 182 125 148 134 123 190 162 98 138 69 120 67 113 169 130 189 108 179 200 99 124 96 118 86 85 87 81 78 166 173 145 105 201 193 218 142 202 192 185 192 167 91 77 76 96 96 166 189 95 93 61 99 145 54 140 73 164 79 97 160 152 154 90 103 151 113 189 96 87 96 99 166 139 100 149 92 72 154 116 181 70 55 152 154 171 88 122 181 159 172 169 117 174 85 84 83 109 161 160 81 182 182 167 167 131 150 75 73 156 127 145 175 134 195 185 117 156 113 153 131 161 114 100 174 81 117 71 70 140 90 121 170 88 185 89 187 109 154 87 63 66
107 107 104 95 95 103 114 121 119 121 114 125 134 157 157 164 166 160 149 143 150 148 168 173 176 170 175 192 190 182 175 160 146 135 137 150 160 164 175 184 183 159 162 145 148 155 160 166 162 179 164 166 203 187 154 175 184 112 117 76 112 103 149 121 111 113 117 174 198 157 146 149 136 135 75 102 68 91 79 95 106 109 189 159 132 204 127 108 85 90 69 67 103 71 83 100 100 104 94 95 78 99 121 80 96 130 120 101 109 97 69 126 82 108 98 89 77 43 64 97 84 85 117 93 128 69 94 115 151 115 73 152 184 196 208 166 216 115 104 92 138 78 165 134 96 205 215 214 216 117 209 159 117 193 169 76 128 170 100 91 140 145 117 93 156 126 99 178 156 165 173 206 114 105 180 110 189 136 168 91 179 149 126 146 96 98 106 50 66 99 174 142 175 89 91 86 82 170 156 173 69 89 146 89 71 93 123 150 110 127 79 118 109 77 79 76 94 186 185 154 137 51 92 74 54 54 143 159 97 177 191 120 194 146 95 109 151 178 155 117 173 161 159 76 159 101 196 109 109 93 187 193 166 157 93 84 79 91 159 145 80 136 108 138 182 97 143 92 165 142 107 69 116 106 166 123 196 172 203 187 122 187 148 142 146 166 181 135 140 40 38 138 104 106 97 130 148 84 84 70 130 82 92 101 91 101 168 72 92 145 88 125 183 181 112 143 140 108 177 108 101 130 120 105 100 118 105 150 144 92 142 174 176 121 56 134 60 101 188 162 177 155 102 115 101 175 206 149 130 158 98 67 164 92 113 64 61 64 130 164 152 53 57 113 105 73 174 167 105 95 152 124 150 170 174 144 94 180 156 154 87 139 61 69 123 81 88 179 152 110 179 160 150 170 168 120 86 86 68 97 167 102 160 126 129 177 122 199 187 139 183 116 78 60 137 157 152 123 106 104 163 75 58 151 89 168 176 89 156 137 136 140 75 129 171 172 171 78 167 84 123 100 169 157 59 58 130 100 111 200 185 72 124 155 118 104 154 130 147 129 176 187 189 105 169 104 162 163 104 164 137 83 98 168 145 164 129 99 150 72 118 135 173 126 145 137 123 180 100 158 105 152 182 150 123 165 171 78 64 124 57 115 63 90 144 185 110 178 89 123 111 36
112 108 102 92 98 110 123 125 115 115 107 121 129 154 164 167 167 168 164 151 157 166 170 171 172 169 165 174 179 174 178 159 152 145 155 158 166 163 166 167 167 151 157 156 138 157 163 154 163 173 207 178 187 185 172 156 180 165 128 86 108 135 84 138 157 127 171 181 202 197 120 147 84 139 82 72 80 128 167 139 117 147 189 144 129 147 160 101 83 114 80 82 114 72 95 111 148 108 101 70 79 90 120 109 126 109 143 145 89 118 118 79 86 86 78 90 43 58 58 63 76 80 77 174 84 168 115 163 81 255 147 177 187 198 126 111 180 191 97 86 94 181 93 100 202 217 130 143 124 186 173 139 159 116 132 135 143 72 121 163 92 83 154 137 102 93 125 133 141 181 220 197 200 109 119 116 136 132 160 137 122 112 155 89 40 133 113 156 159 154 65 116 129 167 125 188 191 174 101 109 170 165 79 108 161 170 82 129 115 178 162 98 182 135 170 129 142 139 126 126 63 117 83 81 19 45 62 114 163 178 111 119 94 129 180 175 178 81 184 180 78 78 108 101 125 98 174 113 199 109 159 142 194 180 179 166 85 141 81 158 136 111 72 111 169 172 164 92 149 82 151 118 110 102 183 171 202 190 226 146 214 140 103 88 182 183 101 94 57 41 60 53 75 83 175 161 89 85 82 83 78 159 152 109 125 69 57 83 131 82 167 90 83 80 85 143 96 133 154 180 123 181 178 100 135 158 74 155 143 93 191 184 165 86 102 87 88 128 192 152 93 98 74 105 135 147 178 202 90 115 162 89 113 94 174 158 107 163 173 86 65 134 151 77 86 78 159 180 101 79 95 139 132 85 117 100 99 171 189 130 158 61 83 67 168 128 76 132 148 164 132 149 77 50 152 75 73 43 130 49 84 190 124 121 132 204 154 167 180 187 111 97 104 141 129 56 65 119 179 157 170 100 166 71 127 89 90 162 146 103 167 91 125 69 89 163 160 95 155 149 61 61 152 160 97 143 148 164 115 151 180 176 104 89 164 160 136 70 74 101 159 149 170 106 92 170 82 139 76 70 148 74 169 124 117 95 170 129 179 186 97 136 198 214 170 183 128 88 114 181 180 173 139 105 145 168 163 66 49 61 116 95 78 80 79 92 93 97 71 137 54 48
116 112 105 98 102 113 128 142 126 120 112 121 136 148 161 181 191 195 188 161 163 175 173 174 162 165 159 161 169 178 175 172 159 156 169 173 178 156 154 150 154 140 167 169 150 149 170 156 175 211 205 191 156 158 121 127 134 153 144 89 85 138 86 255 116 101 167 186 133 159 126 120 163 135 123 78 160 144 135 184 123 189 119 147 108 110 97 100 109 78 86 90 82 146 98 93 100 118 69 70 127 122 104 71 107 104 114 84 100 89 96 107 84 77 82 56 68 72 56 62 61 86 112 162 81 88 91 157 72 90 171 125 174 101 121 94 115 92 174 169 93 99 178 181 102 166 224 172 163 164 92 98 170 160 71 117 145 106 96 163 166 136 79 147 170 191 185 165 216 214 140 124 189 108 193 197 149 205 151 140 157 70 98 103 94 130 123 71 93 62 58 101 150 69 120 128 148 124 205 170 86 179 127 117 92 90 83 173 89 94 196 179 191 136 133 160 75 96 152 118 124 137 42 134 137 150 80 112 145 200 197 193 181 182 86 171 168 73 79 157 153 164 156 133 72 139 167 152 186 92 120 153 160 141 85 141 85 118 141 65 112 128 137 51 172 132 180 174 157 81 58 84 138 157 168 194 120 222 225 151 129 102 161 91 92 118 74 152 56 105 87 62 66 71 113 84 185 174 102 101 151 106 102 78 159 110 101 126 72 82 136 85 87 73 106 161 71 85 190 118 191 108 109 111 174 121 83 81 85 96 158 101 103 155 59 141 97 79 97 193 136 81 152 96 79 202 123 117 187 98 174 147 189 185 142 155 153 158 165 151 164 120 142 157 148 87 145 182 78 75 55 91 145 123 116 159 191 188 181 170 83 152 94 168 101 143 109 158 161 70 145 90 90 37 57 137 90 127 37 89 119 84 191 105 195 146 108 97 152 174 118 90 152 54 60 147 67 106 157 166 255 184 187 87 93 145 106 190 187 118 113 82 78 165 75 95 84 95 112 159 131 60 149 77 74 112 70 155 89 167 89 171 160 93 165 137 76 81 89 69 170 114 94 99 181 167 95 124 151 164 91 118 128 177 176 99 177 168 184 110 152 121 117 139 216 206 159 78 170 97 129 116 124 157 91 75 72 162 72 148 71 124 153 137 97 115 111 187 169 74 38 31
117 116 113 110 111 124 140 144 142 123 123 127 142 163 175 176 201 194 195 185 160 176 183 174 177 162 162 153 165 180 181 177 166 160 175 187 186 167 149 142 149 150 171 185 169 158 166 192 196 214 203 184 172 157 167 157 149 150 93 126 146 152 103 110 116 255 94 110 133 145 144 100 137 97 157 137 146 130 142 175 185 184 167 175 94 160 96 113 65 66 93 95 105 99 84 81 122 63 84 70 128 104 96 92 78 93 57 119 108 127 108 99 132 122 86 69 88 141 81 89 62 109 77 166 78 145 155 122 75 167 104 180 96 115 124 104 175 168 168 85 178 115 174 116 191 137 129 162 117 184 97 164 64 106 50 149 76 167 104 123 97 173 155 150 150 166 204 128 167 133 210 195 110 176 109 162 165 198 115 125 164 99 133 127 123 117 130 119 134 155 150 141 114 136 176 166 123 207 120 138 179 102 95 163 182 150 185 153 199 163 210 126 121 136 109 96 143 118 71 91 85 169 112 141 134 160 94 171 93 105 129 101 96 129 172 138 139 160 87 169 120 157 176 162 171 169 81 165 169 172 85 180 166 166 145 97 145 164 123 55 136 43 105 91 164 170 186 118 107 135 137 173 152 108 99 135 106 171 118 181 161 165 131 127 104 111 162 163 75 106 71 140 149 112 123 134 97 111 81 87 121 107 255 75 99 94 64 112 172 185 82 145 91 114 59 71 56 160 74 111 181 191 105 161 84 88 64 152 146 136 145 103 112 120 114 101 86 76 177 89 88 70 83 155 110 106 152 217 177 84 149 128 141 115 179 155 62 62 91 161 88 170 62 122 161 114 107 126 106 157 63 78 50 146 78 137 144 100 104 170 121 124 107 103 180 103 105 155 159 158 70 118 74 69 124 146 52 131 38 68 78 108 88 146 187 189 106 191 125 128 168 67 153 53 80 120 142 162 132 177 109 143 175 170 182 183 197 165 131 154 104 188 183 129 155 145 114 171 146 163 124 148 78 132 94 121 164 169 104 89 179 148 143 112 145 172 163 159 92 92 169 176 88 179 166 168 142 105 180 183 121 77 162 160 128 187 184 151 182 128 140 125 150 130 115 120 135 73 167 165 120 112 166 122 171 96 75 172 68 72 81 59 76 171 92 143 137 180 165 151 48 41
110 114 119 121 123 131 149 151 148 138 143 138 154 170 164 174 197 196 198 176 164 165 173 188 193 180 162 149 163 175 184 172 163 157 172 184 184 163 147 140 147 151 188 199 194 173 159 189 170 195 204 194 158 117 125 153 97 113 150 117 171 128 143 129 92 120 146 106 100 186 152 86 129 114 81 150 89 159 105 170 159 184 130 100 112 104 70 57 61 64 123 94 109 90 94 74 72 63 98 76 103 96 91 77 67 70 52 86 62 112 97 153 79 64 142 77 83 170 117 149 88 119 94 96 164 161 86 162 114 134 104 167 92 186 176 90 190 146 176 87 175 174 81 96 103 188 128 110 145 99 106 67 76 62 97 136 108 149 154 167 159 166 172 173 183 196 199 131 120 193 137 187 110 138 79 94 138 90 128 123 185 184 176 160 116 146 159 136 164 116 133 152 129 73 84 158 99 194 157 179 179 178 153 146 175 112 149 169 179 108 121 152 124 162 143 118 84 127 77 88 177 126 126 166 166 174 101 133 158 174 106 115 77 79 98 71 83 57 120 82 102 178 104 191 180 157 171 90 106 153 163 175 147 111 192 166 178 150 92 65 143 140 56 140 107 80 176 163 150 98 82 113 116 97 134 160 162 125 158 194 124 155 137 149 197 166 116 165 119 157 144 165 91 80 57 75 171 172 130 69 82 150 107 131 104 170 117 183 123 171 174 113 97 37 69 117 86 66 94 103 85 255 87 149 110 64 155 107 83 174 198 179 95 94 63 86 106 149 172 79 111 117 92 100 180 201 146 122 138 96 172 102 162 150 205 92 155 129 160 168 111 173 89 118 101 153 163 67 67 62 84 146 146 84 96 156 160 126 183 100 103 136 147 168 197 145 165 97 96 92 62 65 51 129 144 81 130 47 118 128 109 165 169 177 140 92 94 146 150 171 171 66 106 139 115 113 165 113 116 98 165 194 168 158 135 166 139 191 90 182 176 199 152 85 67 95 167 84 98 158 143 155 146 103 95 85 111 165 89 132 92 140 197 206 201 97 149 69 91 81 119 174 93 134 128 108 126 156 157 178 69 158 72 176 140 99 146 148 175 155 140 207 187 199 100 131 96 163 132 162 170 153 172 83 71 135 150 103 134 115 66 117 93 91 94 121 130 82 165 61 86 62
101 109 119 126 136 144 153 158 149 148 154 164 154 172 158 163 183 181 189 173 177 169 185 201 211 193 184 157 165 168 180 177 164 157 166 175 178 154 148 131 155 174 194 179 195 180 145 180 197 191 222 209 180 170 143 134 165 128 163 182 153 115 104 126 86 132 146 168 111 107 164 91 53 143 156 85 153 134 87 89 94 98 107 98 102 98 79 59 104 128 85 111 118 78 71 55 59 65 75 95 107 113 104 88 80 59 54 46 60 121 77 116 70 77 94 101 90 94 149 96 91 92 162 92 71 146 67 83 165 156 174 80 90 181 183 159 183 201 202 194 179 172 91 186 165 208 199 99 177 83 77 166 97 131 128 80 54 151 129 106 118 157 119 90 173 119 165 96 175 135 152 154 143 158 170 173 114 73 146 157 142 196 115 127 140 162 82 94 133 147 154 112 90 165 146 94 136 134 155 184 94 183 181 174 146 151 169 188 190 184 110 143 194 195 168 154 157 81 114 104 98 155 173 83 110 170 162 79 77 164 76 103 113 165 119 115 116 49 129 175 202 202 214 122 119 105 103 136 105 81 146 171 140 187 103 194 104 149 109 83 106 141 83 67 141 84 181 182 180 113 76 106 178 101 90 90 168 142 99 145 202 165 198 207 128 192 87 123 91 93 94 145 65 82 73 111 119 93 88 80 73 97 87 100 152 89 129 206 204 120 118 113 38 60 32 112 38 141 60 80 131 137 72 99 58 126 71 112 170 157 100 132 146 119 130 95 154 76 95 160 170 94 162 87 104 138 117 158 202 149 99 178 151 181 211 132 100 171 174 84 89 160 140 103 101 64 61 82 157 81 147 111 127 162 84 145 164 213 158 125 72 78 169 179 147 193 96 138 122 157 87 101 131 69 69 82 159 54 128 41 128 112 93 105 174 138 84 177 168 156 80 57 91 36 39 115 142 129 197 146 144 191 165 95 146 137 182 85 119 164 152 162 103 151 103 165 173 91 102 80 159 157 148 165 59 149 157 143 176 88 155 198 131 166 129 102 118 102 99 175 182 167 182 76 130 92 165 187 255 119 144 147 112 134 155 124 110 205 125 211 134 140 107 89 83 155 132 74 141 63 104 66 133 63 83 56 115 70 114 60 90 124 113 132 94 170 175 107 147 69 103 107
102 110 122 129 136 144 154 161 163 163 158 162 165 171 164 164 162 162 184 173 168 161 175 199 199 190 180 171 158 159 165 170 167 166 178 180 177 161 142 142 156 170 175 255 170 152 153 145 200 205 229 220 209 171 129 131 124 170 185 147 186 134 158 92 72 108 76 167 100 107 142 141 57 110 119 80 137 149 91 82 88 132 150 96 94 67 88 109 60 130 156 98 109 92 120 64 70 83 119 143 149 160 159 95 80 66 93 60 92 79 112 107 75 96 86 89 137 99 111 168 99 196 122 97 162 124 84 156 67 73 135 119 124 176 91 189 201 192 160 181 92 163 163 162 97 102 154 78 161 145 153 132 72 126 150 140 76 113 101 160 91 72 129 150 141 93 152 108 112 153 85 127 151 194 112 188 107 146 142 69 86 193 156 164 150 165 170 145 192 161 154 161 149 188 113 134 99 104 168 98 200 192 117 166 173 94 127 116 133 177 95 128 193 191 121 170 145 161 157 112 103 132 121 163 161 160 89 70 141 157 125 81 149 105 68 157 113 150 103 166 143 170 136 157 214 210 164 155 56 134 73 79 178 154 186 111 167 186 119 168 95 160 174 95 66 173 159 178 132 156 170 105 150 97 153 116 84 81 161 100 143 120 120 125 139 160 92 161 86 121 141 106 54 55 146 163 122 95 68 85 84 103 255 147 107 108 131 210 134 186 104 141 41 50 98 34 126 85 59 128 77 93 81 108 111 57 64 95 88 80 161 95 154 74 85 144 172 158 172 170 169 160 77 162 97 100 188 147 179 172 133 184 157 116 146 197 124 179 108 92 148 90 161 158 122 125 76 163 129 166 159 124 86 159 173 114 149 192 175 178 121 65 75 99 105 196 119 173 70 151 148 132 152 68 73 77 74 58 62 36 35 54 124 120 72 160 75 177 180 111 87 152 99 127 41 82 106 151 108 142 144 157 165 153 86 168 123 166 164 117 170 91 104 197 180 87 157 171 85 69 81 89 180 164 131 60 149 158 96 180 190 101 106 106 180 167 78 117 171 163 101 193 175 84 164 100 136 134 104 60 133 97 167 146 96 181 134 116 190 174 132 108 173 75 132 103 99 169 126 86 83 97 65 103 61 74 138 105 123 68 114 160 94 100 105 94 122 88 100 93 77 103
109 115 122 129 133 141 156 156 159 163 162 160 166 167 152 158 150 169 182 185 175 163 179 188 196 186 180 172 170 162 154 166 170 184 191 191 185 164 149 129 157 165 174 157 156 155 158 143 196 219 228 190 195 203 191 139 131 157 171 150 137 117 126 97 108 134 85 110 137 108 78 60 78 144 100 87 160 80 87 90 85 96 135 93 74 61 87 97 60 74 118 104 93 97 120 76 119 124 139 150 133 127 108 91 113 94 78 93 64 120 64 94 77 146 156 129 94 95 167 100 162 178 106 89 79 54 110 58 156 107 74 98 71 123 168 164 127 198 200 96 109 148 179 177 176 122 158 139 150 68 167 101 140 123 165 125 136 255 119 163 133 118 155 85 157 150 162 80 117 101 78 91 108 205 193 205 85 138 67 121 175 172 163 188 148 68 169 138 183 94 171 179 149 159 104 182 149 192 123 121 106 185 124 193 86 129 175 84 111 181 138 102 100 183 197 128 194 122 137 102 80 65 57 104 80 92 147 69 151 72 172 96 93 109 100 89 70 121 78 181 118 179 132 215 141 202 126 84 165 73 175 143 102 81 175 165 188 107 199 110 102 107 169 68 153 124 136 177 163 144 71 94 136 180 200 168 170 81 172 119 179 181 167 189 125 171 98 74 90 101 95 123 76 127 164 92 154 89 174 99 148 143 77 70 104 179 100 121 121 122 118 103 82 125 79 117 47 69 102 76 117 159 148 166 99 70 155 162 111 149 104 62 42 134 57 67 174 77 125 153 159 152 138 103 103 123 191 122 110 107 65 169 183 163 199 101 190 151 183 134 180 130 92 160 80 168 166 138 182 187 138 149 188 108 194 133 207 208 112 104 93 123 154 141 185 91 84 76 167 104 58 142 95 62 103 180 92 129 75 126 40 142 129 114 175 147 114 155 145 79 68 140 133 151 135 67 92 87 164 179 111 97 182 71 155 63 167 79 128 74 127 177 107 197 168 190 101 154 181 160 72 139 119 99 92 63 122 69 96 80 171 105 102 158 151 68 120 103 179 190 151 195 183 154 91 120 144 163 159 124 63 147 123 84 188 177 214 213 112 192 78 155 160 119 95 159 112 75 88 116 144 131 67 97 139 97 78 58 63 104 72 88 84 141 80 84 160 75 67 78 112 124
121 126 131 131 134 141 142 145 161 154 163 172 175 170 171 157 171 171 189 198 190 177 169 162 171 164 175 176 165 152 150 154 172 192 203 206 194 172 153 143 148 167 144 151 141 143 155 164 192 193 196 176 169 189 180 157 169 151 148 164 98 153 127 131 101 119 155 137 103 83 74 134 80 109 83 115 152 118 121 132 160 103 162 90 77 85 79 85 52 62 93 91 145 89 138 87 159 130 137 151 155 104 86 76 74 80 122 137 121 70 77 72 90 81 155 92 174 91 94 105 112 129 141 182 68 59 144 60 64 96 160 62 67 166 106 112 104 182 98 111 176 152 182 87 146 87 54 121 113 100 98 147 174 181 174 99 136 179 116 157 104 109 99 149 87 133 111 166 170 161 112 124 159 157 223 157 112 111 128 147 98 192 107 194 176 168 88 166 171 135 106 156 168 151 174 177 194 190 152 135 107 100 104 201 182 139 138 154 93 132 187 111 108 114 194 95 117 118 95 163 152 152 91 142 146 147 57 86 71 146 83 172 83 156 174 179 169 172 137 93 118 191 100 154 153 201 197 142 95 92 85 159 136 147 122 144 185 197 172 186 108 146 170 85 137 88 98 150 122 151 143 88 156 164 114 166 178 138 76 172 172 199 207 158 201 115 130 117 54 50 57 105 85 69 154 115 103 168 146 208 170 117 105 160 89 99 182 105 125 192 176 86 161 129 53 84 101 115 147 107 98 94 166 171 162 134 136 79 93 159 67 64 138 107 104 152 70 122 128 88 68 66 165 96 131 99 155 157 114 58 49 67 177 147 119 98 151 191 121 184 125 106 123 145 77 103 125 177 156 194 169 149 148 138 151 109 195 96 180 174 95 80 118 186 90 132 132 166 154 68 146 86 149 159 185 131 101 90 122 150 119 89 72 87 120 177 157 115 123 104 126 170 88 65 131 55 131 169 161 171 121 138 179 153 67 140 142 74 169 100 93 116 87 114 98 136 187 93 119 76 79 160 125 77 68 144 56 59 159 138 169 150 142 162 150 147 50 130 177 182 182 175 160 159 90 144 141 70 69 51 144 62 152 108 185 139 140 125 128 178 150 59 118 129 58 73 135 99 139 122 54 157 70 128 99 66 67 61 91 100 149 163 105 87 99 141 84 102 87 69 76 152
119 127 134 134 129 125 131 134 152 154 179 185 179 180 185 182 171 191 196 190 178 160 152 152 143 168 174 176 164 147 133 141 159 182 202 203 199 181 162 156 166 166 160 124 132 127 135 137 170 187 210 173 212 202 169 149 176 119 99 108 143 130 151 82 150 70 141 78 85 79 148 133 159 132 98 152 166 97 175 178 183 151 177 88 73 73 52 53 109 62 75 94 102 94 87 117 111 123 142 126 111 85 95 93 82 98 80 140 84 81 85 76 74 104 91 167 149 87 83 133 99 180 121 98 73 68 129 151 135 135 68 90 150 183 138 145 110 160 141 191 165 188 187 82 75 118 49 47 152 87 138 99 166 176 165 168 191 138 180 81 146 117 123 88 166 157 113 128 111 107 160 139 115 170 178 143 138 55 93 154 142 110 136 119 168 78 68 126 163 141 203 192 98 110 182 131 196 97 120 96 102 90 97 109 172 202 198 182 116 148 173 147 86 165 168 152 84 138 133 136 82 132 56 139 126 70 69 138 183 135 90 96 163 181 117 112 91 127 151 73 145 115 119 187 184 206 169 114 183 165 88 166 65 61 155 137 147 180 196 190 115 91 163 73 132 98 152 145 163 98 91 125 176 143 201 120 121 173 161 125 144 112 192 142 202 171 96 94 51 58 49 77 80 139 125 107 154 153 216 137 117 153 112 123 146 108 103 147 171 132 192 160 184 113 104 140 91 57 81 85 134 111 154 168 113 144 99 166 101 77 154 169 159 52 130 155 70 72 156 143 62 72 95 124 157 160 166 136 48 102 50 65 162 191 181 111 157 183 149 171 164 186 110 141 168 112 153 138 141 176 125 201 173 125 146 177 115 134 86 102 112 88 181 189 98 177 175 156 74 159 66 127 144 78 155 144 147 200 187 83 163 95 163 179 122 99 165 82 146 177 90 111 123 140 148 65 73 158 100 100 173 144 188 175 79 74 135 102 149 167 182 125 95 96 185 112 91 123 72 132 62 118 77 65 153 140 122 68 104 55 125 160 119 117 119 114 139 64 81 91 102 82 136 101 148 168 155 72 73 153 87 83 132 66 75 97 116 213 126 187 101 86 65 56 70 85 74 57 127 38 67 62 164 103 123 169 118 159 88 191 105 130 91 148 106 91 151 137 148 50 122 95
114 129 144 144 135 125 124 132 147 167 179 190 197 194 194 186 199 203 191 255 166 158 140 139 145 159 172 175 161 140 124 126 146 171 197 211 208 190 179 158 162 174 158 144 129 124 130 162 162 180 159 214 187 188 202 191 154 117 128 126 141 123 97 156 138 136 132 90 147 153 133 172 132 156 128 86 128 108 118 190 119 131 107 109 96 55 55 57 99 78 100 105 99 128 102 99 97 132 125 107 106 57 45 49 75 75 103 89 87 110 105 91 124 151 89 89 83 134 146 97 132 130 96 180 183 101 136 74 63 79 147 167 111 188 168 106 164 219 143 187 190 97 101 105 132 138 40 105 147 139 168 156 173 155 133 184 189 125 130 103 99 121 46 122 78 159 102 102 108 90 166 152 150 149 123 141 133 124 73 161 140 167 181 182 147 120 76 165 142 107 117 114 108 117 105 192 174 153 143 86 98 113 130 164 157 187 203 160 151 77 164 170 137 136 137 74 145 153 140 142 82 93 73 76 145 168 89 190 137 192 181 180 153 153 205 189 192 107 160 125 82 166 82 149 104 139 213 201 97 160 157 173 167 70 72 134 134 168 97 140 194 192 181 159 160 130 138 115 66 148 140 106 175 110 176 217 187 87 75 102 160 83 179 111 168 169 174 144 129 139 90 69 124 108 160 171 175 209 135 134 148 103 76 148 130 156 174 196 159 131 208 123 115 103 99 80 80 87 123 91 142 162 86 154 166 87 159 182 100 134 159 178 76 167 82 84 171 173 141 172 70 166 174 127 125 143 77 156 129 48 55 69 176 93 121 141 153 177 177 139 167 201 183 110 100 142 144 180 182 207 148 194 154 104 178 145 110 93 133 95 108 182 112 187 140 124 81 90 72 143 72 155 169 149 166 120 184 109 145 159 135 116 111 182 127 180 180 115 82 92 118 81 89 143 178 170 140 123 84 145 105 179 167 98 152 165 116 161 147 184 180 171 135 98 84 108 85 142 94 87 75 150 166 72 164 255 94 88 136 145 64 59 169 167 146 141 125 113 92 143 119 123 163 81 86 153 139 104 87 147 97 120 67 76 130 132 92 101 97 126 180 112 129 70 89 65 53 110 46 37 89 131 76 131 162 114 101 146 97 135 116 189 196 183 204 107 120 149 83 143 50 45
104 125 145 151 142 132 129 138 158 180 192 202 213 196 186 182 200 199 185 160 155 150 142 127 149 155 169 178 155 145 130 131 144 168 195 213 216 201 191 189 188 180 161 146 133 133 147 146 133 178 195 181 176 219 190 165 203 123 119 159 150 115 163 176 157 112 88 152 138 127 107 176 143 127 121 88 111 110 186 123 116 100 101 74 78 61 62 111 82 87 152 103 159 142 103 86 132 90 104 132 104 63 82 49 101 73 91 93 106 97 113 113 160 141 92 168 92 159 119 122 143 170 177 100 97 97 109 150 119 68 97 86 92 143 184 111 161 206 133 211 103 97 106 181 87 167 110 157 164 149 173 141 165 179 158 196 172 113 172 125 99 104 152 165 116 171 196 177 147 91 144 100 117 133 164 161 70 161 136 86 67 161 112 165 105 148 68 138 176 106 109 174 130 145 176 145 131 90 158 107 80 89 161 119 207 161 154 187 185 168 166 159 62 56 147 98 112 122 97 90 104 183 171 183 88 94 183 153 178 121 187 88 98 125 104 110 171 82 77 102 99 69 170 150 186 151 204 205 134 123 89 176 118 156 167 164 164 161 121 197 101 177 184 176 158 69 93 151 117 90 179 108 182 194 127 215 165 95 148 166 83 114 156 196 203 158 197 120 109 113 145 78 82 105 87 133 105 122 188 141 161 134 70 106 124 167 167 147 172 122 133 142 163 115 139 95 109 95 91 115 190 97 99 87 92 133 85 94 94 91 119 115 79 81 138 182 153 89 87 81 96 99 181 162 111 92 111 79 165 153 153 112 131 88 182 94 187 149 169 111 183 194 128 202 160 99 180 188 162 201 195 196 191 180 147 123 79 147 84 166 161 170 168 105 96 153 178 142 152 104 165 100 119 178 97 204 197 171 129 166 106 203 123 109 143 187 154 177 86 148 156 95 174 144 162 123 173 122 93 145 176 136 104 190 159 173 137 81 106 94 185 105 90 168 93 133 125 162 77 156 79 98 128 110 169 134 161 121 83 160 132 59 91 159 132 123 168 169 139 192 153 81 106 178 116 135 102 167 168 109 122 104 123 107 146 134 149 107 91 183 103 108 177 131 73 112 63 125 59 60 56 126 72 145 122 166 130 79 105 103 118 115 109 145 201 122 202 100 132 150 116 147
111 129 149 156 150 140 140 151 174 189 255 201 200 198 194 186 184 181 168 159 148 141 146 136 158 160 181 175 171 153 144 142 155 184 206 214 216 199 193 193 186 172 174 157 126 126 121 156 122 165 175 192 175 204 197 168 197 147 149 125 101 158 166 179 127 172 143 142 146 117 121 195 122 176 158 128 171 180 110 164 97 83 119 66 100 86 109 65 80 100 111 114 126 97 97 90 80 136 92 85 49 48 95 94 87 108 80 87 141 129 108 136 177 152 113 89 81 150 108 94 118 97 93 93 106 145 87 85 69 160 115 82 88 182 143 164 148 232 229 216 109 178 181 186 152 182 178 175 186 189 140 96 183 192 111 183 181 107 179 163 168 146 133 100 148 149 136 124 133 101 172 115 133 91 149 67 95 153 75 148 142 146 148 65 60 151 162 123 191 96 90 181 83 159 202 108 106 164 160 154 151 97 80 153 203 166 181 191 168 110 178 67 60 108 66 148 146 106 88 141 105 134 103 134 130 82 179 182 140 92 99 134 178 108 147 116 101 162 67 139 120 103 157 160 176 181 215 150 195 121 98 100 192 87 171 117 171 184 103 177 104 133 162 97 142 70 116 146 144 163 105 112 194 134 196 121 119 130 159 89 94 151 191 101 113 120 160 191 169 103 150 95 130 173 107 88 197 147 192 199 98 182 144 80 99 119 101 92 139 122 135 229 186 154 186 134 189 122 145 181 168 164 130 93 96 90 151 166 146 158 140 78 173 81 104 179 131 116 89 97 74 77 86 175 187 103 187 158 121 163 154 157 154 160 95 179 95 145 145 135 173 155 140 148 162 182 99 129 118 149 120 189 120 178 154 163 66 64 75 157 99 137 191 136 171 166 154 82 137 97 132 83 163 65 171 91 149 168 179 187 183 108 205 110 95 116 97 166 176 123 114 76 180 203 155 125 183 124 63 84 164 187 127 128 136 97 87 119 171 103 140 174 79 90 92 179 126 178 109 98 151 151 101 120 100 160 98 105 158 95 158 138 89 190 132 178 172 93 191 174 170 129 108 181 103 104 116 106 155 117 131 48 63 35 134 67 83 159 82 107 93 155 102 103 76 125 92 57 62 99 75 143 70 160 156 95 76 158 95 128 103 151 114 124 163 125 203 163 77 72 113 65
129 139 151 154 150 151 148 168 176 185 176 187 185 197 181 183 181 175 160 144 144 146 156 167 160 170 185 184 173 170 161 166 178 193 214 222 213 193 181 184 177 171 167 138 124 130 150 149 132 128 156 141 151 180 220 216 148 137 122 183 112 154 133 179 154 160 123 155 93 95 181 163 109 114 115 126 169 95 115 161 77 110 87 84 61 57 98 68 104 94 143 115 146 121 94 85 108 107 126 69 65 53 96 86 108 84 81 103 148 105 118 110 118 177 120 89 91 78 120 103 115 105 104 93 89 105 86 77 160 155 105 91 158 177 89 194 213 211 210 108 174 167 147 181 152 146 198 209 157 124 165 167 86 136 174 157 169 91 154 199 170 138 191 188 166 119 121 188 195 191 173 124 120 168 100 159 84 126 120 132 132 84 113 127 132 101 163 174 90 167 98 159 177 189 197 193 175 97 89 135 133 84 165 191 109 181 147 189 176 153 117 168 105 151 126 132 176 122 137 187 139 206 111 101 132 153 168 167 146 149 160 147 171 119 104 101 179 179 83 80 170 154 127 112 84 177 206 204 104 173 119 199 98 144 154 91 128 186 168 194 181 164 104 151 66 145 69 105 77 169 138 195 195 101 177 134 101 92 113 148 149 179 136 165 109 115 112 169 87 178 82 94 135 97 91 86 130 200 168 201 100 124 113 172 148 104 147 128 180 183 176 170 215 130 111 131 177 91 98 127 88 83 177 174 143 127 161 98 164 84 76 71 76 75 89 120 160 149 74 135 71 79 186 134 212 186 134 198 118 101 171 113 128 72 150 98 99 88 80 146 106 171 152 92 72 255 60 142 140 98 147 86 113 147 139 93 154 131 102 95 149 108 183 100 155 147 159 146 111 81 180 78 94 117 58 161 163 157 97 187 146 105 198 187 134 85 151 156 162 78 89 141 166 169 150 208 143 75 100 144 112 102 113 209 115 111 165 166 107 146 83 162 166 129 147 105 163 162 152 178 164 65 130 171 180 161 125 188 101 96 94 117 192 190 159 145 94 109 181 175 90 183 166 111 130 165 81 153 157 71 123 81 83 87 135 114 96 147 67 79 107 96 148 173 134 80 153 78 79 142 138 150 161 64 83 67 126 140 126 141 181 188 165 165 141 171 133 185 178 104 76 100
154 155 157 155 154 150 147 158 164 177 170 168 170 178 175 177 156 152 165 150 155 150 171 177 180 182 191 185 173 170 172 180 184 198 206 211 205 188 168 176 186 182 181 145 154 143 133 139 148 146 159 135 138 174 170 176 141 144 181 126 175 147 141 134 181 137 136 114 153 183 136 118 100 91 91 78 129 111 93 64 61 89 69 121 113 62 64 75 83 147 168 170 111 121 85 84 87 79 106 69 62 54 112 102 101 95 125 102 117 122 111 102 107 138 107 255 90 119 136 122 144 128 112 142 140 157 178 144 174 89 72 93 93 154 115 189 211 225 131 106 183 163 83 169 92 198 116 221 120 209 174 158 170 106 62 69 76 167 148 159 164 148 147 141 196 172 173 193 181 194 136 150 138 133 126 190 157 79 140 78 35 105 87 118 104 114 83 188 101 158 156 170 178 152 115 152 119 158 154 107 148 126 159 199 200 128 109 176 89 179 143 117 173 113 179 101 146 164 181 110 179 211 167 184 166 115 113 118 55 138 102 74 198 113 187 119 105 198 199 101 102 162 81 157 105 165 188 99 105 154 109 118 165 130 76 121 78 189 111 192 134 101 137 99 146 102 86 165 123 185 105 151 119 159 105 125 85 59 127 149 93 123 97 117 88 99 134 169 110 178 91 179 142 99 91 121 109 176 105 195 153 92 97 110 115 110 138 114 83 156 118 119 205 126 182 80 89 115 69 140 88 67 71 109 106 155 161 126 71 81 87 113 161 73 78 66 68 150 95 155 116 164 92 199 215 219 136 217 188 103 106 111 155 161 108 178 156 103 160 125 79 134 145 125 110 135 56 128 147 63 105 131 132 95 103 173 76 134 156 157 104 184 92 132 90 90 155 148 110 185 175 102 155 150 80 111 63 108 93 92 128 201 140 91 82 108 126 88 160 105 120 98 185 110 209 198 170 118 106 125 83 93 98 121 131 188 176 157 114 163 180 129 148 139 144 100 194 194 181 146 101 65 112 67 175 97 102 155 185 113 104 208 215 191 204 159 192 124 118 178 137 127 104 105 89 94 154 175 148 97 65 114 149 58 84 61 115 129 143 167 87 98 168 164 138 138 99 182 102 88 157 82 78 130 53 50 144 83 151 101 139 109 90 111 91 113 89 149 77 145 138 88
167 163 154 151 144 136 136 143 154 161 149 156 158 173 179 172 158 152 157 168 182 175 185 192 190 203 198 191 184 190 190 188 185 188 198 203 199 183 175 174 170 189 184 159 163 160 141 148 155 143 153 166 138 134 181 187 141 179 138 190 163 126 174 171 150 122 185 152 149 185 159 136 100 74 142 128 112 93 129 119 116 61 121 133 82 76 70 95 96 128 107 138 89 83 89 124 86 80 70 63 81 112 96 128 121 101 115 92 99 125 124 166 154 125 147 139 127 95 116 113 126 116 157 93 99 105 113 96 129 146 77 126 92 124 102 183 190 223 217 103 180 176 138 84 86 98 129 116 209 172 164 180 167 100 68 55 126 113 195 197 181 155 132 183 185 117 151 154 105 153 194 114 175 177 195 124 103 113 125 86 98 128 31 61 106 99 178 123 144 107 159 162 135 208 190 175 115 69 106 73 131 80 119 190 201 87 126 76 172 92 102 117 113 95 165 127 163 173 204 133 143 119 157 123 148 144 74 136 66 66 72 151 196 178 215 194 200 209 128 203 204 200 185 113 82 136 148 164 180 165 201 177 158 157 161 67 76 184 189 86 100 149 74 59 165 119 92 147 189 196 155 161 105 149 147 136 65 128 140 128 156 108 187 142 81 152 160 83 153 93 101 111 94 95 91 154 117 114 150 155 125 144 163 130 125 202 113 105 138 82 121 89 111 106 83 77 58 139 61 55 50 147 160 132 127 158 147 165 83 106 105 133 158 60 131 62 105 87 91 62 67 78 106 150 206 216 163 205 148 137 168 106 137 59 107 70 170 144 146 170 80 155 163 73 61 126 144 47 149 150 71 171 185 191 152 103 186 144 78 115 96 100 192 173 92 61 69 78 120 180 98 121 159 149 62 148 155 121 166 178 108 197 137 98 167 160 189 255 184 171 160 106 82 188 139 141 138 112 44 128 124 166 162 85 143 105 161 161 140 107 122 154 174 70 166 127 86 103 87 166 159 147 113 164 121 145 191 161 124 173 99 200 127 216 212 134 95 158 147 74 107 122 138 140 150 68 170 114 188 176 166 99 167 92 60 143 40 60 100 162 76 79 137 161 139 141 202 118 109 135 155 66 75 58 57 115 154 76 136 155 149 111 123 121 83 148 110 136 143 71 105 95
162 158 147 138 131 121 122 121 132 150 154 156 158 161 177 174 171 152 154 176 179 198 198 185 191 193 208 206 190 197 191 196 185 177 176 182 187 176 176 177 184 187 164 169 175 171 154 164 158 149 180 173 144 115 158 177 183 182 182 182 177 152 112 129 186 159 197 194 138 184 111 132 140 154 150 78 138 76 68 118 60 116 81 95 165 95 80 74 84 80 86 82 81 88 93 95 78 82 76 77 109 104 100 140 127 90 87 103 114 108 138 118 104 172 123 123 115 108 108 166 169 175 117 126 111 92 93 94 103 138 154 120 87 105 189 153 119 132 211 112 184 176 138 84 79 154 130 110 164 93 117 112 81 66 145 60 165 171 182 181 184 188 134 144 188 151 132 162 95 147 112 164 190 109 151 134 153 111 92 161 86 52 119 110 152 174 120 113 168 133 65 144 136 211 128 109 150 168 168 163 158 89 114 198 156 175 142 80 132 123 160 159 92 99 145 198 108 209 129 192 138 163 163 82 135 104 79 134 78 131 71 136 174 190 119 153 205 182 195 151 221 191 194 176 149 162 175 78 180 188 188 139 173 97 160 124 99 96 172 169 145 71 69 71 168 89 158 203 113 187 172 185 130 170 177 133 58 56 133 138 82 89 98 117 93 123 153 81 72 130 128 96 164 158 100 181 148 121 186 164 108 129 145 159 215 130 138 183 105 83 174 161 173 86 92 144 68 131 75 114 126 78 75 140 155 167 151 93 117 119 73 160 101 149 135 61 67 168 66 73 156 155 113 152 196 101 195 149 161 119 134 70 145 153 74 156 113 106 166 92 127 168 92 76 105 162 81 136 70 108 78 165 95 126 141 214 128 106 182 195 114 165 152 160 107 121 155 178 194 146 194 177 79 59 71 90 166 168 126 133 183 131 99 128 178 182 154 144 80 117 155 137 78 113 119 110 132 96 43 86 120 69 124 170 77 166 74 152 127 137 161 180 86 105 150 141 176 157 160 80 98 93 151 180 105 188 145 163 104 135 179 104 197 139 180 102 151 150 91 142 63 132 74 64 121 107 98 130 130 115 176 106 123 157 66 107 118 81 89 178 179 86 162 113 160 115 196 118 141 107 165 57 147 48 76 113 93 134 106 124 98 88 175 73 125 114 94 85 63 110 100 88
140 138 132 127 122 117 114 113 130 139 138 137 153 164 162 173 168 155 156 179 195 198 181 177 190 184 193 207 203 205 213 203 188 164 158 163 169 174 173 179 179 175 168 161 178 177 149 145 183 169 162 138 114 149 124 174 183 174 174 163 120 129 123 196 155 132 168 129 161 173 108 96 113 116 127 157 114 156 79 78 101 65 140 99 124 127 77 69 59 93 61 62 89 92 123 80 93 105 99 94 127 113 100 117 116 79 109 128 124 120 144 110 130 137 106 142 120 135 152 96 107 187 177 129 99 148 104 96 133 91 86 179 201 176 111 121 219 214 204 91 132 192 196 182 67 86 97 83 165 114 184 157 84 129 161 137 158 76 130 134 155 123 165 174 174 113 103 113 124 89 139 144 172 99 92 124 191 144 150 110 138 152 149 146 77 167 181 87 98 146 160 141 100 213 209 141 179 170 179 175 116 167 130 153 88 155 83 78 152 62 129 140 108 89 148 148 127 207 129 135 166 111 100 162 159 64 102 131 56 132 161 111 135 189 197 189 132 180 181 176 219 198 178 170 167 158 150 86 165 186 97 125 92 175 141 174 144 162 77 150 84 117 138 134 70 165 88 102 194 203 130 166 76 168 164 84 155 72 46 76 130 119 201 195 145 132 103 70 168 170 151 192 167 168 164 170 80 126 133 97 103 174 201 224 214 169 133 203 183 180 111 140 115 111 154 114 81 44 107 72 139 116 89 175 97 95 94 179 84 155 149 149 65 61 134 117 164 123 138 71 126 81 175 183 175 178 121 119 197 127 99 170 124 127 162 72 139 171 177 191 185 167 143 164 176 161 103 139 77 112 134 105 130 179 171 164 217 158 216 153 151 194 207 105 99 111 156 142 164 192 161 136 161 119 142 151 100 136 110 174 129 103 116 185 182 93 93 141 71 98 136 116 63 107 78 87 111 132 102 41 139 127 111 152 93 165 100 163 175 193 134 178 175 148 143 132 92 181 94 177 142 134 107 125 112 185 87 91 178 126 81 158 121 175 96 108 135 171 159 146 95 114 91 144 68 146 164 121 187 137 118 143 107 101 53 110 138 164 178 143 186 186 190 175 161 213 220 213 205 90 72 125 149 151 99 143 159 79 140 166 178 83 93 166 92 84 72 142 155 154 72 88
116 119 118 118 116 121 123 120 125 125 133 132 138 140 152 170 166 175 168 165 176 184 183 175 167 186 194 199 205 210 219 216 192 169 150 148 153 159 167 168 159 170 158 172 175 172 141 175 187 168 153 162 130 116 139 139 143 162 141 125 127 158 120 173 216 160 189 191 109 158 139 130 141 145 79 157 108 146 98 135 140 146 85 92 144 131 121 108 53 46 106 56 51 72 93 120 99 79 77 75 76 92 120 128 97 94 125 126 109 102 135 98 94 155 101 159 129 101 147 140 89 75 85 94 133 182 87 80 175 130 95 104 173 121 202 160 124 114 142 83 146 160 194 183 160 127 40 140 163 137 84 153 143 168 138 165 157 126 73 164 154 176 102 201 199 178 180 168 92 176 158 86 165 131 138 177 175 118 188 182 118 177 166 91 185 177 121 100 125 146 124 138 106 134 156 135 182 168 146 99 182 96 169 130 110 151 73 176 77 160 83 92 156 166 192 143 132 158 210 186 187 176 76 95 166 87 183 158 70 69 74 184 173 112 212 116 200 190 213 187 186 187 124 83 154 168 86 189 151 170 169 100 189 184 181 181 136 163 78 169 157 126 103 139 113 60 154 181 132 181 151 154 87 165 136 178 121 129 123 104 77 118 115 115 106 140 102 72 75 74 83 187 181 167 192 155 153 83 148 87 121 139 199 148 144 191 125 155 101 136 169 116 205 111 188 152 130 92 132 96 142 63 76 184 118 160 101 93 78 162 151 162 80 79 76 176 89 95 191 186 76 169 136 96 83 90 157 144 150 129 124 116 92 175 104 84 158 98 205 150 220 120 164 159 107 79 90 84 155 166 138 124 124 131 200 183 192 213 187 186 121 213 192 121 118 117 113 191 112 174 87 146 144 162 88 91 179 184 124 159 162 122 114 181 85 128 76 120 72 52 83 68 146 148 154 105 97 101 51 145 59 161 94 163 109 92 128 186 191 170 131 181 177 155 165 86 105 94 77 170 169 177 100 203 138 177 156 157 159 91 75 77 79 170 82 76 126 113 165 112 145 112 126 92 158 128 104 107 184 200 140 138 143 101 136 95 61 90 166 156 94 139 175 101 197 154 198 177 109 160 167 78 64 93 86 112 155 91 86 166 136 151 142 135 174 81 174 105 170 98 117 126
108 112 115 115 122 129 129 130 128 128 129 126 133 143 156 183 184 176 168 173 186 180 162 163 166 169 183 187 188 204 217 220 202 184 161 144 143 151 156 170 172 164 161 167 171 171 153 169 170 184 167 166 140 135 149 153 135 103 148 111 128 93 104 120 170 180 207 163 171 161 139 66 59 77 103 117 150 174 184 126 91 90 125 91 93 84 84 96 75 44 40 69 44 75 81 112 112 75 86 89 102 75 103 85 87 99 131 114 105 114 103 92 83 97 124 101 108 156 80 96 68 123 69 96 97 169 71 69 75 171 166 207 205 188 210 111 159 169 81 94 130 108 186 96 70 135 90 53 123 108 182 174 164 185 84 102 159 153 101 171 170 102 198 153 168 119 161 130 150 191 121 112 155 164 143 89 156 156 182 135 183 113 124 133 127 194 135 170 152 110 255 87 135 187 136 95 151 123 135 85 168 143 91 73 130 156 149 187 119 105 80 137 60 65 177 181 188 180 188 177 130 77 138 148 175 112 161 153 167 64 170 87 155 197 136 158 171 132 118 114 119 82 65 57 65 67 90 97 139 194 189 86 131 175 189 138 164 106 166 129 94 131 141 40 82 139 128 155 135 118 105 129 199 111 126 174 181 80 159 119 171 105 169 117 134 141 137 110 135 132 142 111 171 135 106 156 148 127 81 135 104 201 135 112 136 107 184 135 170 170 124 106 107 202 103 113 165 88 114 65 132 81 102 100 147 179 158 92 173 164 78 148 124 155 142 193 167 207 123 139 172 116 130 132 178 134 121 144 153 186 219 128 123 190 176 177 119 159 200 163 210 116 162 150 129 102 146 80 77 106 144 68 167 169 115 105 165 99 152 162 255 130 163 153 102 119 143 132 155 179 156 134 132 172 82 153 86 89 186 166 194 115 198 100 102 83 109 145 77 129 98 157 153 166 161 145 73 144 51 87 157 116 93 149 176 150 199 163 116 154 197 119 79 76 174 81 111 141 129 136 108 109 136 112 207 176 155 48 49 137 130 119 149 138 115 71 148 84 169 152 99 150 166 177 170 111 98 69 105 150 126 160 110 151 153 99 72 173 146 107 131 114 177 163 189 105 166 137 125 169 70 97 169 101 194 152 79 76 76 118 139 75 172 123 151 104 123 97 129 187 157 185
122 123 123 120 129 136 140 140 133 130 120 120 133 138 166 180 179 185 179 181 178 177 170 160 151 165 169 174 185 198 213 217 209 193 176 159 141 143 144 163 168 158 164 163 171 172 166 152 150 186 182 163 155 123 152 120 116 137 80 77 105 102 93 162 158 198 175 178 116 126 109 131 85 60 58 139 162 180 174 161 84 149 89 116 126 122 80 72 75 70 64 54 54 66 99 111 123 101 82 67 107 78 82 87 89 92 142 94 119 120 96 90 69 87 91 81 79 75 74 70 123 53 118 65 64 131 61 61 63 118 95 105 117 201 177 144 166 148 158 73 93 202 132 149 76 146 150 63 78 186 174 173 164 170 180 85 124 133 142 163 196 175 218 153 217 129 156 150 126 191 150 197 172 114 97 183 173 102 88 141 188 174 195 206 108 184 168 149 197 146 131 133 129 146 135 174 118 109 96 175 101 98 154 255 97 136 103 159 96 166 123 139 86 76 85 167 122 170 165 163 138 148 129 109 179 111 115 103 106 146 116 135 92 180 191 121 178 180 157 149 183 167 136 42 46 131 184 141 100 189 130 173 165 132 180 187 187 88 148 168 185 176 85 116 48 142 151 119 187 202 114 206 132 203 185 185 106 170 172 126 171 168 135 102 99 88 86 81 151 144 135 118 109 84 78 166 128 149 59 89 84 95 124 96 150 89 175 106 101 163 118 114 130 106 117 134 196 129 131 139 116 173 97 167 83 83 88 151 99 115 90 83 92 103 166 193 196 162 171 127 199 87 89 172 80 93 172 168 136 235 173 191 165 200 107 97 192 187 189 98 166 200 163 160 104 166 75 98 106 170 147 152 158 169 83 157 78 106 103 173 210 167 202 187 184 182 121 180 122 91 80 179 101 95 73 150 63 124 144 114 189 202 207 188 101 87 86 115 104 153 74 172 189 93 86 70 144 144 146 159 131 255 185 185 135 197 122 214 211 147 156 179 158 100 92 124 155 159 105 105 71 167 154 144 146 118 91 107 56 143 115 169 161 73 63 139 146 155 158 150 120 129 174 85 136 122 95 73 136 77 150 184 100 84 112 58 58 72 113 96 74 88 156 176 186 129 147 127 91 160 157 93 83 185 98 189 134 139 162 173 84 168 164 178 94 107 110 141 196 110 146 131
151 144 135 123 123 136 142 146 137 127 132 139 153 172 178 192 188 189 186 168 177 175 180 166 173 171 172 162 167 187 199 204 203 202 193 176 164 144 152 158 164 255 163 164 172 159 191 186 154 151 177 180 133 167 142 157 140 133 122 145 119 132 113 113 170 151 135 154 104 136 174 103 116 96 135 142 103 160 95 106 79 143 86 133 147 151 123 97 144 82 65 52 62 73 92 132 100 106 88 79 120 131 132 137 87 110 82 112 110 103 126 71 66 132 143 72 153 70 85 67 68 94 111 123 150 57 98 111 85 71 106 97 100 165 101 130 116 146 72 72 165 162 113 103 151 154 155 76 136 144 130 189 146 128 164 149 172 176 190 197 190 117 158 124 162 178 192 183 158 201 185 131 186 117 163 190 137 173 87 122 97 210 147 207 202 164 195 154 189 195 138 190 175 106 166 140 141 79 173 110 86 171 158 49 132 152 80 85 104 180 173 95 171 111 66 119 133 166 138 172 141 120 88 164 172 125 130 163 110 159 65 87 172 183 151 189 106 178 145 177 75 163 78 101 145 84 189 199 193 179 175 117 162 93 169 110 138 161 125 92 174 188 85 132 149 162 101 118 148 143 198 141 200 121 154 130 173 88 82 131 84 167 112 128 170 137 168 172 99 158 189 109 136 173 182 167 71 87 57 72 77 135 96 167 157 111 172 109 90 172 181 167 119 101 145 127 144 111 97 103 153 134 111 76 65 79 108 109 102 104 180 91 182 191 142 111 161 120 148 157 193 158 176 156 113 177 105 218 226 150 153 147 218 103 184 130 168 115 92 184 128 197 192 77 71 139 175 116 189 104 129 166 78 169 149 113 77 127 165 113 161 116 204 182 191 187 116 140 183 84 153 123 141 141 104 138 54 137 93 173 127 199 117 117 108 95 102 84 103 145 97 187 114 146 150 63 118 139 150 141 90 100 81 94 143 98 124 134 118 196 104 136 169 83 141 145 114 111 87 135 162 150 166 173 200 89 157 135 67 71 79 91 138 69 132 167 169 100 75 169 171 169 255 148 142 159 83 80 120 112 82 76 111 75 135 149 57 131 73 77 77 123 167 148 93 178 92 145 116 154 107 78 95 116 108 93 127 167 85 89 83 134 76 104 99 195 176 198 149 142 134 102
176 161 139 117 109 121 135 146 148 138 140 159 175 189 202 206 188 185 187 186 180 186 194 185 177 175 167 173 162 174 177 186 187 197 206 197 179 161 154 142 157 144 155 142 164 191 193 179 156 174 179 149 159 140 118 159 124 157 154 97 164 138 147 152 162 156 168 108 101 96 133 149 149 63 118 151 99 96 148 124 137 150 81 85 90 114 110 131 162 91 80 89 86 127 97 96 94 92 119 89 87 104 110 81 81 105 93 100 135 104 83 111 121 62 78 94 108 65 73 136 154 152 72 61 70 45 45 41 103 160 86 191 138 89 110 87 176 67 60 100 87 111 203 155 181 74 106 174 181 105 180 186 186 100 162 120 170 149 136 199 145 255 196 134 194 181 136 180 186 195 151 105 161 180 98 188 182 130 85 111 159 145 131 207 191 129 107 118 97 186 124 87 159 180 193 185 122 87 183 95 166 163 119 149 96 48 136 72 107 160 122 157 82 74 68 55 159 125 178 93 89 152 145 88 147 180 166 177 168 69 135 119 93 173 117 166 170 167 109 71 161 162 138 162 73 166 103 104 118 165 79 162 117 107 132 195 115 84 165 174 89 112 155 100 141 83 95 149 201 197 100 147 144 122 147 166 188 171 93 117 101 83 170 183 89 89 97 153 87 196 203 106 194 120 138 178 184 102 66 94 91 118 74 66 94 63 169 85 155 115 76 102 102 97 189 152 109 189 110 181 129 89 155 56 102 128 110 116 122 163 110 107 115 182 94 170 166 108 115 130 113 179 102 147 172 85 113 120 137 238 141 220 117 164 87 157 176 82 171 106 203 196 101 167 148 68 100 159 150 185 136 120 109 145 160 136 52 138 172 119 167 146 148 177 127 130 167 198 91 131 124 161 78 79 55 42 135 63 82 161 106 198 206 107 194 137 95 125 143 163 82 98 172 129 147 70 62 95 144 145 134 63 95 142 166 126 189 204 132 175 184 178 115 120 189 162 117 149 151 98 79 183 117 174 116 161 94 107 126 84 178 113 175 153 168 160 111 169 167 80 134 136 120 110 146 161 170 176 169 69 93 106 140 87 157 156 93 69 72 156 109 117 143 160 98 143 90 68 94 157 119 178 162 96 91 135 87 77 93 77 90 73 139 178 147 152 175 106 115 171 123 109
183 164 134 110 99 108 123 140 140 144 145 164 181 210 211 204 201 189 187 192 193 194 190 199 193 194 183 175 155 159 162 174 185 208 214 204 189 166 160 155 154 148 136 143 170 171 197 189 175 145 176 181 161 163 159 138 120 169 120 134 185 117 168 166 149 155 137 156 121 90 173 135 92 82 71 74 98 149 143 119 92 88 131 136 92 105 139 112 153 156 78 113 137 106 158 103 114 91 123 108 105 68 92 64 70 113 104 88 109 75 91 101 75 82 94 80 130 95 95 189 168 84 60 43 63 30 116 37 45 67 178 94 159 101 88 161 135 84 76 71 83 99 108 92 183 127 87 182 188 161 163 166 89 121 200 127 94 193 176 117 125 92 117 145 178 182 118 124 168 131 180 177 153 157 93 135 155 98 151 168 94 127 193 171 184 147 159 120 119 125 156 165 77 170 151 159 101 191 103 132 131 112 117 169 145 46 138 94 144 169 148 91 164 121 137 72 49 143 142 97 157 64 135 113 97 68 145 163 100 84 81 166 162 95 94 182 78 97 76 146 161 168 163 87 86 172 136 169 82 153 115 121 170 148 215 162 150 108 116 67 109 84 114 137 142 145 124 175 112 155 176 168 90 159 91 170 110 117 150 179 92 162 89 109 92 91 125 178 94 116 119 208 178 201 135 174 161 91 78 152 109 68 126 69 82 89 78 81 67 71 79 128 179 186 161 91 120 84 161 141 150 97 140 141 85 66 126 120 205 203 199 110 127 86 162 157 82 183 116 201 202 126 141 169 161 87 92 123 201 212 170 194 180 90 131 70 78 115 186 99 107 110 159 80 60 109 182 112 129 177 69 132 142 82 146 156 90 101 75 124 102 93 77 88 172 81 131 89 125 178 119 123 101 58 69 125 137 146 159 139 102 101 178 164 107 130 105 83 143 169 141 194 168 97 180 110 128 63 145 59 154 81 109 95 118 142 103 189 96 189 185 88 95 182 185 139 204 206 198 192 173 94 97 95 185 148 68 75 146 94 142 161 149 180 180 125 175 157 72 89 121 68 71 157 174 180 160 180 78 108 80 170 111 135 131 74 70 97 85 134 129 85 197 186 175 92 150 112 56 112 86 122 95 118 109 179 154 102 74 88 61 97 111 98 102 184 90 91 169 133 207 194
170 152 124 105 93 101 120 129 134 134 132 154 175 200 217 204 207 202 184 189 186 181 186 177 196 190 193 173 152 150 156 174 198 211 212 205 192 177 168 161 152 147 144 136 143 162 172 188 181 144 174 138 179 173 134 151 181 174 192 203 199 146 155 255 123 103 133 106 99 94 169 94 99 153 136 147 125 89 83 135 117 85 152 92 160 162 126 95 153 110 95 93 91 134 102 145 132 118 96 95 70 60 57 104 76 69 109 101 64 99 107 101 113 98 101 100 117 106 114 123 107 121 61 117 66 59 118 112 110 64 157 186 110 119 160 175 87 187 122 101 76 90 91 94 176 167 97 183 190 163 167 84 141 169 179 195 148 158 117 158 154 139 137 164 96 107 142 101 140 170 158 73 160 79 103 187 170 163 114 129 174 142 182 184 178 147 134 129 181 161 154 110 107 151 166 94 182 116 107 112 139 187 138 122 165 94 43 45 152 143 127 172 160 58 106 94 142 61 142 131 84 75 135 103 50 79 129 121 111 93 163 76 137 78 179 89 112 94 69 104 154 165 188 178 182 182 155 134 165 70 98 106 110 133 129 199 97 78 59 96 58 117 143 158 97 177 149 114 170 91 154 90 182 184 157 118 164 109 99 76 172 177 136 95 92 80 130 140 194 114 109 128 105 196 193 134 109 107 93 153 150 66 76 81 181 88 121 158 55 143 65 82 90 143 143 84 102 83 137 87 174 73 91 135 103 128 129 168 161 205 137 151 117 89 97 159 135 176 156 94 184 112 118 99 131 90 174 91 189 126 113 210 197 175 84 70 127 181 144 142 171 119 187 157 112 163 92 96 139 168 64 123 93 167 120 105 144 134 168 173 101 131 149 80 116 157 76 162 147 109 114 130 162 89 127 63 118 97 149 109 168 161 68 81 154 93 135 182 92 137 102 116 101 166 89 153 81 114 60 157 71 123 91 172 186 210 162 153 118 80 109 139 63 147 84 124 156 208 202 156 170 194 167 136 173 77 162 106 106 176 138 190 188 101 130 186 176 96 91 109 133 119 135 141 99 163 145 171 110 129 113 176 75 110 148 171 174 95 80 92 158 119 115 156 183 156 83 153 64 75 126 98 194 119 157 175 78 255 63 101 131 72 162 74 86 92 117 184 114 157 145 128
147 137 119 109 107 119 125 135 121 113 117 125 158 181 202 203 213 216 195 193 171 163 155 165 186 196 190 183 170 152 165 182 208 214 212 197 188 182 175 169 160 152 152 132 141 171 181 196 160 159 172 146 181 171 141 154 198 199 196 157 176 142 190 156 108 91 113 140 96 103 140 132 113 170 153 117 142 126 82 109 94 111 112 165 101 89 80 75 123 167 114 174 148 131 102 106 103 89 109 73 79 92 56 57 87 66 87 111 70 93 112 112 171 120 117 135 122 132 137 132 166 157 64 100 141 117 80 101 52 150 73 80 163 109 82 92 141 191 86 82 152 122 89 178 79 158 127 171 131 107 84 130 151 148 97 118 173 179 170 146 179 145 80 89 135 114 93 86 113 129 160 85 162 98 142 185 156 170 122 100 86 166 139 158 119 87 97 106 185 105 101 111 139 59 161 90 194 163 115 183 188 97 187 196 177 73 111 44 52 152 73 118 78 88 114 122 125 147 167 145 108 108 64 140 51 89 38 107 139 63 159 68 162 130 82 129 117 138 147 144 161 145 138 138 164 87 171 151 66 108 158 84 187 211 140 167 87 96 44 89 114 158 74 137 167 171 159 168 95 150 124 108 94 166 166 94 158 129 130 158 70 78 183 90 94 77 111 146 135 167 187 89 83 84 127 194 96 127 88 121 67 65 102 115 191 185 84 98 66 128 58 151 78 162 139 71 161 121 78 175 173 79 55 50 92 63 120 176 123 137 186 138 114 179 79 142 82 132 157 97 170 136 185 156 119 129 140 177 181 183 199 166 192 112 90 158 174 109 93 98 191 152 97 126 156 112 168 180 86 76 131 151 143 131 170 103 117 76 74 168 95 186 90 135 77 130 87 144 179 92 189 117 132 142 144 158 160 82 117 101 124 111 51 62 73 85 128 187 142 111 85 94 137 143 55 47 132 73 162 89 161 122 175 182 104 166 194 122 140 62 50 131 143 118 147 149 124 153 185 191 127 115 171 93 74 103 64 162 122 165 195 156 117 118 104 187 134 105 110 77 89 139 44 127 145 127 143 106 142 85 165 145 83 104 141 176 114 138 182 168 86 117 146 210 175 104 122 161 77 141 144 128 140 187 118 84 95 141 133 77 91 170 81 116 100 86 163 117 137 176 166 162
128 125 121 121 128 140 144 138 127 106 115 255 144 171 177 198 203 219 212 187 159 151 161 159 176 182 187 190 185 178 180 195 211 214 203 187 185 186 181 174 169 167 166 163 156 156 180 165 187 156 146 152 149 181 156 189 194 173 178 167 188 125 105 114 158 135 86 84 99 112 126 134 113 84 138 127 82 148 118 67 71 75 103 119 84 123 88 79 84 105 125 137 130 107 90 82 97 68 68 86 71 89 90 87 101 124 61 63 92 104 158 160 118 158 167 182 138 169 137 209 107 133 63 62 64 161 86 74 136 159 146 76 80 92 145 185 191 191 185 83 171 151 103 166 147 167 166 166 153 124 135 144 116 167 188 99 135 150 152 144 173 170 83 151 136 66 163 142 172 168 167 155 139 96 123 190 134 178 85 83 94 163 153 151 85 166 78 124 155 120 110 55 72 110 104 168 91 148 183 127 95 149 183 99 168 61 122 46 119 84 173 116 53 55 102 111 119 116 86 147 106 73 113 104 53 93 72 138 122 146 83 75 121 143 89 168 104 142 66 88 170 179 202 151 204 91 167 171 167 156 165 176 109 114 190 194 124 97 70 107 123 131 141 166 100 175 169 93 85 180 176 134 144 164 109 169 165 69 110 114 142 71 134 129 164 143 83 95 178 85 95 90 130 68 75 94 139 125 89 61 53 139 101 106 119 169 101 99 62 63 113 120 121 81 74 62 80 55 164 119 129 90 72 75 152 132 94 133 198 205 166 222 185 183 168 156 134 94 73 52 153 78 122 111 129 81 81 176 173 96 197 162 206 102 176 75 136 172 97 199 105 99 118 129 137 78 118 113 162 86 155 76 105 110 165 173 70 109 88 165 187 196 141 125 175 118 163 79 76 164 185 154 128 154 172 101 100 83 114 83 156 113 69 135 71 131 190 102 156 181 138 77 72 160 57 72 50 70 79 77 159 66 168 108 113 179 175 80 158 152 122 132 92 139 69 79 173 201 132 229 156 209 160 131 130 174 82 148 166 192 122 146 204 192 118 166 109 204 196 176 122 105 125 127 135 111 75 80 78 162 98 174 174 126 127 142 117 136 109 101 150 102 154 112 136 192 174 168 150 91 175 113 165 158 86 81 128 83 76 186 140 201 94 145 84 85 149 130 179 102 100 122
119 122 125 130 143 156 155 148 123 111 113 124 151 162 169 194 197 209 212 179 173 170 168 168 166 167 172 186 195 198 200 213 207 205 189 180 183 184 185 166 178 178 169 177 155 182 185 192 174 190 143 146 189 150 158 201 190 162 143 125 170 103 104 120 170 166 122 99 167 88 176 142 165 162 113 87 63 59 53 128 85 67 117 94 79 127 100 67 88 161 127 126 133 117 87 59 98 91 78 95 87 132 134 123 93 124 126 70 77 115 108 110 128 121 117 194 158 144 169 130 90 72 78 71 97 81 100 82 127 64 163 169 121 96 200 107 106 121 183 121 86 163 184 171 63 153 69 88 83 131 87 99 69 179 86 179 132 153 89 126 131 126 144 109 110 79 84 166 117 166 159 158 160 125 113 143 123 102 89 143 167 164 166 63 77 75 60 166 175 79 92 148 126 65 78 151 95 81 170 149 137 132 103 115 161 63 147 127 61 88 169 76 153 97 98 30 138 134 166 122 72 60 52 111 85 144 104 115 47 116 121 115 180 178 145 122 163 104 155 81 183 97 112 218 213 112 176 171 173 129 73 255 170 157 195 196 184 161 157 80 130 116 129 139 145 175 106 107 143 71 153 148 175 90 91 73 162 105 47 110 103 99 96 125 112 127 161 168 91 107 156 66 53 100 69 83 157 67 86 77 53 131 100 92 157 102 98 124 162 115 115 85 78 130 160 151 46 73 131 135 120 152 96 83 163 71 137 192 210 213 121 118 109 95 180 95 80 70 141 45 74 50 60 75 79 137 86 87 97 173 143 205 177 105 145 89 84 169 99 129 204 169 186 98 171 106 104 125 157 170 177 167 107 146 126 162 77 150 93 140 194 202 195 191 99 173 162 79 142 135 79 133 99 120 172 76 139 123 163 87 162 74 67 66 139 92 99 175 174 95 79 138 70 144 139 108 64 140 83 76 69 148 122 83 168 171 154 159 133 88 135 54 122 138 90 50 118 139 212 133 172 144 128 168 161 94 71 147 167 180 218 145 222 122 110 100 185 163 121 80 127 53 72 43 80 142 64 164 75 149 146 166 173 163 172 185 193 193 129 103 191 105 135 129 103 187 156 171 153 133 143 81 96 119 84 169 118 165 101 98 209 162 126 104 81 81 172 171 160 179 94 154
112 122 135 142 148 157 155 154 134 117 127 138 159 166 171 189 199 195 207 185 182 170 173 173 165 153 165 180 190 208 211 213 203 190 176 172 179 187 178 183 176 184 175 173 161 180 183 167 174 166 158 188 141 190 160 188 197 194 157 157 255 152 90 123 155 155 154 125 109 157 160 109 158 160 129 77 66 46 114 53 64 97 86 98 116 70 98 83 125 163 112 112 116 99 82 63 78 75 66 81 90 111 131 139 118 90 127 79 89 97 104 114 122 140 165 143 127 107 108 90 79 92 156 90 129 174 178 140 66 61 64 77 97 179 201 150 210 105 192 137 185 183 162 129 125 77 144 64 108 133 129 65 110 149 165 171 142 129 140 111 105 146 84 121 133 149 101 191 197 164 189 104 196 142 183 106 79 170 148 92 88 92 69 105 136 105 93 122 169 175 88 110 168 104 120 65 166 93 122 159 113 80 166 182 87 70 50 121 62 79 158 153 66 137 91 109 78 80 142 159 139 60 139 123 147 139 76 65 148 157 126 109 193 151 122 74 143 175 145 114 188 170 164 226 218 105 166 105 80 103 91 150 81 79 88 93 138 161 178 98 135 76 93 155 200 203 180 185 76 162 101 83 144 153 74 142 145 59 52 124 125 175 202 210 207 136 180 123 160 137 157 95 128 69 94 170 99 67 140 62 55 63 154 91 87 187 153 130 130 131 120 153 165 79 152 65 60 59 82 109 205 199 102 74 165 136 149 192 109 210 205 107 120 115 157 87 77 91 143 55 67 49 108 160 159 116 149 141 181 114 198 104 102 180 104 106 79 174 189 131 163 203 190 141 171 179 176 132 101 189 104 171 154 160 156 83 49 66 173 98 132 178 136 158 119 179 78 93 132 92 98 186 109 105 187 164 113 81 167 93 156 121 118 163 118 179 193 96 159 77 159 116 164 175 110 164 123 148 170 94 146 91 153 127 92 69 145 71 73 154 63 77 156 153 147 129 109 184 203 127 126 154 120 186 199 188 171 132 165 91 175 221 219 158 201 103 180 160 108 131 164 125 60 121 149 70 158 134 168 160 177 182 166 153 179 162 175 122 152 136 136 127 194 104 134 179 71 144 134 169 73 71 167 163 137 155 86 168 105 95 180 173 112 150 86 178 90 92 186 183 124 82
107 123 139 151 152 156 154 147 130 128 130 142 158 169 170 174 187 197 193 184 178 183 183 176 171 158 160 181 194 209 213 213 196 181 169 173 175 186 174 184 176 181 161 159 180 183 184 174 170 170 175 167 154 134 185 189 141 136 118 153 152 119 81 97 167 145 176 107 144 163 88 114 104 173 102 158 100 120 45 48 56 69 112 81 129 81 85 96 109 114 109 104 99 94 127 134 87 102 117 134 122 171 159 134 138 119 125 154 113 146 133 121 121 131 113 173 176 137 102 76 119 159 96 97 93 85 158 162 124 61 63 151 97 113 190 203 203 129 191 144 82 78 163 165 141 56 73 147 105 158 125 119 148 142 158 156 125 149 149 157 122 150 141 111 148 127 107 121 159 195 175 112 158 105 95 146 136 149 88 167 96 76 143 88 142 119 129 79 122 192 164 175 177 84 138 77 85 119 92 167 73 164 180 143 100 159 158 120 119 79 178 162 116 57 48 135 105 112 72 140 44 96 78 113 116 139 111 67 139 65 134 100 174 97 183 110 170 99 164 188 99 161 118 218 159 113 179 168 129 152 163 88 138 122 171 100 99 173 171 179 163 156 179 209 216 218 156 117 176 130 151 163 91 149 51 147 147 69 144 66 114 165 133 220 138 150 128 127 182 136 184 120 75 169 145 173 128 60 56 57 63 95 67 169 83 86 182 110 160 125 211 195 111 152 90 127 123 131 96 115 143 109 93 172 90 124 128 201 206 115 115 198 201 167 181 102 166 73 58 63 147 164 86 91 122 178 188 114 214 142 255 127 96 162 83 155 120 86 190 141 212 202 163 161 182 141 141 80 157 96 147 203 173 154 136 82 150 87 180 167 122 131 172 202 192 160 182 153 130 75 168 184 179 119 101 163 168 87 92 158 157 179 110 138 195 101 112 106 61 145 100 150 176 153 109 153 99 159 98 83 159 154 100 126 62 150 53 111 101 131 173 91 167 85 116 75 147 168 122 147 113 116 111 135 106 115 145 96 70 151 103 214 183 114 198 109 152 92 128 163 130 107 74 83 162 78 135 112 87 137 144 96 169 156 166 155 131 161 190 190 151 152 203 138 111 167 65 74 91 125 92 162 82 88 99 66 163 86 169 176 92 126 185 186 88 120 164 100 187 136 89 165
106 125 142 155 148 147 139 147 135 135 134 145 168 163 158 160 188 202 203 200 185 175 179 186 178 185 184 186 192 192 207 205 191 178 169 170 175 185 173 179 178 178 164 166 177 181 175 152 172 160 153 171 167 152 166 120 121 163 133 173 115 136 91 106 132 140 194 142 145 94 135 90 183 164 153 127 107 78 62 59 77 72 77 80 118 86 95 156 111 145 125 109 97 104 98 107 104 101 97 93 146 126 129 133 111 123 140 107 110 154 127 151 121 133 99 96 137 78 69 80 169 114 122 106 115 152 108 123 159 62 162 102 163 169 208 119 127 109 197 97 77 100 165 110 65 55 124 157 124 168 154 63 125 69 118 130 70 117 63 100 62 148 106 102 131 112 132 201 155 161 142 158 140 101 183 160 119 159 174 152 164 140 141 58 145 49 95 71 187 193 106 193 160 89 99 148 72 182 140 103 151 171 82 121 164 152 138 163 73 106 77 101 124 57 162 175 162 159 124 140 43 94 140 54 63 156 140 141 61 126 78 150 167 166 166 92 87 156 97 192 129 200 200 113 206 185 166 117 99 160 122 134 72 61 109 144 136 165 133 160 134 186 144 189 211 213 175 118 172 128 121 110 84 150 112 73 147 154 108 145 83 178 180 113 204 198 193 155 163 132 139 187 109 96 132 158 163 66 130 82 79 67 121 56 89 147 88 110 146 119 130 223 134 142 188 136 89 140 199 217 212 100 108 150 90 106 200 198 143 210 123 116 129 196 126 162 129 168 102 152 104 97 106 212 127 180 167 136 147 142 111 101 139 150 106 81 143 192 184 106 185 165 167 112 153 75 97 131 149 186 127 192 139 167 165 159 82 139 137 165 118 190 178 196 188 183 157 179 155 175 88 106 175 166 181 164 172 108 117 158 129 109 198 210 204 109 125 68 150 51 60 80 93 198 153 112 255 161 164 88 136 183 83 134 122 53 84 89 128 155 116 128 147 177 154 113 159 152 188 116 151 158 132 94 100 91 181 124 128 163 159 153 146 193 179 126 160 80 119 70 106 176 157 85 176 126 155 165 168 87 114 169 148 122 150 130 175 182 168 158 119 162 108 150 177 177 137 85 98 107 83 127 105 192 124 153 114 97 151 163 112 80 150 103 187 91 116 132 196 114 173 207
117 131 144 148 141 134 132 138 131 134 138 145 151 161 157 151 181 185 196 196 172 178 183 186 188 189 193 191 188 197 194 202 191 177 167 170 181 178 184 182 181 164 178 177 180 158 144 165 162 165 141 170 157 100 129 157 150 139 170 128 116 153 102 166 123 184 159 159 149 82 72 151 101 100 154 103 128 88 141 82 70 112 130 130 95 74 80 92 95 130 122 121 106 93 95 97 136 114 138 123 114 130 153 122 121 113 123 137 165 161 129 156 116 123 97 90 142 98 85 66 90 102 199 115 195 124 80 98 70 133 85 94 195 106 199 210 205 152 152 111 144 156 163 108 75 157 144 156 184 139 144 141 83 135 113 132 161 127 155 69 151 157 98 158 84 144 122 205 131 182 165 182 94 133 171 132 168 163 109 179 111 139 168 159 70 62 68 84 164 129 123 93 178 167 156 147 105 94 97 95 113 82 98 99 204 155 150 133 97 80 74 142 79 164 134 169 143 156 176 160 95 58 145 111 96 86 130 150 97 151 111 158 185 114 103 172 176 165 96 189 187 185 193 92 101 173 80 127 154 102 161 82 49 50 59 61 162 184 190 192 184 111 180 100 155 155 197 187 143 113 120 177 98 94 152 139 169 170 97 137 90 103 87 91 120 101 130 131 146 184 97 183 94 97 114 89 95 70 162 65 118 115 38 60 88 162 128 138 110 101 122 113 112 154 119 140 137 136 115 147 188 93 161 80 87 179 201 205 131 131 214 141 179 168 179 93 77 104 182 180 113 138 175 123 255 114 106 103 133 196 152 125 183 82 173 95 185 122 123 107 171 130 114 182 163 168 133 72 84 99 171 185 190 177 86 115 168 189 188 175 129 135 168 113 163 122 144 171 148 123 85 140 96 141 86 168 165 100 186 153 169 195 173 115 173 127 73 99 143 57 154 157 191 142 123 124 118 162 151 98 174 196 185 159 46 109 121 58 70 147 190 164 157 104 75 141 81 160 114 88 94 166 76 175 138 94 136 70 63 151 163 134 168 91 78 169 118 68 70 146 77 110 96 97 185 171 179 110 126 120 152 118 182 82 163 77 151 125 149 177 117 198 112 197 186 101 78 123 145 99 174 121 118 129 115 102 119 170 82 138 94 57 71 147 174 173 195 106 199 138 175 136
130 138 142 138 127 127 122 133 136 136 138 144 152 145 140 160 177 191 190 177 179 169 167 180 174 175 182 187 188 190 198 196 189 175 167 168 185 192 180 184 175 178 175 175 175 175 152 163 161 128 133 169 111 96 129 150 101 170 134 177 175 137 120 162 120 181 112 87 100 79 104 96 151 163 136 98 153 114 105 133 66 109 111 108 62 74 61 61 102 117 160 107 105 92 91 121 95 143 100 119 99 162 125 130 122 127 122 126 145 125 149 177 115 179 91 90 76 115 61 60 97 102 115 121 117 195 91 120 90 81 97 179 194 204 184 108 186 190 121 127 164 184 104 88 133 70 163 123 187 183 182 141 67 43 103 109 144 94 167 114 102 165 143 121 138 166 199 145 203 186 172 164 116 157 161 141 102 110 104 191 192 153 113 100 123 166 162 180 154 97 96 138 76 67 117 47 90 87 128 158 153 75 155 192 196 194 185 175 178 171 91 71 72 92 120 195 147 201 151 108 141 162 74 65 126 142 54 52 55 109 153 173 109 121 120 91 85 88 185 185 109 87 168 129 163 161 88 87 129 106 68 72 45 49 141 127 138 139 189 157 176 175 167 138 134 109 147 104 116 128 185 126 180 182 98 100 139 85 169 171 162 144 74 85 102 163 95 90 168 113 155 139 154 188 109 125 145 73 63 116 126 125 70 73 79 160 76 167 99 107 96 139 118 183 166 167 107 138 113 154 183 165 154 157 163 110 205 194 174 217 210 116 151 107 137 150 83 189 190 211 219 156 141 217 196 184 90 159 168 146 97 92 108 127 154 113 117 106 156 140 155 122 133 155 83 140 170 158 114 105 69 80 255 167 99 167 155 186 200 160 123 108 113 178 160 146 116 176 119 89 83 174 145 168 169 165 187 204 200 160 111 142 198 105 110 135 73 54 126 75 95 101 161 174 203 122 126 97 102 180 180 184 78 72 56 88 130 147 159 160 199 194 101 99 119 113 78 160 79 170 72 135 114 166 97 98 177 85 64 61 75 110 112 162 148 74 138 107 130 65 95 119 159 115 99 180 104 136 162 161 77 82 86 138 101 88 170 97 171 125 115 197 130 165 128 156 77 137 74 178 162 145 201 169 212 106 148 89 148 86 141 55 118 174 96 119 201 157 153 157 127 220
136 140 138 133 123 119 120 122 128 144 137 135 144 137 147 155 174 175 175 172 163 157 164 183 169 182 171 188 182 192 200 199 191 176 165 174 180 191 192 188 175 172 156 185 173 195 182 159 162 130 176 165 129 134 102 154 139 138 111 139 150 185 134 138 189 142 107 94 103 96 128 158 104 106 121 106 167 91 153 125 68 51 89 63 75 53 45 49 95 132 140 113 104 83 96 89 82 98 121 139 122 115 140 114 148 139 84 113 124 159 157 180 168 127 86 152 72 73 149 70 96 197 123 195 141 146 196 97 106 120 103 207 175 193 107 107 144 210 215 118 130 133 198 94 83 158 132 145 193 196 183 169 123 95 69 187 111 129 195 171 118 84 112 120 171 177 135 178 187 123 88 147 146 71 160 139 113 129 150 186 161 174 94 71 150 110 82 139 130 190 182 90 128 81 43 107 116 132 109 155 116 126 137 139 132 145 112 139 174 141 122 115 87 128 100 182 172 131 191 176 179 102 151 76 141 52 55 93 160 82 73 147 140 149 178 185 185 181 179 189 175 155 168 79 145 154 158 69 73 156 106 92 123 53 53 143 146 130 117 178 195 89 81 172 171 153 182 126 114 181 121 153 144 115 139 86 136 144 156 78 143 76 159 131 165 91 97 85 92 55 158 112 102 95 139 108 145 130 58 145 90 75 145 61 75 64 81 79 84 98 162 99 115 157 173 102 100 97 92 164 91 93 149 148 93 128 111 116 121 165 107 187 87 139 67 115 121 172 198 117 140 119 145 189 192 88 147 69 86 86 89 177 95 73 162 103 139 152 177 162 89 89 96 162 172 164 158 148 123 140 116 168 142 145 193 115 154 141 130 114 110 163 173 163 135 166 187 104 156 158 116 152 172 84 99 91 108 171 199 96 109 164 106 92 103 98 58 56 114 91 66 168 113 149 161 122 173 152 178 106 93 173 152 105 108 38 109 86 177 181 119 108 120 168 176 156 88 141 125 177 95 169 130 72 145 166 175 124 165 133 129 161 116 116 84 160 110 88 93 110 145 153 88 95 196 110 160 92 69 140 157 159 159 170 71 119 115 192 175 126 149 179 132 163 197 174 86 93 76 82 85 181 119 170 212 112 200 196 87 114 82 151 118 105 90 119 140 135 133 134 128 179
138 142 143 137 132 117 120 122 135 148 139 131 132 152 157 169 171 169 154 144 160 158 168 189 180 170 176 180 173 184 191 198 189 176 171 173 190 200 197 193 175 157 157 174 185 166 160 139 147 137 184 146 168 143 117 154 152 169 143 145 130 148 130 181 141 164 120 89 156 118 155 161 160 75 151 122 109 116 94 75 126 119 59 100 51 89 53 56 67 83 111 117 117 86 95 101 122 103 97 113 122 120 120 115 118 112 136 255 103 104 103 111 103 150 99 146 74 109 96 84 118 207 133 189 141 120 109 188 143 105 193 148 192 128 165 101 160 106 207 112 112 103 132 176 84 90 143 114 161 178 167 181 166 160 133 195 174 217 208 201 180 143 194 102 182 130 203 180 185 164 65 143 60 128 80 171 189 147 140 169 121 160 116 113 72 158 186 187 99 158 173 181 177 76 119 61 134 143 134 100 103 104 126 76 73 89 167 162 152 90 144 76 165 168 79 126 93 163 190 120 180 117 176 84 139 139 133 158 160 82 111 158 101 80 79 83 152 188 187 184 195 146 124 154 117 153 153 82 88 132 107 85 113 55 48 53 116 159 91 156 160 177 190 130 164 106 162 190 161 192 208 202 141 178 172 163 147 166 128 167 170 87 113 105 103 127 180 124 98 150 58 159 111 164 195 170 142 158 75 142 57 69 96 67 124 73 77 144 86 147 132 128 92 115 101 176 173 131 87 90 189 160 122 179 94 153 92 114 179 200 111 167 71 161 83 111 89 164 174 188 120 198 194 151 187 88 137 167 85 103 93 142 166 82 121 132 120 191 132 126 124 120 133 115 128 68 159 133 142 88 133 81 126 149 163 115 141 152 197 132 105 160 127 133 115 87 163 152 115 67 72 161 255 99 180 187 131 135 208 99 155 154 132 93 158 117 103 65 152 100 61 73 74 143 157 89 107 154 97 84 86 158 72 83 62 129 77 116 182 102 116 83 173 87 121 123 103 197 112 184 112 82 70 150 129 178 85 131 145 162 157 171 151 138 85 83 176 128 200 184 149 100 80 79 92 167 160 104 177 99 51 124 80 170 102 111 174 100 174 118 126 208 164 203 138 85 163 123 93 91 186 135 137 105 190 140 198 134 183 85 143 96 114 134 139 122 181 107 123 215 151 202
148 153 157 151 143 132 131 132 137 136 131 135 136 154 173 174 168 156 135 144 153 176 172 183 188 180 180 165 166 172 177 192 190 185 174 184 190 204 206 193 174 154 150 163 181 173 191 180 182 185 175 158 171 162 128 119 165 141 170 129 170 178 183 174 186 143 171 88 108 90 151 80 108 115 76 157 133 104 136 76 126 98 76 94 66 65 104 87 80 110 93 101 100 154 131 88 99 126 98 121 141 136 139 112 140 118 124 115 86 108 101 124 165 99 69 69 78 158 141 162 134 181 215 129 199 112 180 181 75 78 99 100 180 108 199 139 189 98 90 127 156 183 170 175 175 80 167 168 161 186 174 92 181 93 180 183 140 121 169 161 187 139 164 163 174 178 143 117 162 112 133 56 72 134 116 113 92 135 181 210 122 255 109 83 77 174 108 193 109 168 96 91 174 150 65 63 117 74 127 89 120 152 133 131 152 143 163 158 127 82 87 158 81 84 92 170 156 168 186 187 139 87 133 109 169 157 139 91 184 116 96 89 136 118 166 148 94 136 185 202 114 179 77 68 71 130 149 63 121 108 58 74 82 87 93 58 156 164 120 149 204 213 194 170 153 128 179 134 212 199 147 154 154 131 128 134 73 118 113 84 95 93 133 126 120 210 166 114 111 154 77 167 110 111 94 189 133 127 108 166 118 174 147 74 66 73 84 135 118 199 148 142 101 135 82 109 115 176 182 93 120 97 106 162 120 141 104 76 96 180 180 81 103 108 75 118 85 162 179 109 157 189 97 179 149 184 113 179 182 96 195 149 172 166 97 86 95 181 193 153 106 85 150 174 112 125 139 90 145 124 168 164 110 106 79 173 192 169 114 172 166 95 115 171 167 104 102 172 88 139 113 95 90 127 159 182 106 111 135 180 176 171 158 101 87 179 102 94 149 83 103 141 121 134 112 134 89 124 161 123 172 157 116 149 149 96 96 91 112 142 181 166 162 122 188 212 205 211 130 107 180 91 133 137 103 174 158 125 175 162 155 85 177 165 87 181 128 213 196 192 126 167 128 143 171 197 202 178 159 122 130 96 97 128 89 101 191 138 105 199 210 118 135 103 116 171 86 120 133 125 128 102 131 180 145 123 110 129 138 175 121 127 69 92 88 184 102 122 181 156 164 128
160 166 170 171 166 158 141 135 130 136 136 148 144 170 167 172 155 131 135 135 167 185 179 189 191 181 168 171 157 166 175 187 189 192 186 193 202 208 218 206 180 156 157 171 188 188 195 174 192 194 174 192 188 177 162 109 107 155 170 150 163 133 134 145 153 156 103 135 149 146 155 149 77 70 95 110 161 81 81 87 80 118 65 82 89 85 134 143 98 97 123 116 106 101 96 93 95 90 92 107 146 117 126 154 139 93 92 90 109 104 97 173 156 86 87 84 70 97 93 106 134 180 163 125 146 120 103 120 130 169 78 126 84 133 93 103 175 79 108 110 92 152 118 95 109 169 99 128 164 151 198 182 118 181 146 187 122 210 208 200 206 139 168 186 125 183 138 179 124 134 140 91 125 58 79 103 82 166 202 141 204 103 186 183 85 96 113 154 164 113 133 190 165 83 175 112 163 149 75 160 157 55 51 59 133 114 86 79 80 154 115 153 166 175 105 154 172 170 177 171 93 106 180 180 172 165 158 104 120 187 108 88 69 117 116 184 145 190 144 198 106 157 120 173 163 71 80 131 63 52 65 146 162 137 153 75 120 127 152 168 131 160 167 144 71 91 76 123 114 112 201 97 167 81 152 87 168 80 157 95 181 131 192 101 121 118 180 159 72 79 99 68 71 155 79 169 186 193 95 112 156 172 97 144 75 108 91 112 126 134 167 129 100 173 89 91 181 107 122 170 180 93 162 102 151 71 108 118 156 103 113 113 188 168 153 168 157 94 178 181 194 92 174 144 193 182 196 116 139 185 185 145 147 200 97 179 142 88 90 128 89 166 178 125 179 115 167 165 153 161 78 72 54 129 55 94 176 209 124 203 172 153 97 179 141 255 127 153 136 161 76 139 168 79 150 93 131 100 121 111 76 156 89 108 95 95 169 105 107 173 65 141 54 50 152 159 79 174 81 141 116 127 124 96 90 172 104 181 168 107 180 88 144 158 126 200 128 126 187 108 107 158 151 74 162 96 178 177 142 176 88 88 156 164 150 107 188 122 217 201 106 183 170 109 158 177 121 196 95 93 136 169 176 157 145 109 190 137 180 128 140 145 112 115 178 78 151 168 132 136 94 176 125 192 164 188 113 145 82 147 95 111 156 168 178 143 181 87 139 211 180 157
165 169 174 175 179 173 161 145 130 130 129 154 161 182 173 158 153 143 140 156 163 183 181 186 186 178 171 168 151 166 173 182 190 190 195 196 196 209 215 210 186 164 162 173 179 192 169 189 165 171 189 164 201 191 181 116 128 151 106 183 161 148 134 145 136 112 140 90 76 133 96 104 79 106 115 82 94 140 109 97 95 148 94 135 95 124 127 149 110 112 139 112 118 105 97 92 103 106 89 93 104 144 115 107 92 124 74 103 93 126 168 157 123 93 113 144 123 130 108 190 182 132 118 109 109 94 88 100 161 175 179 111 121 93 87 185 77 99 163 166 156 177 133 186 106 141 167 165 192 192 124 108 182 147 180 192 160 165 167 190 167 183 123 92 92 137 117 155 73 82 129 105 76 83 78 138 87 104 178 130 157 195 136 161 163 108 142 165 206 147 106 167 168 186 159 150 157 69 89 84 128 112 152 158 159 151 126 90 181 104 192 192 160 102 118 135 93 73 168 179 91 94 105 184 122 162 137 120 82 134 175 171 169 168 174 180 169 109 97 118 201 203 115 91 172 72 149 144 135 110 75 63 78 150 170 167 110 141 192 206 133 128 122 110 117 158 163 138 194 119 160 93 94 87 126 121 123 152 119 134 100 185 105 132 165 127 147 96 160 82 109 113 165 99 74 159 112 133 95 161 188 116 120 140 123 81 81 160 165 115 160 201 109 136 118 128 110 190 158 173 79 144 151 83 89 134 98 84 97 129 189 136 148 129 180 95 184 92 172 126 172 135 93 100 103 191 193 176 186 129 105 189 129 166 149 126 89 80 173 185 164 93 131 97 101 116 156 77 133 53 132 44 40 30 55 67 193 214 219 216 146 117 140 134 133 64 151 56 154 162 174 122 78 114 151 67 83 132 102 125 124 161 84 84 178 134 149 120 128 97 105 60 61 82 89 121 110 86 107 100 135 180 102 186 200 208 145 201 110 98 177 87 100 162 80 140 188 217 125 139 71 83 138 150 152 75 128 177 99 174 146 97 182 128 179 163 122 174 210 209 172 157 157 131 182 179 177 165 154 173 122 89 159 140 175 81 85 150 85 191 147 125 104 157 100 155 109 126 74 76 104 137 94 188 189 117 118 86 97 133 150 108 143 98 101 180 97 173 180 150 139 198
150 157 164 174 183 178 167 138 128 118 137 145 174 179 183 160 151 136 157 159 179 188 184 183 178 170 164 167 155 175 174 186 188 187 188 191 197 202 200 199 175 178 173 171 187 157 148 165 177 193 205 207 174 197 164 143 142 150 172 132 176 115 132 120 143 163 78 146 147 144 85 162 125 131 127 75 126 125 134 81 143 86 95 180 111 117 144 115 116 124 153 137 132 124 116 81 123 99 72 118 117 137 95 113 94 93 86 107 91 83 91 111 130 93 131 117 65 61 76 172 117 112 144 197 119 88 87 107 92 146 156 77 160 71 79 177 157 103 80 105 96 195 155 119 102 183 178 125 179 207 144 179 190 183 126 195 200 203 202 152 129 105 141 150 165 108 182 181 78 140 45 57 128 126 124 128 128 126 174 184 150 90 128 91 140 132 134 133 109 159 180 165 94 95 135 79 148 144 141 156 124 141 152 137 99 100 100 91 112 100 165 120 133 101 155 162 81 129 92 184 186 90 145 127 180 182 77 100 166 154 128 171 104 89 88 185 130 177 90 192 192 116 193 99 166 119 88 74 121 72 93 142 77 180 84 162 75 134 141 105 109 105 165 174 147 107 74 122 127 93 144 152 160 128 126 172 148 89 131 148 108 91 187 129 98 181 174 190 125 100 150 80 77 91 117 79 171 117 91 136 124 196 182 105 109 167 151 141 96 88 156 164 122 145 137 157 154 130 133 106 103 74 156 68 155 105 133 109 151 84 198 166 190 198 144 104 185 128 90 189 186 113 190 173 99 91 159 159 178 154 177 154 120 202 172 197 180 159 165 134 117 94 164 96 174 153 109 82 115 133 125 41 80 130 71 164 194 192 206 225 133 125 137 127 161 141 138 123 151 143 169 182 174 66 89 100 163 94 102 75 122 122 64 158 138 97 122 188 134 97 88 52 82 75 116 53 67 168 159 158 118 193 121 119 134 115 204 177 133 104 93 168 128 57 60 179 157 187 99 101 108 51 42 53 97 121 100 134 185 122 192 159 86 99 104 131 154 175 132 166 127 196 184 96 122 144 204 105 182 139 107 152 82 153 121 153 127 91 159 88 100 167 194 159 128 109 63 144 59 151 124 180 97 162 134 76 98 164 80 118 105 139 102 181 92 108 126 167 90 98 172 154
136 142 154 169 179 182 173 144 127 130 128 155 173 188 183 178 164 159 180 170 187 179 184 187 186 176 170 168 167 181 202 191 189 171 163 169 175 178 182 179 166 173 176 174 181 173 155 159 179 190 193 163 174 195 136 113 152 102 130 129 134 128 165 161 152 129 114 255 155 116 91 111 122 87 111 87 91 146 154 101 105 106 114 115 149 109 128 158 167 119 129 131 131 135 81 90 75 60 100 107 100 94 121 126 105 111 105 134 115 90 89 95 104 156 93 109 84 64 75 95 142 188 142 113 147 181 79 169 79 184 182 121 141 164 77 173 152 72 150 136 84 88 178 118 161 140 125 154 160 135 206 109 195 95 122 105 207 206 132 191 186 103 93 108 154 120 184 162 143 128 55 46 94 118 51 104 82 129 158 174 166 97 144 70 172 103 89 160 173 188 92 82 77 153 96 129 73 84 68 147 139 70 173 85 164 87 176 114 162 201 124 140 204 102 159 133 141 163 149 149 162 118 99 117 176 119 170 141 173 178 152 149 118 96 152 118 79 89 91 163 99 97 98 185 98 148 137 168 126 128 144 166 171 162 123 167 103 163 146 90 184 182 91 150 166 142 137 141 182 127 74 138 147 162 128 79 93 172 128 170 101 186 145 181 115 173 78 77 79 149 97 153 178 192 95 83 74 146 78 142 172 89 90 117 81 82 166 85 135 101 86 161 105 111 184 122 224 192 128 128 185 101 126 158 76 144 163 178 115 94 161 133 157 194 177 111 125 121 179 83 116 185 191 102 95 80 101 114 85 68 158 172 103 187 108 108 124 166 120 143 95 181 178 160 146 159 158 113 134 55 131 42 39 38 140 168 185 130 158 160 152 198 190 168 156 133 137 88 159 171 81 74 94 104 91 137 184 94 162 131 115 69 76 129 89 105 187 126 155 89 66 57 109 64 138 147 132 180 94 193 127 191 109 194 137 168 112 128 164 172 123 77 72 75 80 164 102 123 103 81 71 57 106 84 54 121 73 184 97 197 191 174 186 184 95 174 133 142 154 126 168 144 98 187 101 193 168 180 96 122 88 132 155 70 151 149 81 73 69 115 156 104 90 165 175 112 64 95 29 43 136 143 163 132 114 120 105 150 106 97 124 180 89 94 114 177 77 154 123 182 186 117
132 136 142 157 170 182 180 160 139 142 137 156 167 178 176 183 191 187 185 197 203 201 197 196 196 178 177 174 192 210 218 206 189 161 152 149 150 162 161 164 171 167 172 170 184 171 164 160 174 149 180 164 199 151 169 125 159 137 177 166 141 167 139 175 146 83 94 130 139 88 155 84 160 145 109 102 113 165 89 91 80 141 157 171 155 172 120 86 95 109 116 122 131 103 76 105 80 77 97 95 106 96 130 90 125 106 100 96 121 163 150 93 128 70 95 87 54 65 77 139 187 174 103 113 98 86 88 88 80 84 92 71 59 68 169 147 145 74 168 156 63 149 105 125 176 161 160 84 195 185 125 124 94 169 161 187 175 201 180 184 154 100 168 103 132 115 170 119 100 67 109 67 121 84 46 147 130 82 175 84 107 142 116 98 123 162 124 112 127 165 169 99 94 129 101 122 124 56 63 149 165 143 108 111 111 87 145 135 112 187 192 126 170 111 83 159 131 73 68 105 152 114 180 156 109 99 96 122 121 186 88 100 131 115 178 162 180 163 92 195 173 190 176 119 169 161 178 172 156 146 102 163 149 181 113 101 180 96 105 108 144 76 149 98 114 179 169 139 136 173 67 76 148 134 115 94 143 105 107 116 133 100 84 156 117 166 141 98 65 115 68 76 154 134 169 87 71 67 71 72 131 73 128 124 73 109 169 165 135 76 90 81 102 147 113 154 204 116 209 147 189 107 163 88 102 92 123 131 181 193 106 164 206 138 108 171 135 80 106 102 160 98 130 146 84 100 86 80 106 104 72 75 116 137 183 136 74 70 161 92 163 87 88 155 140 64 60 66 50 101 123 138 114 108 76 99 176 202 214 214 194 204 163 114 82 100 107 156 157 139 159 162 129 170 182 107 99 152 187 192 84 132 173 74 71 165 167 173 171 129 82 145 66 160 162 110 120 169 176 173 148 91 105 146 121 180 140 82 104 123 102 148 41 66 54 85 200 178 164 165 169 82 59 94 107 154 173 159 192 208 205 151 119 109 112 196 192 181 144 124 134 99 141 88 187 103 103 132 169 130 85 144 72 117 120 154 77 86 123 163 163 147 76 76 111 172 76 65 66 139 64 125 145 133 63 104 99 191 182 168 103 151 185 163 168 86 167 67 73 135 167 129
141 142 143 147 163 177 185 185 170 155 155 161 169 181 188 180 197 204 202 203 205 207 191 203 199 184 188 198 210 227 230 214 183 156 141 135 141 145 146 159 171 183 175 173 194 183 186 181 178 159 191 173 189 188 179 171 149 123 188 132 146 127 163 116 160 88 93 63 129 103 103 113 142 124 127 102 152 177 96 149 111 152 81 92 100 135 122 80 140 104 171 116 121 77 55 63 80 74 80 100 138 138 121 104 103 129 148 129 126 130 132 109 74 80 111 64 90 85 133 255 125 105 181 178 86 74 114 169 160 88 94 83 148 70 137 162 176 144 108 67 146 73 52 63 161 91 134 178 95 188 130 147 87 170 152 184 189 136 115 157 90 62 140 122 83 192 122 135 132 140 95 61 61 147 136 148 111 157 81 148 150 154 135 150 117 164 131 151 109 92 107 58 103 96 111 152 153 116 166 168 138 131 126 111 150 145 104 86 179 196 132 208 166 99 111 148 74 151 55 90 123 102 101 95 92 166 156 93 158 99 193 168 130 170 176 169 147 146 162 190 187 184 109 146 119 107 90 177 150 99 164 79 173 183 179 149 159 159 139 72 175 178 134 78 126 105 130 122 161 171 76 61 88 166 129 147 100 105 187 96 151 96 144 102 95 69 72 62 153 71 169 187 123 197 115 176 162 104 69 90 92 157 140 79 95 181 178 114 145 104 99 84 112 165 104 191 102 110 168 139 214 140 169 100 97 196 131 192 102 142 174 157 196 146 153 98 66 153 85 110 170 172 187 87 157 93 124 76 154 95 158 110 174 180 91 93 98 65 140 151 105 122 92 71 100 115 90 146 50 88 142 81 50 145 116 116 180 174 199 192 145 160 110 115 153 152 157 102 118 167 68 61 83 150 153 98 162 147 188 191 88 167 136 161 158 81 96 163 109 105 187 95 117 164 121 188 117 144 179 110 172 182 94 80 85 168 171 83 177 117 113 113 76 94 160 162 192 209 210 176 139 129 145 109 147 163 130 187 198 142 127 123 172 169 189 103 196 166 108 56 93 92 153 94 186 134 154 188 197 95 96 169 90 115 124 157 151 92 171 141 110 87 124 94 101 86 70 124 141 114 59 66 85 55 93 75 146 125 96 153 174 123 114 103 91 86 158 124 178 175 126 150
149 148 144 145 150 170 185 192 193 178 177 175 176 171 177 168 187 196 204 204 205 209 203 194 205 200 212 218 226 238 226 210 185 162 150 143 151 150 148 168 178 194 193 187 189 202 193 195 180 177 145 198 187 163 165 176 123 155 179 144 175 148 165 144 147 86 144 97 78 131 104 172 107 102 104 152 107 110 120 85 88 104 144 114 85 92 142 81 124 106 151 94 79 77 53 67 66 70 101 104 113 130 111 118 135 121 109 128 152 152 129 115 121 60 88 78 98 103 166 134 130 188 99 90 111 161 66 80 180 134 103 100 90 77 152 102 146 143 70 154 50 139 49 155 67 160 142 99 91 157 193 159 77 82 165 126 182 175 137 165 103 113 93 148 171 150 177 206 197 169 162 158 164 165 129 194 172 115 167 87 154 165 98 99 135 165 138 128 161 164 73 140 140 147 157 137 161 83 85 119 94 166 163 63 154 152 96 74 182 185 204 187 184 104 79 153 79 157 84 55 143 144 75 176 172 97 75 76 143 116 109 198 190 186 186 109 122 87 106 186 142 165 181 182 160 116 118 80 143 74 132 75 80 163 172 166 96 108 172 176 97 122 90 171 160 106 164 168 90 171 90 106 101 87 153 179 134 98 143 127 112 48 124 88 139 81 174 118 91 136 194 111 153 101 90 106 106 112 128 155 63 113 58 70 183 188 101 89 138 86 174 157 111 163 97 179 86 105 192 163 211 226 212 115 132 105 127 179 213 184 198 191 125 120 198 78 126 73 145 138 150 82 141 85 102 128 163 188 84 109 155 153 159 170 135 162 59 141 151 60 78 171 166 80 57 144 115 119 94 90 133 133 135 104 97 81 169 156 124 104 164 176 107 171 165 164 176 86 131 144 50 57 148 169 169 194 114 123 136 85 155 152 152 149 173 102 183 190 103 166 186 140 202 118 200 104 96 93 174 92 109 102 124 166 103 87 164 114 184 155 94 151 138 126 172 185 115 181 116 103 183 163 168 150 147 98 173 185 124 110 200 183 89 130 177 178 152 130 53 134 122 86 130 164 162 99 100 167 201 105 255 156 91 106 165 149 127 163 99 115 95 71 167 141 158 182 98 109 143 149 62 93 138 64 143 163 185 171 192 97 87 72 74 120 168 141 125 117 136 195 158 134
143 148 150 154 158 162 175 190 189 192 184 186 174 162 173 158 177 197 208 210 215 197 200 198 198 204 211 221 239 236 231 204 186 172 168 165 161 156 163 180 195 185 195 184 187 167 172 171 171 160 163 169 197 151 165 152 178 126 146 176 189 166 184 141 152 141 152 158 155 162 141 119 135 96 142 134 160 183 104 99 105 65 71 156 153 126 76 86 149 117 110 118 108 84 114 58 68 87 72 93 122 112 147 118 105 126 108 138 159 119 113 131 71 93 135 150 112 117 185 130 170 155 105 97 74 98 67 157 99 131 148 121 90 78 150 127 79 163 82 171 112 63 138 132 122 151 88 85 173 87 136 180 151 83 146 150 172 144 112 165 126 147 90 126 145 122 171 156 216 174 136 155 180 194 113 115 199 106 74 119 164 171 180 100 112 201 204 163 139 155 148 78 144 112 135 135 89 137 98 189 192 96 69 86 103 150 59 164 136 158 204 98 164 170 154 87 73 155 131 51 134 157 147 115 103 102 155 161 122 103 144 110 177 101 95 181 172 90 100 99 179 77 108 119 91 166 84 94 136 103 102 133 163 135 140 61 106 133 158 185 208 169 130 155 121 86 170 90 85 145 179 125 132 181 161 93 86 108 75 69 38 103 131 60 84 115 199 150 126 136 184 132 170 197 138 108 76 166 74 97 155 135 112 82 190 147 130 122 72 114 183 99 156 202 188 81 66 147 114 211 171 178 209 112 114 109 103 126 118 134 147 202 201 130 161 79 55 117 132 96 75 124 108 85 171 120 167 161 195 91 85 141 160 76 93 106 130 67 144 122 138 131 143 90 162 151 138 74 90 104 167 93 123 76 117 86 158 79 84 148 65 93 83 85 85 118 175 184 172 153 151 127 127 96 168 101 99 92 179 163 151 132 101 186 102 171 97 195 195 126 118 175 122 128 219 197 178 167 111 139 123 164 170 148 70 108 81 180 190 187 151 147 71 154 87 90 96 139 131 156 118 85 171 172 86 76 161 105 98 202 114 181 135 168 106 136 126 144 81 100 57 69 171 104 168 161 118 190 178 113 210 113 107 123 169 166 103 73 165 165 159 125 91 131 156 99 185 144 92 71 163 134 51 42 48 72 190 196 140 177 138 76 175 103 160 83 74 174 173 98 116 194
133 141 151 159 158 157 164 167 178 186 182 185 174 164 166 163 168 180 182 196 201 198 178 182 184 199 207 226 233 228 213 202 188 183 185 185 174 159 174 180 202 199 189 167 152 153 190 193 182 149 154 147 191 198 198 134 128 132 164 112 133 169 147 139 102 77 138 108 120 104 148 95 105 102 129 161 107 155 123 86 77 67 68 98 147 85 116 151 149 95 116 76 91 74 67 56 48 56 58 75 100 103 124 144 102 102 147 108 146 109 119 123 133 100 89 157 135 136 179 143 179 143 180 90 71 77 105 150 184 213 200 117 102 93 158 164 167 145 98 185 172 69 64 162 75 92 89 86 166 107 163 161 187 178 172 86 146 97 140 133 173 83 77 153 110 169 138 176 181 195 178 147 124 138 196 111 188 178 93 98 118 181 146 139 207 175 168 216 200 204 148 135 55 59 130 152 117 99 151 107 111 89 147 147 88 100 155 162 87 95 178 165 95 165 84 174 98 106 124 70 96 173 178 130 156 125 152 135 113 97 152 195 138 162 96 109 182 194 171 141 78 132 151 172 176 160 186 86 175 80 98 173 104 113 158 145 255 86 131 215 141 199 135 106 95 90 161 159 180 130 184 136 171 103 100 170 105 79 58 37 45 87 96 77 166 112 123 223 221 174 124 135 153 123 143 113 129 90 125 154 160 157 77 122 92 111 96 119 69 157 111 108 146 158 181 102 65 135 90 121 125 143 146 191 92 90 183 109 206 183 125 115 166 193 105 138 143 46 54 108 92 101 137 140 167 84 105 210 116 164 149 127 153 68 133 123 65 89 45 52 160 99 196 97 160 147 63 118 158 113 149 88 123 105 102 159 67 129 86 144 81 157 148 84 177 158 161 166 95 150 143 138 112 176 196 93 81 151 137 153 77 95 114 116 127 92 87 162 121 119 140 198 120 215 132 180 178 134 138 73 171 128 164 144 134 163 81 120 135 173 202 140 114 82 170 170 130 175 89 160 88 75 174 125 181 109 151 116 161 156 195 181 177 168 160 70 123 96 40 43 150 64 111 75 102 134 87 173 180 209 131 179 153 96 100 150 91 160 164 160 82 160 160 95 198 118 123 107 97 95 180 173 66 49 68 166 96 118 195 99 131 141 155 141 168 87 92 92 125 94 85 181
118 132 148 162 164 157 152 142 153 158 179 183 179 171 162 163 157 179 177 192 188 178 171 163 178 188 204 204 214 206 202 195 185 189 189 187 178 172 172 176 192 198 167 174 150 146 177 182 175 173 179 173 179 164 163 151 170 107 110 131 159 123 155 160 131 148 99 108 174 91 149 96 94 113 109 147 121 90 151 165 119 78 94 76 63 107 128 146 104 98 141 89 87 80 90 84 52 56 97 103 82 144 146 105 87 107 115 116 126 174 128 115 86 116 99 116 195 140 183 165 125 135 103 89 81 160 152 185 115 126 199 98 93 165 78 119 98 255 194 198 110 180 76 169 160 176 86 122 188 184 95 97 144 101 134 158 122 136 132 187 121 127 94 176 171 169 199 163 220 187 162 189 113 148 179 106 189 139 137 97 109 83 164 174 216 171 170 147 230 152 136 169 117 110 152 75 86 104 198 205 184 173 164 72 141 102 115 103 89 151 183 123 170 142 78 140 107 94 143 80 100 160 193 159 188 96 145 113 85 102 194 143 195 187 190 95 197 111 186 199 91 162 99 132 103 197 143 170 164 163 152 114 124 177 119 169 109 114 193 205 136 142 212 162 99 116 164 83 184 128 171 190 158 118 107 101 128 81 142 74 65 108 53 149 91 160 128 165 131 175 196 90 86 96 91 168 92 120 104 113 187 140 107 85 100 115 120 131 69 61 67 123 93 84 84 90 104 160 96 134 131 160 107 172 115 168 162 111 140 104 130 190 182 165 155 157 96 92 69 104 91 96 128 69 131 107 108 200 110 114 172 104 171 165 115 147 138 135 135 144 141 116 118 194 143 149 101 107 89 188 96 167 146 167 107 147 79 67 76 86 66 123 127 182 105 141 193 181 82 148 70 168 102 114 177 177 143 97 115 94 61 168 173 116 99 76 161 177 108 188 147 111 122 174 179 162 142 125 63 134 111 82 166 164 109 72 83 179 112 205 158 206 141 128 77 61 146 126 84 179 175 107 81 125 105 87 159 160 73 152 126 103 106 125 94 144 158 121 91 134 116 154 74 124 76 134 175 103 145 145 101 146 154 145 170 162 115 102 109 95 97 107 131 114 184 118 162 87 88 109 162 194 110 75 60 157 119 175 105 122 193 188 151 127 191 91 87 167 180 168 127 152
112 124 140 151 155 144 133 128 136 150 166 168 181 177 182 177 255 161 170 175 183 174 174 164 180 187 187 184 182 182 187 180 180 189 188 191 180 172 175 185 194 202 179 185 170 166 157 172 181 171 166 177 159 147 166 255 124 152 141 82 145 139 153 146 103 136 147 87 90 133 148 157 125 168 96 114 147 130 111 149 94 147 107 65 84 126 121 94 104 164 91 82 85 137 134 86 86 80 49 62 78 101 97 90 79 133 123 126 122 180 109 86 122 96 109 109 175 159 184 172 164 113 171 94 151 124 123 112 205 163 198 144 166 75 73 122 129 121 209 209 185 172 84 82 108 183 103 180 197 190 175 155 190 186 165 149 181 143 132 191 186 169 194 156 99 126 159 173 180 105 197 118 193 146 193 112 93 177 127 159 97 163 167 177 215 131 235 167 140 205 148 80 91 112 155 72 120 192 105 122 105 188 182 114 94 111 102 152 140 190 83 132 148 169 81 81 153 71 77 80 115 94 144 198 125 153 140 164 93 185 142 121 107 188 194 124 120 183 126 207 116 142 126 95 188 210 113 193 176 167 100 177 143 187 139 187 182 166 185 220 149 186 139 158 185 98 107 97 175 195 165 180 123 185 131 104 97 177 172 74 151 110 72 104 174 104 210 195 126 112 126 115 92 110 138 89 117 116 113 180 108 106 90 74 105 159 121 76 93 93 60 97 114 147 99 75 112 146 184 105 124 95 165 162 74 65 67 156 150 88 185 92 167 84 61 59 143 102 72 72 102 165 174 121 72 72 98 96 155 119 255 117 168 87 130 111 157 72 153 154 164 155 149 173 114 77 168 149 175 108 169 86 115 112 255 164 162 68 151 136 134 103 125 157 167 230 193 188 161 136 159 78 155 202 188 165 65 105 65 115 67 179 146 90 161 136 165 139 114 193 168 103 186 125 255 92 165 83 143 174 125 88 165 163 70 114 110 174 133 162 137 207 197 155 118 89 62 69 183 142 89 177 135 86 186 127 135 71 65 174 121 148 130 123 197 156 157 173 111 84 98 168 126 87 120 161 89 161 133 127 181 124 151 94 171 107 128 110 97 106 98 114 145 116 172 191 108 147 190 108 186 147 176 157 87 65 79 170 156 98 164 122 193 174 201 105 144 88 143 73 52 68
100 113 127 140 141 135 123 115 125 122 149 159 180 194 193 189 170 182 181 187 177 179 181 189 187 179 189 176 166 168 176 184 193 195 192 189 181 181 173 176 189 199 183 187 178 174 171 173 172 175 132 176 163 166 156 112 119 130 131 80 114 134 85 110 112 126 174 115 82 109 154 165 164 113 112 80 141 124 71 116 102 110 95 99 72 63 73 106 127 105 90 103 88 129 82 86 85 68 107 98 107 99 88 80 73 117 107 156 135 109 91 118 73 147 146 90 101 152 140 101 126 110 103 99 103 194 205 196 183 132 127 72 64 161 170 183 200 115 163 206 121 90 116 98 161 184 187 103 111 173 176 182 188 182 201 195 180 177 149 132 177 130 134 137 91 180 113 181 172 182 153 181 103 186 195 191 118 132 174 152 73 78 190 190 209 185 122 183 138 222 196 113 158 125 55 163 144 172 86 103 123 174 76 152 151 196 120 204 111 155 132 115 101 148 82 79 144 102 87 177 187 103 205 217 140 104 132 163 174 118 172 162 179 92 108 195 157 226 176 151 200 180 190 255 126 205 202 124 134 199 92 137 179 160 117 163 199 193 166 195 159 222 196 152 200 182 138 133 176 186 179 111 145 89 102 125 103 97 193 95 86 138 82 93 172 151 172 205 162 111 112 123 97 176 105 94 97 126 143 158 125 255 142 68 143 151 52 73 102 64 65 85 153 74 68 113 153 80 150 96 129 74 135 91 108 129 103 66 174 136 124 176 114 135 45 47 144 148 132 76 96 99 125 100 112 98 168 105 113 83 122 94 88 158 154 73 66 140 123 153 94 95 92 147 133 77 111 176 84 98 128 98 168 175 180 179 90 132 255 144 135 185 108 173 173 234 156 207 108 153 107 84 188 134 190 86 134 60 152 125 167 87 124 170 153 85 77 136 138 162 131 104 185 151 83 112 160 160 132 180 103 99 158 86 96 168 118 146 112 172 107 179 89 150 82 158 72 150 87 191 189 91 81 157 178 100 155 122 154 100 118 180 125 147 213 128 182 100 121 88 83 170 94 115 182 113 94 93 129 134 189 93 116 151 104 172 78 81 74 105 107 138 126 98 198 149 113 131 194 202 147 168 130 164 96 88 60 75 151 99 127 166 185 170 167 161 76 68 82 255 131 131
97 106 115 121 120 123 117 119 122 128 143 153 172 179 195 188 179 197 179 181 179 187 179 190 202 197 187 170 158 158 172 186 200 201 195 195 193 187 175 181 187 194 182 184 175 171 169 148 164 138 169 165 162 136 149 126 152 164 93 126 99 115 78 143 176 173 149 134 158 146 94 169 165 157 139 134 60 71 140 82 96 104 104 128 89 132 77 85 94 99 112 142 86 107 110 92 97 95 109 104 126 88 98 67 107 105 107 112 154 148 74 88 68 56 63 82 108 87 117 102 105 139 151 101 95 115 177 208 195 129 121 159 117 158 74 186 200 207 154 124 113 179 153 94 107 179 141 104 163 190 149 166 176 158 166 100 101 148 100 159 182 167 124 86 174 100 135 154 111 99 179 178 121 126 160 172 174 123 191 180 151 113 120 132 127 104 103 142 225 159 187 101 54 132 139 66 120 156 130 60 130 68 63 170 124 106 148 193 177 131 84 114 70 120 81 79 81 78 91 140 188 107 154 132 127 184 101 136 172 162 125 161 160 141 157 135 156 225 188 159 205 180 128 131 198 200 168 113 200 145 120 255 98 86 184 136 155 181 193 151 217 220 137 175 163 151 175 125 166 175 115 102 160 145 186 190 141 153 175 192 123 123 176 75 163 90 125 123 163 126 98 117 138 189 111 108 114 192 163 166 196 123 163 158 115 107 111 93 62 133 87 71 80 157 95 83 141 153 76 94 77 66 56 55 129 118 41 74 122 105 169 185 171 68 56 142 85 155 69 172 94 191 90 85 122 109 144 165 172 91 164 115 133 148 146 89 68 88 160 165 170 136 183 157 146 157 157 85 185 181 104 171 180 99 134 192 138 100 86 168 155 107 196 201 197 131 188 153 148 188 159 111 125 194 156 159 158 128 74 174 136 186 99 153 150 172 90 81 100 176 102 178 186 160 182 80 79 166 134 102 133 106 163 84 105 72 87 168 161 169 179 157 181 97 113 137 158 125 183 157 186 109 96 137 102 148 165 156 69 132 188 192 173 206 212 146 119 121 190 190 132 133 89 133 89 141 155 52 155 94 184 133 120 143 127 98 112 92 125 113 133 152 125 80 103 193 170 104 156 146 155 106 111 117 149 144 67 139 144 71 92 145 195 128 189 89 147 63 68 66 101 147
101 108 114 112 110 111 121 120 125 131 135 145 151 175 175 177 192 195 192 199 196 194 193 193 199 187 179 162 151 154 172 189 199 202 195 196 193 189 185 178 174 176 178 164 155 166 149 128 141 126 127 149 118 158 132 120 112 142 124 143 112 129 105 98 174 146 100 94 89 172 135 168 171 157 146 147 60 65 78 69 107 143 129 179 145 86 86 121 113 88 91 131 82 85 95 85 108 105 89 85 87 69 62 70 77 97 107 140 123 69 53 68 63 79 85 71 142 97 118 104 101 153 91 105 172 101 143 105 146 156 169 159 154 105 134 96 192 98 96 104 160 153 111 184 134 181 118 182 197 178 106 87 93 143 113 150 164 149 121 124 170 187 104 152 141 130 110 180 143 163 169 93 108 193 104 178 169 188 152 120 178 162 96 164 110 127 78 190 187 205 201 95 95 66 69 109 140 83 36 117 136 125 55 67 99 84 113 183 84 99 70 62 99 129 155 140 100 123 171 150 78 86 152 201 196 214 202 171 172 72 156 84 78 180 103 179 137 175 140 220 205 207 116 111 127 144 197 255 93 164 173 169 179 180 120 99 193 198 195 142 183 138 181 161 85 76 175 174 194 175 145 158 115 108 141 144 166 92 175 173 192 97 126 168 129 131 79 189 174 179 174 104 205 174 118 114 127 210 152 185 189 86 67 154 105 72 79 91 166 87 175 187 85 127 152 49 69 60 97 77 70 105 127 95 145 46 43 86 93 113 93 171 85 81 82 174 102 99 116 153 118 141 98 154 179 92 158 71 95 105 208 192 161 87 155 82 167 111 135 175 87 117 95 161 117 113 160 93 112 164 164 142 195 124 158 119 195 150 173 168 112 189 185 197 203 162 119 185 201 102 185 109 197 101 94 160 84 74 103 150 90 104 187 123 169 106 77 172 137 161 162 170 131 107 166 150 160 79 168 88 170 163 180 102 255 93 105 81 150 149 75 84 169 168 183 93 165 79 167 126 142 106 158 78 170 80 172 166 91 151 178 174 113 120 133 133 210 136 169 197 124 169 180 168 142 166 147 66 77 139 150 132 198 170 86 80 64 138 116 139 113 145 86 147 163 136 173 138 93 101 174 89 91 80 96 141 120 141 86 139 157 162 112 115 115 79 124 73 69 155 143 100
128 127 123 115 108 113 117 123 140 134 136 130 142 146 157 169 183 192 209 209 205 195 175 184 178 177 166 155 140 155 172 189 200 202 200 191 193 192 188 186 183 176 170 164 148 165 141 155 130 139 167 167 115 160 139 116 158 124 169 96 149 96 113 162 153 101 169 97 154 113 92 112 71 66 146 71 127 115 134 59 117 104 97 146 130 133 140 98 110 98 104 96 148 111 76 76 85 91 114 91 74 65 109 75 108 118 113 134 118 110 50 66 48 60 105 76 72 109 129 117 167 96 85 60 115 85 190 175 116 165 122 74 69 73 85 143 180 179 77 164 150 150 159 88 127 128 203 205 173 188 176 175 163 173 140 157 85 147 150 124 144 180 161 120 118 148 137 95 178 98 150 131 180 134 137 136 140 185 123 123 114 156 85 154 80 149 98 177 113 141 201 177 139 39 75 135 133 80 92 64 140 130 98 255 158 160 163 145 110 97 168 62 163 89 139 151 109 144 86 133 91 158 99 127 195 206 199 100 119 143 153 164 78 100 109 193 124 126 204 158 114 114 190 128 204 198 170 87 97 85 88 184 97 167 95 171 156 78 174 142 183 112 71 53 145 139 95 113 93 115 166 149 145 106 153 90 158 117 83 93 110 108 101 104 78 71 172 92 197 144 117 195 198 204 146 124 182 211 125 177 98 83 139 62 70 77 169 174 107 96 113 101 175 161 60 107 42 140 52 61 141 125 85 90 161 61 93 69 182 180 112 140 94 91 156 155 174 159 78 149 183 174 168 171 146 163 118 186 164 117 216 137 193 192 178 103 173 151 114 110 185 96 168 147 100 76 135 93 149 210 124 155 199 155 147 193 119 102 188 189 164 188 173 116 94 162 144 145 149 188 122 178 166 160 158 87 106 76 96 120 102 200 198 202 148 188 81 98 74 146 102 153 200 202 191 139 108 76 72 81 108 107 156 152 132 150 152 83 169 150 161 91 159 182 106 87 171 101 127 84 100 163 68 155 141 81 112 75 67 157 88 182 194 114 199 110 142 210 112 200 187 139 145 134 93 83 137 32 103 125 103 181 108 140 110 116 67 141 145 64 97 142 89 57 149 72 84 81 175 80 93 152 111 107 158 77 151 100 158 100 164 141 139 161 108 83 90 111 156 168 88 109
151 148 138 127 115 255 125 133 135 132 124 120 121 133 138 156 160 189 202 213 207 189 181 174 169 171 159 148 151 149 172 186 193 199 191 183 182 186 195 187 187 173 172 163 167 165 136 163 129 152 135 158 112 132 159 157 120 147 173 116 152 164 144 145 183 117 148 145 148 163 110 79 141 60 77 57 98 88 128 99 66 67 77 113 93 91 104 88 130 97 96 140 91 72 76 63 86 92 95 87 82 100 75 92 97 136 147 104 129 74 64 83 67 64 83 110 92 149 122 90 103 159 138 76 77 165 93 190 97 182 141 78 171 120 162 87 119 73 137 138 144 130 140 86 192 106 162 196 174 180 176 94 74 96 162 154 125 151 108 181 105 160 119 124 115 136 111 166 119 111 97 168 154 124 172 124 96 68 92 83 89 87 50 63 104 153 120 127 149 136 184 187 129 56 136 45 46 128 45 144 141 124 170 163 158 152 70 178 193 115 175 62 83 83 153 92 112 142 123 74 155 145 129 77 177 110 204 177 162 112 146 121 70 175 117 91 191 104 164 208 166 162 203 118 150 146 178 121 135 175 163 92 178 185 156 108 160 119 91 165 85 141 72 96 107 60 169 126 187 134 83 170 125 112 107 146 90 120 128 87 117 117 115 133 90 174 109 126 189 165 189 93 110 180 104 176 145 169 198 123 70 60 152 116 128 78 94 85 98 192 126 109 171 117 86 150 134 51 144 126 173 128 103 193 95 165 104 134 184 202 184 98 110 92 167 105 192 123 78 132 173 175 81 179 151 150 129 200 212 223 135 227 121 143 144 190 184 175 180 185 101 116 193 143 81 166 168 185 115 113 100 177 146 158 216 194 149 117 120 133 107 134 112 177 90 166 161 86 92 183 100 168 189 192 82 163 58 60 92 128 181 201 213 122 148 171 147 159 123 79 91 179 199 162 135 85 78 78 142 73 114 183 124 185 180 93 93 125 119 109 98 66 122 173 101 173 92 179 87 156 149 153 132 142 84 102 100 138 118 153 69 173 126 145 201 120 206 110 104 115 136 158 188 156 138 154 100 130 145 104 163 177 128 186 123 164 82 77 147 133 57 104 90 75 59 144 156 157 87 129 87 164 71 111 138 68 64 74 146 197 116 151 255 182 186 125 88 154 133 124 153 125
165 161 150 140 128 130 134 136 136 130 130 121 117 111 123 133 144 173 187 195 194 168 172 171 180 177 168 148 154 160 176 185 197 197 182 171 175 177 201 208 196 190 179 178 167 169 136 157 139 163 164 139 113 160 167 178 179 172 129 189 151 164 177 158 135 146 144 129 103 84 143 69 120 123 53 114 120 80 103 75 128 136 103 94 61 74 87 147 83 91 108 106 101 88 88 75 123 109 131 115 87 124 95 101 133 98 118 98 132 84 139 71 80 72 101 91 151 78 105 143 105 82 151 159 73 91 87 112 188 156 130 128 149 78 176 170 105 152 159 53 149 119 138 89 92 121 190 211 141 118 169 159 154 144 142 144 128 138 145 136 177 213 216 190 160 171 192 136 181 95 74 108 127 118 157 150 109 159 112 81 133 83 157 123 183 104 119 128 88 195 146 95 72 81 144 148 62 160 62 97 134 180 138 118 79 76 100 178 169 179 130 156 162 161 143 164 152 81 77 158 57 157 132 63 105 92 137 184 170 61 139 147 107 92 144 81 111 92 151 199 189 202 191 155 179 143 161 183 169 106 99 90 157 97 181 167 156 84 134 164 161 87 151 159 114 62 125 92 126 113 123 89 129 131 127 145 72 136 117 119 151 187 198 174 137 146 115 175 129 100 185 109 134 98 148 105 147 196 103 123 117 145 68 82 84 83 178 89 96 154 132 132 95 98 118 72 88 62 79 160 165 92 151 108 172 158 82 92 152 114 203 181 146 177 115 117 189 189 100 115 148 67 168 154 100 105 111 203 207 147 225 193 180 124 100 186 168 164 128 121 89 137 191 177 179 101 130 116 181 184 161 139 124 145 156 185 99 152 131 90 181 122 184 105 94 114 151 151 83 140 93 196 135 168 109 91 127 86 82 165 114 125 121 159 154 81 84 159 169 85 93 138 176 176 108 158 154 119 165 99 80 112 106 100 163 134 177 80 106 97 47 68 75 173 88 118 99 178 76 96 159 107 85 97 91 102 166 90 141 97 162 100 132 188 168 105 181 94 113 142 179 181 182 144 82 67 155 156 123 101 149 131 148 80 139 116 98 101 153 78 158 124 47 59 63 103 99 135 159 158 79 150 99 61 62 163 107 142 97 151 110 147 99 104 174 125 99 88 112 92 172 90
160 159 157 147 144 136 135 134 140 123 122 113 109 118 115 121 143 168 186 198 179 163 154 167 180 182 159 156 146 158 175 187 197 197 181 170 165 182 196 208 195 198 190 175 177 155 161 132 160 155 159 132 151 158 173 158 142 191 154 135 169 181 96 120 161 169 135 172 98 112 98 96 64 67 112 63 114 106 150 86 148 114 78 122 95 69 102 89 145 121 102 122 130 75 59 73 92 119 124 120 128 106 102 121 146 107 90 140 125 90 112 76 73 81 88 82 124 86 79 153 74 76 147 132 93 94 181 195 203 110 92 166 173 86 94 139 136 86 100 59 61 133 83 164 89 184 188 188 189 157 141 147 167 136 140 140 116 95 187 183 180 207 153 195 179 128 169 156 178 166 122 152 140 131 72 153 67 118 167 96 133 99 109 186 198 128 188 90 179 193 149 173 119 106 61 167 91 151 154 90 85 133 160 184 83 150 91 127 156 202 107 87 71 166 121 138 120 100 158 160 137 170 151 156 91 68 149 101 125 154 136 55 66 165 108 177 104 87 85 160 180 183 179 84 164 121 178 190 125 204 195 138 175 173 179 79 76 138 115 147 119 98 145 162 138 98 98 175 173 166 156 182 158 77 65 96 81 72 61 94 163 160 149 175 137 154 201 187 147 93 168 139 125 148 121 173 150 100 197 121 83 104 177 102 164 159 160 165 105 111 197 102 99 112 138 105 160 129 73 155 72 118 156 182 108 126 145 104 208 120 106 172 169 159 94 98 137 105 179 94 156 152 76 113 165 123 204 186 203 180 191 207 205 177 131 176 158 155 167 116 171 174 170 189 140 176 182 157 129 134 110 110 206 181 221 166 80 167 139 89 115 124 139 171 120 132 160 181 111 99 175 137 170 181 98 72 77 109 99 137 183 119 195 97 123 140 92 98 100 60 138 74 73 97 68 97 75 107 150 172 81 179 157 122 174 183 70 124 125 119 104 149 139 149 146 124 154 118 118 136 80 122 149 78 192 137 147 174 110 71 144 144 151 161 197 105 111 120 145 169 131 130 170 162 162 107 178 135 125 169 171 146 119 162 112 163 73 152 159 179 136 66 72 154 111 144 84 166 73 173 85 166 151 59 133 116 147 124 147 196 104 170 119 193 108 95 93 94 186 163 103 86
155 157 159 155 144 138 135 134 138 137 127 125 131 128 134 139 139 171 186 198 175 168 154 163 164 167 167 161 155 161 174 191 200 199 187 176 169 175 185 197 200 197 189 166 181 174 147 161 152 153 147 157 126 143 155 195 175 157 165 163 178 136 127 126 102 156 176 109 155 157 55 66 91 53 69 135 71 141 133 147 80 124 98 65 81 122 79 82 130 94 153 135 110 97 82 78 104 117 117 119 101 135 108 145 146 86 113 106 93 73 81 108 92 71 73 93 85 147 128 85 79 101 88 94 111 111 123 118 177 168 125 94 85 118 103 137 145 187 169 67 103 140 83 84 98 173 154 171 89 167 165 94 155 140 162 176 151 143 156 171 165 183 204 153 174 174 171 189 157 108 90 69 151 133 156 160 162 78 161 131 109 113 208 111 199 145 163 158 124 187 88 173 161 72 146 171 164 100 165 169 94 121 98 102 193 195 198 133 186 199 160 96 122 96 183 172 119 81 112 90 81 117 167 74 77 152 125 149 154 159 119 54 156 162 156 79 72 83 93 171 122 70 157 71 167 166 158 113 145 187 102 108 156 174 182 182 169 140 146 143 73 170 133 167 104 98 170 100 153 112 162 104 195 175 158 155 89 140 152 86 148 139 120 160 187 115 212 155 104 162 73 151 182 119 184 136 97 100 124 165 103 161 159 103 82 98 151 183 170 178 113 96 83 169 133 68 118 146 158 95 88 167 138 171 164 199 196 144 204 142 187 146 142 147 66 117 147 118 177 96 163 70 127 168 123 178 153 124 167 195 87 176 135 81 103 63 89 84 63 177 188 99 188 179 107 162 91 84 126 163 84 171 174 149 207 126 130 154 108 165 101 94 128 127 93 87 92 115 179 157 128 183 161 180 138 96 78 121 127 116 159 98 142 131 131 144 63 120 74 134 143 98 79 87 102 137 72 94 134 159 86 125 154 100 109 124 161 140 81 124 102 59 94 176 108 110 104 120 146 95 162 90 184 125 204 120 182 176 156 153 63 73 180 194 116 206 190 143 164 106 90 151 152 82 187 167 136 151 144 88 123 84 144 118 66 157 115 124 189 98 96 107 69 144 73 106 108 156 128 114 141 143 75 139 96 158 93 147 91 106 190 105 103 107 94 92 175 182 147 121 157 97
149 156 160 154 144 138 139 140 155 142 144 147 154 169 173 165 160 169 181 191 177 167 156 159 169 170 163 164 161 160 172 194 201 206 189 172 162 166 171 163 162 176 177 180 174 178 176 166 146 140 173 138 164 135 138 186 141 165 176 190 123 125 103 138 81 131 147 150 127 145 56 48 114 136 53 73 66 128 137 80 136 143 159 81 96 85 111 97 106 157 116 133 96 91 71 103 138 116 142 122 118 91 97 128 89 109 85 80 93 108 94 71 83 144 83 88 107 99 98 72 101 141 152 89 168 145 138 139 176 177 181 95 189 188 174 113 98 181 77 178 89 159 80 89 152 163 126 172 72 63 146 86 75 70 158 170 159 131 86 94 193 199 202 209 209 167 125 178 117 163 150 161 102 82 96 169 115 164 111 121 208 129 197 177 147 199 91 177 176 129 146 151 80 150 164 87 96 177 102 89 90 152 199 202 108 204 161 160 201 134 156 102 89 148 172 111 158 110 73 82 120 176 124 163 67 105 117 188 186 126 84 106 68 126 118 67 72 146 103 67 160 70 71 169 88 90 170 173 197 208 166 171 161 139 186 97 71 135 110 124 111 137 90 165 93 186 102 168 128 198 159 129 113 105 95 182 104 97 122 193 203 204 164 109 194 111 145 169 115 124 115 153 99 96 133 116 86 149 134 162 167 165 145 171 76 95 74 96 183 119 83 101 81 79 170 103 118 171 101 74 255 255 115 105 109 109 104 115 169 114 112 62 148 51 136 137 68 151 167 66 94 174 180 171 67 81 65 131 158 78 153 151 59 114 117 153 114 79 92 82 177 119 184 98 90 81 164 124 161 89 104 115 203 121 156 114 104 70 139 72 133 160 172 142 104 102 165 255 105 156 79 180 83 174 140 164 115 99 150 94 147 152 132 78 67 47 43 78 47 136 108 141 113 161 172 161 160 131 160 146 83 138 95 86 143 134 138 118 42 126 80 148 97 125 141 123 197 103 90 81 90 185 154 173 119 122 106 74 97 60 120 141 95 101 203 160 203 97 96 106 145 150 165 187 114 189 126 101 122 185 111 76 133 163 76 134 133 91 113 138 75 148 147 66 75 102 143 133 152 113 118 91 154 187 88 125 166 95 93 137 126 183 120 102 118 134 131 98 170 175 147 123
143 150 155 149 141 135 134 146 155 152 159 165 177 203 190 185 175 174 184 177 183 180 164 156 164 162 167 170 163 163 180 195 206 203 189 166 162 155 159 146 158 161 164 170 188 184 179 154 137 140 177 189 171 180 158 187 148 172 142 123 162 132 163 111 114 156 140 122 168 126 86 130 85 104 59 52 66 68 140 111 101 123 147 165 141 85 87 91 144 100 94 98 153 83 88 83 75 85 115 86 77 73 83 73 73 69 67 68 58 75 58 93 128 90 86 100 132 106 169 114 144 82 66 80 127 117 123 120 113 207 110 200 149 107 159 146 145 182 103 191 171 92 153 164 169 156 82 144 145 146 86 151 120 136 104 108 112 137 157 95 122 170 128 195 166 185 171 165 128 111 109 162 133 147 165 111 154 165 154 186 112 224 175 132 206 161 90 97 70 114 89 61 116 156 74 171 117 183 162 109 103 101 107 205 107 122 179 176 105 152 154 145 90 83 110 175 146 169 113 113 154 179 187 75 70 165 97 182 190 187 140 87 147 177 83 103 117 98 62 155 74 163 173 128 182 85 162 135 191 110 139 190 112 84 119 156 62 136 143 79 139 98 163 110 129 134 169 151 182 119 125 102 192 135 102 191 135 95 107 138 130 134 124 130 99 143 146 121 88 89 70 81 65 141 154 155 158 141 84 78 110 63 150 94 108 64 82 79 111 81 89 86 166 124 165 168 99 173 138 80 89 84 191 97 197 107 170 184 140 164 132 92 65 118 72 117 66 81 121 62 87 89 96 160 157 59 105 132 144 156 79 46 99 88 82 55 105 112 129 149 197 190 103 99 86 71 159 163 126 168 197 213 192 205 169 167 131 90 40 78 46 78 90 74 162 84 118 128 128 83 175 153 178 172 155 133 88 177 144 156 90 87 150 65 58 48 115 61 59 117 113 142 154 134 115 131 101 160 80 97 161 71 76 149 86 66 90 78 119 82 140 122 109 117 222 125 211 101 179 80 255 89 196 106 211 175 111 171 82 64 143 157 101 79 183 136 189 144 86 157 144 139 173 184 189 137 100 88 144 108 112 80 91 117 79 145 88 83 140 98 63 130 111 84 135 111 178 66 59 66 145 184 201 178 197 163 179 121 170 100 120 179 137 93 172 97 98 135 186 187 166 124
130 136 141 135 132 133 144 150 161 162 164 185 202 219 220 200 186 174 175 170 178 177 180 179 172 166 166 170 177 178 181 185 193 184 180 170 164 158 156 151 141 150 155 154 194 192 187 169 164 171 157 189 183 163 182 160 193 197 163 156 148 132 168 142 126 115 115 110 147 104 73 125 115 79 60 124 67 141 147 112 153 141 155 98 106 88 134 86 109 87 93 102 104 83 85 78 97 70 66 63 83 92 112 90 95 74 72 68 78 82 58 95 150 157 91 112 109 182 150 101 146 63 98 75 155 183 147 168 134 173 143 168 207 165 200 140 96 146 190 131 131 162 61 154 106 176 167 68 54 123 86 52 57 75 111 114 100 137 143 142 168 152 184 196 188 161 90 145 134 85 92 148 133 77 167 95 94 156 113 96 118 138 166 216 209 192 160 69 154 55 61 81 72 119 142 180 183 109 133 74 74 179 194 184 199 163 191 176 109 193 101 101 149 164 76 163 155 104 130 143 107 177 84 112 74 141 147 157 97 96 167 168 162 128 151 97 108 153 135 154 105 69 110 189 161 138 192 109 187 183 199 158 159 179 110 89 151 100 63 129 145 100 190 161 65 140 103 74 107 169 87 143 102 96 96 89 170 88 135 113 191 137 123 137 126 160 122 96 168 72 51 146 112 113 113 85 104 92 162 144 108 157 63 128 72 79 154 148 82 145 84 130 67 84 105 88 83 78 144 131 135 81 82 107 156 176 115 121 104 163 158 135 164 75 139 150 164 71 45 118 87 185 154 94 166 108 86 61 112 151 115 52 141 57 145 151 116 163 97 177 116 124 144 160 170 68 59 159 93 202 203 210 195 104 181 101 83 93 39 64 72 60 108 146 105 177 87 173 91 173 136 162 128 165 160 65 84 185 97 150 132 173 172 69 158 54 125 106 133 146 165 116 175 203 124 121 149 155 96 92 136 98 65 77 143 139 100 142 83 66 255 146 122 160 214 210 190 160 104 157 73 142 106 198 151 108 115 177 100 80 121 150 59 157 163 164 98 165 112 77 87 189 117 203 156 171 123 82 158 125 140 185 168 129 183 92 170 108 57 125 144 74 165 75 110 184 158 77 74 151 74 141 160 187 133 149 100 104 147 116 171 76 81 80 171 173 198 169 116 121 107 202
121 123 124 123 127 134 149 158 154 153 158 171 192 205 209 203 199 185 176 180 182 196 204 201 184 169 162 167 169 176 173 166 177 180 178 167 169 162 157 147 142 132 153 175 180 187 188 166 169 168 180 177 185 178 178 145 138 165 203 182 147 109 157 149 129 139 140 125 116 125 116 101 84 62 86 60 85 127 153 110 107 108 178 127 101 122 81 95 105 126 134 115 105 111 105 138 130 108 80 68 80 96 86 109 85 101 90 85 129 89 88 94 80 156 92 114 103 143 84 74 69 81 75 161 118 150 190 160 107 116 121 138 201 191 114 119 191 163 155 107 122 75 132 146 180 136 142 162 152 129 145 149 149 114 142 101 68 131 145 157 178 201 223 147 140 161 159 128 68 156 154 148 116 133 106 103 131 192 103 160 141 151 147 113 186 173 75 142 143 44 148 141 164 116 184 88 95 175 90 75 163 109 108 161 97 126 103 201 107 181 102 169 127 139 75 73 104 85 185 100 146 90 155 150 118 149 176 147 176 128 131 104 123 193 123 81 146 155 87 117 142 103 101 182 177 119 169 197 127 142 110 143 183 143 166 116 118 102 170 88 102 149 181 108 60 99 109 126 107 106 154 165 87 112 165 158 163 85 138 93 132 105 104 92 152 76 145 94 86 72 159 62 102 84 140 183 171 84 79 101 136 166 119 67 153 52 60 144 141 100 99 146 122 120 159 150 171 110 102 71 146 170 82 162 166 140 108 157 164 87 85 75 85 97 107 155 79 131 144 53 97 150 164 131 80 130 136 157 96 181 159 167 157 148 98 152 97 79 172 185 189 180 111 130 148 72 141 168 166 179 154 145 175 148 157 74 112 83 62 95 122 70 162 130 156 167 98 175 151 135 82 115 134 174 164 161 112 184 181 107 98 147 85 170 164 153 53 121 133 175 102 104 166 138 193 205 119 168 183 146 95 46 65 109 146 63 139 127 80 187 178 121 102 191 197 169 156 99 77 149 117 173 101 157 187 125 103 187 165 110 56 120 119 112 91 153 90 167 154 175 95 202 170 193 172 113 82 75 77 147 132 90 85 176 186 90 76 54 94 117 96 56 69 94 148 165 101 172 161 80 134 108 100 118 189 179 106 88 97 106 94 120 133 120 88 87 131 102 93 169 129 169
123 121 121 120 132 146 163 157 159 149 152 162 189 206 206 207 184 174 170 164 172 194 202 204 197 172 168 167 167 158 158 153 162 171 176 183 177 172 162 149 134 149 150 147 160 190 156 149 172 176 174 167 190 184 157 149 151 175 147 185 133 156 168 137 103 154 189 133 107 134 87 132 94 65 142 80 158 91 104 177 113 107 104 178 149 86 113 99 83 93 92 105 107 162 102 104 91 87 77 112 91 101 119 130 140 103 128 142 96 138 76 113 113 90 124 117 94 103 102 144 82 99 112 76 115 96 125 99 103 102 126 203 182 173 198 199 163 109 205 198 85 108 50 99 75 92 104 139 58 161 167 155 162 137 73 99 66 154 148 170 167 165 135 216 196 173 169 160 95 134 135 100 120 97 74 122 87 177 96 179 178 127 95 113 178 156 140 55 123 133 142 137 82 134 103 94 139 187 125 167 140 125 114 154 156 99 113 193 144 199 137 89 71 126 146 153 75 130 106 184 255 116 146 143 96 88 148 188 142 188 166 155 158 104 105 182 181 144 105 82 108 169 151 168 168 155 186 152 162 203 200 105 193 130 74 122 163 173 98 149 211 156 137 113 74 116 102 36 132 134 129 151 77 113 108 142 171 158 79 166 120 134 158 111 108 140 125 82 132 102 73 129 135 87 165 143 91 110 80 110 175 127 112 87 103 94 160 169 135 117 175 82 100 63 59 63 90 93 90 97 115 96 124 73 135 100 123 183 112 88 74 172 88 191 119 194 120 142 160 155 116 138 172 174 67 108 109 82 127 106 111 86 72 160 73 147 142 69 104 166 174 180 183 149 172 103 167 115 194 116 208 187 123 149 84 84 118 63 58 75 65 89 170 120 109 104 122 163 90 72 82 99 145 175 143 109 80 108 101 156 118 107 164 83 159 62 151 71 166 81 150 174 113 187 198 183 155 144 169 123 123 125 132 116 142 93 82 172 169 206 103 151 130 81 87 127 79 151 96 100 162 158 109 111 213 178 121 177 92 172 158 138 55 151 157 64 95 113 130 158 104 179 187 163 100 180 161 63 156 81 149 141 135 107 163 160 75 149 67 144 128 133 89 116 194 110 102 168 174 88 164 70 80 96 160 102 146 180 87 119 73 143 80 82 69 153 151 84 71 98 75 120
128 124 126 133 148 163 173 170 163 141 151 146 165 181 191 204 189 177 162 168 167 176 177 203 199 188 172 165 156 160 154 157 169 184 197 196 185 178 165 168 154 136 147 150 162 170 178 160 144 170 184 189 162 153 170 161 135 175 154 200 135 117 160 126 128 172 118 171 108 153 170 151 81 106 83 93 114 101 106 125 129 101 92 118 83 141 73 82 72 140 83 131 121 103 113 157 104 102 80 101 107 114 134 118 121 136 140 106 101 97 150 139 96 110 163 144 87 78 70 64 62 58 65 140 90 90 169 155 83 103 138 101 111 103 109 112 107 205 115 184 94 161 110 128 153 154 97 149 154 75 160 171 174 151 156 157 107 166 92 194 153 158 126 255 135 141 82 168 168 170 163 186 142 169 136 138 110 181 142 110 188 142 134 170 129 157 156 134 45 112 45 89 151 175 180 141 110 91 176 85 162 96 104 186 113 192 126 194 169 110 76 132 161 154 56 65 84 79 89 185 176 95 159 121 134 173 191 186 189 92 182 124 183 97 128 177 189 157 136 72 129 173 81 142 83 76 89 197 134 105 97 161 172 84 178 104 81 162 136 156 203 117 188 147 87 78 52 100 109 92 99 132 148 99 90 173 133 177 144 81 94 165 92 171 169 162 100 149 80 115 132 140 182 146 135 149 192 81 90 121 129 185 98 189 90 173 116 168 173 212 116 90 68 108 55 130 116 165 103 159 124 148 147 120 153 85 108 193 94 148 169 109 163 176 173 130 102 139 158 175 187 88 72 164 122 113 103 175 178 118 211 200 163 149 99 154 83 136 146 64 151 158 86 192 117 163 154 193 160 209 199 155 101 144 160 158 101 160 148 157 158 170 159 131 114 177 90 128 155 92 181 145 188 105 121 153 175 102 119 99 147 147 137 165 143 162 100 165 162 105 116 150 131 107 106 184 173 119 83 112 132 143 50 132 86 148 171 110 188 138 103 150 79 73 166 147 90 170 114 87 110 151 115 130 129 210 172 111 166 86 106 169 167 165 173 90 163 158 182 176 121 166 189 176 173 172 163 159 156 178 188 179 198 213 189 191 181 70 92 158 148 103 74 82 115 144 183 136 180 144 88 151 124 130 122 80 138 153 130 104 129 81 61 128 79 167 95 87 101 78 147 170
140 139 141 148 163 171 177 168 166 151 155 155 158 180 189 197 184 170 168 164 154 164 178 196 201 185 170 161 162 150 153 164 188 209 216 212 190 179 180 174 178 158 135 150 159 146 162 170 136 155 172 183 158 167 177 142 180 150 137 157 129 163 96 133 96 161 165 125 180 153 167 143 170 135 135 125 83 162 107 106 115 74 91 133 128 145 92 121 112 82 89 124 122 142 158 121 118 96 134 92 138 151 117 114 132 143 109 142 117 93 138 108 110 116 112 136 68 67 79 72 73 64 67 101 144 167 96 144 163 160 122 160 108 102 190 187 182 197 100 191 94 170 169 100 90 118 137 148 166 76 169 90 149 133 168 101 177 96 105 113 217 150 199 191 150 163 169 95 165 168 190 120 173 139 89 158 78 103 190 108 209 173 178 106 157 84 64 64 122 83 154 68 161 113 111 165 77 117 141 99 105 118 190 143 100 116 204 201 162 78 150 120 61 124 140 143 94 179 160 157 88 174 133 92 180 166 113 200 178 173 133 160 102 188 200 115 189 95 75 105 149 140 110 127 146 160 89 174 172 124 168 168 96 85 172 163 145 134 175 171 144 136 139 61 83 30 86 106 47 107 53 127 60 162 104 135 106 155 101 81 99 81 72 96 132 100 84 255 81 73 70 118 190 141 202 150 90 113 143 159 126 179 117 153 144 122 87 115 124 125 145 103 180 94 61 139 147 158 83 77 84 132 96 176 125 108 170 173 147 122 78 108 124 119 193 93 140 181 106 192 196 181 88 75 157 109 80 168 102 173 181 213 130 112 118 127 176 86 67 145 68 136 98 171 145 172 127 123 179 179 147 88 152 102 168 155 170 82 120 92 151 94 166 193 129 156 166 57 54 69 177 116 179 176 133 129 183 140 145 176 134 208 192 199 134 164 136 99 118 135 154 140 179 180 198 122 96 91 179 167 62 60 109 158 156 99 95 118 196 198 183 174 101 167 77 167 176 93 91 154 122 82 195 162 124 151 100 104 170 176 185 172 142 179 94 112 114 127 169 178 180 146 101 121 76 94 73 117 169 179 185 135 145 144 143 131 192 103 126 100 130 156 74 153 178 185 156 102 87 143 67 105 92 130 113 135 149 126 77 160 66 165 86 180 142 178 171 103 84 55 61 164
149 151 158 165 177 177 174 162 163 163 149 154 150 160 174 198 198 187 178 160 157 155 170 191 206 201 180 171 160 156 167 181 209 229 233 223 205 184 188 201 198 184 155 162 154 168 173 173 145 166 144 191 185 195 162 164 138 180 124 173 179 145 123 84 76 100 181 188 193 157 166 130 122 151 152 167 150 67 82 134 107 71 71 99 67 107 74 76 71 70 127 63 77 103 119 125 117 107 100 132 104 107 140 110 109 112 98 119 89 106 95 133 121 122 125 159 61 119 70 149 75 76 102 75 173 133 96 156 72 90 70 176 112 184 83 97 186 108 170 201 96 179 100 174 172 137 170 83 69 101 163 162 68 97 80 170 118 136 143 209 200 168 138 80 136 145 152 140 133 188 151 198 190 86 70 95 58 99 122 206 172 124 144 181 93 149 152 66 84 146 153 173 128 147 141 81 69 128 135 141 109 160 171 194 187 208 181 183 106 89 128 145 157 153 174 85 93 169 100 115 164 140 72 154 104 132 192 179 81 159 145 162 179 189 121 103 95 178 170 183 200 208 151 191 84 100 98 148 186 150 158 153 156 180 143 154 170 93 158 73 121 83 79 91 61 72 121 59 58 114 96 100 159 173 160 113 124 162 81 170 82 84 155 98 96 129 104 179 181 68 90 75 180 100 101 136 84 86 144 192 181 107 79 101 176 113 189 187 204 163 173 119 191 157 77 81 150 62 69 122 127 179 101 118 101 148 91 83 66 75 100 102 102 142 185 87 161 179 135 136 133 170 146 140 164 193 112 119 146 146 220 163 204 173 149 156 127 157 175 158 143 151 79 131 111 84 170 150 184 205 177 176 168 125 141 148 131 118 173 167 162 133 162 194 109 90 142 47 123 130 145 89 157 133 77 91 85 184 200 214 223 228 143 165 173 147 129 124 157 160 147 130 189 204 162 162 128 183 100 139 91 103 145 79 159 162 144 75 155 181 106 170 85 122 85 144 134 165 184 175 138 182 181 151 196 166 133 65 167 86 91 145 123 110 124 143 123 108 118 151 136 190 255 162 105 111 96 80 96 169 143 118 183 127 123 99 119 193 104 107 110 121 171 126 115 78 168 143 152 89 128 134 87 99 176 97 172 109 69 137 164 172 103 196 119 124 100 76 62 149 62 165
161 163 169 171 174 170 160 159 157 161 150 147 150 157 183 193 194 189 179 163 157 143 169 189 201 191 190 165 148 148 167 194 222 237 242 228 212 199 203 213 195 179 169 171 177 175 183 167 171 150 177 149 187 150 199 145 192 132 162 138 166 149 138 102 108 154 153 145 104 131 130 101 126 144 149 79 101 116 117 68 105 67 100 127 133 88 94 76 78 73 97 64 74 96 114 129 126 138 105 105 120 99 122 101 114 119 98 93 118 82 104 255 132 130 132 132 70 71 83 95 94 90 129 151 82 141 182 87 84 80 74 127 91 93 140 80 88 105 122 114 106 190 91 177 132 159 76 151 59 59 88 136 127 130 97 162 154 168 202 117 192 160 133 64 138 131 60 154 140 189 150 168 168 158 152 150 79 154 154 182 138 122 216 174 143 172 80 143 83 134 172 180 91 157 45 91 45 93 171 100 190 114 139 191 114 122 177 126 96 140 91 136 162 125 129 104 92 114 179 176 98 65 98 108 84 184 165 104 121 71 72 167 133 166 109 165 188 173 157 169 180 214 236 128 196 108 110 114 157 117 190 155 88 102 143 166 163 158 165 108 151 163 174 134 161 157 99 97 110 111 130 147 132 90 195 217 111 153 164 74 103 137 193 193 195 160 110 188 152 92 147 115 176 178 86 76 102 79 192 133 95 80 164 84 175 94 173 165 155 185 149 191 108 176 87 174 90 116 94 77 94 117 193 186 76 75 149 144 104 111 80 128 188 103 168 85 166 191 110 137 180 197 116 146 129 115 199 108 116 220 126 122 116 133 169 127 132 182 195 97 80 83 158 84 148 145 157 129 115 194 203 197 210 173 187 193 94 156 116 77 99 161 147 110 96 128 144 73 66 117 104 145 148 65 156 78 128 118 140 121 148 187 197 130 176 86 91 67 55 52 134 168 182 154 133 197 125 117 108 166 157 80 75 106 171 149 167 71 136 169 74 86 127 159 141 159 168 97 129 79 163 191 164 199 200 94 139 115 94 98 145 180 104 145 172 144 103 109 203 151 121 85 95 116 165 139 106 166 148 95 187 177 114 101 76 167 137 149 145 104 103 95 152 87 72 168 150 126 143 75 102 98 94 97 150 109 156 104 155 65 101 165 109 189 127 191 171 106 98 71 70 68
163 165 167 168 166 157 152 156 153 161 152 145 146 148 180 193 193 177 171 151 154 156 165 180 189 190 187 167 153 149 170 192 213 218 226 220 209 193 206 212 198 197 170 173 160 196 199 183 180 140 152 167 145 189 187 174 182 189 165 171 143 101 123 107 150 155 135 174 179 145 155 146 163 105 174 121 70 91 118 71 138 85 82 73 130 125 74 78 109 90 123 85 90 111 169 130 117 145 136 133 112 131 94 139 106 107 98 95 130 154 96 102 103 151 114 96 101 84 97 104 113 164 92 90 113 118 92 103 100 90 156 79 48 121 63 81 150 135 113 213 190 98 175 97 159 75 89 138 45 77 68 136 171 103 134 59 133 96 114 174 139 158 65 136 106 103 107 103 171 92 169 125 124 79 119 131 85 131 163 161 96 109 203 203 187 178 159 176 101 157 112 155 80 111 137 120 56 79 80 105 184 134 144 191 184 125 194 157 193 89 129 87 99 137 119 178 87 193 110 96 151 134 130 150 164 156 81 154 58 148 75 142 91 120 172 201 184 132 98 190 214 232 215 216 226 158 197 195 111 209 112 125 92 120 83 99 178 144 116 135 114 70 141 101 162 165 94 110 116 138 75 157 79 182 174 130 105 150 178 124 132 117 197 113 109 144 162 196 131 185 178 152 88 79 161 159 123 133 111 153 108 163 111 129 117 100 149 112 71 118 92 184 159 99 97 96 81 173 140 86 148 170 123 117 111 150 124 41 96 105 127 107 118 109 140 170 92 167 193 174 115 185 110 170 130 146 201 109 173 131 224 119 191 137 178 181 182 146 203 109 76 98 120 101 128 153 125 97 174 108 119 136 178 141 186 112 149 160 143 106 64 61 151 110 102 72 62 137 106 164 118 98 108 73 133 163 90 188 197 199 220 125 213 130 121 168 101 86 79 68 85 80 106 185 186 193 221 217 187 98 174 91 79 130 78 119 86 84 87 80 93 71 142 102 118 127 81 108 154 160 183 193 199 205 117 84 148 149 86 75 146 171 175 85 177 147 93 119 111 198 133 155 163 149 73 136 114 157 134 117 115 143 173 87 158 138 187 191 137 172 196 129 140 123 130 74 99 112 156 86 119 150 190 144 128 153 179 106 62 112 68 101 95 106 146 122 158 92 167 99 94 106
156 159 160 158 159 149 145 146 154 146 142 136 135 153 170 197 190 178 163 150 150 161 175 177 192 188 172 155 155 155 160 179 181 189 196 197 194 192 199 200 195 189 181 180 189 180 203 195 179 164 151 126 161 153 143 205 183 185 167 180 179 158 92 95 145 87 163 154 137 83 131 164 118 152 149 63 96 126 112 98 150 159 160 117 73 67 125 95 119 95 162 101 133 134 130 132 119 151 122 131 142 131 105 114 137 103 103 118 94 114 88 89 114 85 93 88 85 169 135 122 185 159 96 174 152 149 132 194 117 178 66 48 142 60 69 79 89 160 113 138 195 89 160 163 93 164 59 66 126 153 106 143 109 168 130 163 84 191 194 111 192 111 70 86 145 69 124 112 177 99 83 124 94 162 166 135 143 150 141 110 131 99 116 177 164 160 162 91 130 139 159 64 104 52 96 53 157 169 108 196 120 128 95 108 173 93 196 128 119 152 125 143 160 152 68 74 98 155 175 104 83 128 130 150 121 66 160 122 66 154 163 99 106 134 109 158 101 163 178 134 175 149 238 158 151 126 159 129 213 207 217 205 193 177 148 174 146 97 142 171 95 127 155 195 162 103 141 147 99 87 116 157 84 167 131 105 180 142 99 93 145 197 199 204 131 128 115 171 174 101 99 171 132 157 114 100 123 133 191 175 152 162 131 75 169 80 110 152 64 66 108 69 77 180 85 101 88 112 103 114 132 124 141 194 121 68 64 128 144 131 79 89 107 125 171 137 115 95 171 191 100 146 98 168 183 195 206 197 177 229 190 207 101 177 94 117 175 132 166 141 124 156 102 142 110 77 75 134 149 116 174 182 155 229 179 103 155 151 101 123 121 155 99 104 89 147 79 118 146 120 180 107 84 119 123 116 126 91 144 126 140 139 180 189 179 136 134 104 120 101 126 70 173 152 190 139 205 206 111 165 198 164 81 155 140 92 113 139 172 185 99 112 156 87 126 85 88 146 174 178 98 150 187 106 193 184 97 148 62 166 107 95 112 102 114 171 81 173 113 158 113 132 166 164 90 130 143 90 79 116 154 91 70 154 154 158 175 139 124 117 163 106 175 83 172 137 178 87 168 80 95 168 195 198 202 255 173 85 125 140 63 75 127 111 160 129 142 103 107 138 59 61
143 145 147 146 149 150 152 148 144 145 135 123 138 160 190 191 193 172 169 165 160 171 175 182 185 171 166 157 156 158 172 167 163 163 162 167 169 175 174 180 184 193 175 179 186 203 179 168 154 120 129 156 151 151 155 169 201 153 194 199 190 152 152 126 132 162 149 157 92 93 123 109 82 126 72 133 55 99 74 138 138 124 88 124 134 124 63 75 106 118 128 104 147 117 143 136 121 132 129 130 128 143 114 144 101 123 140 95 89 99 102 147 106 82 70 78 95 172 110 104 116 167 87 162 93 143 113 147 166 154 60 101 59 84 110 116 150 159 255 121 186 173 141 85 158 150 66 79 157 128 147 154 98 162 115 77 81 187 169 193 162 110 87 159 85 87 72 132 111 130 165 133 88 166 102 129 104 152 144 133 146 68 178 214 209 114 157 90 129 108 103 136 121 132 134 152 103 91 123 185 125 87 164 115 72 175 179 189 102 114 92 99 117 136 124 59 56 74 158 166 112 174 93 81 104 151 71 69 79 106 147 94 94 121 114 120 145 159 168 166 151 170 213 216 125 222 162 227 153 132 173 115 199 87 87 115 183 206 113 174 184 102 186 212 173 97 116 163 177 148 130 88 102 135 123 76 86 74 177 124 184 131 119 103 194 137 89 150 145 176 159 165 132 77 92 143 91 92 102 188 105 125 187 129 79 122 80 82 95 96 128 58 64 67 144 101 109 190 178 115 126 125 118 188 113 124 46 105 68 75 114 180 121 193 156 123 96 101 156 121 85 163 61 116 174 137 155 210 217 217 128 107 106 92 91 113 99 195 173 172 88 167 153 111 185 147 171 135 83 63 167 100 113 147 188 155 75 142 78 69 118 119 114 101 175 110 71 62 78 81 131 186 130 165 136 150 185 192 127 199 110 178 198 124 144 120 89 134 106 108 114 131 143 80 93 128 87 136 196 190 112 103 166 117 70 78 151 113 131 141 177 145 73 49 133 107 143 128 159 174 154 182 144 176 161 183 141 70 73 141 175 190 166 104 139 159 154 110 172 175 121 145 109 114 160 122 144 126 154 117 124 81 164 148 99 173 180 151 177 191 172 95 175 85 80 144 87 176 89 82 110 76 116 97 122 183 106 178 161 89 88 140 82 163 159 109 123 126 169 153 85 70
131 134 137 142 146 146 150 142 147 138 128 126 146 163 186 198 188 174 173 173 166 171 181 170 176 173 163 157 164 177 176 160 151 145 151 155 149 158 165 172 185 183 189 195 179 200 187 189 152 128 133 144 104 152 152 140 188 198 152 161 176 108 151 106 138 131 108 144 65 127 78 102 83 103 92 73 84 68 113 146 78 101 140 71 64 57 60 73 123 139 159 113 119 124 110 128 117 149 99 142 108 122 108 126 93 120 138 113 114 113 99 107 118 72 127 112 80 91 109 99 90 97 104 154 68 148 88 139 135 163 105 65 77 185 202 106 194 120 184 157 82 170 107 65 155 60 162 171 101 111 171 90 94 153 135 163 121 141 142 170 148 176 99 167 87 92 155 126 131 174 118 125 87 188 119 152 194 151 123 118 147 151 127 98 175 198 99 88 162 70 60 135 60 140 84 160 131 193 189 192 90 178 165 136 166 100 182 166 148 185 164 157 123 74 55 111 117 57 148 111 193 174 166 142 147 112 158 86 182 159 93 187 195 188 179 110 131 178 157 167 165 135 101 156 199 120 155 123 134 128 126 150 199 131 104 211 210 147 160 200 132 182 132 110 154 165 92 132 78 139 103 89 165 57 75 117 61 158 108 94 109 107 110 99 170 95 103 173 183 175 107 85 172 90 191 120 206 115 97 153 154 147 110 130 167 113 78 162 109 111 150 161 99 90 137 74 87 107 111 123 139 120 95 138 78 82 51 75 73 102 164 161 124 130 209 146 200 98 121 78 161 57 56 162 184 187 133 151 170 127 205 94 167 101 135 124 66 86 96 180 140 130 159 139 130 196 100 115 118 151 71 169 97 172 152 121 156 67 150 123 121 114 93 97 96 90 83 104 166 121 173 152 117 166 159 173 188 166 149 106 145 152 189 203 118 196 191 148 151 172 84 178 181 94 139 133 78 173 175 207 163 135 182 76 82 143 117 204 155 91 143 105 55 101 130 82 88 80 107 175 167 159 88 132 173 120 175 99 145 99 185 200 168 112 69 106 165 171 169 96 166 150 111 164 113 67 142 50 90 147 153 73 132 103 72 116 125 97 103 106 83 177 177 150 164 176 174 99 150 154 73 102 164 112 164 170 141 178 168 156 112 149 157 130 87 193 157 109 104 79 102 176
124 126 127 135 140 150 147 144 135 133 136 140 148 164 167 173 169 167 173 167 160 172 176 170 176 163 165 163 175 185 176 164 149 145 145 151 154 152 156 162 172 184 191 179 195 195 182 190 160 129 144 125 151 152 143 130 160 188 178 156 177 117 160 72 143 137 91 133 48 47 128 80 104 111 129 145 90 141 87 85 80 130 72 71 59 57 96 85 71 97 88 93 95 122 125 97 151 113 106 82 81 91 92 87 103 94 95 71 118 75 135 96 92 112 92 81 90 187 140 170 101 68 62 153 103 97 97 84 99 123 83 147 168 110 206 195 186 179 120 117 141 81 83 89 54 153 160 89 177 188 181 179 72 141 127 70 142 129 130 147 167 99 132 110 97 101 64 77 160 110 137 132 145 152 122 219 141 109 70 158 71 67 160 146 139 178 159 126 171 167 165 133 87 152 93 164 150 117 119 199 134 115 97 111 80 167 89 95 147 123 102 130 132 131 78 127 82 95 168 188 134 108 133 194 109 165 92 114 194 99 182 116 106 190 104 100 173 106 112 105 122 79 164 85 182 197 168 170 183 110 120 212 208 185 210 187 180 130 132 209 138 185 169 206 172 142 185 101 168 182 158 88 164 90 115 80 167 113 94 95 144 147 99 182 163 144 151 72 133 82 184 102 182 184 116 139 123 196 185 102 82 120 137 193 162 158 96 81 100 84 97 132 155 75 76 100 145 156 155 93 180 84 82 93 75 162 148 61 44 118 172 137 117 203 198 141 177 168 155 141 64 59 94 69 124 114 109 186 200 118 164 192 161 61 128 125 48 84 143 184 184 107 119 76 79 131 108 181 156 84 111 160 118 90 150 103 88 137 142 170 103 158 112 131 148 197 156 169 104 79 177 149 106 133 84 102 109 143 203 179 144 197 147 113 159 114 176 115 144 140 188 133 91 88 94 140 165 112 179 115 192 91 181 131 166 107 180 205 100 177 71 61 116 136 135 101 65 165 131 173 174 95 183 102 192 175 176 145 126 113 210 192 176 167 171 161 64 127 156 75 169 135 79 156 144 147 73 145 46 103 83 176 88 171 169 150 94 138 113 168 76 81 116 131 180 162 73 138 91 79 152 74 88 58 64 111 141 130 66 78 47 142 77 68 159 184 172 168 117 76 171 139
120 123 127 134 145 149 148 133 119 120 131 140 150 148 150 148 156 170 165 164 157 172 174 169 174 175 175 182 187 186 182 160 148 142 151 155 158 158 158 161 168 166 189 186 200 191 194 188 175 142 120 147 128 113 157 163 150 178 205 182 205 181 173 142 98 120 83 102 68 49 73 141 126 107 117 90 68 79 105 158 95 103 49 117 58 117 62 67 73 72 129 93 91 82 99 123 124 104 127 86 121 97 84 73 46 67 69 54 58 91 130 90 135 94 119 126 127 194 125 104 87 156 84 99 126 116 155 76 161 83 137 136 82 101 100 178 74 67 151 173 146 154 167 139 142 121 118 163 87 150 168 100 126 146 64 68 134 113 169 174 89 75 169 124 97 161 71 143 90 161 139 150 98 119 222 166 212 119 154 182 130 175 98 99 184 121 106 132 112 168 117 130 123 174 153 156 172 137 192 112 203 116 123 89 163 82 145 93 193 149 116 162 181 180 75 156 126 167 170 177 179 104 211 199 178 199 160 105 191 186 91 180 112 118 189 76 164 125 164 94 100 80 99 80 180 112 185 167 182 195 151 202 213 211 179 216 212 180 165 114 195 113 188 189 192 191 94 94 173 161 150 125 138 110 80 169 163 107 194 100 194 137 119 159 121 75 90 160 134 105 198 213 202 131 174 134 123 179 197 111 86 91 102 139 147 131 122 108 106 105 96 191 174 175 110 125 134 126 106 185 165 154 143 176 77 117 74 136 147 166 174 157 174 179 180 187 208 184 196 119 95 127 142 63 164 112 152 112 207 171 210 193 180 159 49 62 64 108 159 177 99 100 128 70 155 116 95 145 179 147 76 159 109 108 97 115 140 134 110 169 147 195 128 112 135 210 151 189 130 119 81 151 115 75 181 130 116 203 144 189 183 139 95 98 171 122 190 143 85 87 190 175 103 155 101 96 97 138 106 190 135 170 155 90 171 117 188 124 150 143 115 111 88 144 96 71 158 140 185 182 153 119 163 170 131 123 99 89 176 134 159 174 188 156 114 151 125 154 103 143 85 180 175 148 123 156 153 69 55 94 177 99 121 114 84 138 87 147 181 129 147 99 107 187 183 80 78 77 165 158 65 97 87 145 77 154 63 67 157 92 60 85 153 133 88 177 114 175 74 65 57 143
120 122 125 134 148 150 150 134 118 108 120 125 144 147 151 131 146 149 147 156 153 157 183 188 190 186 185 186 181 193 188 178 163 148 154 158 158 162 158 150 164 159 180 197 203 197 177 159 179 162 169 139 165 176 160 134 145 179 137 143 156 175 124 158 142 93 127 92 128 144 147 122 89 107 130 89 77 110 166 139 94 62 45 51 78 71 77 119 72 76 72 88 96 134 94 96 107 98 93 87 80 73 54 50 70 62 79 52 44 87 123 79 97 125 140 118 172 154 126 92 123 169 180 94 104 99 181 86 67 80 62 72 139 180 176 93 140 70 103 97 78 83 92 72 147 80 162 149 155 163 148 166 77 166 153 131 165 194 160 159 64 93 103 149 146 132 165 154 174 100 125 170 174 206 175 158 173 130 174 178 174 170 147 155 164 94 81 158 129 135 168 154 200 111 121 144 121 183 115 206 110 174 192 97 181 89 130 129 159 133 101 143 196 147 176 139 171 173 113 151 115 112 150 138 121 196 194 177 88 75 73 137 138 101 133 160 69 147 71 140 156 91 96 163 145 137 129 179 163 204 137 184 214 163 217 205 114 181 129 174 168 172 126 179 146 117 138 195 112 140 161 101 96 162 89 178 165 140 197 131 109 97 99 73 78 98 149 57 93 125 154 189 208 165 126 186 155 176 114 91 117 140 130 122 157 99 108 110 182 115 185 100 185 129 118 104 131 178 102 141 73 69 120 108 82 121 163 74 76 181 88 134 140 151 81 185 189 132 152 177 157 57 49 148 86 95 159 202 141 150 211 207 120 171 151 55 62 52 111 124 185 119 125 157 126 115 137 116 170 117 81 153 155 148 150 140 157 165 191 113 130 103 156 145 121 214 154 99 119 177 151 90 92 126 174 171 188 200 150 100 130 145 160 113 93 106 126 172 186 93 170 160 114 135 164 125 156 113 194 158 77 160 143 103 168 201 209 201 199 159 80 88 112 59 145 67 85 179 176 139 187 173 136 195 122 194 179 131 90 104 188 206 142 180 176 145 104 63 129 176 148 160 137 164 104 113 133 110 143 156 183 144 110 70 136 105 163 104 180 117 74 110 165 165 184 161 134 152 78 120 66 115 53 88 94 137 64 65 77 49 133 50 147 71 96 149 85 127 60 50 122 38
125 127 131 139 151 157 144 127 106 99 105 119 142 143 147 147 138 156 151 132 132 154 167 194 192 182 181 192 192 188 193 183 162 158 156 161 155 164 163 167 162 178 189 198 183 184 188 160 181 168 140 181 182 158 165 133 128 144 137 156 143 199 161 121 161 122 144 102 93 86 165 138 87 63 63 101 130 93 94 84 74 90 46 57 81 118 147 78 135 99 126 135 123 95 104 101 144 98 121 110 71 65 76 35 69 53 84 48 59 89 83 136 104 150 137 174 175 124 129 143 90 115 192 180 187 106 96 162 79 158 121 77 182 139 157 144 143 71 131 176 177 86 130 175 170 161 149 140 154 65 163 149 156 141 177 180 185 104 95 137 151 121 91 162 90 121 173 173 177 132 172 100 138 209 216 224 166 197 131 83 171 165 87 172 95 97 112 86 167 98 143 112 200 124 151 150 127 136 168 175 159 162 151 196 179 191 107 164 97 175 185 110 136 106 81 75 77 171 149 93 155 195 126 123 116 196 134 255 107 160 148 148 153 179 102 72 126 74 160 163 98 77 168 82 149 71 147 187 153 201 209 187 220 211 195 116 114 109 158 183 178 167 146 166 108 84 116 163 160 177 183 132 159 106 122 115 182 211 161 110 158 178 91 131 66 137 55 52 81 171 165 119 118 120 106 110 88 165 98 103 89 98 172 102 197 101 128 126 128 117 175 154 127 187 94 104 174 109 255 90 127 115 62 87 78 79 80 89 104 109 170 155 80 151 120 138 166 102 98 102 83 130 120 43 117 87 175 174 199 201 111 202 189 151 148 86 147 60 72 130 161 169 169 131 79 163 198 151 169 106 177 169 159 85 59 145 116 106 140 163 173 89 130 125 210 211 144 177 180 135 151 185 86 90 122 162 175 179 156 112 181 85 178 158 90 92 194 169 105 97 98 135 115 219 197 145 213 206 89 98 139 143 196 189 199 212 199 209 157 148 147 155 79 105 162 152 177 183 155 128 155 198 201 207 139 161 105 120 151 182 188 114 116 180 106 114 151 173 104 114 150 121 97 92 91 79 99 155 168 132 136 110 113 72 77 133 175 146 190 186 124 172 89 91 123 83 121 95 99 78 139 101 124 57 92 94 133 70 140 107 81 111 69 77 107 153 77 89 158 131 132 125
135 134 134 135 149 157 151 123 98 84 97 130 140 155 155 150 142 141 136 134 133 141 168 185 193 186 186 191 192 203 195 188 172 165 165 163 163 161 163 172 178 177 195 183 199 176 181 191 164 185 182 158 186 194 191 130 176 114 130 173 163 168 186 167 94 161 117 95 118 162 108 108 99 120 47 59 116 69 104 93 79 123 121 91 76 93 155 145 141 94 105 144 111 110 95 97 114 92 114 83 92 64 87 44 68 78 55 83 78 115 91 114 174 154 189 149 110 150 120 80 114 123 138 177 218 112 108 109 84 97 89 91 191 177 70 86 59 178 96 95 180 115 186 185 88 127 151 124 111 146 98 179 185 96 94 97 161 167 189 167 159 89 163 178 135 151 87 103 167 189 185 170 148 176 171 120 146 186 167 136 118 122 122 172 146 163 76 155 180 155 104 165 193 202 120 190 179 169 103 86 76 175 159 113 204 137 102 162 62 128 120 157 102 146 101 86 148 107 127 146 141 122 204 202 154 171 183 176 167 79 122 140 87 132 78 138 82 173 78 156 155 70 106 89 97 81 74 76 139 139 153 206 132 159 130 145 182 119 155 90 128 126 124 102 92 160 143 102 125 211 140 106 136 123 155 177 187 151 124 205 181 84 96 153 170 133 57 78 57 112 78 152 181 98 167 73 116 90 66 74 85 192 104 132 139 140 176 134 96 90 149 183 140 119 98 134 176 116 149 118 53 113 68 127 75 140 89 160 133 116 164 81 169 76 76 119 163 92 118 116 107 112 102 136 119 83 191 105 183 166 156 150 98 80 165 128 158 92 133 173 118 83 81 93 164 182 178 205 123 187 124 101 76 94 136 102 158 142 96 114 173 99 99 191 124 174 110 117 81 179 116 177 142 185 193 133 154 209 141 115 96 89 92 85 79 130 85 184 92 111 174 169 121 183 226 130 213 103 81 106 56 116 113 120 111 147 164 108 200 182 165 139 141 75 125 98 94 155 190 157 187 108 112 156 206 211 193 177 146 72 102 202 134 174 100 83 169 87 107 118 156 103 162 77 100 162 131 167 173 186 162 193 177 84 96 132 147 158 189 184 161 120 169 86 157 136 103 165 167 141 135 73 89 67 122 111 128 67 131 142 134 64 159 143 161 112 179 179 129 140 92 69
144 136 131 128 137 147 142 124 105 95 101 129 151 157 147 137 131 130 112 116 133 146 158 177 186 185 174 192 192 208 198 181 166 162 163 164 162 162 167 178 180 173 189 194 177 174 189 197 165 196 163 213 166 207 184 160 114 152 195 171 171 215 149 149 152 151 114 158 183 100 127 122 95 129 93 77 94 97 74 111 136 63 84 58 103 97 82 137 89 160 152 114 144 91 88 77 138 120 110 72 66 54 64 56 95 100 90 100 96 75 112 124 137 125 106 97 91 80 105 145 189 133 166 231 155 193 170 80 79 114 146 169 96 122 78 101 88 92 135 93 181 179 92 94 139 164 154 68 137 98 135 148 182 184 193 196 176 125 166 175 195 201 197 120 114 152 126 103 137 123 193 160 165 213 166 202 111 109 86 54 141 160 161 169 173 81 179 125 162 124 180 99 187 130 120 182 179 146 148 70 151 89 168 153 133 187 90 67 102 128 138 157 85 154 161 92 102 128 99 147 168 179 136 102 174 103 154 87 102 55 54 80 46 128 81 110 76 81 142 149 84 107 67 92 78 152 67 158 154 172 187 162 164 156 172 97 129 109 144 173 176 139 128 62 109 127 60 167 155 190 182 185 98 104 166 149 116 213 161 107 162 143 165 95 142 105 119 128 93 121 154 170 71 122 157 152 108 65 71 77 132 90 166 147 111 92 165 123 96 104 165 106 151 110 131 193 115 110 91 136 45 97 130 54 167 173 108 143 119 118 181 184 120 87 103 169 180 105 170 156 83 48 139 54 115 99 95 202 196 198 186 185 157 111 76 178 165 172 75 155 167 98 143 92 170 147 149 112 183 117 189 96 166 90 144 104 67 84 75 144 160 142 178 102 117 134 163 157 144 177 167 177 152 93 155 207 191 213 137 154 202 95 81 154 125 146 168 137 100 109 157 147 166 129 193 202 94 69 103 75 63 96 192 111 104 98 184 107 139 91 99 113 164 72 170 171 126 150 176 129 114 195 140 183 116 212 105 89 164 75 182 150 153 188 136 95 146 103 144 126 203 138 118 78 147 180 108 118 180 130 166 138 116 162 73 157 120 107 168 184 86 113 78 110 163 172 103 147 174 181 102 129 94 145 97 173 108 105 152 80 129 93 163 170 91 105 198 118 114 172 160 137
140 130 118 115 122 127 131 123 107 101 112 136 136 150 146 137 110 106 98 107 124 153 174 185 188 183 174 189 206 207 195 168 160 155 163 166 158 160 172 182 183 168 185 180 181 173 191 181 182 198 189 196 205 182 177 127 145 192 213 219 227 218 139 116 127 178 167 198 172 108 74 115 126 92 73 136 80 105 80 91 66 75 123 125 126 50 60 72 90 109 144 148 117 123 63 61 108 96 76 97 74 69 100 56 74 84 93 66 83 94 124 124 123 102 97 137 103 72 63 154 112 190 188 151 120 173 163 77 162 177 101 115 181 163 159 74 177 134 115 156 120 138 149 123 176 176 115 49 117 58 150 91 150 176 118 153 219 165 170 180 198 152 191 213 142 143 148 80 104 133 105 187 183 184 143 186 183 161 64 154 61 142 105 155 120 106 94 102 106 155 187 124 140 109 155 109 160 86 161 145 168 85 189 217 131 206 140 144 146 116 165 74 153 148 94 88 177 163 94 104 96 144 133 137 181 80 171 115 129 77 119 88 51 51 105 94 74 154 113 62 79 154 152 175 174 145 163 56 65 142 173 162 153 136 105 149 186 169 210 124 155 100 149 138 130 141 101 159 82 120 80 99 83 181 117 183 201 189 200 107 139 96 95 187 95 156 92 72 101 143 63 92 163 152 68 95 67 156 76 157 89 125 90 93 136 136 168 135 115 171 145 100 120 180 118 207 144 137 124 156 45 61 38 55 163 96 115 196 112 111 184 175 107 144 189 190 102 174 94 88 118 61 62 66 97 121 118 135 139 117 201 144 81 133 125 109 160 178 163 149 62 145 59 63 113 100 159 142 138 199 136 136 87 129 132 72 154 162 97 72 65 74 172 127 207 110 125 102 148 138 82 140 146 85 123 123 204 154 138 218 121 98 135 74 147 82 95 74 82 126 152 173 143 119 120 137 164 114 62 49 136 80 174 168 181 196 189 129 170 99 140 149 64 145 157 156 106 147 170 121 158 125 124 190 194 202 174 169 159 148 82 163 137 100 103 87 96 164 193 169 119 176 120 186 172 136 141 146 120 195 219 112 192 176 87 72 99 183 108 93 106 127 89 142 156 92 192 125 186 155 90 135 124 114 110 175 157 170 95 82 73 83 113 143 96 196 207 176 124 123 115 58
124 116 109 104 115 125 129 133 130 120 130 138 149 144 144 136 123 106 104 124 135 147 172 186 192 192 190 198 198 197 182 157 151 147 164 165 161 172 178 178 180 180 180 165 172 186 199 182 205 203 206 160 177 176 163 125 121 171 220 190 214 216 201 122 120 147 123 114 109 111 142 127 59 115 132 113 91 114 98 114 64 77 70 63 51 41 56 98 114 116 151 132 122 127 74 49 101 84 107 102 123 121 70 70 104 85 105 124 76 114 131 126 167 115 103 101 85 84 151 67 139 117 137 141 184 166 112 165 163 79 175 92 90 82 172 94 179 172 180 184 92 97 190 214 145 101 70 51 138 138 164 103 72 106 173 181 197 202 170 164 185 99 115 114 125 181 82 138 86 178 152 177 132 135 199 168 154 127 77 99 157 146 86 157 133 160 197 163 106 175 170 172 180 96 103 192 99 108 86 90 90 97 131 191 179 103 83 77 91 69 174 175 177 115 77 99 150 103 135 108 101 109 175 161 87 155 165 107 146 83 136 140 61 154 140 157 80 83 124 134 58 132 74 91 175 163 161 108 146 65 67 174 167 114 177 184 195 156 179 109 147 86 74 152 103 69 139 113 124 112 71 174 110 131 186 97 129 149 150 104 116 87 147 181 132 89 88 141 63 98 58 91 77 111 127 161 86 122 87 95 93 101 80 134 160 152 76 70 113 127 139 204 143 149 183 255 110 122 183 140 140 55 133 147 143 114 124 155 158 163 167 105 141 102 181 141 123 168 80 108 73 172 149 91 165 159 204 145 138 120 204 183 158 75 160 94 119 83 119 163 125 130 164 171 155 147 110 201 103 200 187 170 130 185 167 166 167 76 147 158 143 84 100 93 113 116 130 193 100 71 136 124 61 155 186 136 213 168 196 156 108 180 99 64 71 116 66 137 157 161 129 110 161 173 152 143 77 43 85 52 50 163 148 121 120 190 145 172 166 83 136 89 66 69 84 79 116 159 172 184 98 185 83 176 144 187 182 152 159 101 71 114 157 93 161 168 145 170 186 163 176 105 160 143 162 218 145 195 126 214 170 207 109 146 145 145 95 96 148 156 149 125 82 162 167 189 199 117 136 130 150 195 127 89 164 129 90 144 104 91 182 139 163 138 95 167 139 120 189 165 82 66
107 107 110 113 127 133 134 130 134 138 152 156 161 159 161 150 133 120 127 140 147 163 164 175 179 201 197 193 195 175 166 149 154 159 172 181 185 187 181 188 177 182 179 165 159 177 182 210 211 188 191 203 147 164 134 132 181 183 184 211 171 211 165 144 159 191 189 131 178 77 150 81 131 109 163 116 120 84 136 58 101 78 116 89 81 83 107 73 89 130 119 108 120 68 79 64 83 91 99 95 121 104 94 81 91 107 93 84 81 156 106 133 149 125 119 101 115 167 85 96 81 107 119 111 187 84 70 74 75 96 143 184 172 182 164 158 174 103 176 169 180 99 204 217 200 190 73 147 58 135 67 161 67 132 148 179 206 154 137 118 162 163 98 111 96 147 132 117 177 178 183 108 97 132 160 205 129 183 102 169 141 139 112 128 73 186 193 182 189 166 132 172 145 90 164 102 176 169 184 112 93 187 177 93 181 143 77 159 59 73 135 88 170 165 106 190 196 125 168 120 195 112 162 179 164 161 90 91 165 91 58 83 102 91 82 183 176 106 186 165 100 82 123 165 186 157 122 157 58 55 166 109 171 97 168 97 192 127 130 189 125 92 169 79 69 78 127 114 71 149 114 112 178 87 143 109 93 163 144 119 90 121 120 174 85 171 81 167 97 133 62 119 70 135 81 139 108 80 128 141 179 168 88 127 92 169 139 139 162 80 189 106 182 255 108 199 170 125 136 69 152 66 154 84 101 111 121 96 91 144 170 94 93 161 175 149 167 105 73 148 87 178 154 169 87 195 203 116 213 199 255 92 114 148 185 100 192 88 167 112 160 169 81 99 176 148 169 99 189 152 117 191 197 178 181 166 144 123 68 73 77 137 151 166 173 126 205 135 90 121 154 112 146 156 94 201 112 205 177 162 122 165 71 165 74 109 173 83 137 158 175 98 70 81 164 163 86 51 57 98 96 90 97 136 97 186 87 86 150 148 112 92 114 82 91 117 96 85 128 157 180 184 171 169 170 91 77 163 82 100 135 139 145 63 70 86 121 90 186 144 110 172 90 172 183 166 155 114 197 110 186 207 205 109 190 196 177 143 143 132 180 92 157 145 101 138 176 190 209 155 174 152 105 153 75 70 96 130 107 114 193 91 86 111 117 200 148 112 194 139 121 68
106 113 123 134 143 148 137 133 142 147 168 175 177 184 176 158 149 141 154 156 146 162 155 158 176 197 207 203 187 171 155 154 158 174 185 199 198 197 203 195 190 192 193 199 204 204 198 199 174 161 160 188 187 162 162 177 161 199 136 142 187 190 171 134 192 194 133 113 153 137 150 92 104 150 151 129 79 67 73 121 110 87 94 88 134 73 73 95 96 97 94 94 96 71 89 93 105 89 123 110 135 114 120 140 102 101 122 85 91 102 96 150 97 121 98 131 108 98 84 156 175 153 152 109 174 81 84 75 113 91 178 165 183 124 177 82 74 165 80 101 166 100 134 194 201 158 171 114 140 164 101 65 134 168 170 165 160 97 159 149 128 73 124 129 146 114 124 179 178 114 180 146 122 126 106 175 131 190 176 154 64 147 59 135 126 179 96 136 180 151 167 131 176 92 185 161 159 98 104 167 130 182 122 174 130 76 140 145 60 71 131 182 98 178 186 183 187 136 116 110 131 129 160 161 171 185 197 183 168 74 130 122 134 86 109 111 191 111 190 119 180 159 110 127 113 152 167 163 98 162 139 153 200 163 128 185 152 90 89 109 179 175 131 115 168 65 91 68 140 93 140 141 108 154 140 62 145 57 116 67 89 79 150 82 159 171 114 174 98 74 158 88 80 150 72 98 109 77 180 121 121 143 151 86 171 163 165 68 95 117 142 195 120 103 113 93 125 117 139 64 144 141 102 94 185 193 118 135 171 91 141 144 166 166 134 169 138 64 57 151 69 78 169 89 108 205 117 135 127 188 144 158 85 188 113 180 188 83 167 98 90 168 182 194 118 185 86 99 164 154 114 137 151 203 169 99 114 76 140 89 112 94 106 91 164 208 160 204 117 139 145 128 172 84 189 177 184 191 134 98 130 127 79 138 90 143 95 93 107 198 123 110 151 101 62 75 68 160 135 63 117 162 98 173 130 91 98 171 72 78 151 74 96 113 82 110 107 148 159 149 175 156 157 141 74 102 171 115 172 157 157 99 139 56 98 137 158 70 164 141 165 126 169 163 191 160 164 156 132 133 171 188 168 113 185 130 186 111 104 141 91 110 168 125 189 122 114 140 135 146 154 208 96 85 62 110 62 157 89 105 149 183 176 81 147 110 186 161 104 184 81 142
114 124 136 153 161 156 141 139 140 157 163 178 192 176 162 160 165 170 175 161 161 140 136 144 167 187 203 201 183 161 155 160 176 192 203 209 201 207 203 204 199 186 204 207 204 198 203 186 178 177 176 138 182 137 159 187 136 138 154 170 110 140 189 150 155 219 139 164 144 158 127 99 119 111 101 106 82 84 118 100 114 90 156 89 96 145 87 90 89 106 75 72 113 82 101 149 102 135 114 98 145 111 108 109 125 133 90 111 130 138 91 102 86 89 95 127 117 123 125 113 147 111 106 84 125 113 110 125 160 188 156 99 94 176 89 64 72 164 164 159 133 92 104 93 137 156 168 170 173 74 67 161 167 91 202 115 135 137 134 133 143 150 111 104 131 148 197 183 200 134 186 131 170 167 184 175 159 191 184 155 156 128 121 117 104 174 179 178 113 113 106 89 90 177 171 193 170 110 126 166 195 103 101 136 143 158 116 85 80 97 97 150 113 182 204 167 126 191 205 194 159 141 165 122 150 200 202 186 106 177 78 121 92 177 180 206 128 204 196 192 106 76 63 81 75 170 155 174 144 165 76 174 193 137 138 189 121 79 166 171 172 120 145 154 164 80 157 87 99 140 133 157 103 142 139 143 117 143 75 118 156 149 157 180 147 109 128 141 172 162 90 124 114 132 142 92 86 123 116 212 112 196 129 105 92 124 134 134 102 118 102 150 114 99 89 129 165 187 177 64 143 109 138 145 170 184 154 90 146 67 88 165 85 168 161 177 164 90 146 85 75 148 106 145 161 145 111 146 137 137 91 136 109 145 216 125 168 82 171 174 160 138 195 162 92 79 132 74 132 145 173 115 214 178 114 151 58 113 98 87 97 137 161 179 190 122 181 193 123 89 140 184 186 127 175 108 202 113 138 189 179 79 175 88 103 116 115 135 130 129 191 151 153 61 119 83 179 116 71 146 98 197 192 146 161 97 165 150 153 127 159 162 68 255 124 180 102 176 153 147 88 159 147 73 92 166 153 96 180 171 162 151 64 71 67 94 83 144 52 54 145 172 161 163 210 173 109 168 115 169 192 173 119 216 141 158 118 115 203 180 146 130 122 119 190 144 168 219 157 205 172 148 109 114 69 42 122 64 101 180 134 136 117 103 93 200 125 212 212 190 159 156
133 137 145 154 158 153 143 136 141 152 177 185 181 167 167 159 179 181 179 168 153 137 139 134 146 179 192 189 179 154 151 164 182 198 206 204 202 192 191 192 200 193 208 217 217 222 195 170 140 118 149 161 158 165 199 145 196 180 171 99 150 109 177 183 220 174 146 99 157 132 139 129 144 138 153 115 151 120 84 80 86 161 93 118 150 147 100 152 83 106 61 60 67 78 99 151 127 120 106 124 109 120 119 127 114 131 99 119 91 149 108 70 71 90 94 109 103 107 96 113 115 168 126 144 79 53 143 171 155 195 110 160 89 167 118 135 82 70 86 150 119 80 156 92 153 78 152 172 86 170 179 172 82 198 158 197 110 150 152 97 150 113 104 159 185 199 185 120 169 176 119 114 177 117 186 179 142 172 116 172 164 100 146 172 179 105 77 174 138 176 125 168 191 127 193 148 120 96 183 182 154 198 195 121 187 122 91 61 66 157 169 184 192 201 186 147 192 176 152 173 157 133 95 151 150 174 189 120 108 164 95 156 101 74 129 142 150 122 150 171 167 164 110 58 87 128 182 110 174 85 160 108 104 174 116 166 82 150 107 164 146 126 183 172 91 150 74 154 149 76 120 107 184 140 129 128 77 93 62 83 87 75 84 89 106 94 126 69 118 128 191 127 105 149 127 145 84 89 150 144 207 105 92 177 167 84 86 88 177 121 156 101 93 190 188 186 163 168 176 87 119 160 99 109 100 101 126 90 159 146 171 89 171 118 159 114 171 81 58 145 160 102 79 117 188 116 95 113 85 140 188 168 219 228 175 134 103 174 171 133 103 135 174 187 76 141 106 67 172 174 191 130 102 177 89 66 143 111 155 159 60 132 148 117 177 203 115 186 177 101 98 200 204 159 117 199 127 147 101 110 183 125 99 174 196 175 194 111 107 159 132 167 84 74 89 87 115 127 137 159 108 112 113 141 195 176 160 55 64 137 139 160 112 178 89 184 196 138 190 137 138 78 97 140 165 142 186 96 165 136 169 165 148 59 117 116 96 126 80 60 133 94 134 161 142 122 103 120 173 166 143 205 175 231 192 190 122 143 131 189 113 164 198 135 189 180 200 207 212 189 127 117 193 71 141 45 46 46 84 76 83 130 88 187 113 131 229 183 132 119 150 171
147 144 143 145 150 147 140 139 146 163 168 180 170 166 158 157 170 174 164 152 148 134 128 142 150 165 173 176 163 163 157 166 185 198 199 190 186 189 188 198 195 202 182 209 202 225 192 173 152 107 152 140 174 162 194 168 154 160 122 148 119 149 184 151 182 201 133 152 87 84 131 94 112 105 99 86 144 85 92 121 163 140 100 87 136 163 129 149 93 60 74 77 60 71 87 147 114 160 163 115 115 125 128 145 100 90 102 106 85 88 110 84 67 141 85 172 139 121 102 125 99 153 82 140 126 58 143 83 153 100 185 86 122 64 41 58 73 169 107 120 107 131 136 182 78 84 166 170 101 201 125 183 168 201 213 200 125 90 151 157 120 91 166 177 206 152 208 206 133 129 129 160 187 198 220 221 200 125 197 130 101 148 69 167 97 102 166 77 168 159 149 185 180 96 189 136 162 147 148 121 186 194 198 110 105 187 170 108 144 65 167 169 100 108 147 79 83 93 123 115 168 144 96 107 146 201 211 125 220 196 107 98 128 91 78 80 88 181 181 189 124 92 64 155 160 80 95 150 181 128 97 83 152 183 164 155 170 167 149 154 167 117 134 89 86 140 97 116 138 155 151 92 111 148 150 121 125 85 85 135 162 73 74 105 88 92 116 95 63 91 121 114 135 145 76 61 109 64 101 98 199 195 117 104 91 93 98 140 103 91 175 99 160 99 169 120 105 110 102 117 169 139 113 210 108 169 85 99 76 92 133 166 143 210 175 119 189 106 152 137 76 92 75 165 178 88 157 101 89 89 195 164 200 255 249 185 114 151 172 162 93 84 168 143 159 129 92 91 122 109 131 172 146 80 142 67 52 109 118 98 102 91 147 185 186 181 166 195 144 178 196 201 204 102 184 175 110 140 156 103 108 184 181 92 139 114 114 167 177 191 154 78 96 161 144 130 185 174 185 156 168 175 107 103 116 111 137 72 69 154 86 172 163 165 190 115 152 197 105 155 170 170 152 166 74 102 87 132 182 84 114 122 137 155 109 125 91 159 152 168 97 172 184 140 149 121 176 182 97 183 200 206 136 217 160 184 174 197 107 195 179 148 219 216 167 214 124 141 153 119 203 202 179 95 150 108 141 83 84 88 88 113 174 193 198 151 149 249 218 161 171 192
161 150 141 139 141 144 144 143 146 153 164 177 175 165 163 162 173 166 172 145 138 139 144 157 152 153 149 156 162 161 165 169 184 194 193 183 182 185 179 195 190 196 185 195 218 209 206 185 166 128 161 149 188 198 203 164 190 136 131 161 112 123 142 149 186 205 128 146 84 139 99 154 116 79 80 157 132 68 68 97 104 85 102 63 72 102 98 95 79 68 50 59 73 68 80 84 95 102 119 145 130 104 125 124 117 72 64 133 120 117 121 77 105 90 148 107 101 101 115 87 83 136 83 164 82 70 65 131 153 156 161 147 161 143 114 132 103 77 117 166 162 171 119 111 116 91 170 182 203 201 167 121 167 125 196 121 180 153 160 66 110 107 157 183 195 205 203 120 196 136 119 186 186 218 184 140 210 136 184 126 174 173 170 174 80 175 79 82 105 185 96 106 145 159 172 163 68 153 139 168 86 132 117 255 114 95 126 157 95 139 95 168 74 86 160 155 139 84 140 183 67 132 67 157 121 124 124 132 219 211 99 171 61 148 91 153 170 173 179 186 128 184 97 128 119 169 82 130 109 160 150 137 104 172 173 166 168 75 102 147 170 181 190 187 177 177 140 68 111 93 87 162 176 171 147 107 71 96 88 59 150 93 162 102 175 78 152 83 53 132 89 103 125 114 66 144 81 113 76 161 132 134 100 119 139 142 117 99 133 94 136 105 99 132 114 201 107 87 136 93 131 114 140 127 118 104 84 131 80 155 92 113 131 195 213 212 111 165 104 112 188 160 172 153 157 111 122 124 107 188 120 197 138 209 187 225 166 93 160 124 123 154 64 73 132 155 70 165 136 113 97 174 141 155 131 56 76 97 68 100 73 162 126 171 102 154 177 85 97 172 103 143 131 104 159 187 147 149 197 116 128 132 142 127 99 112 131 114 162 191 87 175 94 93 147 165 119 107 172 115 112 97 131 118 72 65 152 156 126 147 118 168 185 143 115 166 178 197 202 214 175 158 87 174 131 96 181 175 127 82 154 99 115 152 158 147 162 91 180 175 96 124 165 177 144 196 175 100 86 118 186 127 166 226 145 152 199 138 81 173 94 171 183 194 154 98 112 173 102 128 104 127 181 104 116 76 82 95 99 184 154 139 109 167 135 233 209 215 155 133 120 137
163 152 137 129 134 141 141 141 143 153 166 176 168 156 153 149 155 166 167 150 141 151 150 166 152 147 145 156 165 171 165 172 185 196 195 184 181 189 192 196 189 200 204 187 193 207 185 175 174 166 169 143 183 185 204 177 177 128 179 172 174 175 183 157 188 133 119 116 119 111 94 83 100 157 136 156 131 85 66 153 113 98 66 97 119 97 101 134 88 122 60 65 80 74 99 95 89 105 134 103 132 133 131 93 96 101 124 131 120 85 99 117 154 137 93 93 142 110 81 85 149 138 131 122 185 81 150 72 50 134 137 101 91 61 90 49 149 130 119 209 209 174 210 109 189 92 158 200 109 199 117 193 156 168 170 164 180 111 75 159 132 104 157 165 187 181 146 183 183 197 197 129 152 219 164 167 155 172 138 115 83 89 104 164 165 110 150 164 181 172 95 136 133 151 164 119 155 91 146 143 179 174 188 191 112 97 184 96 117 79 94 117 69 71 145 146 69 76 150 74 105 143 132 108 118 202 119 167 208 107 162 174 158 97 160 79 82 112 126 199 134 188 125 121 142 127 172 86 80 149 132 118 129 146 94 86 111 136 170 132 101 166 96 130 146 192 134 147 120 71 79 94 196 123 128 115 63 80 67 54 138 74 180 110 98 117 115 97 64 126 140 131 138 103 130 144 136 60 160 167 93 163 115 126 177 170 185 93 114 184 120 98 101 205 199 111 88 144 146 103 95 122 130 193 121 157 86 88 122 64 67 89 175 181 192 137 156 203 199 100 164 161 96 129 155 94 161 156 99 102 197 205 205 208 218 205 203 118 172 172 165 148 124 68 152 104 120 166 71 84 154 163 144 166 114 76 109 77 85 117 66 98 94 90 98 116 141 145 104 78 161 110 183 183 106 179 102 92 140 136 173 173 85 95 168 149 150 195 183 186 138 111 178 121 185 91 160 151 137 192 158 169 97 68 107 128 166 83 171 171 136 105 117 184 102 181 148 180 116 124 195 125 185 82 82 85 170 88 184 122 79 71 160 144 156 154 125 195 138 167 135 127 192 216 162 117 144 142 127 59 76 158 144 175 165 208 167 84 147 72 121 161 110 119 138 155 120 106 98 161 94 135 79 161 110 135 91 92 144 106 196 207 130 140 110 161 157 165 178 155 148 164
164 153 135 127 125 131 135 129 142 145 161 173 182 168 171 153 156 155 165 155 154 158 169 180 165 143 143 161 168 170 166 176 185 194 190 194 194 193 194 197 198 197 203 209 203 197 190 183 174 165 134 170 188 169 163 186 169 164 134 125 146 139 160 121 169 137 109 99 151 108 156 165 118 86 99 156 98 141 134 74 142 119 101 90 82 93 153 139 124 85 72 129 74 127 88 110 121 91 79 78 67 67 74 87 92 98 80 80 107 89 137 78 148 122 102 96 161 87 115 77 117 154 186 125 128 176 114 121 80 63 44 108 118 138 81 171 130 168 102 133 141 164 207 202 188 176 92 200 199 117 188 183 102 96 118 175 116 161 168 113 151 88 89 100 171 142 188 137 181 191 203 142 218 135 133 137 140 153 188 173 118 168 75 156 72 172 84 95 171 107 171 90 88 84 160 157 154 154 67 166 92 190 159 107 127 114 91 76 125 149 144 64 130 69 119 130 53 152 138 134 77 124 95 154 185 190 202 155 186 121 90 173 156 182 115 100 117 114 187 196 202 189 169 155 69 165 165 94 174 148 153 74 68 65 113 141 158 164 116 175 128 148 153 173 115 119 98 168 80 169 87 156 196 93 152 114 162 95 104 76 75 134 160 192 101 142 115 141 66 83 157 135 85 146 65 152 110 89 185 92 104 110 176 106 190 176 113 114 85 98 186 148 161 106 99 101 131 67 83 102 118 189 142 131 133 194 87 71 91 55 57 128 147 189 154 102 108 200 146 191 177 84 79 164 165 65 95 128 134 121 151 186 88 104 134 106 142 168 190 98 133 123 86 133 166 178 148 83 69 98 161 118 177 73 133 158 124 116 84 170 159 75 77 101 141 120 94 126 75 177 150 191 178 184 90 98 104 110 69 65 117 148 128 109 119 123 182 123 169 93 174 168 139 187 139 80 153 82 175 129 177 155 61 47 149 96 173 94 172 195 99 192 193 135 126 136 130 190 159 150 167 110 185 191 98 167 90 164 95 103 138 148 68 148 119 95 209 194 194 152 161 141 189 183 143 206 168 112 149 112 145 149 95 136 107 95 106 113 108 169 151 187 152 152 155 150 96 42 73 123 125 103 128 133 64 130 90 139 175 199 204 105 110 194 100 106 111 149 119 106 186 90
159 151 131 117 112 113 124 118 127 152 169 180 181 177 166 161 157 165 156 159 153 160 162 168 170 166 161 170 176 173 181 182 188 185 191 189 185 189 181 192 200 204 206 186 167 179 177 164 130 169 140 178 188 143 146 181 152 175 145 134 116 157 109 168 160 100 133 92 109 95 121 112 148 140 149 126 116 147 72 73 130 123 72 81 124 163 98 97 129 92 132 125 89 89 103 116 155 85 105 62 75 97 91 100 112 86 79 89 95 91 81 84 94 166 92 87 135 120 88 66 98 80 102 102 151 91 71 126 41 49 58 64 82 188 194 108 188 108 168 197 151 163 169 102 180 136 182 182 168 91 86 104 101 160 77 163 133 84 88 77 125 67 74 164 135 117 140 130 179 121 157 134 153 224 131 146 179 134 119 130 184 73 156 161 90 131 180 132 176 194 146 147 78 164 72 83 144 75 158 80 109 118 146 114 186 152 122 133 73 115 99 150 162 134 125 47 37 128 76 68 79 158 158 170 163 126 186 183 180 165 132 126 181 129 109 160 176 183 122 128 124 132 171 109 146 164 92 148 166 92 105 67 108 131 176 80 124 80 116 167 87 71 149 143 130 153 154 101 129 164 175 193 186 187 152 95 116 172 103 132 184 174 148 141 197 189 144 106 92 148 109 88 165 101 172 155 81 177 172 114 128 88 173 123 137 109 84 150 128 155 169 151 133 112 166 173 73 165 77 153 144 183 134 189 108 102 101 80 96 88 103 89 125 112 106 187 194 192 141 116 169 86 168 83 90 148 76 99 162 102 150 127 75 116 164 176 135 201 111 198 102 188 182 161 186 119 189 173 92 75 149 86 173 134 141 98 125 106 91 161 128 95 115 100 111 167 104 131 174 87 113 97 158 150 101 132 179 166 158 142 94 137 106 109 220 224 215 114 155 107 125 102 103 192 83 127 59 128 88 170 161 128 66 108 135 87 193 98 149 126 178 132 106 202 203 196 189 104 170 80 156 103 111 187 198 146 156 159 166 178 163 158 100 179 186 194 121 181 184 108 161 94 109 185 164 195 200 156 86 61 82 53 112 78 125 169 98 164 132 170 82 180 183 127 58 37 108 70 138 61 76 60 97 85 152 77 72 117 153 187 142 145 128 178 94 92 104 143 116 164 90 113
164 154 132 115 103 101 106 113 123 145 168 179 188 184 168 169 167 160 148 142 146 156 168 181 189 185 180 182 184 185 175 183 185 176 178 177 184 183 182 179 193 184 201 194 177 180 150 152 147 150 160 162 159 128 140 150 175 118 104 102 111 93 152 152 177 158 85 144 138 150 147 146 153 72 86 98 88 109 75 77 88 83 151 90 95 118 104 99 119 113 101 97 113 96 151 119 114 108 114 91 54 74 102 100 87 91 131 93 122 89 79 113 137 131 96 144 77 66 99 75 156 83 97 91 118 85 62 144 47 129 159 93 102 105 195 114 135 151 102 135 193 188 203 177 159 168 129 193 96 186 182 166 84 148 113 143 73 174 92 133 85 168 89 160 110 178 149 168 185 119 209 222 221 207 221 143 212 210 214 126 188 177 165 73 173 87 97 148 108 157 96 120 168 127 77 163 160 149 157 106 120 132 160 159 87 182 179 177 151 109 150 83 101 124 146 119 126 81 36 130 129 160 158 95 134 109 123 141 165 76 165 169 166 153 192 185 126 125 194 172 116 92 166 109 70 90 92 180 106 151 153 156 149 149 255 190 97 181 154 79 122 100 74 72 83 88 178 122 103 99 135 155 194 182 157 135 155 167 129 167 200 107 125 176 122 179 143 79 128 139 111 106 190 106 157 94 191 118 120 162 96 79 112 88 99 76 69 79 113 99 92 122 132 163 102 89 164 132 89 140 108 193 128 156 210 166 141 72 140 74 76 96 138 165 87 138 149 187 84 73 163 173 86 168 172 98 183 154 102 164 152 172 168 145 118 165 130 96 185 191 145 189 184 182 162 169 101 118 87 98 152 136 137 172 116 171 180 129 133 93 88 137 148 163 148 120 109 180 117 195 163 181 159 98 115 89 88 134 159 95 54 123 98 114 179 216 132 197 119 166 122 98 127 101 103 154 150 148 79 114 139 136 64 145 76 182 132 117 101 183 168 169 179 147 208 135 111 90 101 78 54 91 127 89 153 174 130 188 133 180 89 86 119 114 181 196 103 156 123 135 62 160 72 165 100 185 208 116 181 160 98 62 143 81 79 63 72 133 171 177 108 160 182 122 74 112 138 127 62 63 146 59 81 176 181 165 100 170 159 106 160 140 112 150 88 101 179 162 122 89 91 126
169 158 135 112 100 97 106 107 113 137 158 170 191 187 166 172 168 162 158 152 141 160 165 182 187 208 211 210 199 186 184 183 183 173 168 173 176 183 185 182 181 187 191 188 173 168 171 154 164 134 144 144 150 129 153 154 142 157 152 98 90 97 161 99 115 107 166 78 107 103 161 136 141 81 93 71 155 100 94 150 147 127 94 98 103 95 100 96 106 157 112 123 156 94 99 123 122 99 107 94 70 89 106 137 99 84 103 108 87 69 135 120 101 83 110 88 72 81 85 90 96 97 155 84 167 86 124 135 135 79 174 167 115 113 204 161 177 205 160 183 186 199 190 96 184 183 107 192 101 155 166 83 75 142 151 131 144 132 135 188 184 144 75 160 155 165 189 135 180 162 198 209 218 217 158 190 131 161 129 204 112 175 79 121 108 137 134 194 145 143 189 83 175 101 80 159 134 92 185 101 99 188 103 104 76 112 136 110 158 83 160 108 145 63 92 98 99 38 255 74 71 84 105 186 195 192 124 81 73 68 149 72 84 113 187 182 167 132 127 202 163 97 78 162 121 185 154 132 177 106 148 80 77 82 98 175 196 97 178 76 125 91 113 93 134 138 114 107 141 97 134 173 191 112 102 147 136 136 194 213 147 149 160 83 99 73 85 89 79 69 85 96 113 180 194 119 122 185 145 118 165 152 156 92 124 91 161 159 108 84 175 111 130 101 91 120 83 99 111 139 104 111 189 167 119 116 94 84 57 147 158 73 88 114 96 109 180 124 104 108 103 105 95 104 186 118 112 149 206 96 182 124 171 157 64 137 170 145 175 82 154 92 95 180 147 110 112 107 143 166 159 146 84 86 98 183 121 117 113 159 181 169 80 97 141 86 77 89 166 190 132 166 176 183 125 162 192 133 103 72 86 89 182 206 152 202 181 109 97 92 112 91 198 170 108 183 72 104 170 181 92 176 171 135 175 94 104 137 182 179 129 174 177 191 137 109 166 184 78 165 149 102 94 165 119 202 113 171 145 88 174 113 149 182 198 196 102 108 176 166 142 65 83 175 90 103 178 107 142 173 96 175 148 124 89 112 131 138 175 95 109 182 106 162 92 151 127 88 130 75 165 157 165 98 137 92 163 88 113 97 94 179 98 135 94 114 151 170 123 170 79 113
175 165 145 126 112 110 109 113 116 134 148 170 176 165 166 144 159 146 160 148 150 159 159 187 212 225 227 217 199 179 172 176 174 166 167 166 173 187 181 191 183 173 172 191 183 166 190 157 184 169 141 144 167 146 153 145 122 108 132 146 137 148 160 113 106 181 132 168 93 108 124 169 170 173 139 116 127 152 145 137 148 134 173 119 92 83 81 137 107 112 117 110 101 107 113 140 111 104 80 99 101 81 109 140 101 91 74 73 67 103 156 169 162 91 144 65 54 78 88 107 181 96 111 117 68 131 111 88 169 148 199 205 110 116 214 221 122 202 184 112 86 189 167 197 177 123 204 210 179 193 86 179 167 113 121 110 73 175 99 194 163 109 167 165 176 144 194 189 117 132 89 181 167 193 172 162 129 184 150 114 171 173 76 178 91 186 196 195 152 90 87 111 167 158 75 129 94 167 93 116 157 141 181 85 121 161 171 167 76 104 103 161 77 70 148 54 80 58 83 146 147 107 89 141 139 119 94 168 97 102 63 161 157 187 174 97 107 133 167 99 195 113 172 177 174 112 167 142 190 190 111 120 172 135 171 174 209 149 195 178 134 105 149 89 119 70 151 88 183 144 182 179 149 187 159 112 92 101 121 122 177 177 121 114 81 106 78 115 75 66 133 103 163 106 118 142 136 169 198 196 112 125 55 62 156 121 115 159 83 102 150 193 107 190 119 130 103 104 88 87 110 195 186 180 106 99 149 172 166 122 113 141 173 92 94 107 196 185 135 178 154 121 109 109 134 121 206 178 203 188 176 139 78 112 106 152 172 131 167 148 110 165 96 78 151 191 170 118 140 93 127 126 109 182 199 119 191 95 125 101 144 123 77 125 111 74 131 120 145 184 191 95 116 180 87 174 152 157 161 91 79 67 165 161 195 183 186 81 118 150 137 167 120 161 171 206 161 175 103 190 180 172 131 183 87 105 155 107 158 171 172 167 90 142 166 176 118 183 184 124 129 61 73 164 104 121 116 179 173 179 80 183 175 200 178 132 127 192 177 137 159 129 136 172 169 180 98 141 150 136 113 124 108 119 142 125 149 122 86 152 199 119 106 133 135 108 83 101 128 88 70 67 120 142 154 183 83 172 183 94 131 115 177 141 95 123 77 162 129 78 142 97
166 164 154 140 126 122 120 118 127 139 152 163 173 170 144 144 153 143 157 154 163 161 165 175 206 221 215 200 182 173 171 173 172 168 165 169 182 186 200 201 180 191 177 198 198 173 170 151 180 149 177 149 148 150 149 143 152 169 124 150 121 156 117 114 134 132 116 116 132 135 163 175 149 151 165 86 106 152 147 196 127 154 174 157 138 79 135 104 100 165 141 105 105 101 105 99 116 144 77 59 52 105 88 100 97 94 62 81 89 84 111 130 103 121 96 77 82 68 95 154 193 103 129 164 151 94 80 91 170 109 145 159 204 143 215 217 218 120 101 83 180 104 210 215 120 209 227 193 114 191 149 84 144 97 48 143 154 180 161 155 106 161 84 143 109 187 150 155 134 86 91 90 139 141 167 175 178 172 143 113 128 170 138 82 176 182 104 88 84 86 146 128 185 94 173 163 124 95 127 120 171 176 100 179 88 102 175 89 124 80 129 139 174 113 73 67 111 98 74 147 145 167 111 167 101 103 157 154 159 148 116 169 177 123 114 97 117 167 111 96 133 135 125 91 190 200 213 222 164 211 182 103 75 172 175 193 121 177 111 169 146 169 160 67 81 137 141 138 164 122 173 173 184 145 92 185 157 177 153 194 163 111 91 68 90 92 176 179 148 138 158 61 135 136 106 121 141 131 138 174 167 98 155 155 126 135 112 93 91 87 122 131 91 108 110 163 110 119 107 126 119 183 182 177 87 180 89 80 131 82 96 192 152 113 190 119 116 194 160 148 103 160 200 206 122 106 173 142 98 179 192 100 130 166 160 148 153 175 144 160 116 96 140 121 174 143 214 216 162 141 157 129 96 163 116 130 142 104 178 173 114 86 77 76 22 37 110 110 125 188 176 166 161 138 85 167 152 190 174 169 65 154 89 168 162 193 183 78 164 91 82 173 100 195 218 150 145 88 102 87 135 96 98 147 138 74 140 76 86 141 137 152 186 154 173 88 136 159 146 90 96 161 137 255 111 198 100 126 157 84 81 91 170 141 138 199 162 174 155 114 63 151 155 93 93 142 181 186 161 163 112 105 158 166 144 136 137 147 117 162 138 158 139 95 171 161 168 174 193 175 88 107 168 144 135 83 84 89 100 101 192 136 180 113 174 161 124 83 130 98 78 166
144 151 156 153 140 136 131 135 135 156 172 163 158 152 143 139 139 148 157 166 153 158 170 182 196 210 211 199 184 174 172 177 178 165 167 167 180 194 199 195 194 205 201 204 199 190 181 158 155 158 175 174 175 157 155 164 132 122 123 137 190 137 173 163 114 98 141 162 106 131 122 255 135 112 148 92 93 117 140 154 138 124 136 111 151 135 87 138 86 96 150 100 149 89 126 135 133 138 99 56 63 48 69 81 102 85 73 66 64 95 98 167 168 115 80 78 84 81 119 187 141 104 106 91 98 178 107 93 138 182 195 124 140 185 107 185 164 179 90 127 165 167 152 210 211 131 217 228 114 168 116 115 66 70 70 99 67 166 161 115 153 149 97 180 180 183 186 133 142 135 130 80 141 92 160 161 168 103 165 143 154 164 87 169 174 155 154 145 141 93 105 177 155 130 137 116 75 129 127 114 200 145 106 88 132 125 120 84 159 68 175 128 111 161 103 144 82 76 169 167 71 167 181 152 126 84 166 153 54 140 86 161 166 197 111 153 146 130 127 155 154 92 195 197 130 203 134 206 149 209 140 174 151 84 135 169 194 134 182 104 150 92 175 166 157 124 99 98 150 160 168 184 191 125 121 155 122 173 105 138 168 93 110 139 121 135 170 114 102 87 104 59 52 70 185 193 165 119 122 157 191 163 70 105 124 100 193 146 87 144 79 72 115 98 101 102 119 96 93 110 163 121 111 118 145 138 116 172 92 77 95 144 118 121 208 207 205 163 120 105 127 181 198 181 197 112 255 105 83 158 154 134 168 143 99 73 139 130 144 168 70 77 125 96 154 195 191 132 176 140 74 123 98 88 147 157 123 210 176 139 126 67 133 62 40 79 97 111 187 184 124 97 132 169 169 108 188 93 148 104 133 164 161 183 135 130 87 156 169 81 130 120 159 182 212 119 157 95 115 183 189 105 121 99 115 60 98 153 109 132 120 137 103 186 141 102 98 189 132 188 178 120 185 119 175 109 96 174 74 112 100 99 184 202 179 201 153 183 100 116 155 171 169 166 143 131 166 179 205 114 176 114 84 82 85 144 144 70 173 173 184 109 99 86 171 84 88 186 156 182 146 149 103 166 88 152 167 117 187 105 202 163 126 159 99 177 165 74 69 145 74 48
118 135 151 154 146 143 139 138 153 166 178 177 159 138 144 127 141 139 163 167 169 161 156 172 180 186 181 191 189 188 193 195 192 177 176 178 181 190 193 187 203 200 202 199 197 186 162 147 149 150 161 178 136 158 145 156 172 144 133 161 190 147 160 127 126 124 175 174 185 140 148 118 116 114 152 85 159 145 132 212 171 166 134 157 135 98 98 133 87 92 133 132 83 74 100 96 139 103 76 43 59 83 69 105 104 85 96 123 124 90 131 126 103 118 83 83 77 83 93 96 173 104 188 94 89 180 102 111 214 139 133 181 176 195 106 137 114 138 94 87 170 166 207 216 139 187 156 179 134 104 150 66 142 114 144 154 159 163 126 79 74 156 159 172 171 167 105 99 143 167 152 106 120 151 80 157 176 136 123 109 115 202 114 194 86 149 165 168 170 180 99 169 169 110 198 87 129 156 135 119 98 195 96 154 102 164 75 77 129 128 179 90 171 173 127 175 78 72 63 120 93 171 95 85 91 92 143 141 51 78 89 93 191 143 193 200 186 184 143 72 97 176 122 192 109 166 117 201 133 107 196 196 192 176 98 188 166 139 150 173 184 180 172 64 154 99 105 100 169 117 84 102 134 120 171 107 141 122 84 172 76 92 90 61 123 113 200 125 117 103 117 49 106 55 72 135 189 175 188 97 101 160 149 178 94 133 114 190 145 98 138 51 150 177 129 179 99 173 101 175 160 82 88 89 186 94 168 166 90 163 83 159 183 202 121 126 170 109 105 174 194 169 101 164 151 93 118 166 127 162 117 206 183 81 145 161 81 70 69 105 93 118 108 71 150 152 181 97 186 126 172 163 62 68 145 141 220 119 151 80 112 88 69 110 65 135 168 185 158 162 76 163 84 160 82 153 132 168 105 152 179 155 80 98 143 115 78 163 164 144 113 184 185 188 124 153 112 160 139 162 180 176 174 113 95 110 140 95 80 176 125 188 186 99 90 150 139 201 118 98 189 179 91 143 90 178 141 171 170 177 158 199 180 150 161 184 87 98 107 91 80 77 106 160 88 123 141 130 144 164 116 157 85 153 163 136 120 154 64 80 110 119 104 141 82 150 176 124 111 148 150 97 103 64 161 68 83 174 120 144 123 145 115 153 189 177 100 102 55 108 122 116
104 125 147 154 148 137 141 139 145 154 175 168 156 147 140 131 140 147 153 160 172 171 174 173 170 175 179 185 194 198 209 207 202 191 191 192 188 185 188 196 194 193 199 197 175 180 157 127 113 137 133 142 187 180 177 162 135 183 157 147 157 175 191 173 139 164 170 131 179 179 146 148 133 89 140 70 86 164 162 181 149 117 106 139 84 103 68 67 78 119 104 100 116 81 90 110 118 149 109 70 55 56 77 82 116 112 111 100 118 101 87 121 161 138 145 83 100 80 173 97 111 173 102 151 98 149 147 107 134 220 126 203 96 153 93 124 106 192 95 181 181 134 149 202 201 154 207 143 172 69 146 116 134 143 161 171 163 103 178 94 73 124 151 88 190 170 113 97 100 147 106 182 120 94 167 110 116 106 154 147 125 142 201 182 127 137 123 166 128 174 172 171 151 167 179 144 76 163 92 162 190 96 98 142 181 152 144 153 142 82 88 191 126 196 146 174 111 103 160 128 173 189 171 168 89 149 144 143 53 141 142 116 108 156 122 185 177 180 163 166 160 80 174 125 120 133 172 135 183 105 140 173 167 127 113 184 99 136 101 121 151 118 64 121 134 152 98 69 132 89 80 95 127 116 110 166 91 71 162 143 66 143 155 64 127 102 125 218 215 194 143 97 122 82 61 161 134 109 84 156 172 134 164 107 98 105 117 177 87 144 46 63 53 80 98 96 171 129 103 115 182 92 170 157 167 163 132 161 81 84 175 95 187 205 216 166 89 85 166 172 150 185 129 147 87 147 98 80 122 181 191 141 123 92 140 145 139 110 150 77 71 92 160 117 97 159 148 140 136 172 203 118 163 77 175 168 137 173 174 107 138 100 73 57 121 73 141 111 101 167 111 83 65 101 80 153 188 204 111 119 183 184 180 174 80 149 151 130 115 135 111 208 197 167 188 146 167 128 97 83 182 207 121 182 97 163 77 107 144 100 112 106 81 85 184 112 103 148 117 96 133 119 173 126 151 175 108 112 117 167 103 167 190 133 172 72 77 160 128 103 181 83 133 148 107 142 112 140 178 188 79 81 144 100 172 113 146 73 73 96 118 165 118 137 63 61 168 124 85 100 88 53 55 146 82 140 111 146 121 173 162 186 168 97 98 180 75 106 48 67 25 105
111 130 148 151 146 138 132 132 145 159 170 164 168 159 154 149 154 140 141 156 173 176 178 189 171 170 163 176 195 208 205 209 201 196 197 202 194 187 172 183 194 195 190 184 187 157 165 142 133 137 143 173 138 179 147 176 183 189 174 149 121 131 169 181 186 121 154 165 120 121 116 134 85 89 108 129 85 112 164 130 123 127 118 93 127 116 75 105 128 87 86 90 80 89 81 104 105 119 104 116 78 77 132 138 113 105 77 65 99 110 99 84 82 84 95 133 94 166 138 98 170 93 163 85 140 68 160 170 122 124 115 104 188 86 180 165 174 189 155 84 133 166 111 205 219 129 192 106 181 70 78 136 117 102 173 144 179 178 182 168 117 63 126 97 187 178 164 175 186 104 114 183 189 125 125 176 165 139 175 122 192 113 128 113 191 138 155 123 127 163 88 183 118 179 172 142 109 63 150 106 178 136 111 189 196 163 180 135 153 164 133 165 111 106 163 80 69 98 86 111 112 185 108 178 129 79 101 59 105 154 160 179 128 169 193 192 154 181 180 152 178 130 111 190 175 126 168 66 78 91 131 122 112 200 170 134 125 181 76 173 156 85 64 98 59 146 127 161 72 81 103 118 179 215 181 150 159 76 120 141 51 147 59 162 82 195 116 216 119 164 132 103 89 112 52 119 85 74 144 163 87 119 182 135 189 99 115 97 96 142 116 61 87 146 65 125 115 186 183 183 96 170 189 179 146 106 153 149 87 80 159 133 201 155 115 189 154 82 145 162 151 84 133 177 169 160 135 72 114 175 109 120 102 198 166 135 68 66 119 156 165 144 106 138 158 67 83 139 110 138 172 179 170 176 169 128 165 176 176 81 105 145 111 107 141 70 113 155 130 75 126 134 66 166 111 86 97 148 103 140 188 162 131 139 165 155 124 129 134 111 190 220 204 158 157 80 76 73 159 141 130 184 131 177 109 150 159 101 179 151 176 163 118 169 170 99 138 177 169 99 174 172 77 76 128 81 172 158 169 96 179 144 69 115 78 128 91 167 109 100 138 188 124 168 165 130 121 149 181 166 163 119 166 125 158 166 147 146 86 91 131 65 129 53 47 62 88 60 58 82 135 149 108 82 120 66 77 142 85 178 94 117 100 118 153 73 134 59 80 141 53 77
129 143 154 155 148 142 135 131 130 146 158 175 170 174 163 159 157 141 155 153 161 183 191 194 199 178 176 171 181 205 204 198 201 197 203 204 194 184 184 189 185 178 188 164 176 181 168 140 144 118 122 144 163 146 174 180 188 137 169 149 113 176 147 177 129 171 111 174 171 179 119 93 87 124 76 133 120 125 130 123 125 176 113 94 144 73 96 134 67 80 87 135 124 106 98 97 127 118 137 105 103 105 82 136 94 126 78 50 101 64 74 81 77 84 94 151 123 162 169 129 163 88 73 62 65 118 94 205 124 133 101 137 182 100 170 185 113 180 121 163 154 91 161 204 218 199 205 190 181 137 82 141 135 85 122 185 95 89 86 96 73 150 113 133 153 192 193 106 128 119 204 196 158 185 180 135 187 112 185 177 99 141 205 127 144 87 66 118 59 64 112 175 77 80 120 130 44 87 71 72 81 186 178 197 137 174 109 149 166 172 136 90 80 84 96 83 148 79 166 98 172 187 186 189 177 126 151 65 162 159 160 128 107 205 105 184 178 107 184 161 194 199 177 202 192 89 67 150 136 117 95 175 113 172 162 194 187 179 144 109 163 81 80 90 138 81 59 148 104 107 156 133 156 131 149 176 157 122 117 130 66 99 101 119 170 128 177 143 147 205 153 140 110 68 139 57 94 57 77 54 81 138 155 118 92 158 125 149 163 67 117 130 80 103 80 98 93 189 215 187 194 118 108 105 172 98 110 125 127 118 102 126 188 198 188 255 88 155 145 169 89 180 112 94 176 176 119 178 173 79 118 184 137 200 99 156 129 43 82 147 164 108 166 132 115 63 147 165 98 212 223 164 158 193 146 175 162 121 108 113 181 143 158 89 59 157 163 180 130 120 148 67 140 137 160 163 78 171 188 157 97 156 180 111 74 115 82 166 165 115 204 124 127 196 176 86 133 98 122 156 165 174 132 170 182 98 150 166 111 182 87 100 143 156 66 149 153 103 168 182 154 144 177 153 112 174 156 147 143 86 170 125 60 98 35 55 58 104 170 168 157 189 173 141 139 156 160 112 102 138 101 163 89 106 191 98 88 136 157 109 166 125 86 144 79 62 105 75 69 255 69 76 68 135 159 117 85 96 176 94 105 146 171 86 92 142 109 56 67 87 71 169
139 147 151 147 141 136 134 130 138 152 159 173 177 179 182 171 167 163 146 154 162 188 207 220 213 193 180 174 184 196 197 199 202 201 204 199 183 178 183 187 193 187 190 182 191 167 161 139 126 149 151 143 171 187 172 185 193 168 211 202 194 187 166 133 137 116 154 103 148 170 122 130 160 137 151 113 127 141 125 150 152 144 163 95 154 78 109 138 76 83 68 134 98 91 149 103 91 94 93 117 79 111 78 94 133 121 76 104 56 95 85 86 98 99 89 116 157 137 117 121 108 101 151 74 162 115 93 119 113 103 141 77 80 125 169 86 168 180 168 158 147 172 176 133 180 211 125 122 160 94 98 126 91 184 98 191 169 175 102 113 86 106 76 118 159 140 161 128 186 199 134 117 108 127 133 190 165 101 154 118 97 135 173 111 201 178 162 81 45 70 120 150 103 98 61 136 31 115 47 152 152 82 170 195 154 115 141 165 114 79 111 84 156 144 131 50 90 137 88 95 95 183 143 113 106 180 161 116 165 138 149 127 119 130 149 116 84 182 102 116 110 178 210 154 171 172 73 95 62 157 182 193 157 193 174 200 184 161 180 127 170 113 75 105 94 61 142 109 89 160 87 107 190 204 96 140 83 124 101 125 68 41 89 101 78 95 107 184 178 122 208 149 171 169 68 65 157 76 142 58 146 135 103 99 86 130 157 181 107 142 95 71 87 69 59 128 196 153 195 135 94 181 163 75 77 158 180 156 157 120 111 129 152 180 137 157 117 92 84 187 191 192 188 199 140 130 100 185 161 119 192 105 181 208 192 156 135 65 110 81 118 88 161 128 131 158 134 163 186 160 184 211 191 162 125 159 135 81 76 118 106 179 76 112 152 74 99 176 121 79 82 121 155 143 96 95 84 128 151 158 124 135 179 170 172 79 76 164 92 80 134 142 120 121 176 122 75 60 103 83 65 99 158 134 116 58 71 75 191 94 173 123 155 88 137 154 103 125 169 107 181 149 120 166 140 148 132 107 104 153 66 69 150 114 67 36 123 57 123 109 197 123 122 176 149 113 104 126 165 71 70 162 83 85 96 102 187 184 88 87 185 131 112 63 77 167 167 116 141 128 143 144 127 78 68 76 183 114 102 102 111 189 97 123 143 168 101 47 48 66 91 111
130 133 131 124 117 123 124 122 138 141 169 180 182 169 162 168 169 156 158 166 177 195 209 218 214 195 168 164 169 183 198 201 203 201 202 198 181 177 184 183 199 199 200 200 185 185 167 148 145 147 182 176 192 206 149 165 181 139 186 184 205 129 137 133 159 178 100 150 135 156 102 119 172 91 150 162 157 110 92 90 102 130 105 99 98 83 93 107 76 66 64 133 84 83 100 81 106 97 86 103 82 97 102 103 102 71 72 94 104 145 107 105 104 116 152 151 117 105 138 124 120 113 172 137 166 154 161 98 190 98 142 119 75 81 85 85 97 140 108 184 178 185 113 227 237 213 186 207 112 128 102 92 127 181 162 188 84 77 96 153 136 86 92 255 107 207 124 190 119 195 108 158 183 134 186 141 151 198 100 90 88 112 101 149 198 136 160 130 108 79 171 108 110 111 60 64 123 61 141 118 137 77 186 192 114 108 128 99 69 131 59 77 55 82 142 63 85 146 161 183 193 197 143 212 207 202 196 89 91 99 86 183 159 190 191 162 163 132 118 191 104 201 130 117 186 87 114 165 98 91 184 190 129 162 192 111 182 115 161 164 176 101 162 134 129 108 156 104 151 157 119 87 185 163 176 143 60 101 132 100 45 109 85 65 73 85 185 191 123 124 148 108 92 92 121 73 82 84 139 140 151 99 91 150 91 107 90 182 85 152 124 159 73 165 146 156 115 166 147 176 135 72 77 115 166 143 200 159 140 176 123 115 201 186 160 160 126 182 94 101 206 208 131 189 110 184 109 184 196 203 115 216 180 150 189 101 71 57 96 142 117 167 171 108 175 83 92 173 162 139 144 124 193 98 114 167 94 130 169 166 89 86 89 118 154 147 124 172 116 107 173 80 93 80 60 112 136 61 164 80 159 137 161 135 87 155 173 147 77 68 83 121 132 102 178 167 126 157 78 58 147 69 159 105 75 118 110 94 151 96 169 68 150 163 144 118 63 153 156 173 139 114 91 87 183 99 142 142 55 114 157 161 63 61 84 135 44 83 162 125 134 193 89 100 169 137 181 157 130 99 158 68 165 117 190 107 114 101 192 127 176 90 147 152 184 150 183 84 62 155 94 161 110 121 92 163 104 97 190 106 188 109 100 93 139 100 93 36 70 105 150 112
107 108 102 93 96 96 103 111 122 151 165 180 161 159 148 152 142 161 160 165 166 193 199 203 192 178 152 150 164 186 198 202 196 194 190 191 189 180 185 186 192 190 202 204 199 196 175 169 183 149 176 200 174 215 176 146 171 149 169 174 197 149 144 140 165 171 123 145 110 154 122 119 170 148 115 174 91 75 104 131 80 86 95 90 110 88 93 136 86 81 120 65 65 101 92 78 92 103 101 84 78 71 70 54 99 83 83 92 126 123 141 100 90 101 139 150 138 129 128 130 130 123 122 143 157 85 75 154 83 147 126 85 166 126 78 91 128 213 120 140 187 171 148 231 166 147 185 119 126 172 191 154 107 171 97 168 171 122 131 162 142 60 151 173 135 145 137 120 144 121 198 106 159 105 98 182 197 199 124 195 99 130 150 131 187 170 97 161 113 163 138 164 95 124 74 152 123 137 98 82 153 72 86 105 97 126 145 70 159 65 127 77 108 159 70 134 148 150 93 145 189 183 209 167 150 102 198 107 129 170 103 146 178 157 171 165 63 70 171 178 87 185 119 191 97 93 86 90 82 179 163 97 165 86 188 194 185 217 156 105 142 84 82 76 91 105 66 155 94 87 118 83 162 163 128 102 104 101 140 144 77 141 44 85 156 121 143 145 125 147 218 141 95 80 155 117 104 131 138 52 147 73 86 180 108 155 134 80 166 85 183 156 127 80 82 101 150 193 125 173 91 73 82 58 73 255 99 176 217 143 220 118 206 100 160 174 179 126 157 128 113 121 158 212 145 100 146 168 173 213 138 160 118 190 95 114 95 99 149 69 173 107 181 124 181 169 172 188 136 107 184 185 108 84 101 85 170 106 167 151 153 185 83 157 99 131 125 155 124 89 172 141 98 130 143 133 89 60 90 180 122 151 185 157 160 87 81 150 147 148 80 181 190 193 102 113 131 126 157 98 156 61 105 103 88 75 154 172 196 166 117 108 90 82 152 122 146 160 78 100 184 91 99 181 77 166 77 110 58 129 132 151 101 138 58 148 57 155 164 81 107 109 181 171 101 129 101 99 160 159 66 93 149 121 117 114 126 116 200 193 203 199 135 175 139 131 108 120 137 128 76 176 87 102 87 76 108 89 192 193 99 190 112 176 102 71 66 63 79 38 110 75
88 88 83 77 72 76 90 95 123 150 172 177 161 133 127 137 136 137 149 157 178 182 189 181 164 157 149 147 166 175 189 193 180 180 183 189 193 182 188 196 201 204 191 197 181 182 162 164 185 184 188 190 151 206 207 169 114 119 122 166 127 195 171 170 128 93 81 128 107 102 173 154 146 126 97 104 126 77 83 93 59 68 81 153 105 81 113 125 137 95 145 91 64 61 108 66 74 105 105 143 112 82 68 62 101 109 91 128 138 140 117 115 106 143 87 78 86 94 138 186 133 113 119 102 86 101 149 95 108 98 92 89 80 79 83 96 151 166 230 169 211 207 198 133 157 219 119 197 199 179 96 180 189 188 91 83 154 166 83 92 87 154 131 158 165 168 141 186 168 179 170 127 193 174 146 166 124 182 151 144 169 192 114 185 117 79 148 140 141 124 172 125 158 187 183 182 173 167 171 73 90 123 171 125 168 72 163 153 151 105 60 136 66 118 114 98 85 108 101 107 154 134 210 205 113 163 177 141 181 164 79 150 122 177 145 71 95 149 118 119 77 83 169 176 83 160 140 75 78 118 187 178 174 147 182 144 194 152 109 189 180 127 87 110 76 79 136 81 148 145 73 89 172 94 113 137 92 91 156 103 81 121 57 97 94 150 192 184 173 125 213 159 130 109 177 89 169 72 71 120 153 130 176 85 144 84 89 106 107 109 94 96 108 83 167 122 180 129 131 110 76 61 98 150 165 108 101 101 117 167 207 202 111 111 146 158 109 159 154 165 141 173 116 197 141 93 90 185 128 157 128 204 113 100 179 89 91 158 155 119 91 138 178 152 121 182 149 130 93 169 96 176 159 136 132 75 126 185 161 171 172 155 144 78 169 90 170 162 90 92 138 181 103 119 118 94 104 83 183 98 198 106 108 191 192 190 138 77 116 144 96 114 153 108 98 124 82 128 159 129 94 136 105 113 133 46 157 101 107 190 87 81 166 118 120 90 172 76 116 151 170 108 183 177 164 85 151 94 66 44 82 125 88 152 153 63 89 161 145 146 113 84 134 159 91 126 108 180 92 152 77 61 128 114 110 157 141 144 162 189 201 134 209 126 118 198 195 95 92 153 115 82 157 174 164 92 151 179 97 146 191 88 97 120 108 120 103 41 45 120 123 60
80 82 82 80 73 78 85 100 128 155 173 182 150 141 128 127 130 155 144 147 164 177 182 179 152 135 146 159 178 194 201 192 179 168 169 183 192 198 185 183 197 196 195 170 189 187 179 192 179 178 135 151 173 175 172 143 155 127 164 166 122 135 98 156 124 139 105 118 123 121 126 126 116 158 101 154 165 95 63 114 104 67 123 136 82 126 106 96 153 120 131 91 69 69 68 88 121 81 137 106 83 69 65 56 70 90 101 114 158 160 101 155 129 118 132 132 77 127 117 182 109 88 130 177 148 88 132 78 88 116 196 103 168 80 83 103 211 181 192 222 179 200 123 163 209 200 121 192 98 150 179 182 98 95 162 173 174 88 179 255 188 195 155 168 161 156 188 169 173 176 155 192 110 139 114 168 169 181 171 155 199 159 162 166 145 155 134 69 128 119 93 128 142 201 187 197 137 118 71 65 146 118 93 164 69 141 158 72 96 75 94 49 126 159 168 118 166 179 171 109 98 173 140 133 150 84 179 164 119 149 152 79 169 93 153 122 70 170 156 80 165 137 150 74 169 102 95 80 177 87 160 83 158 153 93 188 129 116 103 183 145 175 83 86 170 92 103 151 143 80 119 109 124 100 172 197 206 201 121 156 71 155 72 173 135 142 120 188 141 169 141 119 139 178 97 79 108 96 63 69 103 175 177 156 97 164 109 106 174 166 161 92 176 87 84 159 198 133 124 95 104 107 66 125 88 143 107 93 130 160 105 198 132 101 105 162 79 143 175 161 124 106 185 127 101 91 143 91 127 128 212 202 187 99 170 181 93 106 169 97 174 157 122 89 148 171 92 98 139 150 171 136 127 115 149 117 132 97 180 148 169 94 166 89 86 109 133 100 166 195 104 95 132 142 141 138 93 180 145 144 181 113 116 121 191 99 93 145 105 71 61 103 102 160 87 92 147 156 139 143 111 161 61 51 135 109 82 192 189 123 87 85 132 161 165 178 81 151 174 165 179 110 142 153 132 66 155 64 159 126 144 108 106 57 151 154 103 149 165 79 106 75 81 158 129 157 122 118 189 121 109 151 117 134 176 109 96 181 141 180 150 205 191 224 255 197 118 187 148 174 83 179 144 103 92 101 124 115 171 196 142 104 118 144 69 158 56 36 121 110 114 55
84 89 97 99 100 91 98 115 131 153 174 178 151 147 135 139 142 147 157 157 169 176 173 170 140 142 149 171 191 202 194 191 171 160 156 177 187 200 196 181 188 190 171 187 164 183 201 202 171 143 148 143 112 139 164 174 174 142 123 137 177 138 99 142 81 94 83 80 93 146 86 122 133 169 117 177 104 88 126 96 79 70 138 83 89 77 133 101 120 117 116 123 79 124 69 97 89 104 88 100 82 79 90 88 80 75 97 116 178 138 98 99 94 97 151 101 104 82 86 89 109 82 120 80 104 94 151 74 132 165 92 187 83 97 143 195 172 210 187 128 123 184 105 108 192 184 182 103 178 144 157 105 144 161 138 80 89 185 130 182 137 185 150 197 127 96 143 109 124 146 142 161 199 150 166 115 102 155 126 193 176 134 196 187 171 134 134 168 79 128 137 183 185 203 160 126 171 139 160 67 164 168 109 178 88 63 119 76 152 71 66 115 87 140 152 158 180 146 149 120 176 100 112 153 101 175 82 164 155 124 154 109 117 86 155 80 114 184 188 113 173 137 96 166 124 92 80 88 162 161 90 73 154 160 189 217 127 178 157 112 150 114 156 167 89 121 66 132 132 129 104 48 74 114 171 186 126 143 106 177 159 60 134 121 126 182 156 184 180 99 197 171 110 118 120 82 70 65 77 87 106 159 182 141 100 179 189 178 99 103 129 94 183 103 89 104 208 142 143 163 75 136 126 74 82 174 85 96 73 116 99 118 105 118 180 111 174 167 74 161 149 142 182 105 186 115 179 194 172 185 203 196 176 143 84 167 106 160 173 87 77 77 77 91 158 162 145 133 98 99 132 75 77 154 158 115 193 189 125 120 132 88 111 184 98 180 160 124 206 123 124 151 108 85 87 90 86 102 148 159 134 207 107 190 169 146 173 94 57 91 150 59 136 141 100 180 171 70 130 127 89 165 166 73 61 148 172 104 132 160 89 142 119 164 100 177 134 80 127 174 179 114 120 180 84 173 84 117 88 158 72 90 151 158 111 167 98 148 153 116 66 153 170 127 177 92 197 184 162 95 94 133 175 112 109 170 143 135 97 134 191 170 212 220 164 131 207 207 96 118 138 93 104 125 174 143 155 91 119 191 110 63 75 56 66 164 255 57 131 129 61 69
90 97 110 122 127 127 124 139 141 156 158 168 150 150 141 150 154 158 153 145 154 174 166 168 149 152 153 182 199 198 195 190 176 160 155 172 190 199 184 183 173 182 170 181 191 194 201 203 188 171 108 140 146 121 166 163 172 172 184 159 171 157 161 129 106 90 118 155 152 160 86 119 94 106 160 112 190 110 105 96 85 158 86 115 135 96 116 141 138 121 115 110 151 84 82 87 73 96 117 80 85 96 59 68 68 80 118 142 131 168 104 111 87 92 167 107 127 156 100 163 85 85 109 72 105 176 91 164 165 104 180 77 78 98 89 161 105 158 208 208 207 200 92 184 92 175 92 168 122 114 86 172 150 124 159 177 184 147 122 187 166 177 125 159 161 150 76 87 139 125 88 180 153 190 136 128 155 181 174 179 169 140 187 172 73 106 60 100 95 153 196 177 122 203 158 191 190 103 95 124 87 175 171 116 108 64 148 117 151 154 136 157 81 128 143 145 71 140 145 133 125 153 192 193 105 134 99 72 162 105 153 72 106 91 155 79 115 180 196 153 166 181 85 166 69 133 165 169 183 170 155 75 75 177 189 225 212 174 96 158 124 154 165 175 161 169 154 74 115 149 135 140 146 180 130 148 158 216 165 85 89 145 84 103 156 195 171 176 167 83 176 100 146 124 76 159 63 117 124 105 148 161 184 184 124 135 194 101 116 118 202 140 158 175 123 137 177 123 149 145 92 170 109 105 89 145 100 69 157 87 165 120 214 139 124 100 100 87 73 78 50 66 141 98 118 201 168 121 184 138 188 185 93 89 150 74 88 147 197 110 90 135 88 117 165 156 125 94 186 174 106 133 122 81 134 167 181 128 112 154 129 185 172 184 164 199 196 117 217 187 114 187 102 190 182 100 121 77 74 82 177 170 149 153 120 120 187 144 130 146 106 78 111 114 151 91 164 166 72 99 179 189 175 121 46 60 118 100 201 113 166 81 158 79 108 112 178 140 179 82 164 185 183 134 134 167 172 160 121 119 119 124 160 110 138 170 100 146 121 66 161 87 154 99 112 87 155 166 98 171 151 172 140 185 141 140 105 94 191 164 132 180 113 132 170 218 126 172 114 151 162 160 192 93 84 173 86 92 164 150 160 138 132 90 150 92 148 63 106 105 96 92
93 100 116 130 142 147 145 154 142 136 141 150 156 163 156 166 159 169 161 148 151 174 169 177 160 166 168 184 191 201 195 194 175 165 159 165 182 193 188 177 176 176 173 186 194 179 199 186 185 168 150 114 118 140 151 149 164 135 190 173 144 191 155 169 120 114 110 137 155 123 120 140 121 107 161 134 147 194 173 162 93 106 126 100 137 108 88 128 103 162 127 127 101 117 82 102 80 97 130 79 69 102 67 68 125 100 130 100 105 100 109 114 84 86 122 115 87 97 181 132 81 131 55 139 165 90 161 82 155 82 76 131 73 70 80 90 84 178 160 101 108 184 166 162 129 179 180 121 74 155 86 83 154 83 170 191 148 113 141 99 159 112 186 105 156 74 114 66 120 134 148 125 149 144 163 68 106 176 179 180 138 148 147 131 122 80 123 64 127 136 197 209 203 108 128 179 113 161 112 113 169 183 95 179 92 113 139 125 54 127 151 150 127 126 76 117 97 143 125 53 83 163 199 123 166 93 174 164 99 180 140 142 141 56 91 144 187 168 120 144 163 189 146 154 131 144 58 151 166 106 114 141 174 189 224 235 148 111 146 110 75 85 125 188 189 172 180 112 98 135 171 97 135 166 198 220 127 121 103 179 161 78 158 152 205 168 124 133 99 135 87 174 92 75 61 56 57 127 172 136 180 110 121 109 123 194 196 113 202 172 132 198 99 121 146 104 149 212 159 138 125 164 158 95 129 176 168 115 255 86 132 123 128 192 104 192 124 185 69 62 111 48 72 84 150 207 145 205 192 189 188 160 170 160 65 154 85 177 191 90 142 100 106 158 167 100 163 188 160 131 139 82 122 107 79 92 175 197 121 163 149 148 194 170 118 200 215 143 194 110 200 104 185 134 140 136 186 151 160 120 85 92 134 172 153 137 147 122 125 92 165 119 179 95 185 179 168 111 104 165 169 98 105 159 54 60 174 176 173 106 195 112 175 92 156 137 98 141 110 89 94 180 91 181 88 183 169 195 208 137 113 149 113 158 131 165 109 103 120 68 70 135 157 161 70 58 81 114 144 85 96 173 185 103 149 92 123 111 176 103 128 116 133 175 99 143 203 160 177 129 97 186 105 100 159 79 101 117 139 104 62 64 35 109 106 81 74 162 87 59 84 48
94 102 120 135 150 156 154 152 141 129 134 151 172 181 184 182 185 172 170 150 165 172 187 169 171 179 179 189 189 185 198 202 195 184 168 255 180 181 179 177 180 171 174 193 186 182 197 194 179 159 127 128 122 132 104 127 172 138 149 170 178 130 137 153 141 124 156 95 129 98 150 160 96 113 93 132 117 143 159 125 97 112 77 152 155 136 69 75 97 117 107 115 101 95 85 138 98 144 119 80 72 71 123 81 113 127 112 95 91 255 112 85 100 77 72 74 111 150 119 155 163 117 60 66 103 169 174 110 162 127 131 75 155 87 255 162 76 162 124 165 169 140 106 156 85 177 167 91 140 145 87 171 126 145 194 108 185 193 166 172 164 127 102 156 119 77 55 111 98 101 158 132 76 152 127 149 75 162 166 112 109 93 177 165 110 80 143 160 163 92 191 207 113 188 131 116 76 153 129 118 75 147 164 106 146 53 107 134 44 124 136 64 91 66 137 158 129 47 129 41 79 118 128 213 154 154 95 187 170 104 79 97 131 60 94 88 98 143 154 197 111 184 136 178 114 43 66 161 169 159 163 89 176 194 149 158 169 169 164 162 90 135 147 108 193 171 97 181 135 121 160 118 204 135 150 169 189 157 100 125 95 117 109 168 184 142 108 97 95 66 146 95 132 138 95 56 142 124 73 92 169 77 153 115 84 94 79 98 91 175 151 121 99 184 153 127 194 117 209 104 131 90 119 146 104 151 110 89 86 95 166 132 167 174 112 196 116 92 153 130 97 143 57 88 145 118 141 151 100 105 103 181 178 176 107 116 178 154 168 129 161 182 183 186 182 132 91 119 184 124 148 77 78 168 112 188 140 195 153 176 97 166 206 115 192 129 119 207 144 92 182 103 109 183 136 103 165 74 159 170 127 154 118 160 147 192 103 151 196 105 162 190 134 180 165 175 185 175 109 95 131 123 168 161 111 150 119 110 91 173 198 118 195 185 179 162 151 185 112 195 102 140 115 164 86 180 166 118 184 111 163 132 182 201 181 205 107 88 173 76 145 166 86 89 62 98 136 115 76 177 180 178 90 86 132 116 82 142 178 101 166 157 109 82 85 93 152 187 177 89 152 151 170 102 125 177 107 94 126 76 57 134 85 99 39 106 88 94 150 65 73 141
100 111 128 145 156 157 157 148 144 128 132 157 174 196 197 197 189 177 175 166 166 187 194 191 176 187 187 182 179 183 188 211 212 200 182 181 182 180 180 176 182 192 197 201 175 186 171 174 173 152 153 121 133 142 125 122 142 156 180 144 153 127 136 124 159 97 162 117 105 156 113 117 87 150 139 138 193 103 143 130 96 68 69 73 141 71 78 67 143 150 129 145 90 102 125 117 85 140 128 107 94 86 100 107 122 128 111 125 88 79 116 85 59 69 109 139 158 101 131 107 134 75 129 62 87 179 85 154 165 77 79 171 67 110 95 57 138 87 70 153 105 177 106 123 127 98 83 179 113 123 156 174 100 168 180 190 155 110 117 118 164 157 166 165 91 149 82 98 75 87 134 162 93 124 148 98 154 140 121 167 113 63 160 131 163 155 128 105 86 93 105 110 133 159 172 70 60 118 52 145 98 142 183 175 78 119 87 120 46 34 72 133 68 81 124 164 59 49 143 98 129 167 130 182 188 178 170 180 145 174 149 142 87 110 95 186 181 184 84 188 137 204 202 108 107 76 148 150 148 96 141 157 155 207 123 141 182 164 175 122 174 125 103 155 143 115 184 206 211 192 191 164 219 233 221 133 159 124 92 114 77 90 187 99 107 103 91 161 66 63 135 91 133 125 58 51 56 151 137 66 69 109 158 150 63 75 75 107 115 100 137 181 122 81 101 91 190 170 122 84 169 85 176 170 94 133 99 125 175 98 105 173 132 122 121 157 192 180 161 74 144 139 115 74 177 185 218 175 143 93 184 111 182 107 127 174 166 131 131 155 163 104 121 195 172 183 138 136 182 102 92 148 129 153 109 187 98 92 125 83 155 108 111 126 197 209 203 151 137 106 113 185 187 123 129 137 190 166 154 138 121 85 176 148 118 126 160 186 195 195 173 103 92 180 184 143 183 148 89 61 67 96 120 158 60 152 80 103 144 172 209 134 211 130 196 177 108 115 207 197 113 156 154 175 119 110 124 173 77 160 190 141 118 103 150 114 169 150 173 99 82 98 65 104 138 122 122 65 87 173 124 86 174 123 177 140 167 158 62 91 99 158 81 101 166 143 91 174 169 151 137 168 103 107 105 138 79 152 104 114 57 66 110 39 77 86 89 84 87 125 118 92
111 123 141 158 171 170 162 151 147 138 137 164 191 211 213 213 198 199 176 175 176 199 196 187 189 255 185 184 169 175 189 212 218 211 201 183 184 166 179 186 189 199 193 201 188 205 199 181 176 142 115 161 137 178 186 136 191 188 137 144 120 81 112 115 153 135 108 159 106 90 148 150 135 171 155 105 115 123 158 117 74 118 126 141 111 150 73 66 133 100 86 91 79 66 106 75 95 119 121 81 83 91 90 142 146 113 108 110 91 102 68 82 53 123 54 76 105 170 107 121 148 163 140 69 75 91 165 82 161 118 157 166 72 98 77 151 125 90 80 146 92 173 64 56 111 109 114 164 165 147 101 178 166 166 93 144 154 107 88 117 126 149 106 110 83 118 108 169 165 189 171 134 131 151 114 90 166 143 177 136 142 114 75 153 69 126 169 177 141 127 194 198 103 86 153 139 143 117 49 128 163 95 116 80 94 105 62 122 42 114 60 56 71 108 178 118 146 88 148 55 166 144 102 161 128 176 78 124 173 136 135 147 106 97 137 182 151 148 135 103 193 192 104 193 189 188 182 97 163 118 60 176 142 208 161 202 99 188 154 99 95 156 91 118 91 106 191 174 217 161 154 236 164 128 190 100 127 141 105 98 168 138 84 91 141 187 83 80 71 71 128 140 95 127 91 57 57 154 115 104 120 117 85 147 140 50 154 102 101 168 199 137 86 170 74 87 255 146 79 74 87 168 87 85 94 106 131 166 146 118 178 178 127 227 163 199 114 194 195 173 152 63 54 138 184 129 120 204 179 146 173 171 171 110 158 89 73 140 149 97 185 156 115 198 144 95 94 186 156 77 151 163 111 116 180 117 107 144 167 85 154 112 125 136 116 131 170 80 170 153 176 166 165 120 91 132 157 103 165 175 115 95 84 108 144 102 142 87 184 131 175 179 169 93 82 160 76 132 151 125 89 149 139 116 61 53 135 56 72 108 165 146 110 192 108 189 141 94 198 118 222 163 199 177 168 72 166 158 67 159 171 136 179 141 195 190 187 116 174 109 83 161 156 99 141 47 150 57 74 255 70 98 177 157 94 173 154 59 61 118 124 85 162 79 86 174 90 160 168 75 113 164 74 81 80 132 74 66 80 72 113 103 121 65 144 75 118 167 86 163 155 114
120 133 151 168 177 176 171 155 149 146 145 170 194 203 207 210 212 196 193 179 195 191 201 180 191 181 191 172 160 164 178 193 209 206 201 181 176 166 161 177 181 192 179 178 177 205 195 189 170 169 176 180 161 170 185 198 173 178 154 119 83 127 141 122 115 154 173 172 171 148 99 166 99 89 110 158 91 150 73 148 64 132 118 80 140 84 85 75 86 81 91 95 87 60 45 45 56 73 74 86 105 81 87 100 150 132 118 94 102 100 66 50 53 109 60 61 104 139 105 96 165 73 154 86 127 63 152 72 75 80 96 88 84 77 169 93 97 172 93 177 145 149 127 146 135 157 80 169 107 172 179 182 158 131 166 78 156 70 93 87 130 135 181 113 196 112 178 107 121 173 128 196 146 197 133 92 120 159 108 167 95 104 118 104 167 179 183 152 193 156 108 114 100 122 153 145 40 121 102 160 161 154 182 182 179 105 255 85 63 57 144 136 145 147 127 191 100 142 58 132 161 77 101 160 168 115 81 142 107 133 67 90 102 116 171 183 96 80 100 146 180 105 104 125 117 111 203 190 105 67 156 174 189 200 151 131 153 96 192 192 187 146 84 170 158 206 150 223 171 150 148 229 211 143 181 155 97 92 75 141 163 154 160 141 179 169 96 139 123 146 88 116 70 74 143 115 88 81 99 101 79 79 55 79 121 150 79 115 183 193 144 145 167 78 166 99 114 106 60 51 86 109 109 89 91 122 134 187 140 69 106 100 215 176 228 220 127 127 205 149 71 86 143 153 157 117 136 118 185 90 113 179 179 150 162 168 61 90 90 157 164 185 164 203 200 165 148 180 133 79 82 85 187 149 112 144 255 96 98 155 122 149 136 120 181 154 184 118 168 72 98 143 79 154 177 167 112 182 90 142 171 146 128 71 156 161 122 173 85 107 92 98 88 78 72 128 87 117 173 167 136 151 95 70 63 58 52 109 133 170 151 197 181 183 173 165 148 167 128 190 214 223 160 85 109 80 66 148 51 56 79 168 182 99 117 90 148 122 149 135 160 135 47 142 128 89 160 148 68 59 126 160 174 108 107 87 85 71 81 102 119 112 189 90 150 135 78 84 87 161 129 183 85 164 75 111 118 128 151 68 78 126 165 87 143 170 112 168 156 89 118 123
125 133 147 160 168 171 168 161 155 151 148 158 184 197 215 214 202 196 195 182 179 189 186 179 174 163 160 164 158 150 166 176 197 197 194 182 173 161 151 166 167 181 187 187 197 198 191 168 174 177 164 183 197 179 162 183 184 201 185 130 95 119 82 120 100 152 170 113 158 143 117 118 169 167 118 96 130 114 129 83 58 85 97 52 70 134 91 98 89 85 104 116 55 42 43 48 61 107 70 89 82 75 96 96 153 134 113 94 113 80 95 129 69 75 61 131 66 130 110 157 137 66 68 92 114 78 123 103 153 85 146 165 87 93 177 130 77 77 76 87 70 70 152 163 136 80 78 175 112 159 184 164 177 101 170 138 73 151 125 124 123 185 162 158 189 105 173 192 173 168 165 168 199 134 188 116 139 157 186 125 71 73 136 123 154 109 156 104 138 142 150 175 130 112 137 49 136 50 146 152 73 140 190 98 177 192 180 152 153 134 137 129 192 197 156 182 112 116 112 146 139 122 139 128 156 120 156 160 78 71 174 149 89 181 91 152 175 174 180 83 79 139 182 111 158 204 173 202 190 111 114 100 104 183 208 197 155 184 179 129 166 173 165 83 167 179 163 166 144 172 213 142 199 131 117 166 96 109 112 174 134 89 101 85 152 170 109 155 136 189 128 107 134 87 105 120 103 81 108 79 75 125 72 96 70 162 130 198 155 122 105 101 76 140 101 140 89 99 57 50 104 91 119 109 169 113 110 97 94 93 104 107 211 145 145 204 154 116 114 137 174 65 160 86 88 109 183 138 180 81 73 151 159 183 192 180 72 81 70 177 183 196 165 201 139 168 176 117 153 132 66 128 90 157 198 205 132 194 179 170 171 132 113 82 165 136 184 126 167 122 129 113 74 139 113 104 197 157 146 88 90 67 158 69 148 158 73 100 178 175 150 81 152 57 59 89 158 142 113 183 96 173 133 142 61 146 135 50 70 152 95 102 81 70 156 122 148 136 159 184 208 195 194 85 86 147 92 60 42 78 57 177 189 171 180 126 68 64 135 153 108 133 39 94 60 164 154 86 140 138 66 81 103 151 165 186 147 94 117 178 178 173 113 115 128 100 132 84 171 198 104 175 133 92 112 76 73 144 66 166 176 161 92 96 134 131 141 87 82 118 97 204
120 123 131 141 153 163 167 159 154 144 154 167 178 205 203 207 199 188 184 178 174 179 165 157 149 145 157 149 159 149 160 162 176 180 182 173 168 162 156 143 168 179 186 195 178 198 158 172 174 181 176 210 153 179 175 142 188 195 152 134 139 116 130 132 155 185 190 191 167 166 168 147 119 141 75 80 69 112 102 73 57 39 45 89 80 77 142 127 118 118 91 76 67 81 35 79 44 64 92 113 109 94 77 255 100 108 151 109 119 123 130 104 80 56 52 39 76 83 103 99 85 145 86 157 57 58 108 73 90 93 92 127 158 180 77 168 159 94 102 148 114 152 64 72 86 94 178 183 138 123 154 174 150 165 165 180 175 96 106 150 166 191 191 122 164 127 161 147 193 120 181 185 184 185 123 108 96 132 91 166 163 152 95 62 148 98 113 152 132 187 161 154 95 142 148 121 136 42 107 56 81 107 98 164 108 137 182 163 152 173 180 163 113 154 190 196 178 83 53 81 154 111 95 104 154 77 175 72 164 162 149 119 107 187 192 104 198 101 193 92 180 77 80 105 101 126 183 145 181 162 99 149 94 104 109 198 105 196 101 117 184 177 74 158 84 187 139 212 212 170 223 169 186 122 126 89 188 123 96 117 78 93 100 133 75 170 156 156 104 195 105 148 63 116 83 136 92 86 115 114 132 167 73 76 101 79 183 154 210 156 146 162 136 151 181 178 114 83 106 85 80 165 122 134 143 143 136 138 118 165 165 150 165 172 212 164 181 205 193 120 170 118 131 163 84 92 129 85 143 81 145 175 147 192 126 102 163 94 96 103 157 100 111 128 194 121 89 127 158 141 84 88 176 177 104 169 127 138 135 101 86 156 129 65 98 116 188 182 89 113 71 85 77 168 142 137 185 113 157 67 68 151 118 168 156 77 160 124 182 95 133 132 118 165 115 185 195 118 98 185 174 179 169 107 76 128 52 51 130 144 81 89 80 115 73 111 56 136 81 173 108 102 96 147 104 68 169 128 147 141 128 131 146 148 167 142 74 67 58 64 119 89 128 91 102 150 113 182 106 98 169 97 115 210 193 151 171 80 171 119 129 152 146 98 156 49 134 147 182 142 165 91 112 70 69 98 149 79 125 88 130 155 172 113 95 166 73 66 85 82 92 129
114 114 117 125 135 144 158 155 146 133 138 158 187 206 196 210 195 192 170 153 158 157 164 159 148 151 145 162 154 147 153 147 157 162 167 167 172 164 158 149 154 182 183 189 185 199 164 177 165 189 195 202 198 142 176 141 178 160 160 179 131 160 93 130 148 186 200 131 193 102 113 164 99 120 136 85 92 55 72 138 78 72 62 92 77 83 106 95 132 119 107 143 77 71 102 54 45 70 104 116 98 112 121 119 121 116 97 148 142 145 184 142 87 83 39 31 65 116 126 100 85 156 67 59 137 53 129 135 96 126 132 93 171 83 151 164 69 157 82 129 107 136 92 163 119 154 189 113 170 93 105 131 106 95 85 178 189 176 156 173 102 205 150 122 118 106 158 121 170 126 112 158 157 113 158 164 165 163 90 80 133 83 82 138 158 93 173 117 131 122 126 152 83 139 57 146 111 51 91 46 125 137 125 111 163 101 97 88 78 147 158 168 191 177 155 146 156 81 76 149 133 164 158 153 79 161 117 157 171 88 186 120 143 170 143 186 105 108 152 119 170 99 168 96 186 108 192 126 184 112 176 178 177 110 131 199 144 195 103 131 183 180 149 166 157 155 156 164 176 171 203 210 102 128 121 157 143 197 183 99 173 76 165 103 71 91 158 104 190 208 143 78 75 62 78 88 151 127 92 80 87 93 162 109 108 119 115 111 141 203 191 129 106 133 98 88 74 67 122 108 190 201 115 114 161 106 123 193 146 180 145 113 114 200 107 175 103 172 98 99 161 130 99 99 97 126 187 87 176 132 166 130 100 195 186 187 127 129 106 157 181 161 175 188 194 175 66 111 135 144 117 130 148 106 180 109 94 118 103 173 138 158 139 113 150 190 157 185 149 153 121 162 194 165 200 133 82 75 86 44 58 153 137 127 112 186 169 195 189 167 133 117 154 157 183 179 149 134 184 128 141 180 111 82 130 92 74 137 114 87 148 99 128 141 71 104 81 77 162 69 79 101 88 149 83 98 172 78 79 96 179 199 177 255 173 70 160 64 141 143 48 65 111 75 70 86 178 186 179 159 99 122 161 112 210 121 168 157 148 113 158 96 175 102 86 111 130 160 83 117 182 108 153 142 71 104 162 87 154 164 167 180 100 122 90 148 68 157 161 74 123 141
110 111 117 127 141 153 153 146 131 133 135 167 189 204 194 203 183 184 162 156 166 166 149 156 148 162 167 171 168 156 144 144 146 150 160 161 170 168 149 157 150 166 192 204 204 205 186 185 176 144 195 190 190 159 128 166 157 172 166 138 175 125 121 161 151 138 141 167 113 120 96 91 142 165 91 51 86 47 114 77 64 125 62 89 111 96 90 77 80 87 149 127 96 134 103 103 55 73 94 123 119 89 105 67 117 77 92 119 177 123 152 112 107 127 47 34 41 120 150 157 89 90 80 100 126 120 79 172 171 158 158 170 174 82 95 74 80 159 50 77 122 33 136 115 185 104 202 195 180 178 150 49 122 134 126 187 108 192 157 94 156 100 144 165 155 76 134 144 92 107 174 184 108 147 74 78 126 166 147 150 72 67 164 98 148 155 145 110 120 190 87 255 141 149 166 126 59 129 109 84 112 171 185 143 180 189 109 77 113 166 75 109 109 111 107 109 125 71 93 126 169 169 123 158 163 150 100 88 125 184 179 196 181 95 106 139 101 199 145 204 197 161 158 171 199 199 133 175 90 178 178 140 173 154 124 116 144 176 159 164 160 90 152 90 109 175 99 167 147 154 122 157 104 146 135 107 130 110 93 126 129 171 148 166 93 85 137 93 100 120 119 80 121 81 100 95 115 164 124 168 112 118 92 181 79 122 96 181 116 148 112 99 104 198 147 108 74 73 170 180 192 133 124 209 167 108 161 185 159 113 123 189 193 202 103 171 149 93 140 151 100 168 200 178 150 151 130 136 131 71 111 168 132 98 137 196 206 135 181 183 167 189 109 156 106 84 87 74 152 98 132 126 113 187 93 112 164 125 91 190 170 181 169 84 151 192 123 111 134 186 176 143 169 117 100 140 60 54 36 133 50 76 151 138 128 200 182 200 188 154 173 173 145 74 182 194 137 128 115 112 96 89 110 119 90 104 96 82 164 81 81 136 146 117 125 131 123 121 70 136 168 164 69 140 106 76 170 139 167 114 131 132 126 175 136 139 130 146 119 68 107 76 130 138 143 166 140 199 186 108 147 174 186 193 147 148 103 94 75 143 154 117 139 85 67 83 95 67 112 92 86 84 98 174 87 64 70 71 89 103 132 193 99 174 101 172 146 135 64 73 159 146
121 121 128 140 159 162 159 141 133 123 148 167 181 190 188 181 188 170 163 155 161 161 155 146 154 171 183 183 168 150 134 146 152 157 156 165 174 167 163 158 161 178 174 176 187 179 194 187 165 176 157 160 188 179 126 172 132 127 165 197 127 115 155 95 130 110 148 174 121 152 113 163 106 196 102 141 81 94 116 96 105 73 129 99 143 165 101 113 87 102 99 101 104 95 74 115 111 115 125 154 115 125 100 110 75 67 79 106 108 105 98 89 82 62 57 51 44 57 75 147 95 86 120 136 53 91 70 93 90 105 101 101 153 77 84 158 175 75 51 35 30 39 54 73 90 193 110 192 134 150 137 128 87 144 118 92 163 113 178 172 170 90 125 80 141 157 76 160 141 118 162 128 88 82 153 114 110 120 122 84 75 157 162 73 99 162 106 161 188 189 105 145 159 181 127 83 151 88 122 129 86 83 84 168 155 140 120 151 62 149 88 178 192 145 169 116 165 174 116 191 200 94 75 66 65 126 171 116 177 180 155 109 156 171 95 86 91 182 201 117 255 201 141 122 198 123 142 180 117 92 184 85 145 169 93 202 107 179 162 159 140 157 148 125 144 94 163 114 150 191 196 179 95 96 86 70 173 178 160 100 160 156 116 149 165 158 98 189 155 115 151 86 68 70 116 92 115 164 84 91 196 190 108 93 170 89 79 183 101 182 131 102 171 166 114 134 139 70 138 83 96 142 179 176 159 95 98 87 106 162 107 124 111 112 190 105 105 85 165 85 178 91 190 180 130 114 145 165 150 77 103 120 170 120 186 128 173 102 100 192 154 145 131 155 107 88 151 131 156 151 74 169 183 188 202 192 174 152 154 116 144 119 176 172 130 173 145 183 165 110 135 177 140 197 108 160 46 35 32 65 134 150 177 174 194 112 203 197 188 123 103 134 77 130 134 127 140 123 172 86 174 152 170 105 88 121 159 155 174 98 167 167 59 76 138 141 71 84 160 158 159 95 62 113 69 174 181 154 177 139 196 116 144 141 151 124 152 186 80 175 92 104 141 203 198 126 128 207 134 132 98 140 183 169 205 191 113 79 48 139 58 169 109 135 83 145 101 146 163 157 167 179 180 111 152 164 107 60 99 99 128 136 182 94 181 179 117 136 92 155 159 93
139 138 142 157 170 176 160 147 136 143 151 170 181 198 188 179 176 158 156 156 155 149 140 132 155 169 186 189 171 156 147 153 159 165 166 176 177 171 162 153 156 176 188 197 195 196 194 170 183 154 168 156 183 152 162 149 166 187 174 170 187 178 147 147 120 106 121 158 88 82 69 123 135 135 122 112 100 78 139 87 139 112 93 81 91 94 113 167 111 96 99 161 102 109 140 81 132 88 120 152 95 79 87 58 99 79 103 94 106 114 87 67 121 88 74 74 88 71 97 167 169 128 63 81 50 102 67 118 95 170 191 182 86 109 83 92 182 144 153 67 128 113 161 147 159 192 138 106 126 130 79 130 122 116 110 94 183 151 141 128 174 115 126 93 128 72 172 129 193 187 198 116 125 176 113 81 89 181 188 94 178 147 80 168 77 164 165 84 163 151 86 93 109 191 171 126 81 160 116 145 61 139 95 115 92 87 108 72 151 49 96 99 170 99 158 102 119 141 106 181 201 102 169 78 170 97 109 96 93 123 136 188 152 154 178 175 182 192 187 116 184 140 191 198 116 184 139 191 168 133 175 96 175 155 111 176 119 189 169 138 121 76 148 121 105 147 158 117 113 147 102 173 93 71 150 85 85 93 156 178 99 115 96 87 157 181 185 173 195 99 88 172 139 111 132 118 163 156 101 106 110 98 109 71 67 165 117 175 180 92 195 191 123 111 104 155 128 75 120 159 170 132 179 100 137 151 86 91 101 108 157 130 122 149 183 163 86 170 130 138 103 152 145 82 74 91 108 141 111 82 117 160 98 170 171 128 180 187 140 142 142 176 79 130 124 171 123 88 168 139 162 76 185 172 111 195 172 110 106 69 155 90 93 178 187 98 183 177 125 179 156 123 205 170 162 152 82 37 35 69 87 77 97 184 197 106 111 136 157 99 148 72 38 93 113 156 132 75 169 145 179 85 85 186 191 178 78 174 174 191 181 169 118 145 83 70 175 140 117 104 153 148 130 145 94 137 85 82 81 79 184 100 156 168 198 108 151 101 152 184 185 114 134 137 234 200 202 213 198 113 85 161 183 166 111 193 81 60 50 73 139 162 201 150 167 91 76 127 134 123 91 80 174 146 137 72 68 92 167 170 101 108 200 98 122 81 128 67 153 126 74 91
164 157 156 163 175 174 165 151 153 153 160 172 180 189 184 183 167 165 145 139 255 124 122 126 148 169 187 191 176 163 154 155 165 174 171 179 166 166 161 163 173 185 192 193 189 184 181 176 157 168 140 150 174 169 139 157 166 129 191 171 208 189 116 151 92 99 136 147 132 139 161 87 143 113 131 117 106 75 85 96 76 84 136 132 83 105 167 108 118 123 104 103 146 107 161 125 98 104 121 99 102 78 74 85 108 73 90 89 91 80 85 136 137 140 96 172 84 140 97 97 107 173 79 128 150 62 150 99 151 168 101 126 89 166 179 82 115 156 61 76 153 149 82 169 157 112 116 181 161 121 154 80 176 153 175 124 90 142 146 116 164 94 49 115 144 93 176 147 201 129 148 176 137 169 89 94 172 185 127 147 155 162 74 78 172 146 161 188 94 174 108 179 180 155 110 196 96 79 113 112 160 106 90 126 99 128 91 167 64 48 151 149 139 162 124 84 164 81 83 103 103 155 136 162 166 135 159 212 149 183 172 140 147 104 92 129 99 97 191 198 93 80 90 101 173 203 201 196 190 102 176 87 172 125 170 164 82 145 151 167 96 168 116 137 105 168 97 108 114 174 136 137 129 138 78 114 181 109 107 151 143 179 142 149 124 185 176 196 121 132 116 133 70 80 77 149 83 72 161 156 96 98 134 64 60 65 112 76 77 89 115 104 183 129 147 125 96 185 132 92 147 180 117 162 156 95 97 105 184 129 206 118 199 111 118 117 73 57 102 98 87 139 90 161 114 82 168 188 128 111 102 94 91 134 92 178 173 153 156 88 115 154 171 144 162 188 154 88 126 83 150 165 187 116 194 137 121 92 101 125 80 81 88 186 163 138 135 101 184 196 121 207 173 124 163 124 71 148 104 68 64 69 105 129 186 122 117 193 186 156 140 50 89 70 87 70 55 79 90 174 86 85 160 189 101 191 177 98 192 197 119 137 152 71 80 88 97 99 78 161 144 45 37 98 115 117 96 150 150 137 171 176 138 101 192 122 192 125 84 162 169 98 146 183 240 214 224 218 106 146 82 166 149 177 200 113 140 70 146 153 117 165 149 199 172 105 112 90 95 79 125 153 169 75 158 171 160 129 195 196 151 114 165 125 136 98 148 157 75 161 156 161
183 175 168 166 169 163 157 152 155 167 162 163 179 175 185 172 172 162 141 139 143 142 127 140 148 156 182 189 181 173 159 158 161 168 170 166 165 155 151 156 178 186 183 185 184 151 168 147 156 151 131 158 169 169 162 156 120 171 191 200 146 190 168 129 106 162 149 143 113 165 108 85 141 101 115 129 97 72 58 132 68 126 146 71 69 92 92 164 110 149 150 108 113 102 122 104 101 98 115 105 99 99 89 74 105 79 80 85 83 80 76 113 83 108 123 113 98 83 100 118 187 180 138 134 93 149 63 137 86 156 175 91 167 84 86 165 91 153 60 72 71 132 177 137 182 141 165 127 167 172 164 135 80 177 102 185 181 101 110 171 146 137 101 62 111 171 147 214 159 126 176 134 106 167 125 92 150 90 160 164 140 73 72 175 96 184 95 138 105 155 147 81 192 175 130 171 164 83 68 114 151 71 93 95 104 194 103 100 165 71 115 134 84 148 140 162 70 94 158 177 140 106 103 186 133 187 138 148 199 147 178 175 184 184 146 96 186 191 154 193 170 159 149 144 91 178 179 86 109 104 110 85 157 122 147 96 128 95 89 88 175 161 88 118 131 102 162 156 146 142 112 91 101 121 141 98 97 193 105 176 114 118 111 161 116 197 131 194 116 115 98 154 69 71 171 132 83 38 51 76 97 183 147 104 125 131 97 83 118 122 91 134 84 91 83 124 145 189 115 117 141 138 114 138 107 101 153 202 222 140 185 121 179 123 167 67 107 56 69 97 169 151 89 150 169 156 170 189 167 90 164 120 185 167 112 150 146 122 133 123 164 176 164 170 81 183 162 89 133 131 89 171 84 84 91 101 116 166 93 69 44 147 152 82 176 81 100 160 77 122 115 93 101 160 160 142 98 85 161 119 64 75 161 102 134 153 124 74 175 122 68 118 67 30 124 79 116 154 131 75 82 183 191 190 173 192 184 88 95 201 118 190 149 174 155 107 104 111 116 162 127 132 130 140 63 118 177 80 141 154 164 122 79 182 185 182 96 146 168 164 110 87 190 224 135 232 126 209 192 190 177 160 102 209 113 95 163 106 144 255 178 166 204 214 193 136 110 200 185 132 160 167 76 141 78 143 82 87 105 119 185 217 127 116 142 72 75 142 168 173 113 70
199 188 176 164 156 147 153 152 162 167 161 161 159 154 159 162 161 163 159 158 152 149 144 145 148 149 174 175 184 176 164 160 155 156 255 156 148 142 142 159 158 173 183 167 152 167 159 129 117 148 166 129 155 166 169 160 168 157 172 142 160 157 132 119 128 110 147 121 158 181 121 139 80 108 159 145 107 122 81 125 75 89 73 134 67 87 117 160 95 92 125 94 90 103 115 107 144 104 102 124 125 84 82 76 95 118 135 104 91 112 130 110 120 152 135 125 102 116 132 111 126 167 119 91 153 154 67 62 138 160 69 70 95 170 166 136 157 64 124 99 180 118 157 170 134 91 149 152 110 125 145 164 82 80 133 178 166 128 169 166 158 139 125 158 177 154 205 163 121 168 177 178 104 127 160 151 77 149 169 65 63 156 106 97 174 179 126 194 167 80 122 78 94 200 126 178 162 125 163 131 163 143 174 87 94 97 116 175 119 79 176 180 169 153 72 64 156 157 141 105 167 160 122 180 101 110 151 197 143 114 145 162 164 92 115 88 156 93 190 89 104 84 136 95 65 113 154 95 96 175 142 128 96 133 109 157 69 122 135 79 143 88 148 117 165 106 81 152 130 61 67 149 152 159 100 156 165 128 175 153 140 193 197 191 215 221 144 171 102 141 102 103 78 169 79 79 118 31 27 81 64 176 117 166 150 112 132 68 143 143 139 174 152 176 83 168 180 181 189 181 141 186 152 102 96 160 104 129 123 160 232 227 119 175 97 50 51 143 69 102 124 164 159 110 111 131 117 114 76 139 65 156 162 93 89 133 61 79 166 171 146 89 154 100 150 98 154 95 155 157 157 89 119 102 147 136 112 167 65 95 58 114 99 156 172 163 157 81 163 76 159 71 67 90 79 67 168 80 78 132 102 90 86 92 110 85 155 135 74 81 144 162 60 69 42 136 56 119 128 116 82 157 92 162 107 182 148 188 110 133 192 94 169 179 177 97 138 179 151 94 56 143 141 57 105 166 103 163 94 123 93 118 163 171 171 163 180 147 81 76 155 140 89 167 158 216 204 149 116 107 195 191 200 123 121 114 120 119 154 114 87 193 194 151 163 202 144 183 182 120 102 95 106 125 93 151 69 116 88 186 212 222 131 171 194 172 104 145 194 121 163 70
197 187 173 155 146 137 142 152 156 162 158 157 151 153 159 172 170 166 157 170 175 167 165 148 149 149 167 174 180 168 168 161 151 142 139 140 126 131 126 255 165 165 159 153 165 165 141 154 119 160 149 162 157 166 151 159 162 139 189 178 148 170 205 129 141 166 190 195 200 156 189 139 144 117 145 177 136 133 137 64 68 103 119 84 128 140 115 119 119 74 64 70 109 83 96 139 112 96 111 115 106 85 86 109 132 92 88 94 86 117 86 104 90 95 129 115 120 87 84 156 111 119 162 189 123 127 70 74 106 152 123 68 75 79 77 163 94 73 91 191 195 196 202 187 108 109 81 129 150 109 152 145 149 81 126 146 148 104 147 117 81 72 165 109 176 147 189 165 105 98 158 105 102 169 87 109 174 88 149 153 129 107 142 138 103 198 97 162 80 157 177 158 143 108 181 72 152 104 158 99 158 117 182 100 179 172 89 184 99 159 133 85 100 91 140 113 157 114 130 161 185 120 150 171 108 98 97 157 64 148 94 84 171 174 171 186 185 178 82 168 168 122 137 140 121 100 76 115 106 154 100 187 144 134 160 161 65 67 166 135 101 82 50 64 124 96 87 100 111 142 139 99 68 95 123 78 139 130 104 145 196 177 206 183 115 205 159 98 120 80 141 167 109 80 92 136 53 32 25 49 86 145 85 81 133 74 70 85 174 121 88 111 95 156 166 128 139 71 82 92 83 88 165 190 96 113 81 137 152 132 144 162 129 199 143 59 141 76 135 84 90 103 176 77 81 89 84 144 153 51 59 157 109 75 168 153 71 143 170 185 106 108 160 163 164 66 67 99 62 154 149 90 130 150 127 99 116 153 159 146 139 80 62 164 83 75 93 105 65 92 103 133 89 50 110 135 75 103 143 171 100 80 172 145 171 62 80 76 74 165 90 78 155 124 117 67 83 75 105 101 120 153 92 141 171 120 191 192 100 169 92 103 118 130 169 190 184 180 170 169 162 68 83 144 85 157 173 181 129 183 89 137 79 176 175 255 90 82 79 134 67 75 79 164 183 176 140 209 208 151 117 159 177 235 222 129 104 86 169 76 146 191 188 146 112 184 144 106 109 189 170 175 81 171 90 141 72 107 166 125 204 188 168 127 113 179 176 130 202 188 105 65
181 171 156 140 131 127 138 145 153 153 160 166 160 154 149 162 152 164 166 174 169 171 169 158 149 165 175 178 176 174 174 167 155 145 136 133 123 132 141 157 165 154 165 177 177 148 139 148 172 162 141 182 164 167 178 158 132 158 138 177 149 208 194 182 119 110 185 192 201 173 182 115 160 96 130 104 126 82 113 104 75 74 103 68 83 68 134 112 124 78 60 51 76 132 87 98 95 95 106 112 116 111 121 91 106 87 109 124 94 85 93 88 93 104 124 111 183 98 89 89 179 132 106 96 145 80 95 160 66 119 98 110 151 165 74 168 166 95 200 133 186 163 188 146 110 159 173 90 76 69 151 143 141 139 104 140 155 155 123 169 112 181 170 191 189 130 175 109 102 132 156 154 165 156 85 118 188 119 182 90 92 111 109 177 122 190 177 115 152 168 155 98 159 199 180 156 61 112 124 170 187 139 93 81 142 153 154 173 195 106 147 170 180 77 137 142 97 177 151 101 111 183 122 194 193 99 94 152 50 57 79 73 118 101 106 126 183 101 81 139 108 157 144 133 140 136 77 177 97 128 91 88 129 156 101 112 89 99 165 114 73 129 119 115 85 189 111 130 142 142 100 82 117 142 88 127 79 130 151 117 160 159 154 119 109 156 89 101 100 151 129 122 85 84 177 149 153 59 60 56 125 67 117 91 127 87 123 112 170 114 80 120 111 141 78 107 80 75 113 90 172 111 101 94 119 176 152 72 97 92 150 151 149 217 141 77 60 82 114 108 106 182 169 86 82 82 174 130 60 78 78 140 91 99 69 77 160 169 173 150 200 201 103 166 151 121 79 119 87 63 129 163 100 90 87 161 170 99 150 126 61 67 83 74 110 60 114 62 136 128 118 85 139 101 141 157 168 176 174 102 68 132 162 113 99 108 95 159 132 162 96 79 145 141 54 157 103 148 112 147 144 173 178 141 159 165 155 173 155 79 100 158 89 154 78 186 95 115 167 171 107 101 172 87 102 122 172 171 164 182 131 151 126 125 92 90 127 164 82 91 121 133 117 142 128 110 200 167 206 136 175 154 172 241 166 209 97 160 84 109 118 136 137 110 146 184 197 193 98 97 184 97 92 179 81 124 179 183 181 162 202 137 167 138 126 90 176 186 130 183 156 119
152 146 138 130 120 122 123 137 149 161 159 170 161 167 150 159 155 167 169 168 173 179 190 182 178 175 188 178 190 181 186 179 165 153 136 128 129 134 156 160 173 170 175 181 173 167 164 178 174 176 163 134 186 176 184 165 143 146 121 152 124 189 204 179 154 113 139 163 147 118 139 98 116 102 162 161 160 62 86 59 70 79 133 74 96 124 87 148 92 84 105 76 75 96 114 108 111 152 105 113 98 92 123 110 102 124 108 93 120 97 102 100 80 122 120 107 184 106 92 115 113 116 134 110 153 134 113 85 130 92 155 169 162 170 171 152 115 172 110 135 146 192 186 171 63 121 151 107 185 177 90 147 64 79 83 154 96 129 137 139 186 113 110 206 130 118 97 122 151 152 164 106 147 87 159 91 141 139 184 150 112 158 183 162 143 136 109 72 154 162 140 200 113 146 174 156 79 179 152 175 91 148 176 84 75 54 64 147 177 116 92 145 169 123 158 120 163 182 205 183 176 110 200 113 202 141 152 52 74 134 140 162 156 95 155 178 162 167 80 83 168 159 150 83 43 151 94 119 107 133 159 80 81 158 138 178 176 137 194 186 144 106 143 92 83 147 185 102 100 100 180 150 91 162 141 70 133 145 105 103 114 189 131 84 76 95 171 70 77 162 137 158 162 78 110 82 69 74 92 94 105 150 65 95 145 181 196 116 122 134 71 111 134 108 133 45 78 146 129 175 104 122 95 176 111 151 63 62 115 82 86 123 233 176 126 180 68 85 90 89 111 134 150 110 88 100 149 109 127 179 177 172 167 139 68 106 101 137 184 155 152 197 130 105 159 105 97 134 56 148 153 72 168 122 148 149 108 154 162 167 118 105 125 159 168 136 133 68 168 76 74 133 143 80 56 173 154 181 79 149 84 51 67 168 160 88 107 150 120 186 146 129 62 87 99 150 89 158 101 106 183 156 141 101 182 100 164 140 128 123 118 66 150 121 176 87 104 103 156 173 187 116 99 93 183 178 129 110 132 190 108 190 102 108 85 159 79 114 120 115 117 90 159 61 158 168 161 179 138 132 169 134 186 209 205 127 124 108 74 102 155 135 110 169 199 122 108 93 156 101 121 178 186 115 79 172 157 115 114 169 114 210 135 133 117 99 100 167 164 166 85 69
134 130 125 122 118 120 120 130 140 155 172 177 174 175 168 158 157 159 167 172 164 170 181 185 187 186 185 199 203 203 198 192 174 156 144 142 150 163 176 183 178 169 164 180 178 164 170 150 167 171 141 168 185 155 187 181 171 169 153 120 124 164 207 180 176 170 139 165 169 106 107 160 127 125 178 146 87 94 61 124 141 106 79 73 80 81 159 92 92 102 83 91 153 162 106 105 121 101 117 101 101 98 102 103 134 148 123 108 91 137 74 77 81 90 154 171 111 93 107 132 173 102 110 109 78 74 90 172 90 106 100 94 113 159 115 123 186 192 189 199 117 171 133 156 67 59 154 171 186 129 126 147 162 149 158 147 118 148 65 171 143 206 205 169 194 167 88 96 118 113 188 132 124 172 101 116 179 163 196 189 100 87 172 97 86 112 135 60 147 58 171 191 140 132 191 145 112 122 196 121 121 180 86 126 107 83 101 67 150 90 178 150 155 186 149 159 150 105 203 153 107 163 179 198 198 120 171 109 142 122 80 67 169 161 93 168 78 96 155 115 182 163 163 137 132 150 143 109 167 167 136 165 77 173 155 138 194 202 206 203 114 80 159 157 84 120 109 111 160 191 92 177 92 120 80 158 172 110 122 108 191 91 173 112 112 119 71 70 160 152 169 71 153 120 183 94 89 100 99 165 90 117 79 111 193 108 198 141 154 96 148 152 74 70 87 139 88 71 130 159 175 91 95 121 96 124 119 68 23 39 157 152 123 140 122 163 171 171 125 148 185 190 174 128 85 104 105 161 104 197 184 189 159 129 164 86 119 88 117 99 201 111 182 120 120 117 48 73 91 148 94 88 181 134 181 132 150 114 187 160 102 89 189 190 176 93 156 156 185 105 139 106 78 141 148 128 144 92 151 75 82 67 159 163 169 162 158 75 97 152 89 131 114 59 160 130 178 185 120 191 123 134 78 169 111 87 79 93 163 99 155 76 73 74 176 168 153 158 161 126 181 171 89 171 107 122 84 121 192 101 109 110 181 180 141 160 138 147 173 131 105 93 65 74 120 121 137 155 156 169 158 216 167 213 122 255 107 75 97 79 90 84 160 124 209 211 139 101 140 128 162 147 94 135 152 106 82 192 104 123 117 188 175 126 118 104 177 130 178 95 178 169
122 122 124 123 124 123 118 125 143 151 173 176 184 181 176 177 168 174 167 171 169 169 187 175 177 183 185 195 193 201 205 199 183 167 158 154 161 178 189 180 177 171 174 175 158 160 146 126 169 178 159 181 146 162 153 167 121 126 135 159 154 130 175 112 141 149 176 182 159 169 182 100 114 179 131 161 115 90 87 127 148 75 105 144 119 96 109 153 130 161 162 127 164 115 106 104 130 135 125 133 100 134 116 115 125 124 143 122 99 111 99 114 91 104 91 142 110 86 114 107 92 95 130 86 169 142 81 186 134 109 123 101 157 182 102 176 193 113 106 190 171 99 163 73 55 147 140 185 98 161 166 171 129 169 128 166 160 120 88 152 192 158 195 202 180 150 85 91 116 107 192 142 164 180 97 171 118 188 199 137 102 116 196 180 77 58 66 117 112 109 145 184 171 166 170 201 108 109 123 160 83 77 99 160 150 146 99 64 119 73 177 148 133 170 181 105 94 122 172 114 86 176 136 207 208 207 92 144 116 115 93 76 88 174 97 164 96 59 151 115 137 147 177 64 103 126 64 163 127 155 99 146 146 136 147 94 110 191 149 123 96 174 150 143 138 106 182 178 139 99 163 124 76 96 130 161 190 151 113 196 200 146 76 139 57 110 71 87 72 72 159 99 107 85 133 107 205 161 128 176 159 136 199 184 116 197 140 176 86 168 153 90 126 84 87 177 101 117 170 103 113 99 166 90 92 127 143 41 99 98 58 173 202 112 208 189 123 80 112 175 134 121 97 76 173 178 109 173 136 111 111 194 188 182 80 171 135 181 167 105 174 162 88 90 163 160 138 147 100 162 157 93 80 169 110 171 191 114 177 104 171 85 166 183 109 167 153 179 185 186 134 85 86 134 95 114 97 170 94 75 131 44 151 139 142 108 131 144 110 66 87 86 109 93 148 91 125 139 110 126 101 69 109 158 75 107 68 122 64 81 76 173 88 170 85 138 69 162 89 68 127 157 171 94 148 153 154 145 181 125 173 145 135 175 91 148 156 71 117 145 150 142 75 64 40 255 127 120 84 151 91 107 154 216 134 99 104 118 87 77 150 129 166 185 131 207 214 183 143 153 202 159 139 61 150 57 152 87 171 126 128 97 106 109 119 95 164 137 127 102 164 179
123 255 125 132 138 133 132 126 134 152 158 179 173 185 188 186 189 181 169 178 163 160 166 171 165 164 170 184 193 200 200 191 186 172 167 168 175 187 185 178 168 164 160 170 155 129 136 141 123 147 145 153 153 190 188 169 172 159 130 121 188 184 162 147 152 110 182 122 140 152 181 157 146 102 122 109 164 88 150 83 88 142 74 161 104 178 142 93 113 92 110 118 130 119 98 131 103 124 129 101 98 132 105 129 130 126 130 125 105 102 76 116 123 83 87 149 100 80 80 120 86 93 110 145 183 167 109 204 204 211 182 207 110 95 95 185 162 204 174 89 96 122 165 63 114 140 88 166 198 135 91 181 121 170 188 182 160 156 109 184 191 174 134 191 81 91 160 142 192 202 114 121 188 166 182 97 104 102 136 128 119 171 120 116 145 79 103 96 78 89 69 112 138 102 185 108 105 190 95 92 152 135 148 69 74 69 146 56 146 77 151 119 159 150 191 110 149 79 98 146 144 100 182 112 177 131 197 104 105 158 113 128 89 187 193 88 118 50 147 160 172 192 99 181 108 157 92 175 97 150 78 122 130 157 166 172 86 189 197 192 179 112 101 99 132 99 136 177 135 123 116 80 81 92 131 165 157 118 172 122 146 109 176 150 115 156 79 76 168 88 88 88 163 191 128 148 123 117 112 213 214 217 138 112 199 122 123 181 176 87 113 96 124 148 150 154 128 99 123 108 128 188 181 82 112 79 70 127 137 130 61 82 88 157 152 148 168 166 86 155 138 89 145 156 115 121 188 107 187 194 184 182 101 170 97 148 188 153 88 90 129 150 66 66 102 161 119 159 77 84 166 158 158 173 138 171 166 151 179 110 164 130 135 89 171 104 176 151 154 101 124 114 168 170 102 106 127 164 152 78 125 91 146 187 99 157 65 150 155 140 166 93 145 84 163 67 96 178 120 90 164 62 47 134 142 73 66 89 138 81 112 141 110 88 107 110 73 64 117 157 164 146 72 110 136 84 139 134 76 165 85 159 104 108 97 159 70 81 164 137 115 94 91 51 130 87 90 101 146 84 163 114 154 155 182 131 93 161 68 163 87 65 148 98 158 118 148 174 194 125 147 121 79 116 50 50 56 73 90 93 118 168 83 93 184 89 183 125 101 120 130 82
119 120 125 130 145 144 138 139 137 141 152 159 169 187 180 190 184 171 164 161 169 152 155 151 151 140 144 169 181 182 173 177 175 178 175 170 179 186 184 169 156 151 140 158 157 116 135 125 143 186 186 204 195 189 172 180 131 175 167 141 124 119 112 114 116 170 163 146 198 168 101 92 77 83 87 157 136 86 154 121 95 83 87 112 106 118 159 96 111 110 104 105 128 108 131 127 115 121 100 94 94 122 140 128 154 162 159 176 137 141 94 80 76 77 87 104 85 152 92 149 148 80 127 140 101 110 191 115 118 217 145 131 106 186 116 193 140 199 112 178 69 82 88 70 129 141 161 135 177 203 110 183 180 150 166 169 152 114 112 183 130 170 183 164 79 163 97 115 182 187 193 114 117 194 155 113 172 126 102 163 91 104 168 160 70 147 118 69 119 97 96 117 109 129 168 155 78 83 167 169 77 73 139 145 144 137 169 165 69 116 95 120 88 97 181 152 162 63 154 59 141 86 184 110 205 118 178 91 171 74 167 78 165 201 165 183 121 74 103 57 172 186 183 126 181 92 168 183 183 72 146 106 142 133 128 143 139 105 185 148 98 74 95 143 59 170 180 166 92 165 162 143 123 137 77 83 130 119 167 134 149 208 197 133 85 86 80 154 167 123 169 194 112 131 118 177 128 145 102 103 156 116 136 210 129 89 126 173 86 75 62 154 87 86 181 101 98 151 175 176 194 182 184 94 101 156 194 137 89 134 144 154 140 148 89 174 175 86 187 95 85 93 153 104 86 75 177 94 104 133 150 115 195 174 135 188 197 155 97 129 144 124 68 105 63 165 111 73 116 90 128 169 135 117 133 147 102 84 126 165 76 104 71 92 161 145 159 176 118 144 80 133 165 182 101 166 96 95 117 124 108 89 96 106 101 154 132 154 123 158 114 78 137 130 142 165 172 89 78 86 111 75 77 48 119 65 64 132 141 124 167 135 157 150 107 118 151 83 62 81 72 77 174 79 168 166 140 88 67 88 141 74 109 174 173 75 171 148 176 76 63 148 138 129 116 64 135 70 144 115 86 173 146 118 130 174 153 82 122 160 143 137 81 84 122 160 157 189 161 190 110 195 153 130 78 143 116 67 135 186 100 74 111 140 124 154 157 102 163 103 164 80
117 114 114 129 143 156 155 145 143 145 157 164 160 175 172 194 187 175 176 168 153 138 137 142 131 136 142 164 171 170 164 157 171 172 179 179 183 185 174 159 146 136 147 146 133 129 110 123 171 198 218 214 207 169 166 138 124 189 178 160 165 121 173 159 95 149 189 185 145 159 159 105 151 146 83 140 74 121 136 82 84 163 97 113 124 100 105 98 86 78 80 127 85 127 75 75 84 79 92 134 98 119 103 100 110 101 131 127 141 112 131 69 117 147 79 150 73 104 85 100 71 141 156 171 192 106 155 215 125 127 156 155 166 96 145 166 186 143 88 178 163 78 73 176 185 104 130 214 164 129 156 153 157 83 154 80 126 172 90 123 174 114 144 160 102 151 135 105 200 200 204 168 198 196 114 175 175 188 103 176 100 77 129 91 98 82 48 44 133 50 51 121 102 124 67 87 120 70 86 118 118 88 79 165 137 184 101 132 131 107 163 82 160 91 135 145 73 132 114 73 78 93 185 199 126 119 108 182 189 83 170 80 192 186 204 114 83 162 90 71 78 96 172 128 164 91 96 112 172 70 157 80 133 164 174 95 91 165 151 191 130 145 92 96 61 147 98 175 82 164 128 140 64 109 133 100 186 125 172 228 197 220 112 110 83 167 102 84 159 116 103 111 208 219 214 197 110 91 107 69 76 86 104 114 199 163 177 175 160 110 100 132 72 86 95 139 96 172 142 101 80 139 89 113 153 167 136 202 105 173 146 66 58 152 121 76 133 90 107 121 109 84 116 161 110 75 102 78 191 105 110 99 178 77 130 190 174 175 154 167 110 75 109 148 152 104 100 136 125 156 188 155 168 82 104 114 179 168 70 89 101 155 68 65 159 85 85 184 101 130 102 79 142 182 100 182 152 93 164 83 173 125 99 148 115 102 85 168 92 180 175 104 97 68 255 81 172 87 171 61 95 123 114 125 120 75 69 55 142 63 80 142 187 191 150 163 55 53 46 86 164 150 138 115 178 154 162 89 74 97 163 85 151 165 84 123 150 138 177 170 65 82 137 141 59 105 148 67 125 134 98 92 182 115 180 87 105 109 167 162 106 67 85 86 169 98 110 87 186 147 196 192 178 162 51 115 90 153 162 101 89 67 92 153 77 87 139 102 94 183 132 179
110 105 106 123 142 159 161 158 158 154 157 158 149 159 172 183 181 166 162 159 153 143 143 144 152 156 150 163 165 154 154 154 165 170 182 184 184 183 172 156 140 136 136 151 136 124 150 154 159 183 186 219 212 178 164 186 176 179 181 183 128 164 143 166 152 173 130 196 118 116 107 75 111 120 102 113 116 57 70 143 138 136 168 167 159 82 144 89 98 73 72 109 77 72 72 124 125 96 81 81 103 90 132 114 85 118 106 80 121 87 59 110 63 76 129 67 141 73 63 112 64 37 131 79 130 111 181 181 160 178 179 216 117 113 76 157 166 112 82 176 140 86 169 88 184 204 162 204 181 142 181 80 77 164 153 140 74 181 139 185 175 152 134 150 86 112 167 140 123 180 204 160 188 150 176 109 120 113 78 103 115 152 171 68 152 85 77 96 67 124 112 153 69 69 159 60 154 68 98 76 171 131 155 170 159 109 198 157 127 181 164 128 118 181 88 100 71 147 66 108 70 120 173 120 183 101 129 105 116 137 80 110 172 130 135 108 91 178 141 83 114 170 129 166 104 145 175 164 95 62 133 111 58 148 165 153 192 168 132 187 145 162 120 160 69 68 163 85 174 147 112 157 103 117 95 177 200 129 179 136 165 145 101 164 128 156 71 80 122 169 151 203 175 177 137 194 92 176 65 139 65 172 163 144 206 102 102 131 159 119 116 185 118 148 120 192 94 172 112 164 148 70 113 101 117 174 210 149 105 122 84 78 67 105 125 99 157 102 179 146 100 158 106 90 166 107 60 156 141 167 198 136 91 87 80 96 181 196 155 139 190 152 139 81 179 90 162 138 172 144 139 149 142 88 177 172 169 112 102 72 128 60 112 139 106 144 106 147 173 129 88 116 129 157 96 125 172 132 78 174 180 134 157 156 103 198 151 111 97 118 93 116 149 66 89 80 174 119 74 78 126 131 113 137 132 156 130 141 66 71 154 188 188 176 171 151 70 145 75 102 65 171 140 123 181 176 168 116 82 157 89 102 178 111 100 163 119 113 96 78 162 62 162 159 117 148 127 133 41 46 146 117 197 143 178 82 169 153 138 72 60 134 111 129 165 84 170 120 114 93 180 182 161 140 95 53 154 125 83 181 80 73 69 152 88 125 97 127 97 110 113 183
108 101 100 114 140 153 162 163 162 165 158 150 146 147 154 170 177 177 154 142 146 149 138 150 151 172 160 167 160 158 149 152 168 176 189 189 186 180 153 149 138 132 130 145 156 144 127 160 175 211 212 207 216 197 191 167 175 121 168 103 157 152 101 118 128 147 131 136 174 151 146 110 124 118 68 96 112 94 131 87 119 99 78 76 99 72 79 93 83 146 80 80 76 83 95 131 144 119 80 68 84 131 82 121 76 61 93 64 61 53 60 114 47 60 83 101 69 63 131 115 30 37 42 77 107 119 109 201 218 155 162 211 209 89 85 151 158 168 181 88 148 147 89 87 150 153 95 187 142 105 154 157 76 139 62 150 166 177 187 190 158 141 139 77 83 118 100 168 188 182 118 179 135 213 186 168 182 107 101 173 85 173 100 160 91 255 144 150 151 94 125 81 161 89 94 130 155 58 131 138 116 150 158 126 132 161 152 215 140 122 101 169 149 120 88 96 166 77 163 106 92 167 85 170 113 69 105 94 130 122 148 158 142 113 105 123 109 160 174 112 170 78 178 182 121 102 161 169 66 56 141 48 142 156 91 189 166 189 128 130 150 139 100 91 126 151 74 113 153 158 102 89 116 134 136 159 194 199 210 203 209 122 109 69 79 147 102 78 103 94 128 148 150 163 193 91 93 136 120 85 97 136 189 190 121 119 114 145 182 119 126 142 126 105 133 152 157 90 75 161 78 68 96 177 194 117 146 108 188 89 154 105 55 134 104 98 196 124 208 181 173 135 106 114 146 107 142 120 64 113 156 176 128 116 119 97 117 173 188 208 198 135 93 180 160 179 125 97 130 117 194 116 166 143 109 127 71 58 141 121 109 107 63 133 146 109 81 184 118 101 105 111 116 139 153 188 128 94 155 72 91 187 203 153 204 140 123 124 155 186 119 104 148 152 117 128 107 82 98 55 77 45 137 146 135 107 109 96 175 175 86 99 184 163 165 115 165 140 130 151 161 95 142 102 82 103 106 75 168 180 99 130 99 195 155 216 122 123 161 137 160 83 78 66 139 116 52 73 126 68 101 183 121 191 123 71 128 157 131 96 126 60 60 64 98 73 164 130 93 90 122 105 70 162 157 66 125 84 92 86 77 97 60 158 129 136 154 170 153 112 160 153
107 102 103 120 138 158 163 158 163 164 165 152 150 152 153 172 180 174 172 147 158 153 159 168 176 179 175 162 161 164 160 158 173 185 185 191 184 166 159 148 141 128 141 160 167 159 135 128 146 197 204 180 195 219 213 191 140 140 93 153 157 88 134 117 128 128 160 191 110 105 109 102 83 67 110 72 112 73 133 127 56 124 55 58 65 90 81 134 102 115 92 149 82 93 77 96 92 94 100 88 72 93 80 113 64 83 68 66 109 57 50 54 65 46 71 69 81 105 66 48 77 39 92 136 92 160 120 171 145 123 213 190 215 89 66 156 168 92 95 126 182 91 178 158 91 153 170 171 155 111 75 119 144 166 150 131 182 195 200 144 116 70 121 81 144 78 85 116 156 198 201 154 162 196 212 208 196 205 154 169 114 142 181 166 117 255 114 158 68 138 142 82 86 105 112 109 84 55 100 92 144 172 171 110 194 172 131 199 208 208 109 168 146 140 174 182 79 155 142 93 142 126 152 154 88 149 95 77 102 119 80 131 144 183 143 129 202 192 111 184 147 82 155 183 188 191 182 72 154 55 50 44 96 71 89 100 144 142 171 186 120 114 172 85 159 82 119 134 139 168 152 100 149 186 137 193 140 169 117 115 169 159 158 64 66 72 129 158 108 82 138 80 143 84 111 77 80 78 183 190 182 94 133 191 213 133 119 196 114 114 164 111 110 120 169 177 147 96 178 125 163 95 133 146 140 115 143 179 93 87 157 128 71 84 154 96 99 104 192 169 108 199 199 206 152 92 136 134 61 255 164 145 125 80 153 183 106 182 122 141 194 175 143 175 159 168 97 174 103 181 163 88 99 86 165 165 119 151 54 71 158 129 117 100 125 114 114 119 136 111 190 174 102 198 204 174 159 105 156 166 178 205 166 179 182 108 153 176 110 123 79 121 161 163 75 183 168 84 168 65 62 118 128 96 152 103 102 96 125 98 184 96 89 81 139 166 125 177 114 144 122 167 176 91 171 131 131 114 94 92 193 131 181 135 117 122 142 117 124 170 72 143 114 54 149 77 66 148 121 77 162 158 150 120 129 108 101 143 82 159 145 158 92 148 143 95 143 78 78 80 123 143 54 159 120 125 96 155 98 175 171 163 155 156 75 102 70 129 88 106 142 125
108 107 113 129 142 157 160 163 157 155 155 151 153 156 158 164 175 176 179 158 157 164 171 179 186 175 168 170 169 164 170 176 177 183 186 179 174 169 159 146 149 153 158 159 174 168 154 133 156 184 156 186 187 212 205 169 141 104 154 151 98 143 157 192 184 185 163 160 123 105 111 168 162 114 97 88 117 75 131 56 52 51 82 74 56 144 136 138 140 178 157 107 117 102 84 128 77 71 95 65 71 83 66 93 72 97 118 90 66 87 115 76 57 54 92 135 105 173 125 70 122 58 94 136 154 255 108 168 168 118 184 151 111 167 81 172 107 198 195 146 96 89 147 163 134 93 70 155 75 103 157 136 168 146 157 88 104 154 169 129 99 92 128 87 75 78 141 173 140 114 174 138 127 203 133 182 142 157 199 167 138 119 148 70 149 83 60 160 156 138 100 79 180 163 255 98 143 69 56 118 134 84 92 191 104 101 145 146 161 175 171 123 85 171 84 77 70 67 126 68 141 69 127 102 70 61 122 152 84 167 88 169 130 185 199 191 108 105 93 138 98 130 173 81 133 93 117 131 117 150 138 148 96 125 179 127 172 132 88 79 141 169 84 132 88 82 176 176 165 76 138 95 126 118 124 136 141 151 128 107 100 98 162 122 180 143 158 134 124 146 89 96 153 158 155 167 91 113 104 123 118 109 207 122 150 171 156 132 183 137 138 116 147 207 113 130 133 197 96 75 85 164 68 144 73 99 164 72 93 133 176 157 72 123 132 160 104 176 181 168 106 107 204 203 180 188 166 151 90 171 166 169 107 82 83 89 99 133 135 175 184 121 156 124 154 125 191 151 87 72 90 107 51 52 64 131 67 64 71 54 104 71 77 152 135 55 156 111 159 127 158 107 108 175 208 199 118 143 140 83 140 116 171 133 111 105 180 176 127 163 168 121 135 69 81 184 90 134 157 127 180 159 142 129 155 113 87 197 194 185 190 124 184 95 171 101 171 164 165 129 157 125 144 95 173 114 157 85 115 175 144 193 111 194 177 188 207 178 103 86 158 69 60 135 65 144 116 133 121 140 160 177 189 183 163 150 112 97 116 164 170 74 118 152 162 135 93 128 139 63 114 59 140 65 161 97 164 99 106 133 102 121 167 161 69 54 153 109 176 111 192 164
112 117 126 139 152 157 158 157 153 144 158 165 178 172 171 158 170 173 167 176 156 171 180 178 194 178 168 164 169 172 181 182 186 182 175 169 170 166 158 155 150 156 161 169 174 175 158 163 159 139 189 192 154 189 156 171 152 128 127 110 139 125 165 173 155 178 194 121 159 150 169 144 139 91 87 93 112 106 77 81 61 63 126 62 137 92 102 159 173 106 115 103 133 71 62 63 70 75 102 75 76 66 95 67 72 76 130 108 79 67 64 53 111 86 104 97 104 114 162 100 68 55 54 82 131 161 100 100 167 126 167 196 102 179 128 110 208 173 152 192 97 175 82 143 168 105 162 59 109 59 163 79 109 141 142 73 193 151 205 186 181 80 106 169 130 178 128 111 190 118 115 170 136 160 140 137 161 196 147 176 114 164 175 77 159 65 87 106 136 116 165 113 106 115 190 95 117 152 85 135 173 121 94 183 147 124 89 185 166 102 174 176 135 176 98 142 164 61 55 139 145 108 65 98 165 169 83 147 151 129 144 154 117 103 199 159 207 196 187 182 89 125 96 165 136 103 175 153 78 149 133 161 99 109 147 119 69 124 136 163 151 89 163 153 172 146 185 119 110 122 154 166 104 110 178 141 112 157 199 105 99 154 194 117 101 99 99 80 118 90 109 155 159 83 149 172 126 97 165 99 119 185 201 210 199 217 109 110 107 114 111 124 193 110 105 187 105 111 178 163 61 66 149 126 145 68 48 68 162 98 91 118 135 132 99 182 136 147 109 100 189 194 125 136 171 96 141 128 122 185 93 105 88 160 74 112 139 191 199 185 116 167 170 182 96 120 122 126 172 159 145 123 123 40 132 136 94 145 147 140 95 135 83 123 137 72 155 127 190 103 201 121 162 214 208 184 122 180 119 187 179 198 195 130 195 187 94 88 92 147 88 123 77 84 170 156 151 183 143 99 139 133 182 85 87 166 154 87 180 189 179 120 92 89 174 72 159 106 77 55 64 151 190 96 146 165 71 144 127 161 165 172 173 108 198 144 200 144 84 171 97 83 72 75 99 187 196 143 166 67 157 109 186 154 164 191 194 163 171 145 160 78 150 94 142 182 183 169 90 65 94 46 111 95 99 101 85 74 117 128 138 113 146 125 102 116 94 106 105 195 141 136
115 122 130 142 155 161 162 155 151 145 164 170 189 183 169 165 170 166 166 169 173 181 186 193 196 186 178 165 155 173 186 192 188 174 164 162 166 171 164 152 142 147 158 163 148 169 147 154 165 138 181 186 180 180 159 160 154 149 112 146 130 69 98 186 216 184 162 105 109 172 110 148 163 123 174 94 85 124 72 119 122 69 78 114 91 140 110 102 119 94 101 86 83 86 65 107 96 128 124 101 96 68 54 93 89 89 108 80 76 86 65 54 66 99 152 116 161 108 99 153 172 99 87 162 181 105 98 106 185 113 105 142 93 83 83 195 208 109 114 98 179 187 183 156 97 135 175 152 163 132 143 117 171 72 153 125 99 191 138 217 149 146 117 119 144 158 181 179 135 194 118 187 153 202 188 144 112 139 154 141 96 175 255 98 117 159 143 82 67 154 79 90 78 173 182 111 169 186 142 158 115 154 152 151 120 91 171 156 104 93 97 72 121 166 180 146 138 117 158 91 128 176 112 143 83 182 175 89 154 58 64 63 169 138 132 106 204 111 160 177 99 119 123 131 144 155 112 96 157 164 100 156 86 179 111 72 111 156 65 171 148 154 177 136 183 90 101 142 139 86 146 152 140 136 101 113 192 130 112 189 104 150 184 164 207 159 191 99 125 255 164 84 71 131 158 139 105 81 93 167 88 94 144 202 151 142 134 169 110 119 103 154 88 105 118 103 188 127 91 68 74 62 65 89 135 137 59 52 161 161 190 179 86 114 184 167 75 168 163 96 181 189 152 85 102 160 109 133 154 144 178 147 172 158 150 98 72 171 93 115 180 173 102 89 151 159 197 100 159 100 138 142 127 64 74 111 51 120 111 83 101 151 139 155 82 53 62 78 189 144 115 165 151 135 189 197 127 209 197 133 184 138 149 172 161 106 132 117 86 170 93 183 106 145 92 119 104 158 106 104 104 103 110 112 116 158 160 96 92 113 177 91 83 170 99 75 92 142 116 93 111 121 106 124 178 150 147 62 105 160 77 179 125 124 148 141 184 173 77 137 83 182 167 180 168 205 185 97 95 114 105 150 121 187 132 209 195 141 96 156 80 120 130 129 86 117 184 187 143 134 27 20 73 53 159 109 161 159 117 182 191 182 87 89 122 77 152 90 119 124 84 143
113 120 129 141 145 157 160 159 168 173 185 184 200 180 163 162 154 156 162 160 167 177 191 202 190 182 175 164 161 171 184 192 187 175 160 161 167 173 164 169 158 158 137 156 149 166 148 135 159 177 185 187 181 152 174 157 107 135 155 105 121 128 121 179 209 207 191 109 145 108 180 167 151 107 164 117 132 151 90 88 69 82 79 157 92 101 136 85 71 88 124 76 75 82 78 117 96 129 133 91 81 75 66 101 79 86 97 109 94 74 69 85 87 105 103 164 94 87 137 87 103 133 101 97 114 141 93 93 106 113 107 96 181 171 97 88 96 93 158 173 82 92 97 135 103 160 184 174 184 186 132 192 92 96 127 141 157 195 224 211 194 140 155 184 112 163 122 114 198 178 170 150 111 124 134 136 141 102 167 197 126 106 119 169 67 130 112 88 89 144 155 180 129 169 179 169 92 109 106 208 206 198 185 91 87 137 93 77 151 165 155 170 113 132 173 184 112 181 109 168 97 176 186 191 110 123 109 124 64 148 145 61 138 173 193 141 204 119 185 177 97 177 78 80 98 162 179 164 151 118 158 179 155 151 141 95 77 161 163 148 171 111 131 102 92 155 163 143 104 73 83 64 145 169 189 175 144 175 182 173 172 157 141 181 106 113 102 105 105 117 109 88 177 177 178 173 183 99 137 173 156 110 109 161 135 182 115 137 114 99 66 109 139 78 149 115 186 119 161 90 136 153 126 89 116 47 37 100 167 88 102 171 136 174 107 80 92 71 78 97 136 184 99 67 109 155 89 104 185 117 111 173 168 99 146 159 77 181 158 92 128 169 157 83 98 159 120 126 161 121 138 70 53 36 99 65 148 148 65 73 56 162 171 175 79 127 66 98 152 98 178 99 184 138 194 131 222 197 129 181 139 110 174 188 176 123 168 104 76 81 157 93 192 136 133 91 110 142 142 174 161 184 185 174 111 95 125 108 146 113 120 78 100 75 152 55 121 109 92 73 141 102 163 180 97 57 134 59 164 76 99 177 191 118 190 185 193 145 168 165 95 138 167 151 125 163 197 163 114 125 119 160 175 137 180 127 199 121 180 171 94 182 188 153 111 128 156 81 162 53 97 95 67 61 151 89 56 149 73 174 90 184 108 152 99 121 124 98 130 66 151 66
101 108 117 129 142 151 161 173 176 186 203 206 208 193 170 146 149 139 152 162 164 193 201 191 194 170 170 157 160 157 176 176 175 172 159 168 171 181 179 176 172 159 143 152 156 143 159 124 161 152 162 180 146 184 131 171 162 158 150 85 109 64 84 174 188 121 128 137 152 101 107 161 190 172 171 120 84 127 68 93 103 72 94 100 90 111 101 91 74 82 92 92 111 143 96 114 110 111 108 136 89 98 98 86 79 91 113 116 142 102 86 88 92 104 170 104 105 95 106 95 99 113 125 118 116 141 89 120 100 207 135 106 141 148 71 85 156 165 134 72 255 136 199 110 121 206 200 206 120 178 123 189 198 192 112 102 195 134 206 207 217 153 209 145 126 113 164 113 162 171 94 109 121 155 203 111 152 185 137 200 166 174 124 133 83 145 131 171 176 169 86 110 168 168 73 161 162 179 124 209 143 162 94 118 69 66 93 62 64 65 86 132 166 177 188 126 118 193 185 115 177 112 157 105 110 102 199 132 86 141 69 111 151 100 100 198 209 158 194 98 184 136 108 89 96 172 156 114 134 205 153 125 92 165 75 149 171 101 165 124 166 123 176 164 129 177 73 132 72 149 133 86 74 170 98 153 178 103 115 95 92 177 157 110 157 137 124 107 137 149 116 123 93 94 94 101 135 101 98 129 83 155 127 185 142 97 102 155 69 76 166 73 115 150 64 151 114 136 176 99 92 96 121 92 147 56 48 141 116 93 147 119 80 172 134 93 166 180 155 92 176 88 146 119 71 48 159 178 144 113 182 84 167 108 58 98 182 185 172 159 154 163 179 188 199 113 153 143 197 176 95 179 106 78 97 62 78 114 148 149 103 122 113 168 181 77 147 93 163 159 132 127 111 175 106 112 117 197 146 137 117 117 175 100 85 158 69 158 164 163 139 92 168 101 151 189 95 141 50 69 141 76 127 137 140 113 80 82 80 154 108 125 125 59 83 125 71 87 114 111 148 79 174 164 63 45 96 96 77 113 106 182 110 111 119 124 193 120 123 180 165 90 169 139 83 162 114 75 160 159 115 91 168 172 157 160 112 109 188 182 88 96 102 194 159 183 157 168 109 139 72 121 61 92 71 84 121 113 103 61 87 87 108 137 153 108 181 139 58 57 70 139
96 106 114 127 141 151 164 174 186 198 206 209 202 198 174 157 149 152 157 162 183 184 188 188 170 170 159 155 154 167 166 173 175 171 171 175 179 198 198 198 189 176 142 147 136 156 153 141 170 186 204 195 175 188 181 148 162 116 154 153 136 138 255 157 115 168 113 120 149 147 167 182 159 171 146 92 163 105 70 47 73 101 66 72 126 91 92 119 88 94 108 109 129 110 113 127 159 126 116 144 96 120 98 93 96 106 151 129 107 143 91 157 108 130 134 110 91 81 133 156 156 92 112 114 116 177 170 163 89 99 197 141 162 90 70 127 83 75 69 124 165 82 191 149 197 191 195 114 113 142 185 122 100 189 195 149 170 126 189 117 197 219 127 192 107 161 100 84 123 147 177 167 153 140 114 202 149 198 165 187 151 155 168 148 113 76 158 98 152 178 175 123 58 153 110 157 177 98 122 107 154 165 93 167 135 127 49 106 63 71 169 176 89 184 106 113 182 106 84 179 93 185 153 166 122 177 142 133 98 173 157 137 82 124 106 120 183 126 170 164 92 104 159 82 181 146 166 170 118 207 199 111 177 110 174 143 142 79 86 130 146 85 117 187 172 117 116 110 148 82 98 71 135 160 154 124 123 101 113 96 88 91 189 194 181 123 170 111 172 112 109 151 172 102 188 136 109 209 126 117 91 81 102 72 90 150 136 159 75 73 79 82 92 68 90 139 107 171 157 102 94 137 180 163 149 145 94 151 79 71 122 107 173 96 192 111 175 113 187 106 166 139 48 33 32 118 96 116 147 105 188 127 93 114 106 94 149 193 194 92 153 116 177 140 181 101 153 101 190 101 118 187 119 173 130 172 128 110 130 65 112 113 106 182 126 111 103 153 147 90 143 161 158 191 121 176 169 169 67 80 166 175 146 85 89 72 126 106 151 71 101 111 185 94 96 102 143 155 124 52 66 139 129 65 80 153 119 139 137 53 127 83 147 77 67 96 54 139 64 51 66 105 140 79 50 35 40 112 87 201 192 98 100 197 142 134 170 100 187 185 161 94 148 150 94 109 167 91 164 135 156 84 115 156 163 124 190 207 197 190 184 184 192 105 184 92 118 112 79 80 151 159 94 85 147 255 135 99 84 149 110 149 101 208 199 123 172 175 70 147 88 71
104 114 126 134 143 145 154 172 184 195 201 205 195 188 183 167 155 148 148 174 184 189 197 182 165 162 156 168 171 170 159 168 171 174 177 192 200 208 206 201 183 168 162 155 159 146 148 128 177 198 193 194 184 150 129 171 119 106 129 179 155 170 159 158 87 122 156 113 153 107 155 104 88 170 132 147 101 126 133 108 80 57 110 67 75 87 94 164 105 173 142 154 117 128 121 161 112 167 113 124 122 127 115 121 104 127 140 173 121 146 117 141 111 162 174 102 102 111 112 176 158 100 118 128 107 110 173 84 172 146 155 163 179 79 73 70 143 72 65 79 159 92 132 177 157 180 102 131 188 119 164 185 191 156 171 191 191 122 146 136 135 140 222 209 120 141 131 157 78 157 116 104 104 103 197 136 140 163 176 140 146 184 71 152 61 88 164 193 107 172 188 150 91 79 76 67 80 93 175 120 103 132 112 139 105 59 135 123 104 90 101 114 186 166 108 102 118 98 155 85 171 177 133 86 94 118 206 132 184 176 112 109 172 192 203 205 153 138 191 104 96 178 168 79 183 179 157 198 139 154 171 97 172 150 84 151 70 115 99 105 163 151 159 90 166 186 96 81 93 76 143 138 96 162 77 146 112 135 70 82 98 119 156 154 140 127 109 111 114 122 167 115 89 144 118 198 123 200 121 123 122 124 107 91 127 60 131 72 105 106 91 121 91 118 78 78 120 96 152 84 84 89 131 156 184 97 71 106 56 124 69 104 83 200 211 169 190 177 118 150 89 66 142 134 133 58 89 197 205 207 149 120 108 170 91 118 147 121 180 176 103 112 172 140 129 164 88 166 129 192 203 145 154 116 112 117 175 111 133 112 84 168 110 186 185 183 180 94 100 170 126 169 173 110 84 76 72 50 129 129 132 87 185 180 150 154 131 112 62 60 145 105 139 94 182 138 82 65 108 66 172 145 81 165 145 97 69 91 111 86 134 98 61 71 117 115 66 61 97 109 142 155 135 138 59 99 145 155 109 178 107 137 142 164 200 155 134 188 193 139 170 105 66 161 125 164 167 125 145 144 132 75 158 106 172 114 197 108 161 148 187 201 199 112 187 166 157 141 100 151 157 87 94 147 90 82 75 66 127 76 106 90 101 132 114 176 100 126 114 70 66 142
126 137 143 148 146 147 151 166 187 206 197 199 195 196 177 155 145 137 149 169 187 186 187 163 147 154 146 160 173 171 154 166 172 178 190 200 205 215 204 191 167 150 144 157 143 136 130 163 180 162 199 192 169 177 162 156 150 163 123 138 198 168 146 90 144 75 75 102 125 156 97 101 88 162 127 176 142 76 65 110 119 122 79 66 102 154 128 110 116 159 156 147 115 105 100 149 142 132 155 108 109 128 116 120 123 149 135 129 105 97 140 109 112 121 112 110 116 127 109 131 165 97 132 119 105 88 86 111 84 69 76 71 84 142 88 151 162 117 155 150 112 74 63 153 83 163 142 181 99 186 166 156 89 159 108 195 180 146 186 181 197 208 172 158 138 138 154 84 148 164 172 127 178 162 133 152 153 148 224 160 139 92 87 106 159 162 131 192 200 213 160 106 70 51 98 57 84 97 97 192 181 180 161 91 118 57 73 158 148 106 164 159 123 169 108 158 176 64 63 134 154 165 135 161 144 170 190 165 108 184 168 114 96 161 105 192 150 182 172 142 153 180 97 76 168 126 130 183 114 191 182 97 113 92 156 151 164 118 161 150 70 166 89 151 92 155 130 145 105 76 128 138 105 91 97 83 66 146 145 77 82 153 196 131 196 175 102 171 150 189 119 147 167 170 94 164 114 127 122 175 91 75 67 147 144 73 117 80 73 88 102 104 155 98 102 185 82 89 109 180 90 90 102 112 195 152 182 80 73 52 76 161 192 114 132 125 214 221 182 106 174 64 59 73 99 159 136 107 111 152 142 200 182 106 109 179 187 222 142 138 126 168 89 133 165 70 108 87 161 175 184 167 116 190 96 105 180 125 91 75 160 126 199 206 199 154 189 99 197 172 93 132 112 123 103 117 139 36 39 79 143 134 131 86 168 78 120 101 111 49 129 126 94 145 149 119 185 144 80 83 188 94 116 171 160 100 68 162 72 93 150 119 99 76 111 153 139 153 137 100 68 109 130 160 111 69 169 167 183 97 105 153 130 119 119 188 171 176 128 171 151 139 143 121 145 80 74 123 138 167 107 79 87 87 150 197 195 134 126 100 106 144 129 177 173 166 97 73 162 74 86 101 128 182 127 155 89 155 116 92 136 137 103 166 106 144 155 164 171 183 72 58
140 150 156 155 146 139 147 166 192 198 198 189 168 172 167 150 133 131 140 152 179 175 175 158 152 145 154 162 164 165 159 161 167 176 181 190 203 202 182 171 154 155 155 144 156 159 135 172 182 179 196 184 153 115 120 175 160 148 186 159 205 123 169 99 128 76 69 81 78 134 81 102 99 163 94 95 110 136 145 58 113 49 57 67 81 131 97 108 114 178 184 125 109 135 139 97 112 130 109 119 124 114 112 116 130 152 124 139 96 123 97 147 131 116 126 101 150 127 129 173 194 100 178 105 179 103 99 176 145 67 141 151 152 142 114 176 163 153 56 146 105 60 135 140 149 58 168 110 104 132 149 181 95 145 186 196 120 146 136 161 157 170 120 123 96 117 157 151 158 90 143 175 182 123 101 124 212 221 184 152 120 137 190 185 180 81 164 153 172 206 182 196 134 104 124 79 143 88 169 108 123 106 177 83 164 96 65 168 186 177 165 145 90 164 80 161 92 72 97 90 76 158 100 105 76 114 135 187 103 117 97 164 168 108 197 181 91 116 78 96 184 184 76 156 143 66 167 80 183 162 135 101 196 119 163 149 122 161 72 120 175 176 170 138 114 82 94 141 131 86 96 132 135 100 78 166 135 106 163 141 91 98 202 163 113 133 146 183 213 170 96 80 80 69 133 95 110 125 127 189 88 162 74 67 145 96 70 142 148 130 196 159 156 116 125 189 161 89 137 166 98 90 90 101 160 205 105 184 165 96 59 172 151 116 199 207 213 177 143 108 161 99 58 151 150 87 153 104 130 118 128 216 145 141 163 156 197 151 214 138 202 201 160 156 58 151 67 80 90 158 138 161 140 91 135 175 186 106 69 118 88 102 144 132 114 122 190 161 199 182 183 85 98 180 188 121 48 82 116 27 133 63 63 127 92 76 154 130 99 144 154 74 123 131 148 116 93 187 166 184 183 99 102 129 111 100 155 91 123 87 145 157 152 170 86 134 158 85 111 85 145 157 74 75 174 82 128 97 115 125 80 111 188 119 147 160 139 113 109 103 169 103 142 116 113 155 84 89 95 174 163 157 170 113 127 172 112 139 143 166 115 183 94 118 171 149 70 64 68 93 89 167 181 84 141 130 95 101 140 95 80 168 143 106 185 169 184 164 189 98 86 151
145 151 155 152 145 144 155 170 187 255 183 162 161 151 148 133 130 132 132 137 147 169 156 144 144 145 151 158 159 159 153 164 167 171 177 181 196 193 181 163 153 157 162 164 139 152 145 144 154 184 152 162 144 162 165 170 179 157 194 193 161 145 143 72 80 123 92 154 135 92 79 124 92 124 148 163 95 129 91 70 94 60 118 72 87 109 125 160 127 174 151 115 147 81 85 94 120 127 120 100 143 104 138 106 133 116 133 153 115 151 154 117 117 121 111 113 164 196 131 123 183 150 164 90 130 84 148 97 179 74 149 158 172 93 198 169 74 141 57 143 66 139 121 131 76 149 166 155 188 109 140 110 174 87 191 106 194 191 196 188 165 148 199 113 176 134 114 134 165 127 189 173 194 117 135 157 181 187 117 180 196 196 115 117 187 179 145 147 122 131 217 176 99 155 113 55 63 142 99 92 143 97 106 161 137 109 173 103 100 97 54 124 94 77 82 168 177 115 119 47 58 131 88 78 75 82 173 88 89 115 181 98 183 132 131 150 108 174 165 85 177 133 149 140 52 142 150 170 168 181 103 168 126 176 174 78 173 163 107 94 161 152 158 89 108 143 167 183 192 190 151 74 140 176 172 100 136 78 168 175 89 102 115 111 108 111 117 205 131 212 175 98 76 129 85 84 97 99 111 109 91 91 89 96 92 128 93 149 165 139 171 135 149 132 178 164 105 80 122 169 183 88 119 95 104 208 168 142 167 141 106 102 97 106 161 175 211 211 142 119 111 60 59 119 164 176 104 95 167 106 195 212 143 149 135 183 181 181 97 128 157 115 175 170 86 93 149 131 171 162 159 125 174 160 77 139 111 107 67 157 150 125 108 111 162 168 191 94 136 160 168 115 113 187 135 176 111 132 35 32 106 124 73 157 99 80 73 64 75 107 106 90 184 183 198 159 110 170 93 120 167 146 102 171 123 141 125 100 175 174 169 84 157 96 73 161 60 106 124 136 127 162 149 153 159 183 133 166 83 164 134 83 114 194 190 85 158 155 108 134 132 138 151 92 165 170 116 185 150 190 181 95 87 136 157 133 186 184 160 189 176 138 138 105 160 124 135 130 154 189 187 120 81 149 134 92 102 201 197 91 72 138 146 81 81 114 112 109 137 189 90 173
142 147 149 147 255 152 162 171 181 171 164 157 136 137 127 133 144 148 140 145 147 147 149 133 136 124 141 149 148 164 168 172 166 166 168 178 182 181 174 162 162 166 174 174 176 163 181 177 176 177 172 176 164 131 164 169 190 177 194 164 202 141 167 144 122 70 115 85 84 101 85 94 143 103 155 145 97 90 142 117 71 101 70 115 85 96 97 105 139 122 101 103 86 92 84 68 97 87 106 87 94 113 111 89 109 115 108 87 114 119 98 168 178 121 115 121 131 138 193 193 122 83 121 90 91 101 199 119 204 157 180 115 129 107 119 201 162 154 58 128 149 82 53 93 162 69 149 154 88 169 96 165 173 172 133 193 161 153 200 113 106 91 128 188 122 167 98 135 126 188 132 181 142 181 172 121 169 128 200 185 196 113 193 101 96 132 97 186 213 173 159 130 135 156 108 70 162 66 79 136 100 169 178 170 160 90 169 185 173 80 78 138 145 88 159 182 180 145 137 138 130 153 162 136 88 177 142 163 77 111 163 103 169 179 113 149 159 178 179 179 84 170 156 56 138 138 144 151 83 124 155 176 88 140 86 172 135 173 92 181 166 143 127 98 116 152 97 194 133 158 175 144 115 101 119 170 138 69 69 151 99 157 186 143 114 89 141 113 160 180 102 160 79 57 144 102 135 129 183 182 89 102 103 107 107 195 186 98 117 123 219 125 120 138 189 101 92 120 139 84 181 160 100 184 174 198 191 143 167 112 71 178 184 179 197 110 199 123 104 105 109 99 44 92 60 77 90 106 182 106 191 146 191 125 118 139 123 175 153 255 70 85 144 96 171 113 77 97 176 156 119 151 84 83 108 121 171 144 158 139 165 87 200 140 171 169 184 180 182 74 118 109 146 181 108 109 143 51 104 48 58 102 59 142 80 152 151 151 136 152 172 170 168 217 115 160 156 104 189 174 85 87 96 90 140 129 132 76 167 150 100 91 90 159 72 157 152 57 72 94 94 78 123 165 83 148 84 184 115 149 166 83 84 185 164 89 91 163 144 142 149 137 137 129 178 153 97 188 146 171 100 183 178 156 130 173 178 108 174 186 123 138 191 177 167 145 125 71 101 147 103 155 79 112 141 73 182 99 101 188 78 77 80 134 105 111 166 92 85 181 153 110
142 143 142 137 144 158 175 180 166 153 151 130 120 119 137 144 161 153 159 157 153 160 141 125 128 130 137 144 162 177 183 178 177 164 172 177 184 174 180 170 171 172 175 170 188 186 181 171 154 166 155 146 169 138 125 162 166 205 203 189 144 179 153 147 72 79 149 91 101 120 101 58 81 82 114 95 159 107 142 108 103 61 126 77 104 98 113 110 93 146 91 114 145 144 118 92 75 112 72 81 103 123 122 88 88 90 83 76 85 149 161 164 143 118 122 144 140 157 134 97 84 134 73 91 159 183 125 206 213 147 108 100 192 115 119 211 100 82 77 108 112 100 121 161 125 167 171 115 99 154 180 114 97 173 82 189 184 175 166 147 154 163 141 111 89 89 160 167 194 199 199 176 139 123 100 157 139 173 192 145 125 117 172 83 184 159 95 187 198 209 137 93 167 150 60 127 163 65 81 78 108 125 79 70 151 76 67 73 84 139 54 151 149 92 145 140 118 170 79 102 156 133 119 105 89 91 143 150 69 164 90 208 202 112 103 175 135 127 143 152 98 127 75 91 137 88 154 154 76 90 166 126 86 150 93 66 136 182 143 182 177 143 171 154 194 118 194 145 214 183 162 104 101 103 99 74 126 72 49 95 153 77 165 116 154 178 161 156 110 119 192 100 147 103 120 88 112 177 125 155 187 112 195 155 133 202 200 120 133 215 159 213 125 140 108 90 109 150 66 86 85 135 99 181 109 111 137 148 88 86 67 77 149 154 169 181 195 166 129 123 118 62 136 81 52 69 173 90 158 112 171 138 195 126 89 84 137 96 90 74 62 129 104 108 86 107 136 186 92 173 122 93 111 161 70 153 113 100 102 72 164 136 152 176 203 137 95 90 108 151 43 130 58 173 107 200 140 91 129 150 134 118 163 70 56 69 95 105 138 181 125 151 161 131 151 170 157 93 94 134 187 123 95 148 160 65 135 144 119 134 116 138 96 183 129 170 88 119 104 143 148 105 179 153 99 154 135 153 94 176 164 136 79 83 170 117 120 169 118 74 104 142 172 94 129 152 95 188 96 128 182 196 191 129 90 132 172 140 148 195 122 142 180 106 68 157 70 155 169 132 198 102 145 163 142 87 165 161 116 167 119 155 122 159 95 59 71 105 165 86 91 193
137 136 133 132 139 154 167 172 156 150 130 127 134 137 143 150 171 179 179 183 170 160 132 126 124 130 131 150 173 187 193 186 174 172 167 171 185 181 190 177 168 170 179 188 171 195 183 156 133 132 143 117 126 156 176 164 202 206 193 186 160 144 121 92 106 148 167 85 133 131 92 62 135 121 89 93 132 85 74 105 43 59 124 134 101 111 101 103 170 100 90 118 116 93 84 87 85 64 102 97 75 90 137 91 125 93 130 114 120 95 115 162 119 142 174 115 166 123 109 109 61 63 130 155 113 97 104 126 195 123 212 171 162 129 123 116 145 117 98 85 88 146 77 159 171 172 77 179 136 190 179 187 117 160 106 174 115 215 153 189 100 163 168 126 127 100 141 170 180 155 131 204 178 109 158 97 150 166 102 97 189 108 74 96 142 146 124 122 143 121 173 156 145 62 93 164 161 97 57 63 64 64 95 74 64 145 101 113 104 39 101 163 175 148 140 157 176 177 186 134 180 154 120 102 106 86 164 60 151 160 176 113 119 119 115 171 152 100 155 94 137 144 144 49 50 65 70 85 171 90 154 62 105 140 139 99 159 153 167 65 153 128 146 135 182 190 179 119 200 147 163 90 137 147 87 54 65 69 101 110 37 90 114 99 183 182 79 132 109 135 107 187 90 87 102 85 103 192 193 96 105 92 91 132 134 149 114 111 209 134 183 125 130 96 85 175 97 136 93 107 90 160 162 139 104 88 129 144 84 84 121 66 76 161 190 97 131 148 168 138 54 143 58 101 155 157 130 158 129 176 127 195 108 107 180 86 151 158 61 122 144 147 97 155 168 158 112 173 135 180 187 195 98 99 164 101 88 130 183 167 159 93 158 209 197 121 178 169 74 109 41 29 126 72 133 118 93 79 163 76 172 182 178 86 59 125 138 97 169 186 202 135 141 160 144 108 166 167 120 99 120 103 83 84 69 132 83 105 177 178 88 126 192 99 176 106 80 151 146 60 84 164 117 155 153 154 96 156 169 87 76 102 143 66 144 110 127 106 181 138 154 83 85 183 168 105 180 90 183 157 178 105 141 105 160 96 173 84 112 85 93 167 70 130 69 57 157 100 96 143 177 102 91 167 69 73 144 156 85 91 148 134 95 122 80 143 43 53 79 75 184 119
128 127 124 125 131 148 161 165 155 142 128 126 128 149 165 167 175 181 186 190 191 166 147 133 133 129 149 159 172 185 183 178 171 172 169 177 189 189 196 192 171 181 182 195 195 181 151 170 135 143 126 149 160 163 126 155 183 139 170 162 170 123 175 164 116 104 156 87 110 73 149 91 86 156 107 146 96 90 136 74 104 66 73 86 147 91 98 127 110 150 91 107 102 105 95 109 72 58 77 52 71 91 123 116 101 142 86 76 79 140 125 116 113 139 147 109 116 137 96 156 84 56 55 149 82 112 142 180 189 145 210 135 122 205 157 114 198 100 169 98 194 99 189 145 91 179 93 109 130 204 200 127 154 106 176 184 213 206 198 160 148 180 140 160 104 179 170 93 156 103 180 182 171 121 97 145 158 97 172 148 161 123 98 56 104 123 87 170 86 141 157 157 124 98 110 156 76 101 46 108 68 113 76 165 147 65 120 123 37 105 98 81 162 190 107 95 89 124 177 100 79 162 146 145 80 97 126 72 161 72 185 194 209 205 183 148 169 76 156 65 90 124 82 146 100 158 129 93 165 116 86 120 103 122 51 82 80 162 141 151 50 60 133 167 138 179 215 144 123 128 142 113 66 136 138 100 74 65 68 133 109 94 77 175 95 77 71 69 128 98 130 105 106 155 76 126 188 123 113 198 106 104 157 187 198 105 112 112 175 186 147 177 83 95 162 75 134 86 65 79 125 179 89 167 153 114 64 89 84 62 142 133 160 71 166 70 140 141 156 154 122 55 79 113 168 109 190 131 112 198 216 155 112 103 184 93 125 171 145 93 158 151 107 94 167 117 169 127 172 129 121 183 101 115 66 137 141 161 118 145 72 169 189 170 115 109 172 108 105 71 59 39 52 57 162 81 177 118 177 188 115 199 107 174 165 66 142 168 111 210 129 204 138 164 199 200 97 111 124 194 192 139 169 171 169 182 161 200 195 185 91 98 117 116 143 173 89 111 142 92 92 201 202 176 124 140 73 171 185 143 180 72 148 147 88 158 136 133 139 123 106 92 83 255 80 83 118 163 176 158 123 147 117 145 173 164 164 106 173 93 70 151 70 74 151 159 141 143 179 191 103 184 141 107 54 116 116 62 80 156 155 84 168 112 65 59 103 50 60 83 89 156
117 119 117 119 122 129 144 150 144 142 141 140 144 158 169 174 177 163 178 182 184 169 138 134 136 138 144 173 182 180 164 173 173 176 175 172 192 202 196 188 178 183 185 192 195 174 165 166 158 145 151 151 152 162 171 161 154 143 147 174 148 121 161 138 139 144 128 86 151 139 166 161 121 137 134 85 156 95 107 75 37 75 90 131 87 126 93 122 119 110 99 97 115 128 97 77 64 66 52 55 78 90 94 127 148 120 104 128 137 105 141 132 117 97 138 102 105 150 88 145 112 63 149 66 112 146 165 162 146 88 102 112 133 140 149 120 105 107 198 125 107 109 207 130 191 155 164 156 114 196 209 124 168 207 163 212 177 194 218 216 187 126 203 120 144 151 83 125 118 125 165 149 144 106 128 105 118 105 106 161 94 175 89 154 95 55 101 141 140 147 121 60 137 104 84 141 136 138 65 47 103 166 75 80 124 174 169 134 83 41 39 81 65 161 74 74 155 172 98 105 141 148 47 54 156 87 172 173 171 175 119 110 200 108 131 121 187 106 80 155 73 76 105 160 156 98 176 86 80 94 151 117 59 82 93 183 166 145 78 119 140 101 146 71 92 176 139 125 180 92 109 136 130 117 129 108 66 87 119 98 128 102 119 89 100 111 150 73 63 77 117 171 147 114 122 139 168 180 143 160 148 180 85 136 174 99 181 203 192 112 157 107 79 136 164 81 77 120 112 103 131 95 168 74 90 160 159 141 115 72 88 65 66 73 255 131 119 116 153 69 151 62 114 164 128 106 101 150 210 120 161 124 201 158 191 146 163 140 176 109 83 76 150 115 163 85 187 126 96 111 93 154 146 174 151 66 83 169 65 149 133 71 156 103 198 132 94 145 142 40 56 101 103 105 56 130 172 118 111 204 120 124 141 184 88 86 95 99 134 152 134 223 220 157 143 105 200 182 187 100 187 102 90 94 91 165 110 208 169 145 166 157 157 168 88 152 186 124 178 184 193 114 139 202 117 142 116 141 135 184 189 100 107 140 146 101 124 164 175 190 175 111 172 159 97 122 129 166 127 160 180 140 204 215 140 170 110 175 81 155 85 92 91 70 139 85 157 159 95 118 187 93 139 153 153 139 111 72 122 113 119 111 127 163 70 121 63 163 95 159 129 98
116 117 114 110 112 125 135 145 145 139 143 133 154 177 184 192 179 158 167 186 188 173 156 148 132 140 155 174 185 181 176 179 180 186 186 182 195 203 193 199 185 183 184 186 184 183 181 145 146 138 132 154 111 161 160 153 156 154 151 158 183 181 161 181 133 154 103 105 133 89 146 144 160 103 157 147 82 138 46 74 68 143 86 154 116 89 142 108 132 161 106 122 143 91 109 85 116 82 68 101 75 75 108 134 127 137 115 101 108 118 87 94 98 117 125 110 95 86 140 91 72 66 87 161 78 87 147 104 145 83 75 99 129 199 202 202 117 211 167 182 174 158 156 197 174 145 175 192 212 185 185 167 154 209 163 175 224 208 138 172 199 159 194 213 195 178 142 156 92 112 105 85 192 184 158 146 107 97 81 139 174 140 89 67 155 124 154 106 163 113 175 162 69 138 140 59 96 56 59 77 124 69 70 130 148 194 91 89 61 139 54 118 59 145 99 104 127 132 168 70 127 154 67 76 147 145 68 92 78 90 187 130 196 165 179 197 195 92 127 125 142 162 166 172 169 177 132 182 157 167 160 255 135 81 144 175 125 206 124 118 164 59 147 58 96 113 78 98 143 121 96 113 134 60 115 149 170 87 112 102 119 90 175 97 83 77 159 97 58 110 103 68 117 132 69 90 87 174 196 123 158 170 92 91 104 97 157 150 200 112 107 177 81 86 127 81 164 83 135 110 161 101 88 148 81 129 157 95 127 139 165 114 97 59 104 109 134 45 95 142 113 152 84 76 105 189 115 204 184 154 121 191 193 112 148 177 86 139 91 120 154 152 126 147 150 93 146 128 158 163 135 188 147 146 149 165 84 119 95 134 106 111 155 182 124 102 172 63 53 117 137 118 79 128 132 99 114 125 103 116 129 199 114 105 194 108 144 113 209 122 194 186 190 164 169 108 120 140 188 141 173 91 106 99 122 187 147 199 152 202 112 109 147 107 122 178 170 131 90 89 195 192 194 119 118 133 157 83 149 175 192 145 114 120 156 155 148 82 173 103 194 162 117 141 137 72 163 107 117 115 79 120 152 108 154 190 107 97 132 104 120 72 152 126 90 176 179 185 193 101 180 151 99 87 66 73 165 117 80 82 167 111 142 106 141 97 159 80 177 168 98 96
126 122 113 106 108 118 130 139 139 144 130 137 149 167 181 183 177 154 169 166 171 167 163 149 150 146 155 173 188 192 188 192 203 203 192 192 182 191 192 197 188 183 181 174 173 179 156 156 152 162 150 136 130 151 125 155 129 123 181 182 182 162 207 182 144 135 144 97 114 146 101 93 151 115 75 114 127 113 122 49 83 71 90 78 98 65 72 122 112 139 123 137 94 80 98 73 68 77 73 105 77 84 118 120 156 130 141 121 96 83 72 78 143 105 109 108 80 82 88 66 95 130 93 89 96 98 91 105 165 78 151 156 155 148 178 142 132 125 180 147 120 119 112 108 173 150 160 85 200 174 203 214 159 137 204 180 216 185 212 202 143 185 174 169 133 172 89 89 60 135 124 179 187 174 154 196 124 184 97 84 104 110 155 139 72 64 71 120 131 89 168 98 136 128 75 148 100 73 123 67 62 155 65 161 118 100 124 84 73 93 68 156 140 54 85 63 92 148 78 69 97 167 148 144 73 79 121 65 81 90 118 179 151 191 120 203 104 130 76 171 163 143 175 104 111 108 98 144 183 134 168 161 111 182 148 199 205 219 225 123 98 114 59 120 49 147 70 132 87 153 166 104 66 138 74 141 118 151 128 108 135 122 112 93 78 70 115 70 144 119 113 153 139 81 110 161 124 135 138 97 128 106 106 108 186 187 203 210 129 94 134 100 137 174 77 162 86 166 192 170 136 175 153 68 127 149 124 103 170 86 95 118 135 40 38 38 51 145 65 52 153 135 135 176 161 179 132 175 175 107 163 121 153 173 173 88 149 131 77 153 178 117 91 178 176 174 164 182 182 165 102 123 185 194 188 99 159 60 96 150 153 135 114 126 187 122 169 66 150 152 151 137 80 39 37 145 83 121 105 171 170 178 118 120 183 190 211 178 155 193 101 146 142 143 103 169 103 112 157 157 69 81 143 204 194 197 112 113 109 105 196 187 114 159 162 165 108 154 134 128 162 138 205 145 203 168 129 163 170 156 147 117 113 135 157 79 118 173 160 95 97 150 153 73 115 166 169 172 107 81 69 65 121 101 106 98 116 162 107 75 99 97 73 131 146 255 95 169 131 158 180 140 76 143 175 186 169 157 86 144 182 132 192 97 116 130 90 157 119 83 87 137
145 137 124 114 114 126 131 136 137 142 130 134 137 166 176 179 173 162 169 165 183 185 185 177 163 157 166 183 195 201 202 205 209 208 204 197 185 187 189 196 198 187 171 158 149 164 171 165 160 170 152 161 153 155 147 131 145 121 158 159 137 196 152 142 150 108 152 152 113 81 162 80 90 80 147 121 99 57 55 130 114 72 147 109 92 124 107 91 128 168 120 162 129 133 93 90 104 101 86 113 130 86 115 104 123 122 123 129 99 82 68 107 110 110 166 130 148 123 88 141 95 80 97 197 114 118 143 187 152 66 62 96 107 121 79 92 193 192 200 131 132 157 201 88 151 140 148 75 172 109 127 163 212 207 201 183 143 90 160 170 152 175 136 171 159 160 156 156 147 121 110 138 205 175 169 200 111 147 105 145 181 186 154 126 167 62 116 144 95 125 105 158 126 90 98 161 88 122 134 97 158 132 101 96 100 175 152 89 83 115 162 151 143 166 71 63 104 141 137 77 171 183 87 80 87 70 61 56 59 151 158 145 139 98 103 177 156 171 80 176 77 151 119 124 113 110 199 102 194 170 94 180 183 115 177 137 134 176 157 221 153 105 137 125 129 49 68 102 142 106 102 73 141 101 169 174 96 123 128 186 193 142 128 131 83 150 153 174 82 80 59 87 76 81 93 115 132 91 160 109 103 126 194 122 128 134 147 147 148 114 84 184 176 81 102 161 151 106 198 116 119 188 83 131 73 76 95 92 175 83 154 73 72 145 56 134 59 119 117 101 55 72 114 172 87 89 180 100 86 156 178 79 131 138 151 169 146 126 126 124 86 113 102 167 163 162 80 140 160 118 176 129 114 204 112 134 92 125 159 101 147 177 181 110 80 78 120 160 166 81 151 157 139 41 69 141 64 91 155 200 200 187 137 145 121 255 155 126 159 182 180 84 80 163 107 139 195 96 137 154 112 72 92 184 126 192 142 104 118 149 189 130 126 173 86 73 75 173 109 162 90 137 154 166 108 88 151 105 101 81 119 113 174 86 155 173 174 114 119 176 115 143 85 168 153 65 153 121 94 78 83 120 60 111 114 149 111 115 97 138 68 69 94 107 107 63 92 157 183 193 115 151 117 139 170 100 192 120 153 95 190 109 193 152 165 103 97 94 159 163 187 100
164 154 139 130 128 133 131 139 139 147 147 142 155 161 175 167 175 180 170 177 182 173 191 197 183 177 183 191 197 200 190 197 201 203 198 196 189 172 180 187 191 159 139 136 122 157 169 160 189 179 148 153 114 143 154 127 159 153 158 162 121 166 161 131 147 133 126 166 87 110 167 162 167 75 85 65 62 121 62 89 94 137 79 119 64 71 67 81 149 121 125 157 150 119 74 77 81 109 103 89 119 125 80 83 128 111 144 134 100 87 121 81 89 97 120 89 97 87 82 104 71 109 169 107 137 200 202 101 86 75 119 154 54 65 115 93 100 210 149 217 133 138 116 149 164 145 160 169 179 189 189 206 227 190 213 167 143 170 123 167 97 177 168 183 139 181 178 80 165 174 137 117 192 120 195 194 176 190 97 87 119 138 109 77 75 58 169 93 103 111 190 189 105 186 187 92 86 84 155 87 129 94 99 142 157 156 95 125 125 129 177 98 146 182 107 142 165 123 116 255 181 191 112 100 84 90 127 168 135 109 180 174 86 175 179 181 132 173 104 114 75 92 178 154 212 185 203 196 198 166 95 107 143 182 108 115 119 209 200 211 158 163 175 139 52 125 150 145 160 176 74 159 131 129 153 123 155 174 96 112 196 115 175 119 58 105 109 80 85 65 63 70 95 147 136 136 82 97 98 177 169 169 131 128 110 132 118 207 146 148 77 151 173 98 98 106 166 121 104 108 189 124 145 45 58 114 87 166 143 73 72 161 121 129 164 139 103 62 76 52 123 125 160 89 155 160 86 135 124 115 153 163 152 165 126 99 86 122 168 182 141 103 117 160 194 187 177 169 99 146 96 150 112 104 160 154 190 104 123 89 159 178 152 81 77 81 150 132 107 89 178 135 76 69 82 140 140 147 114 181 101 146 173 96 211 134 191 185 172 90 134 159 155 140 138 194 173 77 153 138 119 138 167 129 158 150 140 180 156 154 145 113 93 118 81 101 176 106 144 118 153 65 172 187 92 90 110 169 123 142 151 171 80 120 185 138 136 169 86 113 180 89 180 171 75 68 55 47 56 94 118 59 68 136 103 142 118 112 134 166 136 147 115 140 144 137 145 99 163 117 86 88 146 124 94 153 163 105 154 123 176 167 210 200 119 183 138 182 174 121 115 112
176 168 152 146 140 135 130 137 147 154 163 158 163 176 172 180 178 192 185 183 183 182 195 194 199 183 182 188 190 190 183 178 179 190 195 194 190 180 178 178 175 163 133 126 142 150 184 178 197 157 143 147 138 154 137 130 158 182 177 174 124 139 111 178 136 161 118 88 153 150 158 111 95 95 146 58 61 63 61 149 100 133 154 125 62 67 112 106 101 115 116 116 89 92 88 81 86 118 80 119 118 103 79 80 142 104 116 100 88 124 122 147 105 109 121 110 162 91 87 87 89 166 101 154 188 120 176 166 190 97 150 155 77 118 173 183 192 185 123 206 216 220 114 188 157 116 165 140 176 149 189 226 233 213 203 175 152 65 92 113 166 106 161 199 182 145 100 159 133 105 187 107 111 183 180 182 93 121 146 88 115 156 155 159 123 119 78 170 186 141 103 139 192 99 138 146 161 172 168 114 104 199 100 96 101 135 151 129 79 174 197 195 167 167 85 171 77 82 130 101 157 141 163 169 99 155 91 165 120 73 153 115 81 96 175 141 82 149 105 167 159 155 172 128 158 113 109 190 99 199 193 162 174 104 202 121 185 115 199 163 152 103 98 156 90 104 145 166 96 93 58 150 82 119 89 129 169 69 75 176 174 184 137 138 151 54 91 104 141 70 92 75 51 95 51 98 114 180 93 168 198 194 191 101 107 126 115 104 97 108 91 129 124 83 114 142 95 178 118 129 182 94 128 30 129 74 96 152 79 84 114 151 104 75 171 146 179 73 74 108 130 109 94 177 101 103 166 95 94 165 98 163 66 158 164 172 191 189 196 109 148 188 127 192 181 176 102 89 135 145 151 101 103 150 116 202 129 187 182 180 103 153 108 163 75 79 139 159 147 99 104 193 131 139 56 45 88 69 175 106 103 93 129 112 161 186 117 186 136 90 157 155 123 142 169 194 85 146 137 64 126 137 68 68 73 139 112 118 129 168 132 98 93 162 178 110 101 195 182 136 75 57 94 147 106 82 84 82 134 182 114 153 92 127 108 121 106 178 140 192 182 182 197 110 132 140 55 136 56 102 156 105 147 99 83 181 135 96 107 104 157 63 138 91 70 50 66 64 134 108 94 159 150 183 189 197 139 116 163 137 120 156 167 118 160 194 119 106 97 128 112 120
174 167 153 149 145 143 134 139 146 160 182 178 187 182 192 197 208 189 183 175 171 174 184 186 192 192 188 189 192 186 176 173 175 182 188 186 187 178 158 164 162 153 130 144 154 168 188 171 199 180 163 129 142 126 118 176 156 123 140 100 99 176 163 169 149 137 107 171 182 197 166 172 103 128 91 137 57 80 104 109 87 128 104 85 84 78 126 105 161 147 117 105 154 85 74 61 61 65 80 96 112 97 102 104 104 125 121 73 82 93 138 114 165 112 176 135 111 140 109 146 109 102 148 156 75 110 97 155 176 172 155 102 72 161 182 185 91 171 83 112 196 205 205 120 122 170 167 148 178 110 141 212 148 127 108 96 129 69 159 113 124 132 195 167 159 179 124 180 184 132 180 81 146 164 97 146 181 137 122 120 188 177 139 61 101 144 86 128 212 139 103 193 103 153 103 99 112 100 136 89 192 205 166 150 164 129 83 165 185 146 191 103 186 200 106 186 167 127 121 134 118 161 144 133 112 171 175 161 88 152 153 71 82 112 149 115 114 177 154 161 69 135 73 128 167 157 135 128 192 108 176 178 157 192 204 171 162 109 190 120 171 139 125 78 155 100 161 152 143 118 77 149 72 74 145 172 169 149 138 71 104 162 111 103 73 64 76 71 63 122 108 99 124 136 128 70 100 106 107 195 188 92 135 189 98 100 98 170 147 108 68 55 98 76 97 118 79 152 98 158 67 137 30 67 64 98 161 74 133 101 106 81 152 78 152 113 144 169 124 74 111 85 94 77 83 140 145 80 169 171 125 127 74 121 89 105 174 181 210 120 221 151 229 156 208 183 162 183 108 98 145 59 140 112 105 157 117 165 116 164 83 188 90 189 145 114 167 155 131 137 105 181 115 146 94 54 73 67 96 158 110 105 175 205 153 142 90 123 67 74 148 171 144 124 136 176 167 82 122 66 69 120 82 76 151 118 115 170 169 135 107 187 82 82 171 109 112 188 181 157 145 92 146 121 158 87 81 164 123 124 110 114 186 188 157 103 102 174 153 168 104 204 135 160 123 144 130 119 104 79 95 140 114 168 178 160 159 149 182 126 171 169 125 67 61 162 80 72 121 181 170 141 169 144 185 173 171 140 185 189 220 174 221 206 177 108 111 132 73 112 197 142
164 156 146 152 151 148 135 138 159 164 183 176 184 195 205 200 197 200 189 178 164 163 167 173 165 177 191 199 190 186 180 180 183 183 182 181 183 174 162 153 139 155 146 168 154 176 188 199 185 178 146 149 140 105 151 179 194 165 151 145 107 126 165 140 98 94 127 172 115 201 200 130 161 67 57 116 61 63 55 130 125 167 149 82 74 97 68 105 83 118 105 139 135 114 90 44 44 100 77 72 93 130 106 133 114 106 87 98 73 97 123 101 171 115 113 148 105 102 91 96 169 88 149 80 138 54 56 91 133 120 106 79 155 146 184 186 131 72 63 163 175 89 193 175 81 71 106 162 184 198 128 109 190 190 163 181 171 155 159 142 84 139 133 182 225 217 194 149 148 176 155 146 152 103 81 184 104 146 178 181 190 105 159 161 137 126 142 176 166 139 200 186 150 134 87 162 114 119 122 135 181 197 206 147 99 86 90 160 120 156 196 196 196 144 189 172 165 77 175 156 139 108 88 66 119 109 182 125 157 157 133 64 142 123 156 57 150 100 90 100 83 165 107 98 189 166 173 162 93 175 90 90 116 119 196 107 186 196 177 167 167 101 124 168 96 82 72 101 70 109 63 75 142 64 147 86 151 166 142 161 159 106 121 96 84 162 145 155 79 71 140 133 164 102 171 96 154 165 161 93 106 113 171 168 109 104 192 90 79 113 56 141 123 131 174 126 85 168 171 87 127 99 123 111 56 76 139 164 149 119 67 52 86 94 119 177 105 98 151 110 76 255 75 167 137 121 178 177 129 84 169 162 118 134 147 178 138 193 184 216 169 165 218 213 165 158 155 159 160 149 97 115 70 160 166 112 138 174 113 81 179 105 115 93 188 112 90 143 111 108 105 108 168 177 81 119 140 132 173 108 208 164 179 160 111 157 160 136 152 157 103 88 148 123 176 78 161 140 50 143 62 128 114 141 134 205 215 137 150 148 110 149 141 74 119 192 191 194 169 100 47 108 102 139 118 137 114 193 150 122 198 132 167 193 110 117 108 152 164 106 120 204 206 129 120 117 62 111 119 189 157 107 168 157 165 107 114 108 83 84 105 184 166 93 163 182 158 144 108 166 107 185 105 149 93 134 195 155 177 208 145 142 165 118 128 143 143 150 158 109 184 123
153 145 135 140 147 151 144 150 156 170 175 180 186 190 195 205 205 198 187 169 164 159 154 149 153 167 185 196 197 187 191 197 190 185 179 172 176 166 158 144 147 155 170 179 175 188 184 181 192 168 153 157 161 133 179 188 177 167 137 152 144 160 178 123 147 182 189 142 162 142 112 93 144 68 108 86 122 74 81 66 80 147 88 96 107 71 67 66 128 93 101 100 80 58 59 34 71 91 102 76 103 129 96 108 124 116 98 89 104 62 108 94 150 122 162 100 95 89 86 127 98 174 132 94 111 135 38 140 50 156 68 93 150 132 90 79 74 63 52 148 155 83 124 175 80 166 71 176 198 189 199 149 142 154 145 186 183 84 142 146 108 107 111 197 168 169 202 137 183 111 179 93 159 162 99 121 196 115 161 183 184 135 86 119 153 134 196 138 215 114 113 118 106 159 159 182 175 160 173 79 184 171 113 182 135 181 105 114 113 122 103 198 160 113 173 157 122 100 145 137 167 136 74 75 169 190 130 155 101 117 131 77 68 91 90 46 145 162 89 134 197 131 163 97 106 118 116 169 78 91 141 164 113 169 101 131 119 197 153 161 141 140 83 146 78 140 142 110 128 155 104 111 102 114 172 128 103 95 145 83 121 167 100 148 108 182 95 92 166 69 131 92 82 85 102 193 159 154 95 142 80 178 106 115 177 109 94 103 81 51 57 139 62 77 125 125 100 83 151 75 149 158 84 84 141 45 49 80 158 137 54 134 132 48 165 107 100 114 189 173 109 141 143 191 193 106 118 96 125 179 171 101 77 116 154 150 185 190 198 152 115 191 104 179 168 122 171 121 78 82 114 153 69 129 91 116 123 107 141 145 145 101 149 182 100 88 160 68 125 132 188 191 122 165 167 165 96 72 114 195 147 188 191 153 117 112 125 118 148 92 191 126 191 255 183 182 107 113 128 70 152 107 89 90 187 123 195 211 177 135 148 84 127 150 171 119 193 117 93 136 80 70 165 156 157 167 158 115 174 130 218 160 195 196 116 203 196 153 135 84 185 111 158 143 99 88 170 125 194 143 199 97 156 79 136 90 80 85 82 126 108 92 94 147 131 128 194 106 139 143 185 114 115 180 183 106 148 109 124 129 172 232 167 131 176 99 170 166 82 143 175 153
147 138 130 136 151 158 161 165 167 162 160 164 177 184 204 203 197 187 177 186 172 164 145 142 133 145 169 193 193 192 198 200 198 192 172 169 164 168 158 142 145 143 166 160 182 167 169 196 174 188 175 177 162 153 139 155 160 168 113 81 127 154 125 141 161 171 206 162 149 190 105 117 65 87 121 118 79 89 87 68 102 97 90 158 87 80 146 74 112 93 141 97 75 52 46 57 43 67 87 95 94 93 99 136 120 148 138 86 76 85 130 86 95 125 159 97 107 113 89 156 105 123 163 67 51 123 74 32 90 81 255 73 79 152 96 163 74 68 131 99 171 89 187 176 169 136 64 174 95 158 107 163 80 89 155 161 157 180 81 132 77 163 104 181 187 192 127 138 141 163 101 116 96 147 117 138 107 141 175 145 155 185 181 166 139 94 183 156 137 137 109 154 138 159 121 106 144 153 86 67 116 73 167 90 91 94 194 180 177 149 112 203 255 164 162 190 118 128 148 167 152 85 169 146 152 164 160 181 165 123 137 53 133 120 121 63 139 62 176 193 157 176 121 195 193 171 132 115 66 114 84 152 72 180 137 135 255 187 96 126 78 168 143 164 99 126 101 170 133 149 183 156 122 71 134 109 195 141 127 105 92 176 99 95 95 92 178 121 76 131 131 92 93 92 111 101 100 119 165 80 93 96 94 116 115 201 124 86 82 53 52 141 136 112 176 95 115 92 138 184 113 162 82 115 136 149 59 93 130 89 69 144 69 144 93 97 143 99 91 173 171 128 97 151 148 209 124 101 100 255 144 148 75 169 104 138 179 78 119 128 104 173 88 124 144 164 165 110 104 172 163 128 104 143 91 77 142 79 162 127 108 134 113 130 78 96 161 71 75 124 169 115 91 71 143 107 162 73 79 93 127 173 166 148 183 191 111 104 159 189 113 160 126 176 146 106 136 138 70 133 114 170 116 121 98 124 137 111 169 180 134 133 161 105 132 191 132 98 83 83 59 108 85 166 94 152 122 100 200 163 202 184 197 181 103 205 189 100 154 87 154 105 94 173 102 86 99 177 116 209 121 148 181 76 75 95 168 141 157 152 151 90 156 84 122 208 138 193 202 116 136 136 197 204 126 103 97 105 129 165 152 174 141 171 114 122 107 105 140 103 150 120
148 140 132 137 149 161 171 167 168 157 149 153 172 184 191 199 195 183 164 175 186 170 159 145 140 145 167 184 195 183 194 206 199 185 168 158 167 160 163 154 142 138 163 169 159 172 182 200 187 167 193 190 139 158 175 128 152 154 108 83 124 154 170 171 162 197 182 180 149 118 110 135 130 84 93 94 87 101 115 81 84 133 103 86 143 92 124 80 135 117 88 89 70 72 95 39 255 82 92 95 85 99 82 91 114 136 109 116 86 77 75 149 114 151 87 97 113 93 112 112 186 103 89 149 124 44 45 107 112 70 177 83 111 89 146 73 59 88 74 69 89 96 182 84 120 153 149 169 88 158 179 163 76 144 186 152 190 170 151 107 173 140 143 80 173 167 112 186 125 191 131 103 161 84 165 111 127 155 147 150 186 181 136 90 170 131 192 123 72 153 101 54 125 71 74 77 134 74 76 110 126 87 64 128 138 89 142 197 171 205 125 151 112 164 99 122 151 115 93 88 100 166 93 181 204 129 165 137 150 161 135 57 142 53 145 128 143 159 96 147 106 207 255 213 111 161 79 48 89 99 91 148 81 135 168 187 192 168 134 87 77 156 84 157 169 167 117 165 174 206 134 121 154 116 141 180 104 186 122 102 93 197 170 155 153 120 255 87 175 94 172 80 114 162 170 97 92 134 77 72 80 110 86 179 136 130 184 122 89 77 83 91 167 173 194 113 172 138 100 193 179 156 175 174 93 147 85 180 112 191 89 62 54 160 137 87 131 85 76 140 159 117 104 183 198 205 147 189 99 121 138 157 177 94 175 92 154 78 166 178 180 95 155 74 63 119 160 171 107 166 165 161 144 162 158 70 117 86 152 163 82 103 168 88 162 68 140 132 142 162 143 144 159 157 102 96 87 84 158 83 122 85 140 132 132 158 92 178 165 89 189 120 210 126 206 165 116 132 152 126 114 155 114 163 169 133 186 96 97 93 106 165 86 133 98 189 114 173 153 112 136 145 192 196 188 84 97 125 177 154 90 128 102 109 148 169 153 143 201 199 93 120 99 164 154 181 188 106 139 172 133 126 86 149 90 79 111 100 151 88 149 182 114 92 138 156 217 212 148 168 135 171 113 187 184 106 171 146 146 172 149 113 163 115 137 105 96 120 194 111 148 150
153 148 139 140 152 170 172 169 159 142 149 156 184 188 194 201 192 169 164 179 183 175 161 153 152 159 180 182 190 195 192 195 188 175 158 161 166 158 160 162 155 165 164 166 165 156 165 192 173 191 190 169 165 159 141 113 126 152 156 84 105 133 126 174 159 112 130 132 178 136 89 146 100 92 106 137 124 114 84 152 152 93 100 83 89 96 162 108 132 120 90 90 134 96 64 76 89 55 83 78 78 106 95 89 94 100 105 88 135 87 81 121 130 136 88 123 105 121 110 90 170 126 78 72 88 84 75 128 166 115 132 111 112 71 54 145 58 98 49 62 161 95 164 143 149 150 58 154 174 158 73 134 101 120 102 178 150 129 167 117 152 139 93 169 179 98 104 103 115 127 135 162 155 103 79 113 144 99 104 188 128 87 176 94 115 194 141 177 126 112 41 143 52 136 104 110 86 74 151 118 89 108 149 67 90 182 121 183 180 106 132 133 144 75 95 89 80 99 85 84 80 174 102 127 130 225 233 208 211 167 111 79 92 150 163 60 255 165 173 177 175 193 123 209 106 85 73 137 126 122 76 144 87 88 176 116 143 87 76 151 73 89 109 177 154 164 116 102 123 185 173 200 124 98 127 139 138 169 145 179 169 89 177 93 73 91 115 86 117 135 147 135 70 65 65 139 100 66 156 65 148 128 96 97 110 113 130 114 134 178 95 77 146 116 121 213 206 111 191 99 190 119 97 90 148 175 144 130 88 159 112 130 120 167 174 80 154 81 156 165 100 81 169 184 191 102 103 190 181 110 156 134 160 190 154 171 111 146 122 171 169 114 122 80 65 151 76 176 103 119 161 166 100 81 80 101 146 71 101 154 96 127 160 157 158 86 104 138 124 143 95 80 118 136 101 125 148 156 89 76 161 111 99 158 176 117 175 162 112 74 179 193 199 103 102 193 165 74 117 138 159 146 189 103 102 144 115 121 98 112 138 107 127 123 188 161 198 136 143 148 139 81 93 116 95 116 122 179 86 173 118 162 200 121 91 104 135 151 225 138 160 171 116 171 125 134 158 141 116 102 189 99 182 161 91 78 166 114 88 89 186 135 105 150 140 211 191 132 153 134 180 90 84 137 112 89 102 81 128 161 143 141 106 173 77 74 74 116 131 204 134 145
160 152 143 144 151 167 173 161 149 131 143 166 186 190 195 182 164 168 170 178 179 167 168 147 151 154 180 181 191 197 196 190 181 172 165 162 171 163 167 172 159 177 163 167 165 154 161 189 155 187 199 191 169 160 165 167 129 142 255 118 113 132 166 134 135 98 180 160 164 178 164 65 50 85 131 144 113 96 103 105 127 95 101 79 85 164 145 82 104 88 101 144 92 100 77 58 70 83 95 80 94 73 78 72 84 91 114 79 86 83 64 55 65 95 79 146 102 153 159 89 85 116 158 159 70 142 111 113 180 162 178 210 179 165 69 75 145 89 136 82 125 178 89 81 165 131 71 164 151 163 149 83 130 194 177 121 117 168 186 188 97 122 165 171 163 99 92 167 98 126 129 98 157 99 164 144 83 141 146 145 113 117 116 101 201 199 168 82 104 99 41 115 147 68 141 64 102 142 116 64 94 73 69 88 180 87 95 102 171 114 149 174 161 133 133 63 90 84 122 92 175 162 151 167 137 209 137 194 135 214 194 110 110 86 176 126 122 134 106 90 155 139 109 196 105 166 158 51 52 163 169 90 126 160 189 177 104 180 78 68 141 88 75 139 126 108 105 132 130 169 117 172 149 159 81 147 131 78 122 157 147 94 124 79 152 165 89 91 99 110 142 92 81 82 152 55 89 58 135 68 117 76 162 193 176 205 115 109 130 126 91 109 97 143 119 161 120 113 205 122 193 108 106 183 104 133 163 100 82 176 74 71 160 157 88 84 63 50 50 62 136 144 162 177 145 102 97 150 82 162 152 133 152 191 92 145 170 74 134 181 105 81 151 90 119 68 125 123 186 177 183 123 160 89 123 110 77 118 179 96 144 122 155 115 76 80 56 63 58 103 174 143 175 121 59 107 122 99 140 83 80 164 64 69 123 86 165 159 89 69 102 177 180 180 117 84 123 72 116 86 81 176 153 206 121 204 125 101 185 145 99 182 91 158 89 163 192 136 87 118 72 159 179 157 191 126 175 85 97 168 193 180 211 110 106 80 97 119 184 220 122 104 153 90 106 180 179 148 161 132 139 111 92 147 113 77 127 78 88 111 152 108 117 86 192 137 184 112 129 128 90 72 109 141 105 177 165 96 102 156 136 167 148 150 64 77 157 159 111 162 235 167
158 150 141 147 164 175 180 161 147 144 159 173 192 186 185 161 161 153 168 177 181 172 172 155 144 154 174 187 192 202 196 187 180 174 167 172 179 178 181 180 184 190 189 181 174 175 168 180 147 181 156 186 149 168 122 151 150 170 142 124 168 102 139 105 87 99 118 110 128 147 84 118 104 53 64 113 87 91 118 127 104 144 109 157 117 91 144 111 79 80 117 90 108 91 81 71 255 106 100 105 103 100 78 122 108 89 120 98 63 45 97 51 91 68 145 87 91 129 167 114 102 78 84 65 133 47 60 72 94 109 210 214 150 185 167 151 108 137 131 119 68 122 86 176 101 145 160 178 124 178 176 190 163 215 117 171 104 171 143 154 108 86 178 190 162 186 179 143 153 179 95 79 161 99 98 151 152 96 156 109 94 147 143 179 151 168 194 167 160 118 50 130 58 70 121 161 153 154 138 125 66 131 101 165 102 96 115 155 158 100 64 122 65 90 43 56 151 169 81 86 75 125 183 111 144 204 148 156 209 203 109 152 187 120 188 142 148 87 110 154 162 167 89 103 154 175 100 124 126 177 199 110 161 199 171 119 114 132 152 156 152 104 113 66 164 171 171 154 85 117 165 155 171 129 158 178 96 137 74 93 123 119 101 178 82 105 95 163 255 86 105 79 92 160 62 89 130 255 72 69 120 88 89 101 129 138 212 151 115 205 159 105 192 144 118 128 127 154 126 115 176 138 138 169 147 177 178 152 109 82 116 91 72 156 72 122 103 134 58 99 148 125 111 150 162 153 164 101 102 155 154 90 118 92 182 87 164 119 174 121 86 166 83 123 92 84 155 92 91 92 123 184 200 192 171 180 145 91 133 176 197 198 184 176 161 173 83 70 166 143 96 128 137 176 158 165 160 152 147 117 182 158 126 103 128 78 167 63 135 96 65 71 100 66 90 87 162 68 167 106 105 175 120 134 119 211 108 93 164 144 81 164 144 153 74 120 193 214 99 75 81 164 123 101 189 174 83 127 155 179 150 149 137 206 159 72 179 203 131 129 200 181 206 201 186 105 162 119 81 150 98 104 136 146 134 81 79 155 157 179 204 130 154 161 158 203 208 123 114 132 93 99 82 68 64 83 147 105 152 95 113 117 137 147 69 151 58 167 106 141 214 242
150 144 138 153 172 187 180 171 154 145 157 166 176 180 176 161 159 164 174 192 189 191 160 149 156 149 163 177 184 203 203 191 183 176 179 178 186 184 176 187 180 197 186 182 157 169 147 164 173 172 186 181 186 145 123 120 168 160 186 122 130 158 101 121 103 152 99 114 176 132 82 134 77 85 151 122 136 143 183 188 175 129 107 98 124 148 96 93 140 81 81 87 89 128 98 89 80 109 140 107 98 97 122 85 77 75 126 117 96 62 86 57 93 98 84 94 105 124 106 186 124 174 159 78 73 92 61 168 188 128 122 130 108 179 126 71 105 132 32 138 113 75 167 179 126 168 152 172 165 184 127 200 119 216 204 102 195 158 113 120 156 163 159 98 139 183 101 187 170 149 174 137 175 166 139 117 113 140 162 180 161 148 125 115 95 194 143 141 164 59 119 71 72 76 142 86 78 85 159 154 139 120 202 211 125 93 168 116 96 48 143 142 109 122 42 62 143 146 79 144 105 125 94 129 205 118 143 200 130 164 111 101 202 113 141 115 154 174 175 79 163 162 171 137 182 124 129 107 84 185 120 120 188 185 191 146 160 82 170 67 141 110 131 67 117 90 167 174 120 184 164 150 97 148 106 173 92 183 109 158 130 138 160 158 183 94 96 164 142 137 164 172 145 84 81 64 156 125 166 87 180 172 165 103 92 176 180 118 214 182 137 125 202 168 207 113 170 195 131 159 132 190 99 90 74 160 184 160 119 185 106 124 70 166 93 57 99 130 54 48 136 46 149 81 177 87 124 179 183 72 154 101 121 157 130 83 98 143 153 73 81 163 182 160 121 61 118 154 170 114 188 187 126 201 159 164 130 91 177 170 191 199 183 173 172 150 95 161 128 79 86 164 185 90 76 170 139 197 183 205 163 148 105 132 168 171 151 70 66 143 82 68 138 93 69 129 171 104 102 118 99 199 189 220 130 170 185 187 101 80 174 134 134 138 60 105 215 173 145 191 93 167 129 193 152 177 136 151 67 172 135 136 227 173 161 74 123 150 116 197 126 207 110 143 109 184 109 128 72 100 129 129 91 128 160 70 80 83 81 192 183 113 142 91 124 205 133 132 172 145 175 64 152 133 66 62 150 170 98 181 182 126 159 106 53 57 87 72 112 142 120 131
136 135 142 160 185 193 185 168 159 160 167 166 170 167 169 162 166 161 172 182 188 193 163 153 146 151 156 168 171 191 199 191 183 179 181 186 193 185 189 186 189 194 192 185 153 176 177 142 173 173 169 152 160 158 173 174 141 177 196 152 120 157 128 95 141 118 137 156 162 119 97 159 110 102 86 121 112 113 112 158 120 161 189 188 126 115 166 98 155 143 115 130 83 84 96 132 94 127 146 105 150 135 102 89 96 65 84 81 72 66 104 87 142 86 149 164 123 136 188 98 114 110 130 169 67 62 77 73 99 106 122 80 177 111 126 97 55 34 87 94 54 85 169 174 202 189 187 172 125 195 204 203 183 217 169 186 191 179 142 158 121 157 113 134 184 149 149 152 167 107 136 103 163 145 147 159 76 166 161 188 181 194 187 189 186 89 115 174 96 149 158 151 148 167 114 160 158 70 97 136 113 129 154 206 162 107 151 56 100 131 97 139 59 86 110 65 125 90 107 108 84 175 141 197 186 200 189 159 163 160 125 100 209 121 203 191 151 82 170 162 64 134 67 172 102 185 104 166 176 131 154 188 185 179 142 179 104 71 72 146 110 112 126 130 131 170 104 136 101 121 179 118 112 103 192 194 163 189 180 152 93 106 146 171 163 99 188 182 167 151 121 131 142 138 78 103 128 161 81 102 150 180 178 92 88 97 177 205 161 190 160 116 145 118 107 143 124 183 195 165 124 135 123 94 156 111 98 144 117 145 114 111 118 144 52 44 36 40 105 53 122 98 74 116 156 91 146 172 184 133 152 100 91 158 159 183 123 156 136 131 161 99 193 185 168 164 110 89 165 123 104 142 107 96 188 161 93 85 173 93 174 191 201 204 205 193 168 156 133 118 116 173 177 152 165 92 179 142 213 197 132 144 110 123 101 161 133 122 150 93 79 122 58 117 163 170 101 130 98 117 195 113 158 125 122 211 195 102 131 162 173 156 133 110 78 171 133 199 134 146 116 115 99 114 89 91 76 57 152 161 104 163 138 161 169 79 174 88 103 131 171 170 198 195 97 190 181 94 103 133 170 152 176 73 159 118 135 69 87 255 120 121 114 172 127 202 148 200 110 131 83 130 105 69 86 45 95 74 106 119 106 107 125 76 102 63 172 157 122 123 108 177
132 134 148 168 191 188 177 164 157 158 168 172 167 171 164 166 175 174 190 187 194 182 170 159 151 153 162 168 178 183 197 196 192 182 179 177 190 189 182 163 177 181 163 175 154 151 171 178 172 154 140 180 172 174 130 141 174 122 177 192 153 172 180 183 141 154 123 147 107 195 174 160 76 152 132 157 154 133 116 184 196 169 160 161 162 144 112 105 161 90 89 76 71 80 82 73 142 149 109 121 108 107 102 88 77 92 65 93 67 94 94 124 117 110 111 116 154 94 87 171 136 106 117 88 71 70 85 69 74 75 162 63 153 88 110 77 126 115 120 55 138 166 182 114 151 195 110 204 191 202 197 208 140 182 167 185 88 183 156 130 132 149 186 177 162 168 200 195 134 131 180 106 100 177 74 93 105 163 89 130 163 153 187 91 152 113 166 123 190 152 131 90 159 190 178 177 133 169 187 110 128 189 191 204 143 167 128 136 64 68 78 140 160 118 77 71 93 105 169 187 184 156 119 212 136 199 129 106 129 95 110 219 142 188 133 118 106 170 133 119 60 80 74 94 183 194 99 87 170 171 109 153 96 179 167 98 138 133 90 74 144 142 116 137 173 194 186 132 111 92 130 187 87 139 101 139 119 154 102 89 98 72 165 111 158 159 178 101 172 92 125 142 182 116 163 157 108 130 83 92 175 163 137 99 185 183 89 173 206 196 208 211 108 158 93 119 78 91 96 124 126 95 78 161 137 82 177 200 152 181 93 122 80 149 86 102 42 66 138 69 131 88 143 157 90 112 136 128 182 184 70 124 107 109 122 111 97 171 104 166 172 175 116 184 183 88 64 72 110 85 146 162 158 188 175 87 90 155 102 182 160 105 175 172 125 148 171 113 161 173 180 91 144 140 132 178 121 158 222 214 194 130 182 73 131 112 152 69 90 55 67 51 152 70 129 131 151 113 108 106 203 205 136 176 216 207 199 123 139 161 140 121 47 70 142 101 188 162 191 148 106 159 111 166 179 153 165 61 70 74 97 203 148 183 92 178 155 171 136 191 193 152 138 158 118 143 129 163 151 167 153 92 97 77 69 104 56 156 126 72 68 170 147 150 150 128 134 216 150 183 83 78 54 75 132 61 114 89 125 120 119 113 157 110 54 70 135 192 194 143 191 140
137 138 146 165 177 175 173 164 164 180 182 183 185 173 160 155 172 178 177 188 195 188 183 163 161 162 160 169 173 178 184 199 197 185 179 187 192 183 174 164 170 179 176 172 157 164 166 182 161 179 186 153 171 119 122 160 126 138 138 137 135 185 169 182 140 160 107 91 162 104 127 150 171 104 164 101 159 166 121 190 139 171 166 185 142 125 118 155 101 117 88 73 110 124 130 80 86 142 134 130 130 98 126 92 59 51 63 62 80 124 123 179 124 130 117 132 109 156 76 117 103 110 109 120 67 83 78 104 74 57 87 69 152 137 83 75 139 129 44 31 54 69 83 97 124 197 213 147 169 136 141 134 178 192 209 168 165 151 109 202 206 115 167 207 209 202 160 212 116 176 186 130 139 118 127 158 92 163 168 108 99 161 81 125 176 136 101 137 89 188 131 99 164 170 112 100 85 86 172 204 202 127 114 167 145 154 175 144 151 174 98 163 137 121 121 102 123 94 186 174 93 172 108 126 213 123 181 150 107 129 138 149 173 208 232 191 125 171 168 136 102 71 158 172 168 135 192 96 182 133 189 189 101 182 90 76 72 109 97 156 85 169 172 183 139 137 202 151 184 112 91 93 161 85 166 182 93 183 96 150 135 111 176 116 85 181 91 80 162 96 155 157 125 123 91 80 166 79 122 88 138 192 105 146 135 164 83 116 121 179 165 188 140 138 126 126 110 84 144 178 142 156 86 141 169 94 107 211 123 103 76 69 60 102 151 75 74 142 156 159 162 72 84 100 111 119 128 120 104 113 144 106 82 191 106 202 89 131 90 174 155 135 167 197 103 169 118 157 126 132 95 83 116 176 89 184 175 153 111 177 145 156 224 145 147 140 146 135 161 94 178 91 87 163 90 154 163 204 150 140 165 195 94 86 69 107 124 82 105 157 54 80 154 66 150 169 110 113 150 110 113 221 221 117 109 189 106 181 178 163 145 53 144 83 88 65 130 76 172 160 64 54 76 151 173 96 78 96 161 167 85 188 95 88 172 83 167 152 186 173 176 125 116 160 74 135 150 87 114 157 86 147 149 168 163 151 143 90 113 57 57 117 161 96 103 176 124 194 134 173 77 97 92 89 154 67 64 169 87 127 98 102 75 149 160 109 137 117 161 157 92 127
151 146 144 150 160 160 154 160 167 177 197 196 200 184 169 155 172 168 189 189 185 192 205 187 168 173 170 164 171 173 198 200 202 195 189 190 193 179 172 160 163 165 184 177 159 163 163 174 188 193 145 145 129 170 157 138 85 100 118 148 145 173 197 136 161 189 169 85 121 164 161 178 158 126 174 108 147 135 118 135 170 191 140 193 127 124 123 178 110 81 68 67 80 82 89 94 149 121 145 109 107 111 80 64 87 86 97 73 102 112 167 179 157 129 116 181 97 72 71 95 173 99 110 94 66 100 52 123 139 147 56 148 95 138 80 102 62 130 33 36 54 84 99 182 183 134 113 190 209 109 111 163 167 143 117 187 115 148 140 113 187 167 224 191 139 192 192 124 201 170 201 185 135 167 188 175 169 77 115 139 160 89 99 114 139 177 116 70 153 84 180 131 182 175 91 129 111 126 91 163 170 172 200 130 94 126 173 97 96 177 107 166 104 89 78 172 177 121 177 138 181 168 180 128 187 114 135 177 196 217 152 244 240 172 189 207 172 112 174 152 157 158 169 171 171 183 100 182 177 175 85 88 161 92 91 138 128 46 86 156 129 130 193 207 126 137 157 121 141 185 92 172 92 175 121 84 182 131 112 190 192 113 117 184 107 157 81 176 87 154 184 93 93 164 175 164 131 160 153 80 118 199 123 135 97 100 149 82 182 110 100 133 189 122 134 108 90 152 150 199 206 104 98 151 104 103 151 160 194 171 119 138 161 109 87 159 127 52 124 91 71 92 131 84 87 156 147 185 89 87 160 168 97 184 180 175 187 91 139 103 140 117 196 160 106 94 68 122 125 107 151 176 157 117 151 84 109 153 171 81 95 127 130 139 153 196 91 133 74 87 101 100 173 176 149 169 156 104 200 203 102 108 75 59 114 85 117 107 138 167 129 76 62 69 164 178 151 106 160 207 201 202 127 152 110 179 185 110 79 106 154 77 148 145 60 149 144 133 96 56 106 151 78 142 150 89 164 189 179 128 172 147 97 130 167 97 104 130 95 106 172 105 75 164 108 126 177 188 201 153 178 163 119 171 113 147 94 158 79 139 139 61 139 152 183 199 175 115 104 90 96 155 156 156 161 73 90 84 103 84 87 87 85 95 93 114 183 195 188 182 96 119
151 145 136 137 140 142 148 159 169 172 194 207 205 187 158 154 157 160 174 181 201 204 220 192 180 176 168 165 160 183 192 202 206 199 193 194 186 181 159 160 150 181 188 183 172 163 141 170 172 176 178 152 144 156 144 143 128 138 112 94 114 186 197 154 147 125 109 147 68 140 98 116 129 130 148 152 143 178 117 121 167 118 159 140 126 129 112 111 149 80 64 75 78 103 130 128 112 139 146 136 126 113 99 62 54 57 112 118 114 120 106 128 182 145 142 109 97 92 132 164 112 101 121 74 143 136 43 151 65 148 82 83 70 80 86 106 138 134 125 95 135 164 159 144 188 114 194 185 181 149 108 110 214 110 191 158 146 112 192 192 199 220 198 211 202 211 126 209 133 217 216 152 155 176 171 138 144 175 174 167 120 126 138 159 173 165 121 68 73 168 183 91 144 85 156 79 133 82 92 159 113 104 168 150 132 201 112 168 138 115 153 70 151 67 161 166 172 168 170 81 96 86 89 152 111 121 157 119 121 182 162 139 160 173 124 199 200 99 120 124 176 171 86 169 122 191 178 184 124 126 136 104 96 175 124 141 104 76 108 80 179 192 138 132 209 189 203 155 182 161 149 174 151 158 83 107 168 143 197 203 111 171 115 142 159 124 186 135 100 121 184 145 177 121 166 118 86 166 65 168 112 110 116 137 109 102 147 170 170 87 97 148 134 112 177 160 177 118 187 199 116 182 136 78 142 104 211 183 152 85 105 76 125 150 88 152 47 50 122 119 99 82 138 168 75 171 77 88 169 122 137 127 150 154 143 142 128 83 90 157 195 204 121 141 131 92 115 165 144 169 142 159 133 168 176 179 158 97 86 169 180 176 213 165 217 111 159 178 117 135 188 172 185 122 88 53 146 71 167 166 178 179 87 62 62 146 125 92 113 139 80 155 132 163 69 91 104 188 193 199 112 255 121 175 110 159 172 82 75 112 153 139 98 165 147 117 106 96 122 98 73 145 130 116 117 155 145 160 95 153 157 255 132 182 161 99 152 107 172 75 85 142 118 145 54 128 77 173 98 157 102 117 119 95 173 135 99 118 76 96 71 124 150 188 134 109 114 115 182 190 89 87 120 146 151 117 78 85 117 94 81 77 78 95 90 90 176 91 101 181 112 145
145 140 134 128 134 136 145 151 154 158 164 184 183 175 156 160 155 162 174 192 207 210 221 207 180 164 160 156 164 186 202 206 206 195 192 182 177 164 151 133 140 150 169 182 170 132 146 151 176 156 166 154 161 131 103 138 96 101 107 117 114 180 141 132 127 116 148 76 124 62 70 132 121 177 124 115 98 160 142 130 135 110 112 150 111 104 98 99 78 64 46 103 89 97 123 110 114 109 141 138 129 76 101 76 64 73 117 80 83 88 104 151 128 166 128 166 94 148 100 92 100 110 94 83 106 55 54 60 75 80 93 151 154 162 104 165 54 101 118 46 56 65 113 186 176 104 114 95 138 94 152 187 141 158 184 84 104 167 191 202 207 189 212 212 164 166 147 151 174 184 181 163 213 157 215 164 110 182 104 110 171 135 166 152 148 168 57 145 103 75 137 81 77 88 178 95 148 121 149 157 183 117 80 180 124 113 135 110 87 151 85 146 70 84 56 94 113 167 91 170 171 84 156 184 98 134 111 137 154 138 189 209 207 127 186 201 123 189 188 118 154 111 98 161 97 115 192 141 184 176 172 181 172 167 65 142 109 93 107 138 100 124 116 200 225 225 161 193 217 104 150 156 91 128 117 175 147 145 133 177 150 182 189 105 188 117 108 193 141 165 88 134 104 100 97 97 122 113 58 157 188 125 112 130 76 160 84 156 168 168 78 172 113 184 127 132 116 124 89 107 136 208 98 97 170 92 108 130 167 87 174 157 89 140 75 53 39 34 58 74 89 71 67 67 66 126 95 85 135 66 148 104 56 83 136 89 80 187 186 123 147 139 161 178 169 76 108 151 171 137 146 147 182 110 98 98 166 136 162 87 113 102 209 143 200 173 99 104 165 131 141 180 82 66 146 41 135 155 73 111 139 86 148 72 71 149 158 158 171 95 175 119 177 132 82 137 153 162 118 200 207 119 147 112 177 124 154 159 110 120 100 97 157 94 99 71 70 126 160 139 175 153 112 124 157 198 193 194 178 130 162 99 171 123 185 127 186 80 107 140 129 79 95 87 46 96 139 117 162 164 175 197 120 149 168 155 85 135 187 119 99 93 137 161 113 199 208 186 206 96 91 186 124 95 85 81 176 157 180 160 153 85 169 85 196 137 138 162 78 113 135 139
122 125 129 129 132 138 145 147 152 149 151 154 169 177 164 142 152 160 176 190 200 208 200 190 176 163 148 146 152 181 197 203 204 193 178 166 152 145 130 133 141 160 173 164 164 159 150 173 167 157 160 182 136 151 120 152 177 131 159 170 156 160 117 186 170 120 129 145 112 72 128 146 146 155 147 130 156 144 160 112 145 144 128 75 86 80 102 83 110 51 88 56 102 89 126 97 105 123 127 98 127 107 102 75 92 129 97 142 132 116 91 115 112 111 161 102 160 85 83 147 186 113 147 83 74 60 140 128 112 153 138 78 154 115 82 133 158 129 48 50 49 119 88 189 128 145 174 130 169 160 92 112 97 171 80 168 87 102 169 199 205 180 194 132 142 203 129 194 148 172 207 126 160 193 151 179 145 90 148 96 80 78 176 107 159 101 133 68 71 153 85 83 180 181 107 192 155 178 172 103 90 139 255 125 122 105 164 206 98 174 156 64 150 130 142 133 97 132 125 85 180 79 79 90 161 126 156 109 72 184 148 197 218 204 119 196 152 134 123 183 184 154 84 79 170 150 191 195 108 104 199 180 157 75 156 47 54 129 125 159 86 98 113 176 116 171 127 202 175 142 143 162 144 143 106 93 163 183 155 134 124 164 111 119 101 167 199 98 190 99 161 148 141 107 189 114 83 61 56 92 90 106 143 166 74 137 157 160 97 68 168 112 98 112 139 161 98 146 104 189 180 147 160 72 78 164 98 94 108 93 127 126 188 128 69 131 114 102 40 65 149 59 59 119 97 84 88 186 181 139 80 68 129 76 85 148 163 95 149 166 124 155 116 163 146 96 160 68 161 146 165 171 197 184 97 93 103 81 148 123 175 182 179 177 186 122 160 154 147 145 104 161 146 131 115 39 97 70 77 153 159 184 116 155 78 110 150 87 110 161 107 143 127 157 108 188 191 195 109 206 132 218 178 113 90 93 73 82 93 94 166 182 150 111 104 66 73 104 159 188 139 151 199 142 126 99 178 165 147 84 53 159 145 170 164 113 107 175 84 153 169 125 162 58 113 67 56 72 120 97 185 186 191 185 126 190 106 163 114 116 157 115 128 184 120 136 178 166 201 94 110 97 175 91 169 156 154 117 161 188 187 189 151 137 117 203 190 118 81 88 132 136
104 115 126 135 138 143 150 161 149 140 144 146 151 170 161 152 150 151 171 186 205 206 187 173 147 146 138 154 161 177 187 195 201 189 178 157 149 140 133 129 132 157 151 179 178 173 180 174 188 193 189 181 147 164 175 154 198 192 131 126 169 134 177 161 168 111 166 155 98 153 69 144 81 117 121 150 157 148 116 178 153 107 130 65 113 75 107 92 65 50 97 67 73 133 110 148 92 108 144 134 123 92 93 140 99 112 140 122 105 94 94 90 99 120 147 109 95 105 138 159 92 94 138 78 64 89 120 91 93 164 101 161 76 81 164 166 117 90 68 137 78 153 78 184 121 145 99 70 123 111 100 157 189 92 156 120 142 109 192 183 151 186 114 94 198 205 101 177 109 89 145 181 124 156 166 189 186 186 158 178 176 70 149 118 60 107 58 108 77 171 92 185 91 146 168 194 174 166 214 162 99 167 153 164 171 111 124 209 185 131 127 60 72 145 145 48 142 65 123 167 85 162 89 170 101 182 149 89 154 177 193 202 132 185 213 172 135 85 133 186 103 94 159 162 142 177 129 203 139 217 213 119 90 158 164 150 84 110 162 138 133 137 156 151 89 95 138 208 218 199 156 77 89 110 164 171 127 129 185 198 142 103 99 124 188 193 192 98 87 183 84 100 73 91 255 183 121 102 93 70 85 170 174 76 90 180 149 154 146 92 96 100 146 147 177 154 147 144 93 156 131 99 92 131 78 68 76 133 143 194 124 110 188 139 79 109 255 85 69 58 106 53 105 55 70 82 189 105 130 107 133 79 136 110 129 168 121 101 159 109 151 97 155 168 170 171 150 69 147 117 150 186 129 107 171 108 151 152 65 88 147 136 110 167 78 153 159 69 135 78 111 129 132 37 41 143 65 80 77 154 119 169 113 140 75 154 166 85 116 169 97 177 81 173 93 190 99 113 183 157 214 231 202 140 125 156 141 161 176 100 184 175 174 162 61 54 128 87 144 159 209 209 204 179 182 100 107 96 78 146 88 106 155 75 167 83 162 114 103 92 101 190 176 84 83 79 121 90 68 181 104 170 172 179 132 136 117 142 158 155 166 185 155 107 185 191 202 139 103 184 113 185 136 138 159 151 105 191 177 92 102 90 185 136 120 146 186 68 76 72 81 125
87 104 121 131 138 150 163 169 162 147 138 149 161 164 177 172 160 153 156 174 181 176 156 145 148 133 145 150 151 164 166 180 194 192 177 167 159 151 152 148 134 161 255 188 173 180 194 181 164 172 162 183 178 181 192 160 188 200 172 131 181 153 139 141 184 111 114 175 99 151 117 89 70 149 119 135 139 171 113 138 90 92 100 129 78 148 92 93 77 55 70 57 116 105 114 94 103 117 101 108 122 142 97 95 103 114 140 142 100 78 83 74 102 68 87 77 91 137 82 90 120 186 96 77 146 113 79 68 75 76 132 129 78 154 98 97 176 120 180 82 171 106 81 132 136 177 95 144 114 50 162 164 88 168 80 100 104 171 146 109 95 89 136 119 106 186 111 118 156 163 97 172 188 124 89 86 86 81 178 121 101 152 58 53 66 151 70 71 107 106 110 103 136 170 178 185 207 224 215 182 100 101 162 167 95 180 107 199 153 132 89 123 65 152 57 125 145 105 75 148 96 114 152 103 188 139 153 59 122 185 198 200 190 112 168 177 171 104 95 113 120 136 102 132 161 118 84 165 209 217 201 142 152 87 178 170 178 86 147 155 133 170 123 167 164 81 175 179 151 191 178 148 169 102 188 117 92 188 100 153 77 73 166 93 122 139 87 118 81 164 79 72 144 166 81 128 126 74 75 123 108 150 78 145 90 92 129 111 91 111 95 86 181 171 123 202 132 88 77 84 109 114 127 158 163 106 146 65 81 184 176 112 168 94 171 158 116 157 83 88 94 150 65 73 142 134 173 102 87 72 63 91 67 55 77 91 190 195 103 147 96 140 129 142 173 177 124 120 109 108 173 134 116 153 134 109 160 134 179 174 162 136 68 118 145 90 147 103 145 102 79 46 122 108 39 145 93 113 142 167 183 117 106 165 113 133 80 112 95 185 167 99 176 181 195 136 94 135 186 139 120 129 160 183 182 94 61 154 141 166 182 187 88 92 53 138 55 125 127 136 193 180 182 90 147 186 120 196 182 144 54 132 156 120 175 176 157 88 189 145 174 178 174 83 131 102 121 51 98 84 152 132 166 125 194 176 197 228 138 181 152 92 162 194 109 114 110 147 88 175 146 111 139 128 159 170 118 89 99 86 93 85 111 185 181 103 90 117 60 74 76 127
88 105 120 130 134 144 158 165 173 168 150 156 160 169 177 181 164 158 160 166 163 154 147 149 141 146 143 146 159 165 168 176 184 189 185 176 174 174 170 160 168 171 179 195 204 204 188 166 167 184 171 173 162 187 171 214 214 174 155 136 176 143 148 126 115 115 165 127 129 150 90 82 120 87 136 93 161 166 158 98 141 67 112 76 91 98 106 137 88 84 67 67 80 112 101 104 96 101 113 146 109 103 133 136 92 122 96 78 92 61 77 53 52 49 98 61 95 142 88 95 132 175 93 99 125 51 108 71 77 125 145 168 116 121 132 183 111 119 107 165 165 86 92 114 85 147 83 142 151 156 149 79 132 170 99 60 150 104 89 162 142 178 152 77 119 127 137 158 115 163 173 125 179 93 74 115 109 164 153 170 122 128 124 107 168 134 74 82 164 109 201 187 126 120 148 154 202 148 220 114 85 159 73 134 109 83 99 180 114 123 91 88 156 137 140 89 96 146 152 71 133 182 177 119 185 168 77 78 165 116 104 152 126 122 103 163 146 97 124 177 84 114 93 151 143 161 117 87 123 192 132 97 157 102 99 156 182 168 137 170 177 86 78 138 64 163 100 191 196 162 185 159 93 192 198 137 134 173 81 145 71 78 149 91 94 155 121 175 78 169 114 165 165 129 146 153 163 88 108 153 79 148 153 176 174 124 186 127 90 85 79 79 105 127 139 198 174 169 70 114 110 102 124 104 190 169 120 88 161 115 134 119 146 113 95 139 97 106 79 110 150 61 72 127 154 133 188 183 177 165 64 151 112 142 95 107 91 103 189 139 113 88 129 167 103 177 146 138 99 135 191 201 114 160 114 126 114 182 153 177 106 130 83 132 138 76 104 60 82 109 82 115 67 131 52 130 96 167 83 160 101 74 156 58 122 142 129 83 150 137 99 170 156 121 127 111 174 90 186 188 198 214 120 207 168 135 70 86 162 149 184 136 188 80 79 149 149 146 159 72 96 94 165 68 126 84 192 199 151 152 129 101 153 153 162 97 130 182 171 158 194 206 110 141 170 83 117 161 72 118 184 93 132 185 184 196 136 188 119 107 174 175 103 152 97 104 133 103 163 127 180 205 110 87 165 123 87 136 65 57 153 132 183 123 131 120 111 127 117 70 147 111
100 113 125 130 128 137 154 166 175 179 171 157 155 173 177 168 171 164 151 151 140 133 145 143 144 150 141 151 152 146 154 166 178 182 183 177 178 185 182 197 186 164 164 191 185 206 189 185 182 181 162 189 183 161 203 169 204 176 142 184 171 136 152 178 110 111 142 173 157 196 176 146 85 88 137 124 170 97 112 170 148 62 109 135 159 141 108 113 127 96 76 78 89 102 105 126 131 82 107 98 148 100 117 104 106 83 104 94 93 69 41 60 28 30 52 62 115 83 94 102 187 117 112 81 157 109 148 94 75 162 93 75 117 173 180 100 183 180 130 126 98 186 114 176 158 86 89 83 82 85 81 171 171 165 168 159 115 92 162 122 180 158 91 73 93 88 146 140 119 161 108 130 175 89 61 75 57 108 166 153 96 92 80 159 89 154 100 178 180 148 152 132 142 80 87 107 159 113 207 119 167 129 147 160 73 169 117 108 84 125 105 116 157 144 157 76 149 64 162 170 132 176 160 98 183 79 81 171 128 201 129 177 169 94 188 164 156 137 91 88 167 69 133 59 153 133 89 69 81 97 100 97 121 110 131 109 202 135 163 150 181 87 111 70 151 134 255 113 122 124 109 145 156 147 123 153 95 93 65 62 71 114 172 96 172 128 180 87 150 180 155 91 185 160 93 85 67 67 125 101 169 151 114 129 175 166 98 190 111 74 152 108 148 148 120 190 168 73 162 76 167 188 178 179 114 129 157 64 60 67 82 64 63 112 93 197 127 92 177 175 162 68 87 60 132 139 172 157 80 173 76 155 154 159 176 156 174 168 143 159 165 176 167 138 97 168 96 118 124 93 185 119 102 176 126 145 105 139 199 193 86 71 152 114 83 63 164 70 156 56 94 68 127 120 145 122 99 119 63 95 139 153 55 52 74 71 152 174 187 192 111 190 133 97 185 90 83 142 173 150 171 146 162 113 155 84 173 163 122 155 140 195 106 175 173 80 68 91 138 50 103 86 141 139 146 112 180 182 191 87 111 155 77 124 172 173 86 101 97 169 168 183 203 105 157 180 165 150 172 94 108 150 175 181 110 214 222 147 113 171 169 88 133 180 156 98 183 109 129 87 99 159 150 115 80 80 88 97 63 137 131 66 144 188 109 163 107 148 71 94 147 92
117 128 134 133 127 132 146 157 170 182 175 155 154 154 170 176 167 164 159 158 147 133 138 151 146 159 154 149 145 150 166 169 176 173 177 167 172 178 196 202 179 172 175 170 195 200 172 191 159 178 159 155 187 186 139 177 202 153 195 140 165 198 194 192 118 183 133 149 123 121 180 105 129 164 170 83 98 93 156 88 88 120 132 129 81 105 137 178 112 106 98 134 93 104 143 102 77 71 81 113 95 116 104 116 117 87 88 97 96 57 34 25 20 44 114 65 98 111 98 139 188 121 101 98 54 116 138 138 75 82 167 158 159 72 111 178 172 127 168 118 152 91 158 176 86 173 148 255 186 83 169 147 130 100 111 163 143 74 113 104 156 194 139 176 156 165 76 142 82 136 131 166 181 138 75 141 151 74 143 171 82 146 90 182 120 192 93 129 194 102 168 80 124 52 55 145 145 188 152 93 144 145 145 141 126 115 122 136 105 179 151 95 153 153 122 87 83 164 165 175 151 90 179 113 151 178 130 184 184 188 185 171 75 132 89 181 91 145 162 89 83 99 164 156 62 138 140 158 148 164 166 123 111 141 111 161 168 140 90 184 108 180 121 105 65 173 162 105 189 182 84 174 100 140 122 108 172 84 146 64 90 86 77 143 96 149 107 173 194 192 155 182 134 114 143 86 152 86 101 148 98 103 125 134 181 104 191 150 98 96 112 131 200 214 121 187 101 98 94 98 166 120 114 170 129 108 88 66 121 115 48 138 148 69 87 179 116 109 187 146 188 80 111 80 162 135 171 181 184 100 169 161 95 87 165 62 151 146 153 93 126 127 160 154 156 161 157 98 101 95 128 190 120 80 83 90 179 176 110 135 88 142 158 154 65 97 116 169 122 137 71 88 150 106 78 101 95 50 124 56 107 114 69 88 171 181 90 162 109 199 157 135 196 122 161 132 176 156 150 117 195 156 191 180 148 161 156 93 109 176 181 101 182 92 110 80 119 87 62 83 119 110 124 119 120 134 69 183 131 190 88 73 113 170 79 95 78 99 156 128 84 99 101 183 125 137 140 117 142 124 169 93 170 148 200 215 122 121 164 169 190 96 186 174 110 80 77 153 173 174 94 98 143 185 81 164 106 143 48 124 71 152 111 135 181 173 129 77 90 87 123 123
126 136 143 141 134 133 137 149 168 173 171 167 158 153 169 174 174 167 168 163 152 144 128 138 149 162 153 139 255 157 172 177 173 171 164 160 155 170 189 191 182 168 168 176 163 192 189 184 173 198 162 195 163 134 169 176 159 200 196 173 163 188 158 204 189 159 170 138 180 121 193 131 138 113 105 87 101 161 124 85 127 72 97 130 68 122 134 115 113 94 95 130 87 148 106 88 79 56 62 90 90 134 104 148 143 108 102 101 80 121 43 66 63 92 53 101 119 99 88 109 117 112 167 141 85 138 142 89 86 103 74 94 56 59 74 97 87 70 102 116 80 176 175 116 137 85 170 135 150 86 156 66 77 162 162 143 108 147 135 121 162 188 154 189 163 120 133 164 125 136 135 165 178 139 161 89 137 180 174 172 126 88 130 111 124 145 95 154 184 99 102 159 100 150 147 124 78 105 160 135 150 73 99 137 138 124 159 162 130 116 105 185 158 182 164 84 86 153 94 80 89 129 87 187 171 181 139 86 152 122 126 60 58 113 150 129 165 89 166 172 100 102 172 166 91 118 88 153 90 147 135 65 126 139 140 101 103 172 170 182 102 158 172 63 64 87 147 199 149 110 108 155 106 200 200 154 166 77 130 114 85 146 111 106 138 76 90 107 186 206 215 202 118 175 188 125 145 76 179 164 108 139 131 159 137 125 98 192 189 82 84 185 208 208 128 184 158 85 161 104 126 129 134 118 133 149 87 67 55 146 99 140 49 151 87 99 127 158 91 163 177 158 162 151 80 160 81 177 184 122 97 166 108 153 83 136 49 72 135 94 124 177 68 79 158 166 122 166 92 144 207 189 183 172 109 164 139 121 181 155 138 131 80 69 156 106 154 85 158 89 109 175 159 135 140 50 53 67 138 91 77 132 150 84 175 137 103 125 115 191 161 171 187 156 140 84 82 135 196 110 182 195 193 174 167 165 163 165 97 186 183 177 103 141 85 69 52 107 101 78 135 136 103 76 114 126 139 117 134 180 186 174 70 146 79 167 128 160 158 71 178 97 134 182 176 81 157 175 165 147 116 129 136 96 159 219 207 199 192 162 143 96 118 117 137 108 109 103 136 175 88 100 168 116 117 119 96 78 50 58 63 125 100 99 81 155 171 130 134 100 141 112
119 131 141 144 138 136 143 153 164 169 160 158 151 160 170 165 162 175 169 172 159 138 139 149 152 164 160 155 156 164 181 175 173 164 156 162 164 173 178 182 181 170 161 173 183 162 184 145 168 167 188 182 150 159 141 166 199 200 192 150 141 200 185 132 198 185 180 144 126 173 182 118 133 134 140 173 93 97 88 130 145 152 70 67 87 125 141 109 131 79 59 93 92 140 165 123 111 51 96 98 67 121 113 132 142 120 108 96 86 64 42 87 62 68 74 101 97 98 89 102 85 174 134 139 61 48 91 96 84 184 84 96 57 141 154 170 128 89 145 72 174 129 117 99 153 95 169 192 178 174 80 140 66 106 193 119 134 102 183 182 104 201 183 154 112 166 127 92 96 143 161 140 92 81 66 108 121 165 97 162 153 106 122 87 187 160 119 76 113 151 148 91 124 61 61 121 78 86 167 63 83 63 65 138 183 87 80 142 71 112 178 198 187 172 121 68 78 156 81 87 120 120 126 87 99 108 178 154 158 99 124 53 58 152 50 106 150 170 183 170 111 204 106 119 178 167 175 113 144 108 67 59 94 138 73 158 131 167 168 145 147 186 166 113 124 128 196 138 140 168 90 111 157 189 145 81 76 105 72 76 85 125 87 74 168 160 154 95 159 209 122 177 158 104 130 172 83 87 186 89 90 145 111 113 186 144 161 150 141 158 137 108 104 200 108 108 124 167 194 162 127 141 143 211 113 128 160 112 57 116 65 83 66 160 129 178 100 102 128 141 107 175 144 154 115 145 102 172 181 156 98 157 69 114 91 123 142 147 162 97 121 156 161 166 149 151 75 85 170 108 144 129 179 138 108 77 103 176 83 144 117 123 157 90 64 123 85 149 151 68 179 95 178 156 139 149 78 136 185 174 164 144 168 135 185 114 189 195 106 141 186 131 142 95 168 134 150 137 160 209 205 156 116 78 79 133 176 126 102 87 76 141 88 169 114 159 88 45 85 113 115 61 151 61 88 80 108 141 202 166 124 171 110 69 172 81 101 121 90 87 199 183 106 147 124 127 92 154 164 157 105 66 168 119 173 179 149 119 136 167 177 172 83 102 116 163 179 82 168 84 80 88 112 146 107 118 162 146 56 158 72 170 123 183 116 153 96 192 131 196 162 112
109 125 143 151 146 144 145 160 165 168 162 156 157 168 171 185 184 186 184 174 167 151 152 146 169 172 165 164 168 187 194 186 173 165 164 173 179 182 184 172 161 170 170 162 189 178 177 168 156 161 182 164 173 109 128 147 204 141 162 181 180 189 178 168 138 192 167 139 141 171 142 129 193 139 123 155 103 165 126 98 94 143 126 143 135 137 87 122 93 55 49 62 74 155 133 104 82 74 58 55 87 112 111 119 126 122 101 124 91 63 49 59 115 70 69 128 106 94 147 129 88 118 140 79 98 119 74 98 187 191 92 87 86 71 95 172 141 166 134 164 184 189 129 153 160 96 116 105 184 177 172 148 117 88 150 172 108 185 137 174 108 172 178 123 159 161 179 92 137 170 140 152 150 64 130 109 83 176 136 104 89 144 70 184 125 131 158 167 77 117 86 75 145 88 69 168 85 175 174 164 114 76 113 183 115 147 166 115 159 85 85 95 87 136 160 110 73 102 141 114 141 137 115 84 183 187 83 160 89 41 110 149 158 155 88 47 75 132 100 102 129 212 207 198 166 175 81 120 118 71 125 124 79 53 145 147 94 149 119 95 162 185 119 166 147 160 172 202 117 101 156 148 118 162 92 79 80 60 60 94 108 104 129 169 149 165 79 130 107 129 105 186 92 126 114 109 157 103 134 111 109 165 193 128 116 112 180 139 110 101 120 93 149 146 74 94 67 78 98 188 183 121 121 170 97 161 109 71 112 85 67 119 149 124 88 148 106 190 84 90 85 152 144 163 104 162 148 114 81 74 132 154 134 133 32 73 54 120 92 108 198 197 149 185 92 143 79 87 179 166 96 133 114 100 120 162 144 141 145 134 92 83 167 82 105 122 141 98 149 107 82 131 178 146 162 79 154 94 198 92 82 88 131 161 169 142 107 106 136 189 90 112 169 125 81 80 179 130 199 196 180 103 107 151 154 128 111 141 101 162 61 61 97 151 89 62 79 43 85 134 162 155 98 80 153 77 73 185 122 179 80 78 111 149 106 142 146 123 84 195 182 162 197 167 122 139 129 127 68 45 91 122 158 152 148 194 94 186 134 99 183 187 81 75 98 74 180 175 127 145 166 83 153 179 108 169 72 153 89 75 93 102 169 89 159 99 172 192 119 140 113 94
103 121 144 156 158 155 155 157 170 171 150 151 156 168 173 186 188 177 188 175 163 168 149 162 169 167 164 162 181 190 199 183 176 164 177 190 200 198 189 173 173 170 164 194 204 202 163 154 151 157 172 161 166 169 128 158 141 143 181 188 178 174 184 139 178 190 150 163 104 101 123 148 127 201 184 146 114 112 136 95 88 102 88 89 159 81 73 65 124 82 41 105 81 117 150 115 110 135 94 80 64 62 94 112 141 127 82 91 94 132 66 100 58 96 119 79 112 173 155 119 185 169 154 86 94 79 114 97 129 111 108 151 95 82 181 154 178 122 165 169 172 92 100 127 192 167 166 158 107 188 187 177 139 180 142 187 173 135 162 81 160 90 118 69 86 154 179 182 152 168 85 155 122 120 114 131 161 132 82 147 160 170 144 112 152 132 188 177 166 255 162 78 127 156 87 170 157 93 171 151 150 86 164 153 165 184 99 166 62 77 141 144 95 136 77 124 125 169 168 95 139 151 165 168 148 177 123 90 134 128 138 99 166 115 159 63 62 169 179 106 204 170 217 180 197 162 106 152 144 145 57 50 139 93 110 58 80 170 122 185 161 191 129 90 69 68 89 133 171 192 143 92 161 120 175 183 121 113 120 165 172 89 141 85 117 133 98 98 102 102 171 134 68 89 141 92 119 106 158 70 134 156 135 114 127 176 177 125 103 144 159 139 118 77 144 101 90 75 185 189 202 118 134 155 95 82 65 123 87 70 155 56 86 136 177 97 144 185 87 91 180 81 98 135 177 136 181 83 74 164 92 88 85 101 90 55 163 146 139 126 180 211 125 132 160 177 110 165 165 115 83 94 119 186 87 174 152 156 63 149 104 124 155 99 170 157 116 152 88 165 157 126 135 94 76 77 181 147 179 163 173 68 145 86 158 88 148 182 92 98 176 168 148 177 171 84 128 144 147 204 121 92 159 54 156 103 94 162 181 116 71 46 50 149 147 118 93 57 134 163 85 110 181 89 84 144 92 151 96 84 74 151 64 116 81 170 100 161 93 194 205 111 159 186 117 83 171 91 137 34 115 67 161 118 163 151 117 105 133 178 167 143 171 156 144 93 164 93 84 184 89 135 104 178 132 136 68 78 126 70 146 86 103 176 99 110 124 111 105 98 95 96
111 128 148 161 168 161 166 172 175 162 156 147 146 154 177 183 181 178 181 175 186 177 168 159 166 157 153 161 176 191 194 188 179 177 190 209 215 204 191 179 174 177 186 181 211 205 168 137 133 154 153 175 177 168 131 179 182 185 125 153 127 169 144 107 123 147 111 179 136 164 123 109 147 158 194 182 167 123 122 121 130 108 93 89 106 114 63 55 119 56 64 56 77 105 138 128 114 129 83 96 50 98 95 113 104 123 104 101 99 86 87 129 70 63 89 85 100 109 112 109 106 189 117 187 178 187 97 110 114 141 103 149 132 113 163 112 137 170 156 96 107 72 88 111 135 96 190 179 202 167 178 168 148 162 170 146 150 97 139 58 141 143 62 94 155 92 114 101 145 145 175 137 97 143 166 151 92 124 150 155 148 129 193 124 191 167 128 94 86 161 80 152 77 85 168 95 98 113 176 87 156 162 92 195 221 128 114 152 67 57 85 123 77 163 160 174 164 190 145 103 172 175 167 194 108 205 196 85 148 78 55 76 173 156 112 71 139 148 193 200 200 216 129 201 187 165 96 144 147 58 75 139 153 114 167 147 156 167 180 185 153 161 172 134 85 122 157 183 139 164 104 99 171 105 199 197 155 183 138 78 101 127 89 166 176 130 145 165 146 155 134 153 78 175 121 87 177 96 120 81 65 166 139 210 130 112 104 111 112 164 203 110 170 75 148 156 64 170 91 140 171 164 163 171 110 85 120 89 132 153 149 136 114 60 93 163 78 175 166 154 174 140 132 93 88 177 177 176 177 169 119 141 135 146 155 74 87 92 176 148 188 128 205 139 205 118 195 192 88 70 140 120 174 192 90 85 111 136 135 157 72 164 106 97 158 153 157 125 89 82 102 84 170 110 117 110 87 105 111 144 109 151 54 159 83 152 180 169 168 102 107 179 107 164 83 179 186 112 109 179 169 174 66 57 149 181 108 195 110 79 114 154 102 89 149 97 140 77 82 172 89 85 90 94 160 56 118 165 131 165 165 162 167 76 168 140 163 150 76 95 194 121 172 71 83 118 157 55 47 84 145 161 135 174 126 56 51 55 128 111 118 161 84 138 63 93 68 161 134 190 103 163 105 110 155 165 153 81 155 61 65 167 97 173 178 192 107 134 112 101 112 116
110 124 142 158 168 170 166 172 167 168 158 136 140 154 175 173 180 188 187 188 182 176 168 161 154 139 138 148 154 172 181 170 175 182 197 212 255 208 180 171 157 156 165 193 184 199 178 149 144 138 138 152 164 175 183 180 129 166 145 106 124 102 160 161 95 116 128 112 177 179 99 170 160 119 156 136 173 201 128 118 105 104 91 94 153 85 100 78 94 67 108 75 96 109 142 134 135 96 83 92 61 83 101 126 102 83 103 78 118 99 110 133 145 79 82 150 97 112 199 113 112 121 118 147 142 159 179 177 159 128 179 98 197 178 110 199 107 80 67 113 71 80 74 103 143 105 105 188 143 213 181 196 104 166 147 126 152 79 73 140 63 146 137 112 132 93 111 103 130 160 115 101 169 113 89 136 140 113 129 87 75 153 198 202 171 98 92 100 128 184 126 153 178 181 82 180 169 84 136 87 79 168 163 150 212 125 173 180 168 147 156 182 139 171 159 172 125 203 184 201 105 161 188 122 152 191 153 115 78 121 141 90 160 145 113 83 87 98 112 206 211 194 177 188 108 176 76 164 156 68 90 52 150 93 178 90 159 146 151 159 187 171 144 195 126 255 181 167 180 78 69 172 153 199 178 124 197 146 135 173 81 184 103 107 131 122 204 150 123 136 122 124 95 175 172 74 72 167 141 133 68 156 176 174 118 102 101 198 123 175 127 103 137 116 87 162 140 159 123 160 201 192 193 95 99 97 84 146 73 55 83 89 116 87 158 138 150 139 87 75 132 81 148 172 92 162 181 177 149 89 127 94 126 109 82 179 119 155 168 88 185 175 97 191 196 190 125 181 91 255 160 167 94 185 184 90 145 145 171 79 154 162 89 134 119 130 191 255 170 81 79 166 106 121 176 141 121 77 73 68 65 61 145 110 129 194 111 156 161 67 158 86 143 154 96 130 136 196 180 164 117 163 160 72 102 129 207 122 192 138 255 94 184 188 145 100 84 125 132 85 142 136 131 162 148 136 89 91 95 166 84 136 152 165 108 166 160 155 148 162 83 154 157 124 153 156 94 152 145 52 154 136 120 161 124 79 135 127 93 92 177 176 108 159 90 64 139 159 95 97 207 117 186 127 209 201 100 161 66 126 146 88 105 146 105 110 146 180 88 76 170 138
106 122 138 156 164 164 160 160 167 167 163 136 137 137 162 173 174 184 187 191 193 184 172 153 141 127 123 132 150 167 170 163 170 179 189 206 205 195 179 156 153 151 151 171 185 167 170 146 122 127 130 128 184 178 185 173 188 152 151 156 107 92 159 152 105 109 121 137 142 173 132 180 156 166 162 172 132 198 188 180 173 101 97 152 121 59 99 77 94 126 151 104 102 114 153 131 166 126 113 78 91 115 100 94 124 125 125 91 101 105 135 156 90 112 101 155 162 108 128 102 91 151 92 146 78 97 136 85 154 87 190 129 144 110 107 116 97 169 111 59 45 106 62 83 105 152 186 119 213 182 164 148 164 200 162 177 140 145 124 99 106 81 82 160 138 166 174 191 117 133 100 171 123 112 132 151 104 149 129 68 162 137 162 161 192 190 171 158 166 90 189 128 156 153 163 166 109 173 101 163 86 167 141 105 108 187 106 191 113 184 109 163 111 123 112 179 167 129 108 150 173 103 163 177 181 193 134 133 189 177 121 183 95 96 147 94 135 158 130 137 145 177 191 84 159 175 176 80 76 163 141 162 108 99 130 176 115 154 97 169 169 122 203 123 178 187 134 167 181 89 127 109 124 143 128 149 163 132 106 93 180 146 204 213 220 113 182 105 197 187 101 147 171 121 179 76 166 92 72 59 68 89 129 123 107 121 113 133 147 122 117 94 173 103 107 111 112 126 94 171 164 93 94 126 92 156 92 95 120 157 80 50 57 105 115 78 158 143 59 76 71 66 70 164 131 86 181 108 110 157 147 113 145 110 80 146 80 173 175 170 179 156 132 195 198 200 179 156 113 93 135 91 134 166 132 110 255 129 188 132 145 155 147 169 119 140 132 196 95 167 176 73 137 87 160 175 106 84 139 132 58 157 76 145 205 120 209 122 120 169 142 165 131 129 61 75 102 191 193 142 92 180 115 177 165 175 180 142 162 189 144 100 201 119 151 174 88 137 153 120 70 132 146 111 73 100 78 113 117 76 180 108 169 84 160 126 142 74 95 121 158 163 64 81 142 119 147 121 131 96 110 114 175 161 155 151 61 151 110 147 123 206 177 171 93 135 109 129 92 168 119 131 139 200 170 201 181 94 109 127 104 124 167 125 187 141 111 180 163 155 167 156
95 111 132 146 154 149 145 147 155 163 164 148 144 137 159 162 170 182 188 193 195 198 175 164 140 135 120 121 133 153 158 169 169 174 183 189 192 177 174 161 146 144 147 159 169 158 170 150 106 129 117 156 135 185 143 164 131 186 140 121 121 157 120 113 96 136 85 122 146 91 164 180 137 122 207 145 145 193 160 181 149 114 99 88 81 78 63 70 100 106 108 132 126 172 138 144 122 109 128 109 117 102 120 119 107 123 127 112 107 113 130 88 129 59 92 132 106 123 105 171 74 68 66 65 71 156 79 75 78 80 99 171 152 115 144 114 177 68 155 97 63 74 102 173 126 151 197 129 189 187 196 102 125 187 176 86 153 104 150 163 163 155 69 127 136 111 200 169 166 179 185 108 157 171 181 173 147 124 131 147 107 161 91 165 92 119 152 94 183 124 191 190 106 153 162 61 139 95 111 165 193 139 154 192 178 184 202 122 203 153 191 182 190 194 160 108 178 114 159 115 175 77 163 174 95 126 187 182 164 127 125 178 186 149 189 159 107 180 217 139 187 146 143 153 151 190 121 167 184 190 185 121 100 203 122 153 255 164 132 137 194 193 163 158 126 173 147 100 155 112 125 128 185 158 213 198 211 162 151 255 118 138 200 207 150 131 97 94 95 190 98 101 85 190 100 133 81 154 114 68 113 167 97 104 107 102 170 186 106 169 76 71 71 164 142 144 220 166 169 113 95 146 148 100 130 179 131 100 83 163 156 163 148 97 57 86 72 133 67 74 61 65 68 168 83 172 185 143 149 163 181 167 163 134 171 82 168 80 186 181 103 148 142 136 204 118 104 147 140 88 96 129 79 88 79 164 159 198 136 193 91 94 122 186 185 113 110 186 108 184 153 182 166 151 124 94 98 119 98 120 91 162 137 118 207 183 197 112 93 123 124 156 119 86 107 156 94 155 146 117 172 94 102 189 188 118 129 218 207 128 150 173 115 204 181 142 140 178 143 164 125 79 140 131 145 66 153 133 162 140 181 107 140 161 155 127 78 62 132 60 130 172 106 135 50 89 60 128 106 90 91 167 114 167 119 108 121 96 93 81 122 108 160 122 136 144 78 155 120 113 194 175 193 120 187 95 82 150 56 110 98 180 111 105 194 126 200 181 186 91 170 116
99 114 132 145 146 136 138 143 155 172 173 159 153 147 144 144 156 178 188 196 208 204 197 174 158 143 130 129 141 157 168 174 178 174 179 177 173 176 174 166 163 148 149 143 156 179 177 141 138 130 109 145 143 173 173 146 184 172 121 111 175 154 155 108 125 133 84 113 139 142 107 158 144 143 165 198 120 163 112 173 126 152 120 88 85 130 73 84 115 79 78 111 116 116 146 134 152 136 117 100 130 106 116 104 113 115 102 95 163 110 115 78 55 89 71 93 102 140 109 79 64 98 65 68 96 73 61 141 59 141 102 187 117 156 94 117 62 157 84 58 71 84 177 181 126 203 165 173 101 184 188 112 205 197 158 145 142 118 81 105 129 92 121 152 102 191 180 184 144 173 169 197 152 115 115 69 122 151 72 70 60 103 101 136 135 201 131 197 129 120 130 150 151 159 164 62 145 84 153 198 141 101 138 123 179 121 114 136 176 125 119 125 89 169 87 181 112 143 190 122 91 70 146 103 123 143 172 160 90 156 71 169 180 92 195 121 212 228 174 145 138 255 205 163 148 197 197 103 193 191 199 135 195 169 185 122 174 146 170 98 120 125 153 134 218 198 144 188 185 136 186 125 179 153 135 186 181 177 158 143 97 112 219 138 153 141 129 182 164 131 161 103 130 108 181 100 178 65 101 49 49 150 79 180 204 122 131 92 166 76 141 64 68 81 191 215 145 117 154 161 162 153 107 91 97 190 95 101 143 127 74 116 173 156 116 86 168 78 77 100 116 78 80 124 75 165 151 185 164 182 93 102 119 99 171 125 70 160 141 103 158 166 183 192 200 113 158 127 164 119 175 180 162 66 69 106 169 188 178 189 158 91 91 168 111 149 169 89 178 87 115 110 130 188 109 94 109 174 185 87 163 135 103 139 164 186 213 203 163 83 155 108 55 137 152 142 82 180 186 88 168 165 115 103 148 189 220 184 205 193 116 188 143 134 190 190 171 82 118 100 126 52 147 132 78 124 97 168 174 174 147 172 152 68 68 166 124 60 93 148 155 163 108 170 76 147 155 167 84 143 172 176 122 82 139 147 135 91 153 147 168 100 145 207 197 178 179 103 109 145 143 146 179 203 96 164 127 114 156 112 132 182 158 122 216 121 196 136 128 187 111 150
113 122 128 136 136 139 138 142 161 174 166 160 148 132 141 136 157 169 192 204 198 204 200 193 173 170 145 137 144 160 173 186 184 175 168 167 171 174 185 179 180 163 159 156 182 178 184 162 118 112 120 100 143 137 164 171 109 123 128 141 120 152 132 158 88 124 144 130 135 130 82 136 113 94 147 103 174 132 93 165 185 123 113 117 90 134 87 93 80 130 90 70 87 125 128 138 157 128 135 128 119 143 133 129 130 84 77 89 158 105 129 84 60 56 87 155 111 115 92 105 148 71 154 167 92 121 82 143 48 68 138 127 112 255 164 148 53 115 64 115 167 121 190 196 135 198 190 126 143 182 104 172 214 161 175 127 121 146 90 114 115 121 102 180 157 161 171 83 153 166 182 115 200 106 78 75 156 153 64 155 105 117 69 104 124 168 191 160 183 144 132 88 183 92 158 142 96 82 99 146 102 176 104 89 181 190 156 191 108 147 89 129 150 132 136 173 171 167 186 159 123 80 174 174 153 119 139 132 141 131 79 159 153 83 193 187 207 232 160 234 220 123 121 111 128 195 108 153 110 166 174 115 195 168 141 92 98 179 103 174 142 130 147 130 118 103 94 81 155 169 161 125 121 80 135 131 90 171 72 174 146 96 181 187 169 75 128 143 81 131 167 198 161 120 123 190 147 74 131 92 94 58 155 108 127 147 192 102 109 93 69 84 140 80 87 114 180 185 153 59 113 86 136 141 107 195 182 102 189 167 175 181 110 142 162 155 158 162 185 115 191 99 126 173 132 113 79 77 71 153 162 79 96 171 178 170 87 179 191 179 196 179 92 166 189 175 193 193 194 146 154 130 108 102 84 75 91 147 118 146 128 157 157 87 169 131 160 133 166 83 98 110 172 191 91 148 165 166 162 106 107 176 181 132 192 110 152 126 158 119 150 133 64 80 96 171 102 117 173 131 104 165 111 176 102 187 142 110 161 187 181 123 132 119 94 178 118 70 82 139 100 141 140 54 60 164 139 164 159 112 75 74 122 130 132 167 165 80 139 74 144 124 183 155 109 166 149 157 185 184 122 164 132 166 104 130 167 88 117 84 127 157 187 194 96 91 163 112 116 194 170 143 164 148 89 79 73 142 74 76 150 110 132 106 127 155 225 123 117 178 143 97
132 133 132 134 140 144 158 157 162 163 158 158 140 133 143 142 138 160 187 203 209 196 188 184 176 179 166 147 155 157 172 187 183 172 161 163 161 174 184 185 182 167 150 165 197 175 169 169 127 150 151 126 149 147 102 149 111 127 105 156 135 138 107 94 126 116 127 144 70 134 148 130 138 129 89 120 74 104 82 104 125 125 127 157 115 155 90 83 75 63 58 86 105 106 137 162 152 133 151 103 98 96 98 104 133 138 82 111 139 103 114 105 125 130 77 113 108 109 96 104 74 64 68 86 117 92 83 78 56 99 181 94 102 168 56 143 75 149 67 166 113 186 99 195 183 125 91 81 146 78 154 129 208 123 204 123 119 91 121 157 90 169 165 152 151 131 255 155 135 170 114 110 161 157 108 103 90 73 96 174 123 135 151 113 143 122 193 177 145 138 73 136 89 92 73 72 160 99 102 163 131 172 117 138 103 186 181 165 94 108 153 118 51 74 85 159 87 147 156 96 128 153 150 160 158 145 72 135 117 77 52 62 76 87 128 204 206 215 217 120 135 115 173 107 181 107 187 191 147 107 127 195 185 154 179 137 152 141 196 156 111 198 162 146 161 97 89 148 136 73 126 63 155 163 128 135 116 171 168 95 126 119 76 148 87 88 62 136 75 97 190 106 208 205 157 211 182 129 145 155 151 104 132 133 170 199 207 100 104 82 113 100 107 85 82 183 92 149 76 61 67 107 193 114 111 161 195 145 106 130 156 179 96 178 157 179 100 96 184 123 109 189 111 144 109 180 90 161 107 71 129 160 174 179 105 135 174 85 180 179 89 109 82 167 95 186 195 131 160 203 168 206 122 164 165 90 155 169 180 105 82 101 167 111 180 110 183 167 169 139 175 111 125 90 178 174 163 89 102 167 122 183 150 116 197 143 127 85 118 64 63 162 157 180 192 166 130 111 170 179 178 87 185 137 109 165 199 197 177 175 186 199 119 141 169 167 107 70 101 123 100 139 152 158 134 157 140 72 86 70 129 106 68 86 168 125 158 114 158 153 98 123 172 178 106 112 177 132 97 91 112 101 159 84 173 179 123 176 130 155 82 95 107 102 82 80 151 112 99 162 110 116 155 172 174 84 75 162 114 114 162 113 179 95 190 149 144 120 121 170 87 167
140 136 133 137 151 161 172 181 167 159 147 143 142 142 147 154 154 159 171 198 188 199 174 187 191 188 171 167 160 164 168 178 176 173 166 164 160 174 181 187 184 170 163 169 202 194 192 159 149 157 147 152 103 135 107 137 83 135 143 179 158 175 144 132 146 131 140 65 127 102 133 121 126 63 62 90 126 80 156 98 133 190 128 145 140 152 90 104 75 63 62 66 89 95 162 116 176 121 109 105 131 91 134 109 145 140 102 154 99 99 75 69 106 90 145 94 121 110 121 161 84 72 135 84 79 78 109 66 109 125 164 92 182 169 61 53 151 85 73 173 91 142 118 102 111 151 162 178 177 178 174 186 111 177 175 149 92 145 129 176 173 112 149 94 107 126 77 99 90 145 115 190 189 136 79 157 175 184 99 139 150 134 144 116 66 130 190 134 94 166 161 173 104 126 163 82 120 90 116 95 139 134 127 78 88 172 182 150 98 136 129 51 65 53 51 127 125 125 161 169 152 169 116 170 76 122 130 78 140 112 76 73 180 126 202 113 197 125 183 180 158 147 140 158 89 179 190 177 113 101 142 153 112 94 159 102 165 146 192 95 181 190 144 156 146 158 144 77 157 97 72 99 151 62 146 115 109 103 186 175 158 142 144 134 124 121 42 70 152 130 164 202 207 167 126 111 159 169 151 150 77 134 66 97 107 120 159 112 92 74 61 58 113 154 97 103 170 82 65 111 81 85 124 109 120 119 104 181 121 201 155 84 163 113 92 119 167 97 168 118 200 123 125 164 194 109 179 125 83 85 86 146 72 163 72 145 158 176 85 91 113 130 138 77 185 142 192 166 179 177 212 116 105 192 169 132 163 175 161 135 134 160 75 105 131 162 101 95 77 99 110 166 147 169 121 156 83 171 80 79 148 171 92 153 167 146 128 71 72 144 157 164 122 116 172 123 159 118 191 106 118 125 188 177 183 100 144 112 165 105 171 170 197 173 153 81 146 132 100 178 158 90 93 110 131 79 157 122 96 156 108 135 166 169 105 85 91 178 76 119 154 96 87 201 173 117 165 180 170 181 148 165 99 99 174 104 97 86 178 76 81 148 162 78 78 173 153 118 169 184 155 196 116 77 143 141 84 126 170 77 138 75 167 86 162 99 110 113 95 99 149 95
137 133 131 139 161 175 189 188 173 159 140 133 127 138 148 160 159 153 175 180 191 191 184 188 183 196 183 169 152 160 163 166 174 177 172 177 176 179 181 178 178 169 255 179 205 198 168 140 157 117 159 140 145 110 116 141 97 111 111 127 154 190 195 149 157 102 128 121 132 97 74 96 121 134 119 53 119 70 164 112 153 122 148 97 150 106 139 135 123 112 86 114 86 84 135 106 102 98 111 97 131 98 123 110 121 145 117 103 113 116 71 95 66 80 75 141 98 126 117 120 87 96 91 161 76 163 77 169 180 192 102 107 93 157 81 160 156 144 103 170 132 177 129 99 187 92 81 165 193 134 177 113 167 196 154 99 166 167 97 119 173 105 158 112 156 160 83 126 164 120 126 161 168 177 94 178 144 128 132 185 172 99 57 115 73 87 186 179 167 72 130 163 155 81 178 122 148 100 110 135 171 67 64 144 92 81 80 165 175 151 128 54 56 124 148 144 66 108 133 103 188 140 92 82 71 157 64 71 82 146 120 167 137 199 201 203 178 168 166 158 55 91 142 150 154 157 178 182 181 160 179 80 185 173 171 90 171 171 184 142 187 91 189 114 123 123 68 104 183 160 171 70 111 73 155 176 108 127 181 118 128 128 75 107 26 130 91 93 94 86 92 181 129 191 164 194 189 83 86 86 93 82 157 75 111 201 153 188 105 115 82 135 150 80 90 71 73 162 151 142 51 70 176 132 99 189 125 123 211 173 140 149 166 90 96 142 96 164 137 180 121 161 188 196 189 100 183 104 86 147 45 140 59 147 167 96 166 88 128 132 44 97 124 124 90 174 85 149 188 111 194 128 194 114 115 146 198 161 119 165 125 63 128 155 127 185 179 142 180 154 156 124 97 76 176 103 166 118 72 73 80 92 75 172 100 107 130 85 77 164 143 87 142 131 172 217 179 144 142 186 157 161 169 148 108 181 125 136 169 96 112 108 167 165 151 174 142 169 181 167 160 100 76 79 77 147 63 129 50 151 70 149 166 175 153 137 167 171 132 157 148 144 102 146 178 114 124 185 184 90 152 195 133 156 116 111 176 165 165 130 108 160 121 158 121 140 81 141 76 137 113 123 85 132 149 94 151 88 146 78 68 151 166 108 173 130 169 91 149 73 57 57
127 126 132 144 168 181 189 183 174 153 134 124 126 128 149 152 160 162 167 184 181 187 179 185 194 184 183 170 162 157 163 166 168 170 179 180 184 177 181 174 175 169 174 174 192 177 174 160 158 146 141 142 119 114 131 135 167 168 182 170 188 192 197 189 177 90 114 105 89 137 111 112 95 135 96 141 64 84 115 109 119 109 159 85 81 120 82 75 132 71 99 131 80 83 94 85 102 80 133 88 129 99 136 126 164 169 145 101 135 73 99 74 144 72 71 84 92 156 99 152 172 162 160 130 161 156 71 115 88 102 109 109 146 179 92 110 75 161 91 152 186 105 202 200 104 89 187 172 213 211 216 177 118 98 128 136 164 148 97 147 93 171 157 129 145 119 87 136 172 130 131 133 171 160 90 108 97 81 95 173 172 91 93 114 156 115 189 109 110 167 63 122 133 95 92 165 146 149 112 129 148 66 129 67 75 144 129 112 137 120 169 164 136 70 155 128 54 102 41 95 176 110 168 108 169 138 165 111 173 159 105 100 192 208 123 176 158 78 144 60 94 95 68 53 106 156 168 178 126 185 104 128 159 143 83 145 105 188 163 179 90 183 105 173 144 138 169 122 166 172 158 174 132 64 107 151 128 206 218 185 131 255 123 65 108 96 80 73 106 179 176 169 190 118 204 105 89 110 169 150 180 126 72 164 94 131 184 105 90 65 51 144 116 168 170 133 154 83 112 139 96 107 96 143 141 164 108 214 222 208 120 169 116 126 84 104 151 69 66 104 91 120 181 149 89 80 184 119 82 154 138 106 148 161 91 178 110 188 132 147 53 121 34 128 159 111 126 164 169 167 145 155 186 200 130 115 118 145 136 172 160 90 126 142 112 183 108 134 186 85 98 130 151 65 120 187 92 114 87 129 160 61 152 93 179 141 96 161 142 136 101 99 180 149 195 111 146 127 165 110 178 180 102 148 107 82 163 75 159 139 130 116 113 80 168 78 128 110 171 186 110 93 168 153 103 88 82 92 44 103 141 142 79 132 173 86 103 158 151 145 158 122 170 173 198 106 146 170 86 167 120 190 170 128 113 166 138 255 150 150 95 124 149 178 139 141 114 109 98 101 116 186 160 158 73 151 93 148 154 82 94 144 77 84 81 85 93 155 90 121 90 85
117 121 132 147 169 178 179 173 166 155 142 133 116 130 127 150 161 169 169 190 176 172 181 180 189 176 172 163 174 171 178 166 173 176 181 182 181 173 168 175 174 160 162 146 180 177 170 163 150 160 157 164 165 130 167 173 182 192 166 187 147 194 192 158 181 124 89 78 75 137 135 137 77 137 99 149 137 94 103 176 105 150 135 103 141 120 93 66 99 81 140 100 89 93 90 85 117 75 112 118 102 136 142 128 137 159 117 98 117 97 100 101 88 142 73 83 125 164 172 105 103 86 135 98 71 78 121 150 120 179 187 144 203 195 98 97 90 162 81 120 157 199 108 103 187 187 180 203 211 167 198 202 135 132 117 167 164 95 78 148 125 151 174 65 122 83 160 91 163 102 173 172 160 128 148 134 105 151 61 137 138 146 84 77 163 194 182 102 181 143 112 106 139 159 94 149 176 187 110 172 127 155 78 145 76 92 90 74 79 82 137 83 163 177 138 108 83 141 108 79 166 137 97 136 170 88 181 111 87 179 143 191 102 207 193 194 173 182 101 89 76 136 77 56 143 148 170 90 187 188 94 99 87 148 159 69 152 94 187 117 179 168 146 172 176 124 93 170 180 180 171 104 82 159 176 189 199 116 115 103 169 153 69 84 102 150 95 91 112 83 107 89 98 174 118 131 82 72 127 80 112 145 124 132 147 106 190 98 89 96 62 70 85 79 106 84 84 118 135 47 134 132 57 69 141 79 185 142 135 204 99 75 161 150 160 115 103 150 61 171 184 94 111 84 156 63 147 170 177 67 103 112 147 89 185 176 154 160 176 89 78 96 85 119 50 106 68 145 113 71 96 102 255 175 127 176 172 98 189 103 117 124 94 58 125 122 88 153 88 105 153 89 129 139 165 191 148 158 93 152 95 146 150 135 156 166 86 145 180 87 184 141 150 89 92 169 179 174 194 189 96 77 148 173 160 99 79 110 155 67 73 52 150 129 147 72 168 155 203 198 193 162 104 128 122 140 54 94 56 161 110 187 189 129 126 104 72 163 133 169 117 77 80 150 134 121 102 152 178 123 192 179 174 98 165 108 93 157 78 178 109 133 86 121 163 178 189 163 163 131 75 159 114 128 155 54 133 161 172 98 177 101 145 114 159 122 77 113 157 94 86 107
107 114 126 142 158 167 169 160 148 154 147 131 118 125 117 142 163 160 185 172 168 167 168 178 178 181 177 183 191 193 187 175 170 174 179 178 176 170 173 172 169 147 148 148 163 168 170 168 165 143 151 139 127 140 190 159 148 149 179 176 148 144 163 170 116 188 152 157 136 84 157 108 115 96 83 142 88 152 151 145 106 107 139 137 140 134 129 68 123 101 100 121 111 143 110 95 82 77 97 109 127 133 111 138 125 159 108 97 93 109 104 122 162 108 71 99 81 117 114 166 90 99 166 146 93 123 150 94 185 174 182 166 94 100 105 109 168 95 111 177 109 255 97 122 100 155 180 105 145 182 132 217 196 100 161 141 98 119 125 138 159 109 167 93 142 127 70 169 175 188 182 148 69 127 50 48 130 68 59 58 96 162 84 170 193 172 153 124 185 80 91 70 172 82 124 92 169 181 180 89 79 81 66 81 49 105 142 90 75 145 147 188 101 152 101 159 150 74 151 152 116 176 166 170 186 167 166 193 145 162 93 195 155 125 186 181 184 184 89 183 170 122 152 88 85 75 83 114 189 112 100 151 90 77 143 137 153 86 87 166 135 112 175 156 125 174 145 115 209 194 188 154 197 153 94 156 100 101 182 181 146 133 118 113 157 144 154 113 177 170 163 182 170 158 197 98 171 69 161 110 106 167 255 144 152 155 94 163 101 141 78 78 121 93 101 160 97 119 60 139 86 137 60 143 148 95 92 115 113 199 183 168 74 152 52 120 56 49 157 79 114 139 87 164 53 138 62 160 95 158 41 50 136 121 177 95 173 176 163 163 102 154 70 58 82 100 133 99 49 103 144 169 90 102 128 164 177 163 175 108 179 147 106 107 90 106 82 153 128 153 101 84 99 72 77 178 141 183 144 171 143 111 154 66 64 161 134 164 139 178 102 104 138 174 160 179 109 104 150 109 158 84 122 84 91 114 143 80 164 114 84 62 70 44 144 63 130 180 179 175 186 174 71 139 89 98 53 143 121 173 197 197 177 119 120 129 161 146 86 109 154 158 108 195 151 182 165 173 164 91 83 170 128 121 140 79 101 169 84 149 169 156 185 183 124 93 119 177 91 93 115 137 91 77 105 148 59 141 89 156 162 102 168 120 89 146 112 65 72 89 169 162
103 108 118 134 146 154 149 139 137 148 141 143 138 124 116 134 135 153 165 161 154 154 141 159 171 173 184 192 190 194 193 184 178 180 184 183 176 172 170 174 154 156 154 145 159 147 166 150 163 162 157 156 144 152 194 182 156 144 192 184 177 174 113 158 129 117 156 172 164 111 162 104 150 159 162 109 88 83 76 123 100 127 126 142 88 106 116 115 136 137 104 130 129 139 155 101 87 90 90 95 100 104 102 104 117 106 98 103 80 115 96 118 94 120 138 62 75 70 84 89 123 138 94 129 56 66 164 88 181 146 151 79 169 176 143 111 107 102 194 92 174 127 81 99 181 92 155 130 199 213 193 186 190 191 164 101 175 168 185 98 127 181 125 92 58 137 146 139 158 123 169 166 147 75 86 102 61 88 123 135 149 136 118 179 171 138 94 133 80 136 115 79 93 168 130 180 179 120 192 192 137 121 150 119 65 46 55 133 113 137 97 195 97 180 196 178 175 77 68 147 69 130 163 136 163 111 101 101 183 97 177 127 174 81 118 130 82 181 95 158 126 100 160 137 168 163 95 167 98 118 200 198 110 88 76 152 102 99 151 175 83 160 156 159 139 135 199 194 160 133 201 211 166 99 106 100 173 132 87 105 109 77 161 165 81 176 255 113 123 83 142 177 156 159 185 114 97 169 180 149 101 122 79 155 77 159 143 108 106 111 109 98 193 109 105 94 89 91 65 149 143 52 118 77 146 158 139 92 145 186 168 156 74 116 47 122 89 73 103 88 102 125 135 114 89 129 73 161 82 105 99 79 42 67 136 170 171 128 98 104 105 173 185 94 122 49 133 101 123 60 145 133 99 176 116 91 133 137 178 110 118 129 151 105 162 79 109 168 81 83 140 50 120 82 178 185 190 192 146 125 165 88 142 83 133 119 112 126 152 81 154 87 100 160 109 146 87 134 140 163 166 151 147 62 114 150 130 255 111 111 174 148 83 124 80 52 159 120 180 131 171 96 173 84 67 127 89 122 171 161 169 192 203 143 91 75 112 148 179 117 169 151 162 207 173 189 212 123 136 125 79 106 67 110 172 82 146 189 179 183 139 135 102 101 94 84 88 73 156 155 73 75 174 90 133 87 134 95 164 83 133 143 144 64 143 120 154 121 95 88 119 87
106 109 113 124 132 142 144 143 135 139 144 155 149 141 127 128 152 155 157 153 146 128 142 152 147 175 185 189 201 198 193 185 184 185 194 194 182 181 178 181 177 174 158 147 156 140 136 164 149 156 112 113 156 176 168 194 177 147 145 166 122 171 173 139 188 124 111 164 132 121 136 154 157 108 173 127 163 164 107 87 176 127 130 126 123 146 68 80 136 90 112 158 138 126 117 114 103 94 103 99 128 137 118 108 135 93 76 83 65 123 105 94 95 83 75 54 104 79 83 141 116 126 187 80 59 122 141 80 96 89 90 171 85 146 128 184 104 182 199 190 102 75 165 76 79 179 131 115 200 116 209 207 115 115 150 161 185 132 170 178 184 183 89 160 140 104 90 128 112 98 102 119 57 42 101 91 101 37 39 142 126 98 164 136 154 139 184 110 139 146 156 86 179 178 155 124 147 82 177 96 95 101 138 81 142 57 144 71 137 82 186 157 192 193 201 187 90 162 161 160 58 148 133 139 85 166 93 190 158 88 77 112 63 53 135 157 68 136 174 174 98 160 83 87 157 172 190 190 188 88 188 120 185 176 173 109 113 137 155 105 122 132 187 185 163 107 117 191 202 214 156 147 202 178 112 127 91 161 128 114 153 89 126 148 134 157 255 77 146 170 71 74 171 90 177 151 132 196 117 109 103 157 153 95 93 81 112 193 128 179 87 166 200 115 199 147 91 83 101 76 164 75 154 60 98 98 173 163 124 96 173 94 52 124 149 90 91 90 86 90 86 90 88 100 97 146 158 145 188 121 144 74 25 97 79 79 192 164 191 176 186 119 196 97 102 151 102 73 141 80 60 92 168 132 60 99 148 157 170 133 91 173 125 137 89 114 73 77 56 148 133 132 153 113 182 103 109 161 187 111 85 162 132 61 151 152 149 64 151 174 190 255 157 142 109 110 144 168 177 147 147 132 117 117 73 80 157 146 147 113 136 69 106 143 63 138 78 153 187 199 149 109 125 117 152 168 123 148 138 120 95 177 150 96 164 144 70 156 83 156 159 180 117 148 213 156 137 207 200 102 67 134 66 127 96 99 146 119 123 112 125 127 188 108 124 175 87 77 161 159 126 165 180 181 122 142 92 161 162 158 130 71 160 154 90 141 69 173 88 90 121 112
120 119 120 121 130 135 146 141 137 136 137 148 164 156 157 153 158 158 152 133 132 139 138 144 140 172 179 193 188 189 187 184 193 197 212 213 204 194 186 190 181 171 160 145 156 144 166 163 137 128 101 107 115 141 136 127 142 177 128 104 143 161 127 183 163 115 136 100 107 100 134 140 95 172 107 181 103 122 89 98 166 175 135 113 131 106 86 84 92 147 157 105 117 131 127 169 109 108 105 100 92 132 131 110 114 84 62 101 66 88 146 110 146 58 91 72 62 152 106 108 140 116 112 151 119 162 90 139 105 91 131 110 141 158 78 83 101 105 145 142 136 144 165 163 115 95 92 203 198 120 209 221 133 172 166 100 186 153 152 77 163 170 118 76 152 141 82 170 132 140 158 94 34 69 102 69 24 62 139 107 161 70 173 131 149 124 152 157 66 69 119 164 173 152 181 118 172 174 88 94 168 135 154 172 153 94 122 132 72 105 141 92 166 199 165 106 187 144 157 134 127 56 131 131 142 63 93 177 78 75 156 93 108 110 131 94 74 96 106 198 146 167 128 65 146 99 185 164 79 172 160 151 177 150 178 142 156 108 154 182 128 107 191 173 169 176 103 194 104 195 118 166 97 88 164 146 102 99 75 162 138 140 161 66 86 123 127 174 77 160 72 163 146 106 101 119 192 119 174 125 132 190 158 132 161 90 123 98 158 81 167 114 106 200 115 192 121 91 181 93 152 143 188 102 87 94 83 153 120 173 122 141 136 126 151 146 88 97 90 179 74 107 118 163 75 182 97 202 197 86 62 138 126 75 117 110 176 159 185 148 98 134 112 89 90 65 58 69 144 111 57 163 150 85 165 151 124 82 130 179 137 113 190 130 125 169 84 62 73 91 102 135 121 130 97 174 191 226 138 119 187 128 106 142 79 121 98 155 174 189 125 182 192 151 81 81 104 123 168 98 156 99 120 88 86 172 147 161 168 125 173 142 169 131 120 70 155 107 191 100 184 204 137 109 177 161 114 151 172 122 174 117 114 176 146 70 148 90 163 178 94 164 91 94 194 181 165 209 101 100 70 154 124 161 154 111 93 143 101 197 111 171 117 169 172 167 83 94 102 68 114 101 137 124 117 109 165 151 157 68 147 149 168 87 61 131 82 168 111 83 114 188
130 128 125 120 122 133 146 144 147 139 143 158 162 173 170 177 161 155 163 143 133 140 135 142 137 167 174 187 186 173 183 186 199 207 218 221 215 210 187 194 177 174 171 134 143 160 164 160 142 132 135 138 122 127 111 161 158 165 138 128 165 132 174 152 126 160 137 165 174 173 112 189 178 152 104 129 190 125 162 181 157 132 136 115 95 100 127 108 113 91 123 114 104 117 122 119 113 114 110 115 92 104 118 129 84 75 69 60 69 79 86 80 66 122 59 119 115 84 105 104 107 190 189 186 93 175 107 157 94 85 97 123 120 66 164 95 149 155 163 115 105 102 111 151 152 77 96 185 216 185 212 218 131 122 154 151 188 179 101 124 65 119 130 152 151 156 160 173 149 140 131 134 127 49 19 50 102 123 150 101 83 121 187 173 206 108 152 69 140 116 165 123 178 179 143 82 172 170 169 167 125 98 83 177 106 64 107 145 64 149 78 105 177 140 126 166 166 75 93 115 84 45 38 53 120 49 158 81 133 171 155 46 41 127 89 107 97 188 193 158 91 135 100 142 120 132 175 85 122 160 77 156 100 129 165 103 107 101 99 157 171 97 173 88 175 173 84 155 113 187 161 115 161 93 155 148 70 90 153 137 145 187 101 128 129 142 102 180 81 160 65 167 114 149 112 202 129 195 171 111 199 188 120 129 168 135 116 140 72 121 114 181 104 196 201 146 163 188 120 109 197 142 189 132 143 126 187 140 177 76 77 135 66 127 66 172 121 111 152 84 110 143 126 77 114 180 193 109 195 126 158 68 137 80 92 78 139 183 152 121 78 183 176 178 150 106 144 74 152 77 157 171 172 185 87 76 96 148 125 91 176 209 217 219 142 179 77 137 108 76 80 113 71 148 172 166 218 248 244 218 123 107 75 102 139 169 145 103 135 151 198 213 158 170 178 151 141 118 149 88 151 96 145 172 134 150 90 123 98 167 132 189 89 157 93 77 102 161 196 108 139 202 126 183 179 176 192 131 162 169 133 175 81 84 164 59 149 152 175 161 107 120 99 112 135 121 125 187 90 89 165 88 69 171 151 107 165 200 147 112 192 181 101 144 167 77 172 100 73 151 133 163 194 208 185 195 188 79 158 142 110 130 140 84 81 105 182 154 120 97 192 198
139 136 130 120 122 125 141 143 150 150 143 155 164 180 175 169 180 173 170 149 147 138 136 135 148 159 169 165 171 166 173 179 188 208 224 227 229 219 205 192 173 177 162 137 147 156 144 158 152 142 145 156 139 127 155 139 110 156 163 151 161 124 169 136 95 166 118 123 97 117 196 193 154 177 183 200 123 144 108 108 163 94 73 83 93 129 146 114 130 137 120 134 149 114 125 118 169 125 111 122 85 98 123 94 78 106 60 63 98 85 82 148 80 67 61 60 86 136 76 87 153 93 185 102 118 148 186 93 177 68 139 67 136 93 69 71 144 100 158 115 208 181 77 159 124 131 91 147 219 149 138 203 208 135 197 184 169 132 131 142 138 142 161 93 111 141 124 120 172 82 80 61 85 137 116 126 66 67 81 117 118 106 114 124 117 149 180 150 128 120 156 120 83 160 116 112 82 69 120 60 112 96 144 147 179 100 154 139 58 75 153 193 155 142 208 149 166 162 84 70 142 57 44 108 84 123 102 168 158 98 85 56 59 120 55 164 116 156 145 202 94 78 115 153 92 110 172 134 98 74 141 88 112 163 74 148 87 148 84 151 169 157 114 80 101 78 84 175 172 179 155 168 142 154 72 96 106 98 78 148 87 116 180 176 85 104 193 153 165 114 159 160 115 98 158 128 206 180 179 175 189 138 173 80 162 94 97 90 149 87 120 101 130 196 127 130 155 185 143 255 160 142 189 167 192 108 92 76 70 146 56 44 82 75 73 144 172 137 139 76 161 73 68 174 175 184 176 131 185 188 106 104 147 90 64 154 128 103 181 129 91 148 133 96 86 80 164 173 168 71 119 166 192 200 195 177 143 149 142 156 176 169 220 127 160 192 86 146 91 171 172 163 151 78 132 207 163 241 155 132 173 112 130 128 101 198 116 138 191 162 139 218 208 208 192 115 206 197 164 109 99 73 120 160 115 183 179 123 62 150 160 119 105 109 87 188 193 199 125 189 109 197 148 102 191 190 136 112 163 154 134 174 173 84 122 157 160 155 169 131 77 174 83 167 91 92 164 149 152 85 175 87 97 139 142 110 209 203 117 166 145 184 106 130 93 91 93 71 86 181 166 210 213 155 187 185 90 132 77 164 111 105 123 137 114 155 99 102 123 186 128 138
140 137 130 120 117 120 129 135 148 149 145 146 148 150 168 180 177 172 159 165 156 153 146 131 132 152 156 161 167 162 167 167 184 203 220 230 234 217 196 185 176 167 142 141 123 159 153 158 130 135 161 161 155 143 134 147 154 123 167 127 171 164 93 97 141 151 151 156 98 105 161 206 206 174 158 131 178 147 111 110 129 98 64 87 118 106 153 163 136 130 121 140 155 101 114 118 116 162 106 86 125 104 127 114 81 90 73 129 79 118 110 255 129 87 142 97 88 93 150 88 96 97 161 112 117 120 105 110 115 136 57 62 90 138 124 166 179 186 143 107 202 101 145 89 137 171 108 120 118 143 201 159 209 205 160 139 152 125 158 156 159 162 156 162 127 154 163 178 172 169 161 161 166 169 162 96 65 80 71 153 94 127 207 176 149 177 96 130 156 76 172 141 83 164 97 155 73 164 83 113 99 83 195 107 114 157 63 140 110 71 111 165 194 203 138 127 195 152 184 118 85 100 255 110 118 127 90 169 181 160 142 66 143 47 50 114 181 100 199 198 94 109 88 142 195 189 184 87 142 176 170 166 188 112 83 78 156 101 82 132 125 94 75 74 134 129 182 85 119 118 125 172 115 97 162 70 93 76 85 64 101 192 172 146 181 93 94 89 75 114 119 108 97 127 205 108 101 184 153 91 148 192 141 73 162 69 80 85 153 124 182 115 187 95 93 157 168 121 156 143 135 156 97 118 87 170 92 103 65 66 104 121 90 135 69 66 121 141 85 135 63 125 154 90 103 167 127 158 86 123 108 114 157 157 66 153 159 180 138 184 172 122 99 160 127 94 189 91 78 110 143 106 124 129 197 133 120 153 101 172 144 123 217 204 143 173 77 104 99 158 91 79 76 161 161 105 143 190 136 138 150 103 198 118 115 184 193 158 221 223 164 137 124 138 206 207 110 103 186 144 174 169 142 102 130 158 61 69 157 149 141 111 148 101 117 185 109 173 100 189 100 195 105 191 152 92 96 116 119 139 183 176 99 147 139 86 135 122 164 79 123 128 181 182 132 112 81 169 166 92 176 191 155 145 198 202 182 165 130 143 192 103 151 75 167 88 120 90 83 93 110 153 173 200 125 72 67 81 255 80 114 177 208 204 166 137 131 128 209 117 159 95
146 140 132 123 120 120 126 134 138 135 135 131 126 131 144 157 182 183 170 157 162 144 148 130 142 141 148 144 147 155 151 147 167 190 215 224 227 216 193 178 168 163 154 146 152 151 161 132 130 166 178 185 160 161 127 132 165 109 129 123 181 124 138 81 154 127 69 121 107 137 194 134 196 188 156 183 177 144 106 103 123 109 65 96 111 101 154 103 98 95 110 99 130 114 102 118 155 147 92 96 82 103 94 107 129 106 89 88 86 117 103 137 85 103 90 106 77 75 124 105 158 94 105 102 200 126 202 109 152 113 65 115 178 83 176 149 92 101 139 194 188 101 172 172 85 180 189 113 112 170 151 100 196 183 140 140 183 171 61 120 86 164 150 97 122 154 87 162 185 147 162 131 181 190 124 176 155 103 147 102 69 118 194 214 171 190 110 88 165 96 125 89 78 165 80 78 105 76 77 69 90 103 216 124 130 160 159 81 71 140 179 173 163 107 189 104 197 187 203 178 171 62 123 128 35 138 148 135 164 141 174 169 117 156 155 105 116 78 86 107 112 149 186 196 202 121 201 167 198 138 175 190 209 106 94 113 173 154 90 69 147 105 142 81 141 139 136 139 79 95 146 97 166 153 84 163 124 151 133 153 107 112 181 117 148 105 162 125 159 142 118 163 191 96 97 92 89 69 65 88 181 96 119 96 80 98 162 189 181 134 122 127 174 137 94 124 144 141 214 137 213 104 181 152 167 70 105 136 109 158 112 165 162 84 119 71 128 182 91 82 114 142 91 115 140 136 60 134 73 180 106 138 126 168 69 133 157 128 109 168 111 120 183 118 203 175 152 137 151 113 97 156 189 107 182 147 136 138 111 156 102 135 114 128 145 125 138 168 140 162 85 90 162 120 171 155 202 211 115 180 118 167 101 178 160 120 146 111 212 131 192 152 130 194 156 153 192 146 101 109 193 171 120 80 139 73 62 135 144 179 146 195 202 112 127 181 96 175 130 98 199 102 127 148 95 187 133 187 154 175 97 189 180 73 74 128 110 149 112 143 125 99 166 83 74 139 151 89 142 166 120 186 148 113 176 148 118 113 140 175 146 147 134 169 88 95 143 111 142 93 126 141 206 183 151 115 92 111 73 88 142 172 129 183 152 144 116 153 126 109 106 185
153 144 136 127 128 134 138 139 135 130 137 133 132 129 138 157 176 177 164 164 156 158 152 159 149 153 146 143 153 148 135 134 152 174 206 211 214 207 193 179 153 164 165 160 165 138 151 164 140 175 160 189 190 161 173 171 160 105 168 111 175 120 157 128 134 84 128 128 161 123 199 142 116 99 95 119 151 97 170 164 113 106 77 85 93 161 103 91 85 88 97 103 98 124 108 102 123 126 125 119 85 137 119 91 134 101 104 133 94 98 104 77 76 149 128 109 81 84 84 76 75 147 116 198 163 216 126 137 99 170 116 81 99 109 85 90 181 93 182 137 180 178 82 180 189 96 120 110 204 102 186 122 152 198 118 145 179 111 147 162 129 87 96 126 133 132 137 152 140 171 176 97 190 189 185 189 171 124 130 147 135 133 178 168 143 157 92 144 174 94 124 156 151 132 151 116 167 81 81 179 165 132 139 190 163 162 74 76 66 79 84 134 146 120 91 163 148 109 193 99 153 79 72 128 120 137 166 135 176 119 78 119 107 141 159 90 83 66 171 85 166 85 183 185 198 206 165 186 205 216 178 137 135 133 202 114 171 128 113 100 64 82 139 184 138 181 190 125 169 164 122 72 67 140 83 88 150 139 66 75 99 174 200 170 138 125 155 168 74 57 95 180 117 95 96 165 94 69 113 122 101 121 193 140 69 101 165 103 125 121 126 149 173 139 177 202 171 148 144 126 124 96 114 110 66 120 135 147 136 91 119 168 84 113 117 171 180 179 186 110 69 46 115 142 138 123 93 57 82 115 184 192 122 149 166 161 112 127 127 200 112 191 100 203 177 156 172 157 152 186 145 178 113 136 103 151 199 141 164 175 78 179 165 143 74 106 122 147 145 114 73 139 157 61 95 95 209 204 110 189 141 111 184 85 171 138 72 180 101 125 209 205 116 180 105 106 139 131 137 139 194 166 106 168 157 130 72 66 135 131 152 153 182 96 102 94 180 95 123 108 114 129 163 124 82 185 158 179 136 179 157 172 175 142 75 91 153 145 141 150 112 72 153 97 139 62 101 91 138 78 92 158 101 112 118 139 133 86 128 191 129 103 138 144 117 94 174 171 110 153 94 95 142 136 82 111 154 128 146 158 116 123 190 125 145 101 137 211 208 115 180 118
165 154 141 136 141 145 142 127 124 119 122 129 140 123 140 152 159 174 157 140 144 159 162 162 162 164 161 154 155 141 133 123 139 164 184 196 199 199 193 182 162 168 156 167 153 161 156 145 164 181 185 189 175 126 173 146 127 148 125 158 182 172 121 137 112 101 76 85 123 115 126 163 178 127 126 92 101 150 162 180 97 88 164 152 171 102 135 81 74 83 97 118 98 109 108 101 99 124 90 79 84 110 111 133 96 117 153 121 100 97 114 111 75 116 88 95 103 157 91 117 77 146 95 105 117 114 165 177 132 100 137 86 87 176 95 112 182 88 84 172 171 138 80 131 176 150 159 110 198 184 178 94 101 183 166 99 111 149 88 158 146 102 150 136 86 157 122 107 187 136 163 145 120 171 141 102 141 103 115 136 95 80 97 143 201 134 87 181 136 183 171 138 117 161 161 78 83 92 131 132 166 215 165 210 106 131 87 76 135 83 138 132 165 105 165 92 101 194 134 96 60 126 48 43 150 131 155 95 122 165 160 89 164 87 126 107 59 155 170 178 125 162 107 137 94 185 119 224 222 214 208 131 175 120 137 128 143 102 108 121 125 145 147 135 184 202 123 178 118 72 163 159 96 145 107 101 170 86 122 93 144 118 200 172 108 198 194 120 61 62 62 77 88 112 96 96 112 93 138 179 174 125 109 158 77 103 107 110 150 132 104 89 109 85 105 126 117 141 186 199 103 169 176 75 87 182 95 119 111 141 172 112 127 178 145 133 187 158 110 79 152 144 86 68 91 133 123 74 93 113 122 207 173 188 173 140 196 134 127 161 201 161 147 192 199 128 133 91 87 146 95 179 172 82 89 182 106 91 93 88 161 154 65 133 148 105 87 163 81 142 139 66 57 61 88 200 176 204 199 94 183 107 128 150 110 154 60 114 176 152 173 128 171 113 179 132 78 92 111 195 131 167 96 129 129 142 60 48 153 125 95 94 164 113 83 151 118 183 133 209 129 197 111 104 129 184 187 173 165 183 177 82 96 142 74 111 128 152 54 72 57 152 64 158 114 101 99 144 60 113 135 138 190 118 172 99 132 101 190 193 173 183 117 105 110 103 112 119 74 64 91 132 101 149 178 91 147 114 143 161 185 123 96 131 150 115 170 141 151 175 124 107
169 157 143 134 138 140 131 115 109 111 121 138 146 134 142 138 161 165 147 136 147 166 168 171 170 157 162 159 157 147 128 126 135 154 169 181 190 191 190 186 173 169 153 175 176 179 169 159 163 185 190 192 155 127 163 113 109 154 148 159 150 157 112 164 145 70 92 92 88 138 147 96 105 100 131 163 94 155 122 85 137 138 102 149 157 119 90 84 101 147 99 111 127 97 89 88 94 255 108 61 68 81 72 121 125 121 112 107 101 92 85 65 59 71 84 90 98 153 190 139 118 96 97 108 165 185 170 184 145 181 123 87 118 90 92 111 117 174 179 101 166 79 156 114 178 165 199 131 179 166 183 86 75 154 65 135 47 125 112 151 90 149 75 95 95 125 168 172 131 132 150 151 171 174 154 196 191 109 170 108 128 144 83 173 133 160 99 162 162 103 184 149 149 114 75 178 133 185 140 111 127 171 199 201 139 136 92 116 167 94 89 165 155 169 174 109 125 180 115 76 159 71 144 81 166 95 185 180 100 177 75 168 161 62 92 140 150 72 181 104 164 95 70 167 158 138 111 186 224 223 126 133 119 184 169 185 100 158 72 148 181 122 219 120 188 156 158 140 112 176 146 150 171 85 106 138 81 174 86 129 119 177 117 134 179 109 168 173 95 93 65 72 164 168 189 190 113 192 157 197 181 127 125 105 170 159 96 109 141 199 110 103 114 168 180 99 126 178 119 106 147 136 84 90 110 121 193 168 220 129 152 111 139 125 115 206 157 175 89 91 114 106 100 136 33 62 137 73 192 109 200 192 97 145 181 92 95 167 126 120 110 158 109 110 189 157 90 183 119 80 99 83 138 65 71 130 97 126 133 113 129 120 137 59 169 172 181 97 100 166 147 114 138 135 143 205 219 115 176 118 137 169 137 138 162 60 76 77 155 132 157 122 181 129 134 148 159 67 66 110 99 187 116 135 106 79 149 149 139 69 92 108 80 168 168 121 174 91 106 111 211 115 108 177 118 138 133 172 90 82 81 82 159 87 165 114 99 166 68 67 100 72 117 65 146 139 108 64 54 98 93 114 104 82 89 98 255 172 184 188 101 183 91 94 108 100 109 129 102 74 160 128 133 172 156 87 79 133 89 93 168 163 92 131 188 192 115 136 152 87 162 131
164 152 136 126 121 121 117 98 90 102 119 137 146 142 143 146 156 153 154 151 158 173 169 170 158 157 158 157 151 149 142 134 135 149 163 169 180 178 173 176 165 165 164 153 152 180 182 158 178 169 194 200 171 138 155 122 162 176 167 194 128 162 143 156 148 125 72 102 120 114 76 78 118 104 94 124 164 159 87 82 58 92 54 62 76 92 92 91 88 98 108 119 114 117 93 107 114 100 66 78 44 69 86 113 89 128 125 138 112 153 146 105 97 69 126 151 94 102 128 111 137 158 190 203 196 202 143 165 120 85 95 77 123 172 92 95 97 182 169 166 141 142 103 185 89 187 179 133 190 95 118 151 81 69 79 64 138 97 114 124 68 160 110 166 103 165 186 193 133 159 114 129 153 109 149 174 187 95 150 172 116 157 87 73 130 142 108 141 150 96 184 176 72 158 81 159 87 164 175 104 91 185 192 187 119 149 176 104 83 111 118 147 82 89 168 87 178 136 86 166 173 112 100 176 158 188 209 128 166 175 170 160 143 155 106 61 255 167 184 127 97 73 70 126 183 125 201 208 186 115 108 95 111 153 106 148 178 153 85 87 102 204 135 227 131 187 146 138 128 191 113 168 116 78 144 77 154 141 92 152 198 191 150 151 90 102 190 118 157 86 77 73 169 88 139 145 130 108 182 132 169 143 183 133 105 90 159 133 116 117 112 139 181 87 147 84 166 134 189 95 101 179 108 101 115 218 152 155 139 203 113 133 115 192 127 116 167 163 169 75 95 95 64 68 59 78 140 76 98 198 127 179 188 89 92 105 87 115 126 203 119 196 188 104 126 172 110 143 171 114 77 78 42 54 111 175 187 98 176 97 144 64 126 160 117 167 139 185 99 86 117 161 66 72 166 166 213 176 176 105 153 188 155 126 108 109 149 92 153 82 172 100 173 131 143 149 164 110 62 167 113 89 118 113 114 129 112 142 74 110 157 112 152 255 168 172 145 93 182 195 146 108 110 187 107 174 143 102 140 153 97 111 167 104 168 193 199 187 175 74 76 114 116 134 171 147 84 101 94 158 134 123 81 167 88 188 171 113 115 179 154 160 177 143 142 91 132 166 92 99 89 131 118 106 192 91 107 95 107 155 131 92 96 90 183 101 162 90 124 120 119 124
157 146 129 116 112 106 109 99 95 99 117 139 143 149 140 161 148 157 141 150 157 166 170 159 164 156 154 151 151 147 147 147 153 162 170 174 177 169 170 162 140 152 152 166 159 176 179 192 176 207 204 191 194 179 158 134 163 185 197 165 198 155 170 117 93 135 119 76 101 116 129 132 66 77 126 121 179 174 89 68 93 34 59 90 80 146 168 145 159 107 135 115 131 114 102 97 102 103 55 80 46 54 71 89 103 90 83 82 80 87 101 84 78 80 136 98 88 141 159 113 114 101 190 142 148 178 175 93 133 92 151 135 79 155 87 92 169 144 161 79 103 107 111 86 103 125 185 183 98 193 141 90 98 169 164 128 154 86 130 102 118 122 131 127 186 108 116 204 154 176 95 68 87 92 90 172 177 164 187 184 168 120 127 83 57 94 127 158 90 96 185 157 123 150 145 72 112 113 121 175 85 138 84 90 103 169 134 175 104 116 124 156 116 98 109 157 178 133 165 169 93 176 113 192 205 188 115 202 154 117 69 159 103 166 100 120 143 199 213 158 117 88 176 149 184 180 115 191 163 124 186 159 158 143 129 79 170 187 194 98 193 136 183 160 137 176 184 107 188 180 178 156 164 70 143 170 138 85 128 138 172 183 173 69 77 87 193 89 79 152 148 81 110 113 113 125 206 113 181 165 149 127 181 149 190 90 88 94 146 105 124 186 154 162 136 121 100 84 88 97 94 121 93 105 174 130 147 228 217 141 110 200 176 154 121 145 195 167 82 99 99 166 160 142 145 73 115 154 121 96 157 83 162 99 106 141 175 87 191 123 129 110 199 191 106 167 153 189 178 116 136 93 62 42 149 119 150 102 101 78 126 160 73 168 158 147 193 155 114 184 178 111 74 83 122 143 207 134 163 192 130 122 140 103 150 124 149 174 177 168 90 184 157 133 199 106 163 118 162 66 93 81 93 176 135 191 93 170 163 103 183 94 147 100 163 88 105 162 88 160 183 186 83 94 91 109 149 108 107 78 145 109 94 184 170 171 203 129 199 186 152 131 148 148 138 126 166 126 101 133 111 145 89 143 115 109 185 185 145 162 184 100 102 152 119 99 195 189 141 98 115 104 181 164 92 94 88 118 91 95 108 187 143 90 148 124 142 114 85 108 126 192
165 155 138 121 110 112 115 121 119 127 123 142 140 157 165 171 156 165 160 145 165 174 167 162 168 170 168 155 156 145 152 159 172 174 177 179 177 175 162 150 144 139 153 169 171 191 195 206 191 205 176 207 196 153 134 173 184 170 200 191 183 139 109 134 105 153 155 143 108 80 114 54 70 94 154 102 164 153 100 103 119 81 99 38 93 90 108 187 147 116 91 139 100 100 135 137 109 94 72 62 55 58 96 103 116 71 92 104 75 133 92 134 98 81 65 62 82 105 107 104 117 111 97 188 100 114 112 93 174 168 146 55 54 83 79 106 85 184 172 72 65 163 172 142 132 79 82 161 110 196 180 192 189 166 169 172 163 117 105 126 166 181 185 195 120 188 118 148 163 90 96 118 131 139 160 101 121 176 136 99 143 83 68 101 105 95 105 137 90 179 173 88 169 130 90 98 160 78 150 154 118 155 166 182 112 111 192 187 108 94 116 148 203 203 105 109 131 83 81 157 96 174 120 155 171 203 151 177 85 145 71 109 170 170 81 180 142 185 210 116 196 186 102 130 172 125 184 133 89 74 164 154 74 90 80 174 185 142 197 190 100 190 150 209 126 124 141 182 105 100 132 116 155 144 170 146 138 168 81 153 86 104 160 82 158 135 194 190 80 76 145 179 141 141 184 149 191 202 106 142 188 119 133 167 107 160 162 160 164 182 123 178 162 124 102 64 125 116 82 91 101 148 106 180 126 208 218 172 208 140 140 96 109 144 163 191 85 74 94 71 173 74 68 157 135 160 124 181 191 127 175 86 167 98 77 152 84 177 151 194 104 202 179 156 128 167 185 168 194 100 119 98 122 102 144 154 86 133 84 143 98 99 138 107 185 198 187 107 138 130 174 75 167 156 91 154 154 162 142 121 169 199 196 209 147 152 190 146 194 125 139 162 97 142 204 107 174 84 106 84 131 142 112 184 150 186 139 137 115 123 158 139 106 106 92 170 179 101 84 112 186 168 124 69 168 182 109 180 190 120 171 174 186 93 166 191 199 113 202 190 105 140 133 162 75 114 137 69 77 78 155 177 107 193 151 105 179 161 117 92 159 116 162 96 96 96 188 169 174 109 186 131 155 172 80 75 123 117 183 96 107 96 163 87 176 155 173 157 139 150 184 93
182 174 156 134 122 121 126 145 154 149 146 139 155 167 180 178 188 183 175 172 175 179 173 191 182 193 172 170 156 149 153 164 179 186 184 175 180 179 162 159 136 153 156 164 190 178 176 172 172 191 166 183 147 140 150 166 133 135 189 185 178 185 166 156 142 96 144 79 143 107 117 121 97 93 176 185 183 190 126 145 116 65 46 67 94 94 152 123 118 102 81 102 101 97 119 101 119 82 88 93 77 90 90 78 78 96 73 84 82 136 120 102 97 103 65 70 81 87 105 123 113 112 132 104 148 131 140 83 83 166 57 61 132 61 157 170 88 177 181 96 156 148 149 171 167 141 180 106 189 157 185 189 102 187 100 155 169 134 92 66 110 91 183 149 196 157 204 180 172 152 129 151 73 68 67 84 175 195 162 140 88 90 116 102 113 122 72 132 143 108 157 116 80 174 91 134 79 100 84 101 132 123 125 163 92 156 103 189 119 91 185 183 160 171 100 98 171 185 91 181 91 172 135 141 136 200 166 102 108 65 90 69 165 167 91 196 120 218 176 208 111 190 185 122 96 177 146 92 174 73 84 161 118 157 121 175 180 139 186 100 81 99 137 107 139 163 92 179 130 102 161 89 118 104 81 159 149 116 165 255 172 101 75 75 110 182 175 183 97 141 78 88 101 134 92 128 130 121 155 155 135 105 198 201 120 61 76 135 151 122 80 78 169 152 130 69 120 93 95 154 190 193 178 113 136 208 192 171 153 119 86 157 175 111 146 100 71 69 156 134 99 159 156 170 174 97 89 146 131 186 189 112 101 151 145 86 72 108 162 118 166 120 198 187 177 103 121 111 148 134 97 156 84 151 77 129 140 96 159 151 174 121 130 148 169 94 193 99 136 165 75 127 158 99 186 200 194 138 109 109 185 127 191 114 199 140 154 144 129 204 192 147 255 119 150 122 177 145 106 180 163 197 124 219 188 172 161 184 198 121 191 198 178 88 77 110 143 74 179 188 115 184 164 118 133 87 159 181 94 128 141 110 184 186 138 155 146 137 162 192 88 82 67 154 135 123 127 63 92 172 182 121 205 116 205 192 178 131 97 90 191 132 181 98 157 93 96 192 112 169 92 106 169 177 77 102 119 171 147 126 165 126 109 85 84 97 164 86 179 122 188 180
198 186 165 142 127 126 139 164 174 173 166 159 160 157 186 186 190 200 195 191 175 175 197 207 213 208 198 179 156 151 154 165 177 181 173 170 174 188 189 181 173 173 181 177 184 193 168 188 186 183 179 151 193 159 175 183 153 152 175 185 181 128 150 184 165 143 139 106 135 121 142 94 88 104 195 143 115 198 186 171 140 78 91 72 87 160 157 169 106 143 78 71 105 109 102 93 130 105 90 105 112 128 87 87 94 83 62 75 81 100 156 178 104 103 126 77 74 115 105 127 109 93 83 83 148 155 116 108 163 157 149 144 76 79 147 77 101 170 82 123 142 145 157 79 171 99 146 179 142 187 183 185 194 182 191 190 150 113 163 101 134 121 194 183 209 185 163 123 148 69 157 167 157 108 143 142 156 105 137 93 115 135 171 163 151 134 173 160 127 134 158 88 170 96 95 84 92 99 197 143 156 123 63 116 173 176 175 101 169 133 190 136 164 130 107 185 100 155 144 106 186 103 203 106 100 172 90 117 145 75 90 155 95 184 101 101 206 211 115 206 144 167 184 95 126 80 93 112 145 120 123 176 174 165 150 113 171 75 86 169 109 86 89 167 114 85 86 133 105 150 113 110 170 143 127 117 76 119 149 109 113 94 141 160 137 184 107 95 142 70 152 98 117 121 111 127 106 202 119 144 88 95 114 178 123 120 136 85 117 73 82 100 69 66 114 113 83 86 89 107 188 114 98 122 120 150 194 108 112 165 74 72 110 148 63 149 97 109 85 164 83 173 113 87 175 184 140 196 113 127 181 163 68 82 138 139 168 131 141 119 164 116 120 106 104 169 188 163 198 170 151 104 122 153 129 94 149 146 169 149 118 162 102 113 66 163 188 106 141 108 142 121 163 74 179 193 150 154 154 124 172 94 102 108 206 207 186 195 158 118 124 100 115 121 109 184 150 164 184 169 156 155 190 126 147 132 127 157 210 128 122 138 159 184 180 79 103 82 189 207 128 116 94 100 70 182 99 194 171 82 157 171 157 94 133 132 86 183 92 177 90 162 65 77 172 177 86 130 163 111 182 167 148 212 125 172 158 154 103 87 107 154 102 123 91 102 131 173 182 189 118 151 186 101 79 80 152 69 174 114 103 104 176 93 175 172 113 172 104 102 193 143
193 181 157 132 117 122 148 170 188 191 181 162 154 164 175 197 208 208 203 198 199 203 209 213 217 215 196 183 158 156 151 152 165 167 165 163 169 182 192 181 191 184 179 189 171 170 182 176 156 172 158 186 176 183 183 157 162 160 187 192 140 130 153 170 120 119 78 133 104 148 141 161 151 125 200 154 111 108 145 112 98 85 142 156 147 143 159 169 92 101 82 65 76 94 120 107 82 81 84 130 111 92 72 64 105 95 77 123 94 114 106 111 103 81 71 83 132 120 114 126 95 89 86 99 132 123 91 144 121 57 66 47 109 147 88 174 122 104 167 151 152 150 177 94 104 106 139 101 98 90 104 187 153 186 180 111 91 167 67 144 112 175 144 170 158 98 159 66 66 134 93 174 185 142 89 88 109 135 113 188 101 153 108 93 86 140 85 113 172 88 164 133 71 97 78 180 162 110 128 184 135 82 58 90 159 95 80 179 163 136 183 164 151 177 144 207 179 118 156 179 163 201 109 185 189 180 173 122 166 112 151 74 113 187 102 107 191 205 118 109 120 100 188 179 138 158 101 203 151 152 170 98 148 174 78 164 66 75 152 151 68 168 102 150 149 133 122 131 156 168 142 131 167 88 90 114 166 74 145 168 132 93 149 128 174 177 94 98 142 88 88 186 159 144 121 187 113 110 196 172 98 84 157 154 70 71 91 103 114 88 76 105 129 127 131 113 98 154 189 97 114 103 101 180 199 195 119 98 132 69 144 151 73 146 149 114 166 108 181 167 101 72 149 112 71 78 103 105 139 197 172 148 119 97 76 160 169 151 115 94 168 159 87 178 175 186 160 135 194 177 162 196 139 178 162 91 69 70 156 169 159 185 155 141 102 155 78 176 178 107 189 121 99 141 119 183 185 206 209 133 104 179 138 101 192 163 110 159 137 196 193 193 110 206 213 174 151 104 149 190 197 181 175 151 188 129 147 179 129 190 203 173 108 202 190 177 163 159 183 138 215 136 162 151 105 143 189 163 123 168 171 166 89 169 72 171 173 83 171 71 119 101 66 82 83 168 94 114 115 125 219 181 145 165 196 200 185 148 103 87 82 95 170 112 93 156 95 114 189 129 99 105 171 135 109 144 68 124 138 159 120 214 208 112 149 158 175 178 190 102 100 166
175 161 139 121 109 124 155 186 196 190 178 151 144 150 166 176 192 198 200 194 202 209 198 209 211 200 197 187 175 160 154 149 147 150 149 148 155 170 185 178 177 195 192 176 178 156 169 155 163 157 163 141 180 139 161 172 114 132 176 183 142 189 144 164 162 99 76 133 141 113 80 120 119 187 140 186 116 136 166 154 129 126 82 89 102 162 113 96 126 64 60 67 117 106 115 98 90 95 107 88 124 77 73 67 105 97 120 104 107 131 103 119 113 87 82 136 159 160 99 178 177 118 90 115 87 89 80 94 149 134 70 57 161 169 174 175 169 77 156 58 99 102 101 154 188 205 208 210 183 92 137 187 143 171 198 164 94 77 154 62 159 96 158 149 127 133 150 124 149 152 169 115 127 151 105 141 111 125 128 185 185 196 151 186 168 111 176 78 89 89 90 144 155 159 160 82 173 120 102 114 111 92 155 151 139 74 112 94 105 150 144 191 120 213 125 173 180 176 197 150 154 193 141 122 155 189 135 179 91 171 85 84 80 88 188 172 184 147 101 102 102 197 191 85 154 184 196 154 165 214 179 192 153 169 147 96 75 145 158 73 73 109 171 152 99 186 187 105 106 175 146 64 82 142 64 155 153 178 81 111 107 92 135 191 140 104 99 182 88 113 182 143 157 203 175 161 171 120 185 100 171 189 142 128 83 74 71 113 122 93 169 65 108 113 72 106 138 174 187 107 94 173 130 114 196 112 118 162 86 74 165 81 71 151 99 130 118 151 111 177 167 84 153 61 83 152 132 159 169 189 83 152 63 138 156 101 157 191 197 168 110 115 132 151 164 101 179 137 193 126 150 209 214 193 171 73 92 73 101 172 187 169 154 139 68 93 160 87 148 111 102 181 95 158 170 180 165 193 200 114 193 144 82 177 123 163 97 139 130 124 146 205 214 214 221 202 116 118 120 184 133 143 183 150 197 177 217 139 169 198 182 194 196 181 154 86 85 182 210 210 114 194 157 136 126 120 130 140 164 152 169 93 135 142 162 135 149 141 157 62 110 99 82 130 136 155 188 115 122 116 181 183 158 183 187 208 135 154 126 185 97 177 116 84 168 79 179 118 135 171 92 178 121 203 146 110 134 142 137 109 122 220 175 138 139 122 89 128 118 107 125 158
150 138 124 114 117 135 160 185 197 191 165 145 127 127 143 149 174 172 169 194 204 208 198 196 192 191 182 179 180 167 157 144 139 136 135 144 155 163 172 183 169 188 180 175 169 148 157 158 151 166 168 157 158 151 112 132 108 163 157 172 180 178 115 108 165 163 159 116 131 101 144 160 173 115 134 180 111 136 123 80 73 145 154 108 106 122 107 121 82 109 54 63 130 86 154 93 79 80 67 68 73 79 78 69 122 106 97 103 115 255 104 82 148 86 114 92 117 98 85 96 95 109 94 144 100 167 91 94 170 91 76 116 175 81 125 93 80 86 60 149 64 166 185 105 118 182 215 209 189 194 189 193 201 186 117 187 188 151 159 128 164 155 147 173 141 134 87 131 90 158 155 147 207 194 120 134 83 121 137 109 105 124 99 118 162 143 131 120 179 149 158 91 173 83 76 116 134 186 141 149 172 160 99 68 160 161 159 186 146 120 212 141 137 198 182 214 214 152 187 177 205 117 149 102 163 196 200 198 171 167 73 163 98 178 181 176 150 100 169 194 107 198 102 177 85 99 195 157 185 151 189 165 186 186 184 183 148 158 150 169 105 101 147 81 115 112 179 158 185 99 93 55 90 47 107 131 92 127 92 85 117 84 115 145 97 96 88 92 172 98 142 109 106 128 116 176 114 113 135 161 99 103 200 169 196 116 106 169 110 98 105 82 67 68 73 105 129 174 142 107 82 91 137 181 147 105 115 104 85 164 163 166 110 80 155 78 180 186 190 195 91 175 140 157 107 152 72 93 167 89 83 144 104 96 127 130 121 172 122 111 168 124 66 90 107 196 198 186 106 191 196 192 114 144 189 92 152 139 177 184 162 117 160 54 128 99 49 168 90 191 193 176 76 159 178 185 171 103 110 193 96 185 255 88 110 149 154 177 157 184 192 194 225 152 140 114 196 101 197 128 152 107 118 126 187 199 186 215 122 177 186 95 184 180 194 109 108 160 191 206 191 95 113 189 111 111 203 168 176 85 145 84 170 153 162 111 60 160 106 49 59 110 82 125 94 132 92 118 180 113 140 195 107 105 207 170 149 170 119 156 90 152 131 107 78 125 142 158 137 110 103 152 192 183 90 59 67 61 123 141 211 134 159 150 199 103 104 174 100 164 157 96
135 129 122 119 126 141 173 191 199 175 166 134 134 123 125 138 156 153 167 174 177 182 175 183 180 175 178 172 181 178 173 166 158 148 142 148 158 174 173 180 177 186 177 184 150 131 165 176 182 191 165 169 167 155 120 158 135 151 139 137 139 164 144 174 119 151 113 173 133 155 74 85 123 160 196 136 114 78 100 106 68 92 80 127 109 147 172 129 99 89 103 102 72 87 102 139 85 81 68 70 80 78 84 72 84 100 133 112 108 101 131 72 76 97 89 91 103 107 91 73 134 90 79 155 80 89 122 161 127 121 95 131 107 148 90 177 117 128 66 76 72 182 184 97 179 197 203 124 108 161 114 175 122 212 214 124 178 153 66 90 255 166 117 159 156 115 171 98 137 193 118 191 170 226 148 127 168 169 104 142 152 108 171 184 90 178 135 92 118 168 96 154 81 174 149 95 173 132 190 113 82 77 97 135 119 96 122 111 125 130 184 210 132 178 148 222 199 194 123 122 121 124 106 170 99 150 137 187 138 68 153 162 75 131 142 110 83 174 178 102 190 192 188 120 137 172 170 198 170 191 182 176 173 165 183 113 153 95 159 165 111 120 85 180 156 149 98 103 114 87 146 75 116 66 107 88 132 179 89 165 124 115 94 91 157 135 82 96 124 93 87 187 97 185 125 147 186 108 103 92 132 120 210 131 119 96 101 127 121 107 129 103 100 99 171 122 100 173 112 136 105 120 93 93 182 80 166 164 98 105 195 98 100 172 92 74 101 84 86 162 162 194 185 87 86 133 74 72 156 154 128 153 73 94 160 112 198 151 120 128 171 80 76 183 173 184 121 102 173 86 85 155 115 157 176 169 147 145 92 139 186 100 166 111 72 42 90 71 96 95 175 104 171 93 106 198 199 102 118 187 144 185 112 127 100 158 166 152 112 178 191 167 150 194 191 113 109 110 142 131 191 98 82 87 85 185 118 155 165 190 133 182 117 132 118 157 126 175 190 142 185 124 159 199 196 192 183 181 106 99 121 124 123 172 157 118 159 96 82 150 119 88 147 133 125 142 91 129 193 191 162 192 200 168 177 115 206 144 116 204 100 166 152 169 89 150 144 79 155 146 80 122 94 100 87 61 121 70 153 165 215 176 118 177 102 123 182 110 99 114 96 96
134 128 125 128 137 149 172 187 190 171 169 152 136 133 139 133 147 148 156 173 181 186 183 169 172 175 167 179 183 185 190 189 184 176 165 158 170 184 189 184 177 183 184 187 169 162 169 186 210 203 182 131 161 120 103 145 146 159 93 148 156 147 172 136 190 201 154 148 134 150 79 76 153 89 174 145 152 111 69 56 43 94 71 169 170 140 124 120 161 135 79 82 77 123 105 140 103 87 109 84 104 114 109 106 93 162 151 128 106 88 113 59 52 65 90 105 118 74 57 61 91 114 71 86 131 65 76 178 171 191 113 137 174 108 148 159 177 167 130 73 120 158 184 92 98 188 102 108 190 190 180 204 125 157 203 192 185 139 143 78 124 118 175 179 163 177 136 129 205 208 199 229 191 209 175 214 106 189 100 111 192 199 192 87 103 110 186 185 93 167 168 76 139 153 133 140 84 116 172 116 106 95 151 112 102 147 115 133 99 173 95 94 111 125 157 119 174 88 183 113 106 90 171 84 182 159 184 168 166 74 86 165 142 174 151 77 166 73 172 150 182 110 108 87 166 150 87 185 95 74 136 85 142 138 170 87 126 148 132 172 96 111 146 90 172 176 93 132 184 137 100 113 56 115 156 180 183 171 131 172 88 182 87 81 85 176 151 76 164 76 123 159 98 100 134 133 157 99 113 102 82 187 134 164 191 149 122 115 113 179 193 159 136 187 127 128 146 168 59 52 155 145 182 178 89 155 179 102 133 141 105 148 97 142 168 143 158 152 175 168 194 182 196 176 187 170 138 70 62 75 63 52 135 91 119 116 190 213 136 168 132 126 125 106 165 185 174 89 179 154 142 108 112 112 133 186 89 129 151 151 137 161 129 192 75 85 126 52 159 171 187 176 91 153 114 120 200 105 255 99 173 188 167 150 77 163 169 97 76 92 117 91 136 136 202 151 179 191 255 212 150 161 88 160 170 159 149 160 161 167 83 182 190 137 90 131 123 145 170 145 154 105 190 124 119 100 124 89 89 183 175 99 135 173 158 73 255 89 164 158 145 97 188 131 158 146 103 108 148 122 159 135 198 147 88 167 97 92 139 111 163 119 173 145 79 153 91 170 75 128 77 101 165 143 108 146 149 73 179 122 221 114 107 88 121 80 78 90 103 114 179 97
144 139 135 137 145 152 165 172 174 169 161 152 152 148 135 139 148 149 156 166 165 177 174 186 175 183 183 179 176 194 196 206 198 195 183 171 169 186 187 187 182 185 194 169 173 164 180 171 215 198 174 173 162 141 113 126 105 89 108 132 127 138 102 106 149 150 130 205 160 113 142 68 106 147 88 115 90 78 105 49 87 61 80 93 176 120 125 118 108 102 81 80 87 78 78 89 144 138 103 89 105 125 77 91 101 118 144 112 113 124 116 60 56 126 134 144 89 120 52 69 73 74 66 111 73 56 67 144 165 116 156 154 167 213 156 116 84 90 129 84 137 121 184 178 88 142 186 157 92 184 192 107 192 119 203 106 143 152 90 101 140 90 182 177 105 167 102 184 122 204 222 166 158 239 235 153 216 192 155 171 199 167 164 175 75 96 95 109 173 125 97 70 161 162 112 105 161 195 195 191 166 121 91 150 173 135 114 196 120 76 97 91 121 170 131 94 138 92 72 169 135 114 120 80 89 133 95 89 163 95 151 119 187 95 174 165 133 159 71 172 177 181 179 134 67 75 116 109 78 102 87 118 144 156 133 160 72 78 146 87 176 93 105 145 99 96 126 112 88 148 74 95 134 152 104 89 96 138 125 139 193 105 161 164 161 72 143 75 114 84 81 94 108 97 147 193 100 155 157 130 110 80 112 100 113 99 202 196 160 217 175 152 203 104 95 168 178 113 81 72 69 103 127 179 151 91 168 116 156 144 95 182 185 92 106 160 129 111 86 94 103 207 116 123 93 176 175 172 120 162 118 154 71 109 188 147 175 195 132 149 162 89 165 88 189 169 139 177 80 159 153 155 94 110 175 165 168 172 137 113 165 97 165 190 94 90 52 65 169 90 132 166 88 140 153 127 191 185 187 186 110 143 117 177 138 179 113 80 141 161 67 121 173 94 172 139 117 203 134 182 160 121 170 176 171 157 124 143 143 95 180 146 176 162 89 84 95 129 68 89 157 171 198 178 158 100 92 77 131 175 78 102 113 141 165 162 166 86 163 192 198 112 185 191 113 152 80 157 197 195 185 178 130 102 135 149 148 63 117 182 174 165 120 107 168 103 130 68 162 165 169 86 92 109 89 178 82 110 157 194 205 197 116 110 158 61 98 155 77 64 87 173
149 143 138 138 145 153 161 163 159 151 149 157 153 141 145 149 156 165 164 172 162 178 180 185 192 192 194 195 200 202 199 215 216 212 198 179 182 189 193 174 184 185 191 179 169 160 181 214 221 208 147 157 142 135 147 136 137 150 150 146 112 91 97 123 109 193 132 206 159 140 141 145 98 67 84 165 95 84 81 92 94 55 94 91 96 111 156 116 139 138 75 142 81 135 90 93 123 159 108 125 108 78 105 104 99 139 114 98 109 79 91 59 88 76 116 97 112 143 55 49 142 64 82 130 113 53 63 88 95 163 119 125 131 215 196 175 86 172 115 76 167 162 175 178 181 162 170 84 178 106 191 116 133 167 175 180 161 92 185 136 120 82 144 122 83 176 138 115 185 183 129 228 246 188 143 168 191 225 219 209 196 154 137 136 144 124 80 164 72 71 61 93 58 126 156 158 143 193 189 106 107 138 176 86 130 117 153 169 83 85 123 75 163 125 179 181 83 157 79 63 93 83 77 155 90 143 85 100 119 171 198 195 202 199 97 95 85 166 152 171 169 185 90 76 137 173 168 126 177 164 109 96 79 160 148 106 157 82 172 151 85 185 101 192 193 96 95 163 122 121 162 116 95 157 81 85 78 147 163 175 164 141 163 163 163 142 112 104 99 87 125 134 119 147 116 127 183 96 71 65 128 88 106 93 104 126 107 122 176 215 166 203 106 104 171 89 84 78 150 81 75 97 189 110 197 121 131 126 203 99 79 124 100 91 117 172 161 101 72 74 84 189 141 133 184 78 160 169 187 174 152 178 181 105 153 176 111 160 139 195 162 158 72 128 170 93 91 138 161 58 87 118 134 161 74 96 113 120 177 83 102 163 203 207 169 169 73 165 172 111 203 99 163 80 79 116 97 102 98 175 145 88 103 104 164 203 101 155 159 65 79 73 151 138 125 158 201 181 129 159 140 192 95 171 171 85 135 175 163 178 87 188 198 102 186 173 136 68 82 56 103 82 143 129 118 95 81 161 100 72 68 146 106 107 80 108 65 163 133 120 207 190 116 178 149 75 158 180 201 217 215 214 114 123 73 125 53 85 96 148 134 95 136 175 116 138 80 92 66 68 94 147 100 103 116 178 143 140 93 104 165 105 141 61 103 54 52 98 56 151 156 164
143 139 139 141 152 166 157 154 148 137 148 153 155 145 160 155 171 178 170 153 165 165 153 163 168 189 203 202 205 210 202 215 221 220 207 194 185 187 187 192 185 196 199 193 188 188 207 220 213 204 177 165 142 167 156 142 121 138 107 117 131 141 68 107 90 117 190 168 166 173 99 78 72 75 93 86 83 100 137 83 117 121 62 101 76 93 145 137 130 78 77 125 93 88 99 123 131 123 114 119 99 105 125 102 104 100 133 120 84 70 92 70 75 87 128 139 143 79 60 50 69 146 143 74 67 158 158 106 177 113 115 122 214 116 99 93 161 84 163 64 82 173 122 175 86 157 166 136 107 162 156 88 110 170 185 164 188 184 187 108 150 164 135 142 172 183 168 114 105 178 115 220 255 237 224 131 218 211 145 184 95 184 105 162 104 82 104 152 150 161 114 150 58 151 145 149 128 136 131 90 71 155 163 132 92 97 152 177 88 160 170 170 172 146 171 173 166 139 67 67 81 137 70 175 139 173 81 161 99 135 121 168 196 109 145 131 163 78 154 142 102 94 183 109 174 86 195 199 174 115 169 194 99 172 69 99 139 152 128 154 126 104 100 115 131 156 91 159 79 147 82 158 105 153 98 149 97 153 114 164 217 165 203 154 98 104 93 40 67 72 116 151 84 159 141 93 177 69 58 148 60 122 132 155 95 170 93 151 111 211 202 99 135 86 96 153 180 146 92 140 179 102 112 108 123 117 123 141 90 88 149 155 83 129 132 91 145 126 59 101 113 90 81 176 172 168 127 153 194 198 133 174 105 103 189 98 167 189 96 98 107 181 171 131 167 75 167 164 124 78 128 60 149 128 83 82 99 142 97 86 108 192 115 116 119 107 99 95 105 197 125 115 149 125 115 108 77 119 78 72 119 169 152 202 108 188 155 97 83 103 132 156 74 116 161 183 190 198 179 167 152 118 100 186 98 104 91 87 128 134 110 183 151 173 98 151 86 77 79 156 77 132 111 108 102 255 68 57 144 60 57 96 112 48 55 51 95 118 179 192 140 177 163 83 97 167 77 120 168 191 209 216 115 192 161 84 53 146 85 141 124 170 97 175 199 188 98 114 129 130 164 100 202 181 136 109 102 83 76 86 95 174 126 63 60 98 126 119 53 128 144 167
125 127 131 139 153 165 169 157 151 142 145 149 158 156 165 170 175 176 182 163 151 159 142 160 172 186 208 211 214 210 206 221 230 231 217 197 189 187 192 194 197 194 198 193 190 194 190 219 222 184 164 153 172 138 137 133 134 141 171 110 112 138 123 130 140 133 125 153 188 95 103 153 135 107 151 106 61 113 116 172 112 107 129 120 63 77 84 80 109 93 81 110 143 97 107 150 102 130 107 98 85 86 94 134 115 130 89 74 100 75 132 82 123 93 140 123 111 91 81 139 95 70 175 154 164 69 66 78 168 181 200 117 199 103 164 145 97 191 118 165 119 173 90 192 88 135 143 83 140 59 155 160 164 149 108 110 96 168 185 93 173 84 168 95 124 123 129 99 170 127 188 200 140 125 145 196 163 183 183 165 95 174 123 145 153 48 67 151 63 86 157 151 90 54 98 132 199 102 100 138 140 103 94 104 162 87 84 170 177 87 162 181 159 167 105 74 95 70 165 127 75 106 119 92 154 150 165 124 168 92 93 192 171 146 181 143 82 76 159 118 178 87 138 78 124 191 124 142 174 218 144 191 221 162 177 137 130 150 91 153 74 162 96 139 192 153 163 86 138 133 71 182 111 165 134 153 155 59 136 137 210 134 139 201 178 152 137 54 155 102 148 127 100 167 106 131 168 64 74 113 57 86 94 69 87 73 72 182 144 111 141 192 111 77 115 165 149 182 119 115 144 101 180 193 215 179 136 127 181 74 85 169 80 93 92 178 77 101 84 141 47 151 74 152 174 123 71 116 187 126 119 109 168 172 91 182 91 93 131 194 104 154 79 166 161 155 124 82 153 137 152 87 129 78 86 131 169 163 176 188 138 190 128 198 193 182 106 135 156 98 158 166 105 159 148 121 158 135 74 157 130 154 122 102 112 185 118 103 92 98 95 122 149 158 95 171 169 90 94 192 102 121 177 191 126 159 183 149 186 121 200 197 160 110 158 120 85 169 149 115 74 168 180 100 125 73 155 75 72 95 122 54 84 86 147 78 146 163 153 162 121 152 83 81 159 78 180 164 187 178 163 214 152 142 181 170 166 113 132 202 121 190 98 102 156 186 67 74 42 89 124 128 130 132 159 195 194 71 114 134 159 151 140 145 135 136 77 111 137 125 138 95
113 117 124 139 157 171 174 172 158 158 153 159 166 166 171 173 190 186 193 180 171 160 148 255 167 183 196 207 200 194 201 216 228 228 215 203 191 185 177 192 194 195 185 185 185 177 173 209 188 213 178 206 187 196 177 122 143 117 146 113 157 72 58 56 110 175 164 209 118 101 127 132 153 149 85 147 76 104 68 162 168 119 79 66 81 70 76 131 108 75 80 94 113 92 89 108 116 116 140 95 120 117 78 111 101 94 98 121 126 97 83 84 87 100 131 161 123 181 150 75 75 106 87 124 121 67 131 87 73 98 142 142 164 88 141 108 106 198 160 104 181 186 190 127 129 167 139 54 140 109 104 46 62 158 180 164 166 184 189 167 180 120 167 102 106 191 140 112 133 145 180 186 189 197 207 126 120 205 164 151 94 170 94 145 147 155 136 137 164 88 110 127 140 101 88 185 157 180 124 172 71 131 86 85 90 98 90 144 184 177 110 186 131 160 147 96 134 102 158 159 101 169 111 113 139 188 107 99 83 92 162 153 133 162 169 164 154 176 107 121 184 134 174 173 82 99 139 209 202 194 162 169 225 147 192 175 100 145 65 144 158 87 108 165 132 164 93 136 82 153 138 186 194 161 148 161 154 122 70 102 170 214 128 158 132 127 100 89 140 162 84 121 84 116 70 63 131 56 98 142 148 135 77 103 159 65 65 92 92 170 191 107 103 96 67 161 131 114 143 163 106 148 121 106 139 141 184 178 81 82 176 125 172 166 99 134 103 72 77 65 44 55 143 88 97 78 129 65 83 180 145 118 116 122 135 156 188 180 255 114 121 197 96 129 162 99 117 137 97 142 167 84 176 152 94 162 153 195 101 123 169 141 190 167 93 175 120 170 173 111 81 150 70 154 51 98 135 145 116 158 161 171 143 132 127 110 67 143 184 109 187 92 147 92 97 79 132 116 82 87 111 193 162 189 184 99 182 194 189 127 201 105 154 78 84 151 70 152 110 132 89 108 178 85 123 161 69 90 91 63 118 77 135 157 161 82 157 168 157 110 46 55 126 72 153 156 109 114 178 125 203 165 186 215 200 99 174 102 178 190 193 158 142 143 128 183 129 143 50 154 112 103 108 137 201 108 112 89 57 84 138 104 89 166 136 90 197 157 199 98 110 137
111 116 126 140 159 170 174 173 176 173 166 173 178 181 183 194 190 191 196 186 175 168 157 160 165 186 182 193 182 174 185 203 212 215 208 197 181 178 177 182 187 178 179 175 167 173 184 192 191 204 225 204 224 160 180 175 179 142 173 123 131 127 113 142 148 182 154 195 189 168 147 133 72 116 137 143 56 66 139 101 116 177 142 85 81 70 136 63 255 60 110 75 106 80 86 93 110 119 144 86 80 71 92 98 85 124 115 117 96 137 88 87 106 144 86 128 171 102 109 128 120 104 109 128 109 72 62 59 151 182 185 201 190 182 186 104 117 211 205 195 171 180 158 120 178 180 151 71 81 68 130 95 63 150 164 205 201 154 180 125 165 120 189 143 138 92 137 102 177 93 168 108 167 134 194 191 189 103 200 126 192 187 189 132 94 183 97 111 161 158 65 98 87 161 119 181 140 144 105 187 170 93 150 140 127 119 179 123 120 200 104 168 173 119 72 84 103 177 101 196 154 198 210 127 135 111 114 125 179 174 89 164 171 103 161 160 185 192 173 106 170 137 69 165 89 127 209 196 210 120 207 165 142 191 183 74 80 124 156 149 75 133 180 183 114 158 154 116 167 149 170 157 116 179 188 161 165 84 107 67 117 109 210 170 98 178 179 179 139 92 108 100 114 72 109 70 59 77 66 84 70 155 130 149 96 114 166 139 167 171 122 176 126 125 67 123 78 173 115 139 107 86 132 93 174 99 78 76 176 92 178 128 97 105 164 116 149 61 137 51 85 130 77 188 174 172 89 112 131 167 76 165 84 139 140 186 198 197 196 190 106 184 114 146 121 109 145 104 132 128 96 182 124 103 81 77 137 161 142 162 90 130 94 81 66 157 171 86 134 83 83 70 113 143 70 53 46 153 143 170 174 83 80 161 50 104 56 79 141 151 109 133 115 111 91 109 125 83 167 113 174 148 181 85 158 98 98 108 187 102 173 143 109 164 159 68 139 161 88 125 125 131 134 106 178 86 113 54 90 131 107 81 146 173 87 147 111 156 255 94 66 109 154 111 87 115 167 92 111 121 186 223 217 139 108 106 132 166 98 153 135 173 140 96 150 186 115 51 51 99 132 66 73 125 191 106 171 57 135 45 54 66 162 116 91 180 209 130 213 202 159 191
120 126 136 151 164 167 168 172 176 179 176 172 165 170 175 185 184 195 209 205 205 187 172 182 180 180 194 184 173 170 168 187 191 191 186 185 179 173 170 177 177 174 162 161 163 157 162 181 173 211 190 227 213 179 185 129 187 139 183 165 99 114 135 106 142 170 188 133 112 171 149 81 124 141 110 77 116 61 150 92 107 160 167 144 117 140 108 74 110 55 56 62 114 67 91 129 130 81 94 100 79 67 88 69 98 77 81 92 95 116 103 89 147 105 144 84 94 163 159 135 148 111 105 145 96 138 94 73 75 126 93 136 170 183 91 125 150 197 102 178 191 185 164 202 205 182 186 84 70 55 105 141 84 178 206 209 158 152 159 82 132 197 139 192 141 100 166 184 149 173 150 112 99 153 101 180 83 134 164 210 198 215 181 185 169 114 109 147 168 183 101 162 101 94 116 116 154 216 166 193 94 167 150 161 124 147 95 99 150 119 96 157 74 163 109 153 116 130 158 195 144 135 157 204 203 197 161 115 198 188 186 179 188 81 170 170 153 207 136 143 163 108 64 91 155 173 124 200 173 97 103 136 117 178 84 71 161 68 119 83 96 95 141 169 160 114 89 154 115 153 101 142 201 126 179 181 96 61 67 120 76 179 168 201 153 134 98 106 96 95 185 191 103 137 89 132 136 49 84 65 68 160 96 75 145 135 95 87 89 81 82 84 71 78 73 57 73 130 99 163 178 180 98 91 150 86 115 108 171 183 102 105 109 180 89 164 138 117 70 151 128 90 168 92 176 97 172 64 158 80 70 163 98 131 77 133 108 127 119 186 177 129 179 184 123 102 56 78 147 135 255 196 152 171 133 122 146 92 159 68 163 87 93 153 93 126 151 118 174 79 147 101 146 136 105 63 139 49 141 131 164 70 149 55 126 69 37 144 170 105 140 184 140 116 82 162 89 127 135 86 103 140 72 73 158 172 108 202 185 128 145 175 84 136 93 132 71 154 126 72 89 154 69 76 125 100 98 116 94 55 61 82 141 104 171 185 117 185 161 78 77 70 155 93 100 190 136 92 93 110 214 156 121 112 189 163 105 143 133 159 161 94 161 112 126 197 168 78 122 152 75 72 91 81 181 118 120 88 59 67 119 117 151 139 84 110 135 200 203 109 118 135
133 139 151 160 166 170 164 162 172 173 172 162 148 147 160 163 173 185 211 208 223 208 196 195 199 205 190 182 169 166 168 171 173 175 174 172 169 167 169 179 170 160 164 136 157 156 148 155 187 174 185 213 171 126 170 149 133 187 149 142 153 126 81 110 111 117 191 109 135 131 91 94 86 124 107 68 64 79 144 86 102 122 180 97 129 95 126 103 70 65 59 47 58 66 84 72 101 73 122 113 74 70 59 57 61 67 106 151 149 107 123 137 150 100 100 97 93 107 115 174 202 131 113 177 132 176 80 70 54 156 85 93 190 89 85 93 151 199 188 88 89 98 172 116 172 115 127 108 159 147 80 149 124 183 122 201 186 159 136 158 157 143 142 198 97 181 160 188 150 135 86 142 97 122 117 160 88 124 114 218 163 228 217 195 181 118 125 150 183 156 115 107 85 185 203 210 210 168 131 103 119 176 111 103 194 179 185 175 91 98 156 255 154 124 80 176 80 157 144 127 109 115 121 113 208 124 195 117 110 158 186 94 151 186 182 163 200 182 127 189 110 121 109 58 60 86 173 162 158 157 137 172 123 156 101 92 130 130 185 163 119 181 124 167 176 179 125 94 132 157 76 104 196 190 183 169 115 87 145 57 126 195 165 138 141 197 146 119 95 181 93 120 156 187 75 72 138 75 58 69 121 91 84 72 77 157 183 105 94 96 93 86 67 152 113 108 81 110 171 100 135 88 79 79 88 128 90 146 111 132 191 131 152 97 86 91 155 98 69 66 143 164 156 81 129 160 93 149 107 83 135 78 104 146 164 113 145 199 173 185 92 96 145 160 106 87 166 83 157 149 172 187 177 141 132 97 106 139 94 113 163 133 74 138 111 79 147 71 74 175 82 85 163 112 97 62 143 138 143 68 56 152 115 144 135 111 138 159 104 136 140 202 123 115 167 77 85 133 178 175 155 147 158 103 134 110 160 106 118 180 173 133 168 149 79 78 63 70 81 78 53 152 148 135 101 147 121 144 53 151 146 138 101 199 173 143 189 195 112 95 125 162 80 105 145 186 191 189 182 151 200 218 160 155 196 102 107 161 86 173 67 68 128 156 139 151 95 146 103 72 77 116 97 80 179 152 80 101 115 81 120 176 162 83 85 95 165 167 182 90 166 87
145 150 160 169 174 170 162 151 153 155 161 139 129 143 144 134 152 169 187 220 226 210 208 205 202 199 183 185 174 172 163 164 160 153 155 153 149 163 176 189 187 170 163 158 148 149 139 153 178 190 177 195 136 154 157 130 183 162 168 123 149 101 130 112 137 189 189 155 159 167 114 111 154 107 136 54 66 159 92 164 103 170 154 144 126 80 89 116 85 70 55 114 64 65 84 119 106 70 66 72 64 52 71 74 88 70 89 96 118 97 109 87 86 94 153 116 94 105 108 152 127 158 125 123 114 196 186 115 62 74 90 95 188 98 86 113 153 197 95 179 78 158 179 152 160 143 145 161 118 117 66 136 145 102 172 179 132 106 52 63 179 111 165 148 187 101 175 180 160 97 158 129 90 110 149 90 170 190 183 206 180 145 210 199 135 185 134 186 116 113 178 183 190 162 161 118 208 162 148 80 82 93 101 194 95 112 180 154 179 106 121 168 139 103 145 135 75 153 108 94 175 88 129 141 144 159 110 179 167 150 160 155 185 121 179 154 189 192 159 178 89 166 53 142 66 154 150 134 107 48 148 64 172 158 170 167 181 113 165 149 189 127 189 93 108 141 112 162 144 81 168 151 110 200 203 143 127 65 111 139 90 170 205 211 172 132 124 187 95 85 115 115 176 124 121 75 64 135 122 126 126 69 66 130 66 75 79 93 95 121 120 65 89 90 154 138 97 94 120 143 107 186 114 78 67 137 80 62 158 160 97 101 129 145 255 111 169 76 169 105 89 136 70 98 171 98 95 176 151 137 162 147 77 67 159 166 188 189 147 113 83 142 189 116 163 161 157 150 165 99 99 87 168 136 161 64 61 127 122 140 145 117 160 66 144 120 100 162 74 104 113 190 184 168 157 142 112 48 124 47 124 107 149 57 103 127 54 164 192 191 197 141 203 172 146 73 99 176 89 171 129 81 80 69 148 85 90 124 142 173 92 176 82 154 156 70 82 161 115 64 93 157 74 125 65 126 79 92 83 58 162 172 103 216 183 148 204 116 101 189 93 174 84 176 94 161 168 119 149 169 172 198 134 204 204 153 120 255 185 77 127 83 166 174 142 141 154 120 120 176 172 127 82 171 128 77 146 176 139 192 138 140 134 98 171 140 108 90 80 78 96 72
147 151 160 171 184 175 164 155 153 147 137 142 134 129 122 121 136 153 183 200 205 218 209 195 191 189 186 174 165 165 160 155 147 141 139 138 143 150 185 196 188 188 153 162 133 136 118 137 139 168 172 180 130 149 122 132 173 132 162 126 108 130 79 151 179 112 109 110 153 97 122 97 74 75 50 54 119 161 161 149 152 115 194 108 135 102 126 88 90 87 75 124 66 121 86 91 86 89 116 66 64 88 65 44 94 62 80 129 115 99 83 143 162 161 176 148 149 89 90 96 185 189 199 179 122 134 97 133 73 78 86 96 186 191 89 181 143 199 186 107 105 84 189 155 193 105 174 130 163 155 151 160 64 102 77 162 157 118 142 127 172 144 174 153 193 192 123 215 150 184 97 119 131 130 55 71 104 154 125 204 146 183 201 180 96 126 116 132 167 84 134 132 189 190 162 197 120 83 166 114 95 104 87 158 147 154 95 93 101 171 161 179 102 150 174 163 62 126 69 81 146 173 111 155 151 165 168 130 163 161 151 166 74 81 89 109 147 112 182 157 152 156 100 91 57 148 83 133 112 152 59 92 76 180 182 107 112 116 110 204 195 97 151 137 140 86 105 186 144 98 90 151 185 169 189 101 128 114 105 140 156 124 172 145 197 119 127 111 111 130 166 77 82 156 81 122 82 71 141 78 57 62 93 112 148 136 168 109 89 118 169 71 63 61 72 106 112 77 104 103 173 111 160 144 135 112 109 136 153 110 106 173 112 136 123 89 122 129 77 104 133 60 154 158 81 184 153 186 198 110 117 130 96 173 150 78 88 179 126 154 153 129 99 162 169 141 189 132 128 191 187 87 80 93 153 71 130 112 138 61 167 92 128 125 131 150 146 79 134 103 115 101 177 101 177 160 66 151 60 113 55 130 146 63 158 124 80 164 105 213 212 178 195 126 119 65 71 136 180 196 116 165 121 142 129 81 137 83 108 173 85 178 185 107 158 165 174 154 170 179 82 147 95 79 131 155 59 149 70 74 162 172 102 194 106 166 116 122 164 200 191 151 86 152 174 130 85 125 124 161 126 109 126 199 212 135 187 204 185 80 129 152 75 110 103 191 178 153 113 179 178 134 92 88 81 176 170 190 123 204 163 193 160 173 89 95 118 94 77 85 97 93
143 144 152 168 183 185 173 159 150 137 142 127 130 135 138 121 133 151 159 193 198 199 187 195 178 172 168 158 145 153 153 147 138 128 131 128 140 152 181 207 193 197 182 169 156 145 142 133 165 141 177 157 149 142 108 119 171 179 154 160 142 131 143 146 122 123 177 125 131 161 131 141 148 47 65 55 131 113 103 125 164 181 124 107 110 71 74 100 113 95 78 85 64 90 80 124 109 68 111 104 98 68 68 69 76 79 67 97 111 127 84 120 112 169 106 130 104 85 75 172 116 134 142 122 125 106 95 157 161 109 90 189 100 194 108 194 196 201 96 184 174 166 153 83 175 119 156 150 134 68 107 159 140 156 147 144 131 153 86 149 114 169 178 138 101 193 222 204 141 159 79 126 73 46 94 121 163 165 95 152 86 188 127 179 184 137 169 123 182 104 176 152 165 179 106 99 148 69 64 134 90 79 116 166 169 161 165 154 160 108 112 94 147 116 120 139 125 134 150 152 126 148 107 167 100 158 87 181 109 88 138 83 159 78 129 197 126 181 137 167 157 156 62 63 150 125 129 96 117 147 87 122 74 84 99 125 112 131 187 148 199 172 194 137 76 150 112 121 184 111 178 103 135 162 114 103 141 121 144 117 117 195 120 214 131 162 175 183 70 63 102 171 78 133 129 111 86 142 69 62 86 65 159 163 126 99 164 78 117 124 98 103 161 112 110 148 142 112 176 164 195 207 138 192 86 174 64 73 77 53 149 112 103 75 160 182 126 88 173 95 156 109 58 157 174 187 164 152 209 124 156 132 193 96 81 94 105 81 124 115 123 155 184 184 110 166 176 209 211 210 207 103 123 99 146 64 67 52 73 73 99 104 81 77 60 159 159 141 155 88 178 154 194 181 187 121 140 127 145 48 150 153 155 66 164 148 164 118 115 164 109 178 173 118 135 133 68 85 105 132 143 184 168 162 125 132 113 118 175 92 85 178 91 94 184 98 163 113 173 95 143 117 108 65 75 160 70 96 81 121 82 77 176 147 103 85 177 152 179 108 196 169 168 163 98 113 96 140 168 174 184 164 99 100 116 210 145 152 96 84 145 100 85 106 114 189 176 136 185 122 171 197 91 96 80 144 155 106 199 177 123 203 102 166 72 121 129 163 91 64 93 89
136 139 146 162 178 183 180 162 145 139 129 131 133 137 138 134 133 137 153 164 183 187 188 185 186 174 151 152 151 161 151 145 144 138 136 138 144 158 184 206 213 203 186 177 166 147 147 148 153 152 148 134 111 104 122 117 177 120 150 152 101 93 115 111 139 101 138 132 141 88 103 154 146 128 106 73 115 116 181 157 195 201 170 107 88 118 110 121 108 96 88 68 72 69 76 73 84 77 103 80 86 73 102 56 58 68 74 78 108 93 83 119 97 144 123 171 83 64 145 70 159 116 133 179 105 159 169 176 102 96 82 112 158 154 157 197 112 201 190 161 178 97 96 103 165 126 151 69 46 138 62 138 63 168 82 136 135 138 159 138 90 61 151 125 189 149 135 136 171 182 128 118 130 127 92 63 86 59 99 83 114 74 184 127 128 138 192 183 112 91 138 152 92 163 160 172 136 98 103 168 79 87 79 73 155 75 70 170 102 142 107 147 105 95 103 108 72 103 153 102 156 151 76 67 69 168 91 170 120 46 138 142 144 102 91 185 170 207 159 159 163 163 166 94 90 74 160 79 97 150 80 164 86 157 109 183 170 170 151 190 164 162 90 174 153 76 161 159 106 193 181 117 158 195 108 173 93 147 84 152 186 196 125 114 187 159 118 98 102 77 117 73 92 159 115 110 178 100 88 152 145 93 75 69 119 143 114 141 119 178 85 86 83 120 144 147 72 158 77 156 98 106 123 182 116 169 90 151 76 148 48 145 59 104 132 188 116 102 86 140 124 154 61 146 111 177 171 153 200 195 202 194 117 189 177 124 166 83 145 122 95 78 152 141 86 135 192 140 134 220 192 177 143 138 90 138 123 152 124 172 178 163 106 130 58 61 72 147 87 138 178 167 104 106 171 157 157 71 97 138 75 59 56 79 165 126 159 169 168 177 184 89 172 151 62 111 81 169 162 111 170 202 130 119 161 168 67 101 124 123 185 172 155 186 178 154 68 138 168 164 193 101 111 174 174 101 135 175 99 149 160 160 151 134 59 90 91 93 111 196 138 174 87 153 157 159 86 82 87 110 177 89 112 95 192 141 113 97 133 98 186 145 135 157 160 83 156 177 206 137 177 131 128 186 182 102 176 194 183 195 174 119 137 96 166 66 163 126 94 81 171 114
135 139 148 164 177 183 178 163 154 138 121 114 116 133 148 159 158 146 160 167 167 183 191 188 189 170 156 156 161 159 163 157 155 155 156 155 158 168 183 198 203 187 174 160 172 163 155 149 156 155 173 173 144 153 159 159 167 146 111 149 122 86 150 110 104 146 155 114 69 121 76 84 120 95 53 89 111 132 117 203 160 190 117 109 138 73 118 90 88 139 71 80 102 62 79 103 92 72 76 97 105 102 102 94 69 98 66 112 108 85 80 122 125 116 139 110 85 60 45 66 91 107 151 98 75 67 110 89 132 107 152 69 81 104 165 100 131 191 94 164 178 82 99 106 110 163 83 148 122 109 52 52 116 145 180 165 100 137 114 112 139 105 117 87 168 200 255 174 146 141 121 109 96 81 142 54 133 118 96 107 80 148 140 178 105 109 118 101 105 183 134 193 96 98 166 148 179 125 146 135 171 146 109 171 105 92 178 162 92 101 160 110 134 109 69 95 68 151 152 156 110 113 153 164 178 145 171 113 134 134 132 48 113 77 160 130 213 153 199 185 112 138 157 129 132 135 68 115 170 96 102 179 103 201 127 170 165 191 112 151 81 84 117 142 159 91 139 106 166 192 154 183 162 196 127 141 192 150 170 180 95 172 199 114 106 154 113 128 72 67 153 137 126 138 127 73 82 83 141 58 125 58 160 167 136 155 60 68 73 169 109 76 62 94 65 53 95 65 77 108 125 100 87 158 90 106 122 171 124 138 80 146 88 62 150 140 183 98 169 99 161 100 79 168 86 93 185 155 145 197 209 185 92 81 173 178 182 177 107 167 142 159 177 87 83 72 180 128 130 152 203 170 119 190 133 79 98 79 164 141 91 187 116 72 95 154 102 114 126 112 179 123 162 106 178 97 143 130 90 72 60 93 91 82 138 61 114 153 84 74 88 154 154 70 81 103 72 184 101 133 180 150 112 199 97 132 127 113 93 171 166 182 124 159 78 63 140 153 69 187 108 183 167 160 170 88 97 97 83 77 118 121 115 105 149 63 77 144 119 168 142 182 97 93 63 158 132 146 159 107 176 189 175 180 130 150 171 194 121 155 165 185 151 110 118 175 85 173 139 124 211 189 117 115 108 89 137 149 102 185 165 132 194 163 126 74 79 167 70 97 90 121
129 137 150 165 174 179 178 173 159 143 131 115 117 129 155 163 163 169 157 165 174 186 193 211 197 174 153 157 165 167 160 166 170 178 177 174 169 171 175 186 181 176 173 182 183 165 166 156 126 137 149 184 159 153 133 141 181 156 158 101 130 161 138 94 133 106 135 54 117 88 131 118 148 79 77 82 134 108 164 126 126 158 98 141 136 122 93 103 139 76 58 52 102 70 122 107 82 127 128 108 79 123 140 93 98 88 93 129 96 155 79 135 117 165 137 85 62 96 62 47 88 99 184 95 77 60 167 107 88 87 163 77 96 147 89 93 95 97 183 255 190 87 82 175 85 118 171 91 59 149 152 117 150 152 113 110 148 168 67 129 77 99 64 100 177 138 212 210 207 113 162 196 103 169 103 151 62 41 119 135 57 82 108 137 100 211 136 145 204 162 198 112 117 109 178 106 98 116 103 167 99 139 75 76 186 94 107 140 172 102 172 155 157 136 112 160 174 157 182 127 137 160 168 104 101 153 141 165 52 52 121 127 137 130 150 208 218 111 136 113 166 193 146 178 166 139 159 109 176 166 153 121 203 179 164 210 104 85 69 86 109 122 145 90 81 158 158 118 185 190 134 178 136 194 102 101 147 114 88 158 190 205 116 183 187 160 142 127 74 151 67 73 154 168 158 157 101 130 73 66 52 68 86 101 118 84 101 103 141 81 80 104 70 141 95 130 147 97 117 171 177 82 119 122 76 168 173 80 160 170 131 137 50 104 77 105 139 110 186 164 102 162 94 167 162 80 104 173 181 116 106 179 170 96 86 78 120 193 107 168 127 87 93 78 142 103 69 166 189 176 192 155 133 126 193 142 135 173 107 186 154 167 108 162 144 142 88 93 177 165 98 102 179 115 175 114 198 194 167 156 128 160 61 60 146 77 143 129 119 57 84 130 116 141 151 76 98 127 159 207 205 178 146 208 104 105 151 72 73 166 89 176 175 146 160 121 96 128 70 180 153 88 91 113 74 134 127 76 177 156 152 73 129 137 133 69 75 119 138 112 102 152 167 166 162 122 175 185 105 199 102 97 94 89 172 139 96 186 195 139 167 172 121 111 81 108 255 129 185 131 190 106 157 163 184 124 100 83 98 174 182 188 198 152 116 171 140 155 86 161 77 113
120 129 146 156 168 177 176 173 164 153 128 109 108 132 152 182 178 184 174 169 162 189 200 200 196 172 157 146 152 156 162 165 176 189 197 191 183 178 170 181 184 182 161 168 175 183 166 130 133 151 184 209 166 187 172 183 152 149 143 148 151 166 135 118 127 101 71 110 146 86 106 86 151 149 159 122 180 192 116 151 137 110 76 87 101 118 131 105 149 90 114 64 88 83 130 91 98 95 80 73 83 131 127 119 130 124 98 109 108 97 152 85 96 105 161 81 124 120 51 51 68 99 83 96 90 156 178 155 130 162 150 69 95 80 130 78 161 72 72 87 114 174 104 89 188 165 76 123 165 95 173 129 78 156 179 196 174 153 57 137 64 152 154 79 98 159 157 128 158 192 176 169 181 131 71 153 148 95 123 58 70 109 112 165 113 121 169 162 181 183 158 105 126 111 213 129 102 94 123 159 87 154 168 121 176 197 154 114 170 149 128 169 128 174 97 84 139 112 96 179 82 71 165 138 160 161 199 180 157 132 125 120 135 147 121 181 113 201 102 187 128 191 162 165 103 71 60 79 87 175 159 179 186 126 172 162 135 108 98 102 110 109 153 126 157 175 169 134 185 181 136 154 170 128 173 157 190 158 180 120 192 141 116 110 183 173 93 109 148 157 151 155 163 161 123 110 61 101 141 144 155 64 87 115 169 133 93 82 150 122 177 75 80 120 84 43 74 98 96 82 107 75 110 77 102 63 103 104 121 75 69 142 102 86 111 162 195 111 156 181 173 137 167 132 181 96 158 77 137 83 177 117 140 137 97 88 111 99 142 160 144 179 104 166 122 138 62 69 83 99 110 109 121 108 196 157 98 187 255 127 111 100 180 170 159 74 99 87 175 132 87 180 187 109 196 135 207 195 161 106 178 103 63 87 111 81 50 129 103 137 147 134 80 77 172 103 179 115 116 153 192 164 160 197 189 93 169 171 111 142 157 167 141 170 163 153 150 164 133 81 172 137 108 127 64 115 152 140 179 177 172 71 73 156 106 113 166 140 166 191 189 99 179 168 165 154 85 114 136 127 174 179 123 162 82 161 161 187 108 147 113 189 150 85 102 196 111 117 136 111 191 183 162 150 118 151 60 66 111 89 131 98 108 143 145 169 106 95 58 49 53 59
111 120 140 150 164 168 176 174 163 147 136 124 117 126 147 181 185 179 172 164 170 188 255 212 189 161 159 161 166 157 167 167 186 194 197 189 186 177 169 165 172 164 165 173 184 186 174 164 157 175 185 185 203 198 199 181 134 154 158 160 116 122 114 98 152 104 143 94 83 120 91 150 124 183 187 199 163 185 119 99 160 66 56 81 104 130 117 139 98 77 69 86 89 114 101 99 97 98 91 121 91 138 144 154 111 155 153 140 149 103 82 101 124 121 119 156 54 45 47 87 126 83 115 121 49 64 188 166 180 92 138 168 140 83 76 162 152 151 70 168 114 201 176 165 189 133 158 159 151 106 126 163 176 166 159 182 174 154 113 138 137 125 103 98 104 102 143 168 166 128 116 160 87 87 142 160 61 71 149 81 94 155 148 140 97 173 141 198 131 90 106 162 185 198 187 213 110 178 106 66 141 63 76 84 188 98 190 145 152 100 165 146 80 91 127 176 133 173 143 155 113 93 180 200 204 211 201 100 79 140 134 123 128 140 85 189 163 156 181 127 108 86 141 90 104 53 155 128 160 176 173 83 88 183 178 68 53 255 138 150 165 76 144 149 167 143 94 188 125 163 106 188 172 85 74 119 118 143 157 138 169 168 210 136 126 73 167 167 135 64 97 142 94 86 148 48 96 44 52 84 104 120 126 78 119 83 153 125 67 78 173 147 93 121 48 115 111 121 100 77 124 137 70 50 61 144 144 99 61 109 95 76 113 129 101 130 130 105 149 150 168 124 135 153 181 127 70 147 123 67 78 126 148 144 160 118 164 96 96 161 87 169 162 146 118 142 134 141 111 105 97 183 129 181 193 107 143 177 176 124 116 126 106 167 139 109 172 135 92 170 178 168 145 125 174 204 111 133 191 109 93 144 135 61 95 106 132 131 55 138 67 100 110 92 114 175 113 136 104 180 97 133 153 118 124 185 157 154 87 166 88 171 95 175 70 147 121 161 164 169 163 101 147 147 144 161 81 170 151 130 131 126 134 105 156 165 173 184 172 102 111 98 181 73 70 81 170 126 102 189 149 94 154 133 92 85 160 78 175 160 152 104 175 175 188 110 210 121 165 107 158 151 84 77 110 83 73 138 83 75 94 182 98 147 202 112 183 67 52 135 113 46
112 120 135 148 158 158 163 161 154 151 134 124 121 138 160 170 181 173 160 161 170 191 214 202 176 155 162 156 172 169 171 170 176 180 188 182 185 175 170 164 162 166 173 191 202 200 181 178 176 180 187 199 205 177 189 134 147 118 128 137 127 128 99 145 158 86 104 93 176 125 156 147 157 146 175 124 158 108 150 106 112 121 45 70 123 129 122 109 131 80 82 87 133 100 103 96 77 64 87 122 137 116 144 136 131 128 127 134 143 122 91 93 123 133 109 90 70 87 64 72 79 84 69 117 108 108 95 149 146 166 75 162 158 61 65 155 158 156 74 184 196 207 211 121 107 169 163 105 169 201 202 158 138 169 154 172 80 90 156 131 108 124 107 142 108 92 161 87 159 77 93 80 140 86 148 87 79 91 86 72 124 163 130 163 109 157 121 168 188 87 133 117 195 185 173 135 142 86 72 119 67 92 140 80 98 127 158 160 138 85 73 98 72 163 85 166 83 111 162 76 147 137 137 93 119 108 177 139 97 79 109 83 123 64 143 106 121 135 144 156 177 141 58 46 44 143 102 153 114 185 139 122 166 168 139 144 130 69 96 46 101 165 153 162 156 186 103 115 139 174 149 182 79 134 168 165 187 169 168 152 139 124 171 122 107 85 178 89 99 63 94 31 29 100 101 98 70 43 75 154 95 97 91 178 97 102 96 124 75 130 107 154 64 43 130 60 68 83 134 102 68 54 76 113 71 130 133 146 53 73 75 84 191 105 106 178 156 171 156 147 70 64 74 110 88 88 73 124 66 106 91 71 154 57 71 160 165 117 137 179 99 142 120 110 147 134 125 57 125 81 169 138 143 149 117 183 199 141 123 129 106 113 171 82 126 99 99 121 92 187 182 187 194 176 208 218 118 101 124 96 90 162 80 145 63 128 44 138 115 84 163 176 201 136 146 163 196 146 145 104 100 172 102 98 148 146 161 174 184 114 130 97 92 148 111 133 187 158 123 174 160 104 255 87 73 73 182 132 188 83 160 69 142 143 63 122 182 116 193 134 111 149 158 99 79 120 132 135 122 124 108 97 106 169 167 107 170 97 75 146 177 170 153 105 200 175 206 137 116 146 154 178 165 77 67 109 101 44 65 153 117 100 118 133 116 127 114 164 67 133 54 127
123 128 137 145 148 147 142 139 137 139 137 141 125 133 147 169 180 165 163 170 175 191 204 183 179 170 170 166 171 166 167 161 169 167 178 184 185 181 166 167 164 159 169 202 200 197 185 186 189 172 179 189 158 203 179 184 132 171 127 110 169 147 103 144 124 94 94 159 170 184 107 107 162 144 117 164 115 101 105 94 118 111 41 80 87 98 148 118 105 93 148 135 107 104 139 96 76 114 68 92 103 133 160 138 119 122 154 144 107 79 83 84 120 126 124 105 92 125 86 75 98 97 138 118 66 125 106 205 198 88 102 80 62 159 72 120 120 164 144 182 170 211 188 196 177 162 92 99 196 206 145 122 110 168 96 80 71 118 132 127 112 63 148 117 123 155 152 143 148 107 153 99 157 174 181 154 93 107 132 138 120 69 106 162 93 143 154 114 92 93 133 111 183 130 203 207 116 133 137 118 93 165 75 143 148 124 187 114 133 132 99 126 126 156 69 70 105 75 159 162 139 133 161 89 169 140 110 99 109 100 169 111 146 141 135 173 143 132 127 211 178 77 79 64 94 55 65 157 128 148 115 100 84 135 61 140 43 126 72 50 127 88 152 148 85 171 130 196 128 192 165 136 95 97 172 125 156 180 115 169 121 117 140 148 173 178 112 139 138 63 141 57 112 22 80 57 63 47 151 160 112 206 163 188 117 113 193 126 95 172 129 143 75 98 123 93 113 99 153 155 127 71 118 135 126 163 66 144 75 53 89 110 192 143 174 97 177 75 72 147 147 56 60 103 173 141 149 117 159 70 145 176 132 78 83 53 144 59 149 131 161 70 156 146 66 86 107 115 166 142 90 181 140 179 179 102 189 130 172 131 95 183 173 152 152 83 182 163 182 96 142 102 186 141 165 131 124 175 144 131 97 134 83 58 116 44 139 58 62 105 106 109 111 166 133 116 123 145 98 173 81 180 196 179 141 159 129 86 103 115 98 179 112 97 185 146 110 132 110 94 161 68 148 152 148 140 102 195 155 91 149 41 68 142 114 137 183 196 102 106 198 101 185 136 186 180 178 76 76 96 145 184 174 177 189 165 171 99 165 111 180 99 184 167 176 117 169 104 133 174 137 86 58 144 138 122 81 97 158 95 161 158 103 142 201 113 186 191 166 80 110 49
128 133 139 142 140 136 123 120 130 136 148 158 148 140 143 155 171 174 174 168 182 189 195 194 183 179 174 166 164 158 151 158 160 162 170 177 181 183 176 179 182 189 187 201 209 211 191 165 162 154 158 140 182 141 175 132 174 144 153 151 126 164 128 140 172 158 171 150 115 118 113 109 168 149 151 173 106 104 138 101 103 89 56 86 73 92 101 101 142 90 95 107 102 156 106 116 79 63 81 103 97 146 156 166 144 164 144 93 85 100 59 95 83 168 180 185 172 91 96 90 84 164 183 119 116 93 106 200 199 182 98 169 81 160 157 91 109 105 152 199 178 216 125 179 163 57 154 158 196 211 211 104 159 178 79 140 106 165 114 123 128 53 149 92 91 125 81 178 184 148 150 147 128 156 184 125 129 153 178 163 111 88 84 160 94 92 138 117 172 135 108 131 160 88 152 162 105 74 118 124 114 139 103 172 255 91 153 86 68 87 138 85 142 139 98 60 134 70 160 140 105 131 63 64 65 155 130 108 170 186 91 83 162 98 135 168 108 123 130 215 102 105 154 156 54 153 65 104 182 199 197 181 159 153 67 80 84 129 88 71 43 87 56 87 172 113 139 118 103 129 107 186 113 195 183 148 148 80 118 114 133 131 138 112 152 104 76 73 132 101 70 45 26 20 123 30 36 41 146 119 111 214 122 192 104 105 196 125 105 101 153 91 156 117 132 129 102 101 137 139 171 152 81 165 94 96 82 58 139 54 136 174 151 188 188 166 177 126 131 129 135 140 109 150 149 69 103 85 161 71 133 92 127 162 51 48 120 91 131 66 100 168 137 69 82 58 84 120 152 111 155 169 96 161 104 182 167 99 147 118 99 191 137 128 167 164 118 193 165 136 192 92 112 108 194 180 156 125 133 197 110 195 157 125 140 136 43 140 138 157 177 145 208 132 104 182 111 203 104 81 164 93 102 180 94 81 151 169 109 193 135 154 103 120 177 142 217 216 199 183 135 140 69 114 84 184 132 199 92 164 46 46 50 56 77 146 99 174 121 198 103 163 111 205 120 134 105 155 166 159 172 152 196 112 157 134 93 109 79 173 185 127 96 94 112 167 94 182 174 94 63 145 62 61 54 62 60 97 83 98 152 175 155 209 148 119 162 206 125 107 98 160
126 133 137 135 130 124 110 113 124 154 164 157 148 148 141 153 167 178 169 166 177 187 182 197 195 184 163 164 152 147 157 161 164 167 171 171 178 183 181 186 190 188 196 188 200 203 186 173 165 166 164 164 145 179 134 143 171 177 132 173 177 177 148 172 94 162 115 102 166 191 128 143 125 108 177 165 97 96 138 126 82 60 123 60 123 95 108 100 150 155 105 112 110 136 117 121 82 94 111 98 118 96 108 148 121 161 92 94 63 99 101 65 95 116 126 146 143 111 128 114 157 89 160 125 113 202 132 191 140 115 121 162 188 88 89 111 81 125 193 133 203 206 94 78 136 54 80 71 146 133 103 120 88 157 160 163 154 106 102 141 106 119 133 92 108 126 168 130 168 168 93 141 167 93 190 171 137 135 155 130 67 108 85 164 166 174 106 148 189 96 192 182 156 104 65 103 93 167 70 138 174 145 78 173 165 125 76 128 89 85 110 167 95 169 149 85 55 140 75 77 159 61 105 133 156 59 59 82 162 144 184 83 181 152 148 91 153 209 218 129 205 195 149 166 156 145 147 105 79 153 102 128 82 171 130 180 90 83 150 74 153 128 157 156 159 115 171 193 140 105 160 118 196 180 80 71 117 158 78 77 146 169 107 143 160 148 120 85 62 61 61 35 31 48 78 38 111 61 79 75 112 116 196 112 109 166 181 173 101 124 139 76 165 118 58 107 96 174 161 193 125 173 91 99 151 108 116 67 158 145 140 71 91 157 110 79 178 124 164 70 142 82 127 106 140 141 79 156 145 157 163 171 102 155 103 59 67 94 59 124 85 168 169 157 81 72 121 131 126 146 135 191 168 165 139 126 152 173 82 117 194 175 131 101 160 157 178 121 200 146 133 135 127 190 114 114 167 196 198 126 134 117 92 62 79 43 34 99 80 149 115 114 158 107 95 166 190 115 147 171 177 185 97 155 63 109 135 147 83 138 176 106 106 192 134 206 169 127 157 178 73 140 164 169 178 115 164 110 188 174 155 84 135 142 80 174 189 169 196 101 142 101 159 131 197 178 138 109 92 112 161 197 177 166 168 134 142 125 120 124 186 118 162 182 102 86 180 107 119 100 65 95 99 116 59 30 56 73 110 138 150 184 119 208 199 186 107 116 176 93 106 64
118 128 131 125 116 112 108 117 139 156 168 158 149 142 139 155 154 166 161 165 164 175 196 197 196 184 177 170 168 167 173 174 176 176 177 178 180 181 175 179 187 194 192 164 174 160 180 187 168 166 154 141 158 180 190 132 169 139 168 119 149 187 141 120 109 101 88 150 121 154 168 193 168 128 170 84 146 108 138 116 128 109 100 121 149 108 134 146 128 93 94 104 169 143 120 109 91 115 117 87 73 105 95 156 113 144 120 63 117 62 122 78 95 117 124 130 111 82 67 120 76 160 103 152 133 123 115 210 139 215 206 132 199 164 173 168 83 153 107 176 208 198 169 104 151 146 70 255 97 101 107 158 161 166 162 130 102 146 117 151 116 69 148 112 142 177 152 120 206 125 119 166 103 141 137 112 107 112 115 149 152 74 75 164 110 137 104 80 111 99 178 138 147 144 49 150 101 166 123 86 104 80 170 161 134 88 86 120 180 94 97 152 81 125 127 147 106 115 94 81 61 68 55 59 108 117 102 57 92 89 183 143 140 96 140 185 193 145 144 115 116 112 113 175 92 142 138 77 77 135 109 89 165 136 117 194 125 186 108 111 150 134 158 153 107 156 102 153 114 163 123 115 138 108 137 67 84 100 98 175 80 175 145 118 173 175 141 124 54 94 126 62 74 129 41 54 50 62 67 71 183 185 101 108 158 95 133 107 75 154 174 119 72 123 155 62 97 150 148 96 117 110 93 111 86 177 115 138 85 84 72 85 134 164 72 165 131 103 91 72 159 93 87 120 97 155 97 156 114 141 84 115 75 70 132 58 135 84 116 149 163 167 159 116 74 107 65 151 68 145 109 164 186 179 122 183 144 169 87 163 116 198 141 171 131 162 110 110 141 191 184 166 129 191 99 100 120 168 120 202 130 105 116 61 65 44 54 135 131 73 105 109 143 174 126 124 105 91 161 159 158 91 90 140 78 97 161 138 163 81 145 158 81 177 121 198 191 145 110 159 107 89 173 135 121 130 103 110 138 190 76 104 139 154 72 170 103 190 190 186 88 105 154 203 184 199 112 174 105 153 134 204 196 136 161 97 89 108 154 156 102 107 112 108 95 83 97 107 79 142 55 51 45 102 40 131 122 97 112 195 151 172 178 158 185 161 93 94 87 156 161 79
119 128 130 122 109 107 107 119 148 165 164 153 139 131 140 147 160 166 170 159 168 182 184 194 204 181 175 179 177 179 188 185 185 186 184 187 182 180 182 176 188 192 182 168 139 128 167 166 176 149 107 148 163 146 162 146 177 159 150 107 179 157 198 170 167 130 145 171 177 175 210 178 173 162 120 80 87 132 163 93 85 73 85 112 109 114 141 129 137 95 104 132 104 118 131 139 112 99 78 68 92 94 90 131 122 91 106 66 67 72 83 120 107 140 193 135 120 124 144 121 66 77 115 83 172 93 111 133 179 204 110 122 122 184 107 88 96 192 124 206 210 100 106 91 159 126 65 67 70 157 139 153 138 79 150 117 145 126 94 80 99 70 92 140 108 183 124 152 185 108 178 168 163 131 161 175 189 148 181 177 171 141 185 98 135 65 64 167 83 161 115 172 169 150 120 81 65 83 174 141 133 62 114 159 126 113 171 165 161 183 109 124 175 70 60 144 86 158 164 168 84 62 60 98 97 134 41 39 76 140 98 164 165 188 96 105 193 102 194 104 194 205 201 170 138 148 115 131 83 186 157 158 94 163 182 201 200 212 191 112 193 176 172 104 127 94 148 204 144 194 115 118 96 130 110 65 103 176 102 86 82 180 190 183 190 105 170 115 141 49 74 76 97 71 126 55 45 49 107 101 103 114 140 118 162 70 120 136 162 97 158 136 97 142 119 130 87 139 183 173 120 183 186 107 141 92 144 132 166 152 89 78 166 160 125 97 171 122 158 90 89 115 98 185 177 85 101 74 77 121 100 60 151 162 118 73 94 143 128 91 145 130 86 76 122 170 146 88 122 56 148 177 112 146 146 100 169 140 191 152 193 159 97 186 80 153 78 115 124 190 196 134 196 129 97 158 198 139 207 112 199 172 106 67 136 100 53 49 94 77 176 190 88 130 86 84 164 145 103 179 171 182 178 116 180 94 138 159 151 144 78 152 80 85 162 105 105 175 135 166 87 155 159 85 165 89 90 155 179 161 161 100 99 104 151 114 182 86 133 92 137 98 170 96 91 170 170 78 178 129 104 189 113 111 197 188 125 133 82 85 188 118 135 137 113 129 131 165 140 90 112 114 160 60 131 108 73 91 150 183 148 158 176 163 161 93 165 84 90 149 58 142
125 132 133 126 114 110 119 127 144 168 169 149 144 143 158 158 174 181 178 162 177 165 180 198 192 180 185 188 196 197 200 196 193 192 195 193 193 186 181 173 183 188 178 163 147 120 145 167 170 133 152 147 173 187 198 176 189 177 140 120 172 183 170 179 125 87 113 119 168 135 207 201 162 112 171 133 71 126 98 84 73 127 89 157 137 147 106 104 96 93 135 101 113 163 137 119 97 130 111 100 92 83 95 100 113 116 115 71 89 100 103 150 128 189 187 152 110 93 87 62 134 79 77 70 93 91 142 105 105 180 117 133 146 93 177 86 185 196 196 203 202 194 98 195 135 190 81 96 102 85 63 132 153 159 127 62 56 61 105 79 147 155 92 155 178 173 112 128 162 179 102 99 168 141 91 152 102 95 159 149 191 178 138 190 188 138 158 121 87 171 184 94 86 64 115 54 124 174 174 78 74 56 55 99 151 80 113 117 163 215 151 163 107 125 74 134 125 136 149 155 160 155 77 113 147 141 37 131 141 139 149 139 104 167 186 165 187 103 109 112 128 109 106 190 119 63 80 151 83 178 172 118 118 143 157 182 207 138 218 151 156 194 185 174 153 168 163 180 130 132 186 183 154 152 165 173 83 88 163 175 183 144 94 172 101 193 102 164 137 54 61 95 55 140 105 42 56 135 150 117 98 81 139 90 172 76 124 93 196 171 100 136 162 83 120 98 155 180 108 163 142 109 178 101 89 111 94 130 175 95 148 122 67 62 74 141 83 190 102 158 195 94 184 167 177 90 169 93 134 66 132 104 90 81 95 161 111 116 149 141 47 114 128 80 113 111 173 113 57 121 66 172 139 183 194 135 105 162 133 196 100 179 185 189 94 176 115 126 197 170 177 102 90 86 111 121 188 164 142 165 90 160 85 136 85 99 130 158 71 118 98 135 72 135 88 121 107 69 166 163 157 94 170 159 135 90 93 144 54 138 139 153 145 177 106 127 101 162 96 101 102 85 83 117 149 164 172 175 148 153 157 135 99 128 83 174 153 167 79 138 133 88 145 141 154 136 82 167 135 116 172 138 171 164 115 177 76 168 82 91 115 169 136 131 158 124 165 154 86 73 140 80 175 94 97 163 72 76 80 89 120 135 125 104 104 90 124 112 174 117 104 61
142 143 142 136 130 120 128 132 151 154 159 155 151 150 171 184 179 187 186 184 168 171 160 177 190 186 186 190 199 206 206 201 195 191 191 190 186 181 174 169 163 165 168 166 149 136 151 158 175 155 124 170 158 200 185 181 162 134 129 151 110 127 118 119 124 156 160 99 119 191 216 186 167 188 153 101 63 129 69 85 110 90 160 102 113 100 168 120 158 151 97 105 109 132 170 122 119 91 102 95 105 103 137 135 83 81 79 128 91 87 137 173 162 154 141 127 142 83 91 65 101 161 66 152 60 132 118 125 179 96 191 122 172 186 93 174 107 90 145 192 120 175 147 106 195 201 122 125 72 97 158 144 123 65 166 73 71 147 114 169 171 164 174 174 156 148 173 101 90 152 175 167 87 91 162 154 192 191 193 191 117 143 112 112 191 81 161 61 71 148 146 133 157 91 68 78 163 111 99 112 159 82 152 68 132 79 127 150 149 156 157 200 120 66 54 143 146 150 106 155 157 146 134 97 142 138 82 87 105 158 168 102 172 146 179 82 86 86 151 178 114 184 209 139 187 159 90 176 180 92 159 85 62 77 78 187 147 227 167 121 107 194 98 146 163 135 70 78 113 130 190 150 127 113 113 111 193 169 110 103 189 178 181 120 89 89 116 125 66 104 159 84 102 88 62 123 124 100 94 136 69 84 93 135 124 120 100 104 199 144 152 164 118 99 168 198 111 157 151 180 108 97 91 118 175 183 176 125 115 151 92 156 78 160 83 156 147 189 102 107 168 101 182 155 177 115 177 132 81 125 69 133 139 172 157 164 156 110 101 68 121 118 65 143 106 148 138 111 152 108 135 166 134 122 173 178 100 152 157 128 181 127 108 201 210 207 197 194 99 101 194 94 179 167 156 85 120 120 92 140 76 147 127 172 159 82 169 173 86 185 121 122 54 45 45 133 140 137 121 73 119 142 171 185 186 186 81 83 102 103 111 154 139 159 182 179 97 115 186 190 191 174 177 103 144 174 187 125 211 210 220 184 90 151 69 132 121 165 80 162 136 128 92 105 101 167 160 181 188 161 121 114 119 162 161 167 152 152 156 196 121 152 201 192 172 127 188 164 84 81 182 160 99 132 173 148 105 73 115 62 58 153 164 101 172 185 100 138 147 91 154 150
153 153 152 147 141 132 132 145 156 149 153 148 146 168 169 183 199 204 204 188 170 166 162 170 168 179 183 186 195 201 209 208 198 192 185 185 175 177 168 164 153 167 169 155 125 143 149 155 152 144 171 145 184 155 171 191 160 152 152 112 110 173 138 177 162 175 134 114 140 165 145 179 214 165 154 138 117 130 61 108 96 75 122 88 91 96 147 106 255 112 129 118 161 155 176 124 133 96 125 96 91 94 81 74 71 64 80 99 116 146 101 136 185 147 127 107 95 149 113 79 76 80 82 108 132 71 129 97 178 101 102 117 107 181 93 164 85 97 180 79 121 103 128 123 123 192 187 86 155 145 159 110 139 140 174 90 129 134 90 84 185 110 200 173 154 121 143 94 135 166 135 110 93 135 157 190 191 149 162 120 146 103 155 189 100 134 137 165 155 130 128 173 127 104 116 52 117 165 168 123 70 163 76 153 121 183 198 210 168 196 149 191 99 148 146 78 107 61 40 130 49 68 74 51 146 155 69 83 150 143 180 173 184 90 181 101 120 175 84 104 188 169 129 216 109 183 181 177 155 148 71 151 57 159 72 114 189 170 207 121 195 130 189 132 153 111 128 115 55 109 147 166 94 178 96 140 106 147 196 156 194 108 116 85 84 125 85 87 96 114 72 126 62 132 78 107 135 192 90 115 120 97 130 120 195 195 146 187 209 122 159 145 64 165 87 165 132 182 116 143 88 147 89 138 155 137 167 162 98 64 75 86 118 109 115 143 95 150 191 106 111 120 95 176 176 135 145 116 144 50 48 68 167 172 115 115 144 136 150 61 152 61 144 65 145 97 154 60 107 161 155 78 93 133 106 163 84 167 155 140 191 197 178 122 118 199 164 114 190 94 155 145 119 106 129 177 88 91 177 171 84 106 172 150 163 176 85 91 190 89 172 54 129 108 73 123 134 138 115 163 176 169 125 99 184 103 144 63 106 88 86 127 89 182 96 187 123 96 167 99 195 99 175 184 186 136 112 112 142 212 195 143 191 120 143 63 151 122 104 144 68 107 50 151 151 141 183 106 184 162 106 180 105 123 166 140 139 182 130 210 153 177 164 156 186 122 112 99 122 186 178 194 199 102 107 162 150 68 73 63 150 98 98 135 181 111 183 101 89 95 192 147
161 163 165 157 152 141 146 157 153 150 150 141 146 161 179 189 202 208 198 197 169 162 155 153 156 170 166 174 180 188 205 204 201 191 184 177 175 171 169 162 159 145 158 146 126 130 141 142 162 134 153 141 134 174 189 191 178 132 126 115 155 113 123 175 134 168 119 182 118 109 186 202 209 128 135 85 125 83 112 70 116 78 87 134 75 77 105 98 145 142 113 111 113 165 124 159 133 105 144 96 137 80 87 66 60 66 76 109 85 77 111 100 117 168 106 84 131 155 106 103 168 81 115 59 65 103 178 123 194 108 210 165 173 103 94 99 185 184 87 72 128 153 182 189 104 179 189 127 156 161 143 77 142 113 75 154 83 143 179 89 178 107 138 168 191 110 170 107 98 173 186 255 103 139 159 175 127 149 98 81 88 123 183 91 128 86 146 174 134 87 80 72 114 59 56 96 154 137 173 160 182 120 93 128 72 179 188 106 125 153 180 212 207 195 86 65 126 26 106 107 36 98 36 47 86 162 145 143 143 108 176 118 201 122 192 166 89 87 161 191 204 184 127 160 164 208 180 177 94 164 75 145 107 123 124 154 179 195 172 144 138 169 183 165 160 48 111 65 76 66 135 169 149 167 184 128 193 188 133 186 196 95 161 81 177 106 85 111 145 123 112 47 154 111 102 151 213 119 187 79 98 97 192 121 118 142 165 141 114 105 101 65 49 58 98 145 116 70 149 91 139 60 129 89 105 107 80 79 63 148 71 144 93 135 186 102 141 93 121 123 174 111 160 255 92 138 152 72 115 151 111 158 78 88 85 156 94 158 142 141 167 157 67 72 173 149 87 63 73 112 100 95 144 80 91 172 87 122 158 103 190 117 107 194 174 117 211 195 145 178 173 76 74 86 168 79 165 93 72 167 145 151 158 145 166 171 189 107 196 165 77 153 88 79 40 60 150 104 136 141 160 133 187 109 180 102 64 72 115 62 74 92 89 164 164 186 144 113 154 177 180 97 177 117 148 192 167 129 221 178 171 166 143 83 151 62 159 80 95 124 129 137 60 142 104 94 95 177 170 172 207 129 113 141 149 98 88 163 151 111 161 139 123 200 221 219 190 109 164 112 117 183 205 109 145 78 144 161 81 85 150 123 96 199 137 138 160 180 91 181 112 200
150 159 167 168 159 149 152 157 161 154 149 152 160 175 171 173 194 209 209 190 178 170 160 161 158 149 158 154 168 181 201 204 203 195 184 178 175 169 173 162 147 138 156 156 139 127 133 125 152 153 177 154 168 167 153 160 112 163 162 156 117 157 189 211 161 133 171 110 97 115 138 181 120 121 140 154 146 89 114 146 104 79 86 126 72 139 89 147 117 91 99 111 105 118 129 118 120 92 92 102 84 73 88 54 65 115 90 88 104 96 123 107 102 92 82 84 82 124 171 114 99 167 66 129 100 137 175 91 139 105 191 123 113 185 156 91 149 120 183 124 103 79 83 107 106 200 197 201 96 169 167 141 87 141 123 151 99 129 87 134 104 140 158 206 175 161 183 154 157 133 146 197 171 133 220 149 210 151 139 167 77 162 106 110 172 161 182 85 137 153 113 66 119 130 119 62 63 172 150 96 192 156 152 132 78 124 184 172 165 139 200 173 133 116 149 54 120 106 41 21 47 94 45 114 63 87 60 150 64 182 110 126 121 119 200 186 93 125 95 98 200 214 156 135 118 167 160 94 88 124 142 177 189 161 152 183 132 191 174 177 141 140 144 173 99 147 37 134 53 138 95 104 113 182 164 114 162 185 211 131 165 186 88 161 146 84 155 83 53 104 73 136 75 86 113 118 190 121 171 91 99 176 104 112 109 106 195 102 191 97 86 76 133 145 101 95 111 156 108 46 28 41 122 82 113 145 125 47 126 40 135 101 102 194 124 186 103 91 175 212 144 120 162 149 182 98 105 171 159 148 155 140 171 152 172 157 113 106 105 183 96 169 142 129 177 161 83 141 130 64 114 102 163 99 124 98 167 73 127 99 191 189 167 141 182 149 102 177 112 122 166 131 145 133 114 141 110 73 126 74 161 68 139 157 68 133 94 157 95 90 121 64 72 57 153 84 177 159 137 73 124 153 119 255 162 151 64 108 147 121 64 83 129 125 114 156 133 186 102 103 194 194 202 139 121 184 195 113 159 218 148 147 194 168 78 117 163 79 91 90 157 102 157 80 158 196 184 101 105 139 121 191 192 169 144 125 191 186 120 151 179 199 120 118 189 206 140 131 176 175 226 129 122 185 99 176 170 164 138 98 155 57 84 178 111 116 112 101 193 196 109 149
138 155 168 173 161 147 147 161 156 154 151 165 171 182 174 187 194 208 206 200 192 180 167 165 154 158 143 151 151 173 194 203 199 190 182 177 177 174 177 176 167 142 137 155 155 146 143 153 164 166 171 147 148 152 127 158 172 152 123 165 149 133 149 156 144 125 171 173 114 124 151 179 179 133 113 173 186 109 101 117 120 84 100 101 135 137 160 92 127 76 78 91 109 119 111 112 83 98 135 140 85 96 56 67 89 92 101 107 110 88 81 118 94 102 130 69 169 121 180 126 120 104 81 85 98 108 124 170 102 96 98 197 136 98 134 92 179 190 96 142 98 98 180 102 131 129 126 117 106 185 124 156 172 129 129 128 144 181 160 146 161 148 161 172 198 105 159 154 149 184 129 192 141 149 197 174 214 217 178 135 126 106 180 159 129 109 120 149 123 85 166 154 48 44 61 106 130 137 148 142 190 188 88 158 178 145 103 169 129 185 106 184 224 212 86 149 89 105 33 29 80 154 104 147 164 66 68 143 70 93 204 122 146 171 199 108 177 79 166 114 183 122 201 202 158 105 148 174 83 185 184 195 142 146 79 85 184 174 84 81 166 163 165 144 154 151 120 80 98 62 134 156 185 125 155 133 106 107 162 142 99 138 180 93 166 91 123 145 108 109 127 97 120 98 118 115 140 189 134 134 86 177 134 198 182 105 180 100 139 102 156 110 55 141 165 168 124 137 46 62 45 144 120 81 116 66 55 89 44 97 76 166 89 134 197 92 123 119 116 223 151 148 94 174 89 160 141 110 178 151 177 175 148 178 102 171 83 172 192 175 186 133 173 126 141 187 175 109 133 134 144 103 74 97 184 101 81 114 86 129 194 162 142 91 122 67 63 156 123 94 159 161 69 69 112 145 99 110 150 100 149 146 137 139 129 122 98 96 117 136 90 174 127 88 140 113 181 117 88 94 96 181 175 191 89 102 142 76 71 132 79 174 91 132 95 143 170 187 89 90 155 114 206 133 183 139 103 176 186 227 192 200 195 162 145 60 158 90 131 128 176 121 145 107 167 189 187 92 115 154 185 124 221 195 128 170 103 192 186 125 192 194 103 204 177 209 112 208 190 213 160 130 136 111 183 153 138 75 120 51 62 61 75 105 192 106 149 177 199 129 117 114
124 143 163 170 160 151 146 153 150 153 160 176 180 184 193 174 184 193 198 188 188 178 172 168 156 157 146 148 146 163 180 188 191 191 181 176 176 176 182 174 174 152 167 165 163 146 154 174 176 177 191 170 169 172 158 149 188 192 153 183 186 172 175 217 163 202 162 160 90 72 166 177 178 174 127 196 131 138 164 85 82 103 91 74 107 89 100 103 85 73 75 82 87 88 115 73 72 87 82 111 84 77 94 89 91 120 122 93 82 79 92 116 96 121 71 100 168 145 130 137 125 119 105 136 181 144 151 98 94 157 76 77 155 110 78 74 148 92 141 199 166 94 116 191 113 218 177 212 196 152 156 145 182 124 163 161 82 126 121 163 85 180 108 174 205 190 173 141 179 100 178 202 198 165 116 202 208 177 184 126 124 129 160 190 133 108 166 181 110 163 165 150 115 94 112 68 127 97 151 180 89 91 169 113 167 137 102 105 153 163 167 134 211 170 175 115 71 47 121 42 101 147 173 104 106 121 124 76 136 163 184 202 158 198 88 171 101 63 103 152 200 134 210 183 181 174 165 138 178 152 188 123 89 172 167 154 123 128 99 157 79 171 165 156 104 173 167 179 84 81 154 105 114 141 160 140 173 189 125 95 176 108 183 193 110 158 83 121 125 56 110 98 135 97 121 159 128 204 180 90 101 119 119 89 86 183 142 118 192 98 87 78 68 97 127 121 181 129 115 111 95 71 72 76 172 126 100 45 120 82 117 82 70 79 81 81 159 174 126 128 139 194 91 172 155 104 95 156 137 91 163 93 166 103 172 92 102 201 137 119 193 158 89 152 167 187 164 148 65 133 55 153 167 98 176 161 129 144 130 175 152 173 188 118 48 53 111 150 158 162 161 155 69 86 97 152 163 160 69 71 85 140 109 74 155 140 118 118 143 144 128 132 142 190 126 161 121 116 190 185 181 96 122 114 151 110 103 143 100 107 158 91 184 196 158 137 195 106 90 179 147 180 156 134 140 130 130 207 139 221 143 194 142 176 164 148 120 169 85 89 71 164 135 67 255 98 91 182 120 153 195 198 218 174 150 190 169 189 92 160 190 127 109 100 104 205 118 117 162 197 131 116 130 103 130 117 129 95 117 125 62 96 156 132 182 192 210 165 115 107 118 100
128 144 164 172 166 151 145 141 152 145 155 177 185 190 189 184 175 175 193 196 190 185 179 170 161 159 154 151 147 149 172 187 195 188 170 164 168 177 180 180 177 170 173 146 166 161 148 190 204 168 190 171 130 165 192 152 208 151 201 185 130 110 130 194 137 160 166 123 147 80 171 98 169 162 105 155 114 161 176 131 77 125 104 111 123 101 107 103 94 75 67 88 71 82 90 71 56 98 104 83 110 67 94 81 101 117 110 90 72 91 96 156 117 121 65 131 166 181 111 155 111 114 102 94 108 181 255 95 147 86 73 78 152 122 75 166 155 100 91 96 94 191 95 112 190 128 187 195 173 166 96 101 101 192 156 130 103 86 111 174 95 173 171 108 191 154 165 137 122 104 197 134 170 193 161 201 206 170 200 190 168 163 155 139 190 150 117 168 204 125 88 118 80 88 174 93 133 151 180 160 105 163 172 103 171 111 190 178 80 169 85 164 163 112 146 146 80 102 58 86 105 184 170 196 165 157 78 48 51 157 130 90 184 177 72 156 149 146 84 74 192 110 204 181 78 160 112 161 138 82 168 121 255 67 113 68 123 77 169 175 189 103 79 167 174 104 199 130 184 180 124 88 165 197 126 169 114 131 177 155 163 128 95 108 172 109 120 65 119 76 128 89 90 107 109 113 122 147 108 166 76 108 68 77 159 171 137 98 103 115 142 169 145 149 80 160 194 129 159 180 93 102 167 106 108 95 82 63 136 45 98 81 65 151 56 57 67 186 199 124 196 167 111 97 85 170 151 98 131 116 109 99 87 94 159 169 191 174 116 197 155 85 78 144 155 106 173 148 149 68 157 153 83 173 152 87 119 74 74 155 181 116 113 81 63 89 34 46 125 140 76 144 113 170 97 131 78 96 120 169 157 144 56 115 64 153 165 89 92 129 119 166 77 152 149 208 125 176 111 170 188 102 105 180 178 93 180 182 97 126 188 112 188 138 205 187 214 165 145 162 131 90 102 157 211 167 175 128 219 210 123 117 188 75 92 124 73 104 68 158 153 83 65 143 124 81 161 179 141 94 87 106 140 215 223 189 170 138 114 184 168 167 95 95 194 112 131 100 187 130 186 170 133 105 76 101 91 124 145 41 42 44 88 176 185 180 209 146 165 117 171 121
138 147 161 169 166 151 144 139 143 151 166 170 182 183 174 168 164 173 183 194 190 193 184 174 164 160 152 152 143 142 167 180 189 183 167 161 163 165 179 169 171 179 178 170 166 155 159 185 206 205 195 194 186 189 144 213 164 212 181 183 158 145 145 153 160 190 157 85 146 102 118 182 132 164 137 174 104 110 156 145 147 71 73 154 110 173 114 138 100 86 122 91 78 70 88 76 60 87 68 105 74 78 101 129 112 115 153 101 128 79 145 82 93 61 105 67 89 98 110 183 108 160 125 89 158 91 149 101 107 154 80 77 255 119 111 133 93 83 84 95 187 137 144 127 95 196 102 169 110 180 149 193 180 166 119 153 98 139 151 86 90 188 143 162 182 133 188 123 124 190 110 169 176 93 150 104 177 138 124 149 169 143 179 93 90 97 107 133 171 182 80 160 140 84 90 104 106 105 105 193 143 190 90 146 75 78 164 137 173 109 164 180 181 115 168 152 114 115 88 175 197 111 207 162 104 111 61 75 136 158 149 133 165 82 103 69 127 136 67 128 180 183 110 172 71 143 56 147 98 151 123 172 88 75 76 80 93 122 177 121 165 193 86 88 177 175 192 198 158 107 146 116 125 152 98 122 95 99 101 130 176 73 133 129 109 91 156 158 164 98 88 89 119 188 108 118 154 127 103 121 155 59 57 98 102 62 110 85 184 112 161 151 140 109 122 94 167 156 193 90 82 134 158 82 176 106 98 124 159 159 119 145 59 77 135 130 121 78 108 124 173 104 182 181 155 175 147 190 101 96 189 108 73 161 157 184 187 192 157 159 100 108 133 123 182 128 113 147 89 76 141 127 118 175 160 151 96 100 76 150 80 96 118 89 137 115 40 121 124 61 146 127 187 195 104 134 98 89 84 116 171 79 104 153 95 69 142 175 164 70 119 160 164 175 192 110 116 148 164 198 187 142 96 88 176 125 173 175 103 98 120 180 126 136 191 134 140 101 87 74 75 104 185 160 159 163 207 173 126 180 120 95 152 162 157 118 148 134 87 134 70 137 73 149 101 172 161 179 161 176 144 186 186 192 178 152 163 155 173 104 180 118 106 85 96 176 178 186 88 111 87 170 106 120 100 92 170 162 82 155 140 88 171 151 185 204 148 191 152 191 137 189
145 150 156 163 165 157 148 145 150 147 165 160 172 179 167 174 165 177 182 206 205 208 198 200 194 176 162 157 148 156 167 175 180 173 157 152 154 159 158 173 166 177 181 173 167 163 152 172 194 165 179 162 134 179 171 208 219 188 156 157 150 159 146 163 169 104 153 156 135 91 149 129 126 190 100 142 148 136 93 88 137 128 119 154 118 112 119 116 165 113 80 71 64 90 119 141 102 116 76 75 72 82 89 113 114 120 117 87 126 75 97 103 111 57 52 76 75 105 171 113 176 166 92 93 85 125 106 112 197 98 96 84 81 110 103 118 96 180 183 115 197 195 157 119 170 112 86 170 93 82 164 196 198 175 180 121 179 82 111 163 183 150 103 190 117 130 190 177 127 175 97 111 168 160 95 102 112 151 171 107 102 90 128 104 129 90 154 85 164 179 79 172 124 184 132 134 190 122 192 109 190 119 156 85 81 145 161 157 111 165 176 178 165 138 149 168 174 194 123 178 190 208 122 134 106 133 159 83 111 255 86 175 101 79 74 159 132 133 93 155 167 181 86 138 152 86 60 76 147 166 161 89 182 180 168 176 158 167 157 176 129 107 101 116 140 201 179 204 153 90 154 118 179 151 181 147 108 161 120 177 82 92 105 84 120 152 128 142 107 106 92 99 108 89 150 95 167 101 191 102 103 144 59 78 77 61 152 119 97 109 144 123 157 91 137 186 128 197 127 101 97 94 72 166 142 187 184 111 88 171 152 81 66 61 90 43 72 121 81 179 103 117 197 191 176 81 79 93 119 94 85 172 69 102 160 183 181 94 165 137 154 163 143 95 175 141 174 142 116 145 153 101 90 71 74 81 117 143 119 114 81 192 135 179 165 57 74 140 124 84 75 123 101 206 124 201 193 155 104 177 182 187 190 180 120 141 74 119 101 157 137 119 153 104 177 114 107 111 115 197 215 133 106 166 87 150 84 170 145 161 79 177 139 123 199 158 153 162 104 133 176 94 151 105 122 100 124 115 215 215 175 151 97 74 105 132 133 69 103 163 96 124 98 106 101 90 176 165 186 117 184 184 97 119 102 113 185 112 129 83 120 173 77 75 85 88 87 179 160 156 144 164 76 140 65 169 86 93 82 164 162 83 140 192 161 154 167 176 142 91 106 119
136 140 145 149 155 155 147 145 144 152 159 162 161 172 171 168 162 179 189 196 204 206 207 212 196 180 176 155 167 172 176 175 170 160 155 152 151 155 157 159 167 179 173 171 148 170 179 162 180 153 141 164 130 167 144 195 162 170 198 181 124 134 114 146 114 140 116 129 91 155 194 202 192 125 135 185 121 169 89 83 69 110 114 97 167 141 129 174 107 90 79 82 91 117 96 139 98 77 73 75 88 86 91 96 101 123 106 97 96 101 75 74 56 39 80 91 71 146 132 207 195 106 105 73 111 94 122 193 189 126 123 162 161 192 104 195 166 188 191 103 206 153 255 102 107 73 67 161 135 172 188 190 205 196 184 123 179 156 113 166 131 168 165 186 146 106 193 166 151 181 171 176 143 178 161 115 107 75 128 255 111 131 144 156 179 179 179 117 156 179 135 149 179 103 87 164 136 107 151 112 119 114 111 141 89 83 147 122 189 110 138 195 186 150 119 108 148 148 217 120 136 139 207 117 180 96 172 113 152 104 166 85 133 172 169 163 146 132 142 149 115 74 80 75 78 86 84 163 162 124 100 92 95 157 141 167 171 124 144 132 180 181 126 144 117 171 180 183 141 155 178 86 89 84 103 87 129 100 187 152 176 156 126 138 73 101 43 46 125 130 86 143 174 177 142 181 177 112 94 162 127 85 67 84 99 81 85 161 87 141 117 200 83 80 71 155 168 145 164 89 81 79 161 81 136 100 186 153 164 114 91 108 71 51 144 75 74 72 153 184 181 163 194 166 176 165 165 146 123 163 76 157 136 92 70 165 174 144 165 131 161 161 74 95 101 162 166 179 149 152 174 154 65 160 65 103 74 108 85 136 92 198 200 127 140 167 131 144 47 154 151 177 128 178 158 114 170 178 161 158 191 109 127 153 125 181 88 153 155 142 94 83 66 167 123 130 168 100 201 190 177 125 153 191 160 61 61 151 136 163 95 159 183 212 126 209 122 163 171 107 117 126 184 138 81 94 167 112 112 126 119 154 63 125 120 140 77 133 174 132 80 122 163 142 143 133 141 143 189 135 118 84 169 106 146 195 203 192 141 125 119 109 81 139 131 82 108 108 172 77 120 78 111 152 118 99 158 98 138 87 161 76 74 129 110 173 92 175 75 88 111 154
118 125 135 145 155 158 154 153 148 152 167 160 167 163 171 182 181 172 166 171 188 199 206 212 207 195 184 170 181 185 183 172 156 153 146 152 156 156 155 158 169 168 175 157 171 174 183 184 169 161 133 156 176 180 174 152 158 211 207 177 124 125 153 88 92 133 103 99 148 160 124 143 192 138 176 124 175 108 118 98 68 62 142 115 95 99 129 132 91 97 84 123 78 91 106 114 102 98 81 82 88 84 114 120 121 109 112 121 118 82 116 92 61 52 42 42 77 94 153 137 203 145 173 76 81 118 167 199 94 180 81 154 186 96 165 106 201 98 115 133 208 210 145 255 163 65 106 143 64 156 93 111 119 160 255 161 147 141 143 145 109 174 117 170 117 121 145 139 123 110 130 140 178 182 169 88 108 97 131 135 99 90 147 134 166 104 149 176 105 156 186 128 106 90 185 120 107 104 152 131 160 202 186 130 169 142 92 101 204 178 139 203 177 132 183 125 170 169 171 138 217 122 219 200 175 95 173 172 159 104 101 176 179 75 156 122 156 149 115 85 153 130 92 84 78 184 167 156 107 93 131 141 174 175 94 152 140 138 127 139 164 143 147 130 133 120 175 137 186 88 95 131 181 171 169 87 110 92 101 112 126 170 128 76 59 102 30 64 57 65 84 168 126 170 119 73 81 128 193 177 84 75 81 102 156 95 255 67 169 92 102 163 87 80 79 90 110 122 103 94 175 132 153 172 145 86 87 122 171 107 94 131 152 77 109 114 72 163 89 124 195 98 134 168 136 109 110 74 167 92 94 126 74 166 75 101 143 169 108 97 79 180 173 88 147 79 152 162 167 139 100 140 131 56 88 160 86 75 170 90 185 190 115 168 182 101 135 115 64 79 116 132 100 108 167 189 96 142 97 97 189 169 208 118 214 195 183 187 83 75 107 136 174 122 91 184 143 153 103 167 142 221 189 136 116 152 49 143 158 161 168 102 192 168 173 149 128 107 75 175 171 135 157 179 133 78 144 112 198 191 162 126 153 152 90 67 70 73 74 165 78 173 94 129 96 151 155 126 167 130 125 167 101 88 108 202 128 91 158 97 84 99 95 150 147 168 88 83 119 128 106 163 73 136 71 148 126 84 94 89 81 151 69 67 142 81 90 91 82 116 108 133
109 117 130 143 156 165 163 160 165 163 167 170 163 172 176 170 179 166 161 160 168 178 189 198 182 188 176 185 192 195 181 170 162 152 154 158 167 169 160 160 168 166 169 165 170 156 178 184 161 162 142 172 166 172 192 208 190 153 212 197 120 165 120 99 146 149 117 150 126 119 100 96 101 116 183 109 125 192 127 166 81 74 141 76 83 83 102 86 96 151 96 90 80 124 86 88 128 111 88 137 141 101 99 87 100 107 110 86 89 125 76 88 70 91 46 66 79 82 142 114 174 96 162 104 172 93 102 147 139 171 122 169 136 94 196 182 197 114 108 117 122 210 165 164 105 101 107 155 88 146 149 83 143 139 158 83 75 126 124 116 160 137 102 194 126 104 151 168 192 126 117 133 185 170 105 172 86 109 129 101 201 156 144 153 180 175 155 186 163 167 193 195 141 136 154 160 178 156 116 84 165 137 133 94 168 89 133 105 154 160 142 124 147 195 135 182 119 124 165 132 170 220 196 126 182 94 88 126 121 86 139 87 106 76 63 159 161 160 160 144 96 100 142 152 186 115 208 175 188 84 148 87 125 151 190 123 80 123 149 63 55 68 123 61 69 95 168 187 188 138 165 98 81 102 131 156 137 121 169 137 101 95 69 107 124 45 43 133 118 59 84 97 156 79 152 74 176 145 199 100 185 117 98 111 172 140 144 87 88 88 126 98 89 133 97 83 95 109 155 100 154 161 167 159 132 177 78 81 146 93 139 115 79 126 72 64 131 85 165 132 193 97 115 153 95 65 167 115 119 78 143 164 109 92 72 157 156 116 165 172 133 184 114 141 73 119 72 87 102 111 172 82 160 149 108 141 100 169 168 109 130 170 180 193 161 137 158 75 130 57 155 114 135 89 170 126 136 82 139 157 172 195 213 219 189 132 104 188 155 135 95 151 187 110 140 99 143 181 190 135 126 192 186 203 178 76 61 102 172 136 133 121 116 201 103 159 96 118 76 103 115 162 166 158 77 165 90 190 180 132 84 173 73 162 94 155 127 161 169 111 106 164 116 182 181 85 123 103 87 146 70 113 122 180 97 100 188 146 88 143 76 139 145 118 178 148 186 178 87 125 69 160 71 106 159 167 81 91 144 97 122 78 60 68 145 165 165 68 150 88 203 186
110 118 133 150 167 171 182 180 171 169 166 163 168 178 174 186 173 162 154 157 152 160 179 175 170 180 188 194 198 202 186 181 168 161 159 173 186 187 185 177 173 158 156 157 152 171 161 192 167 178 179 181 208 175 178 205 197 142 188 175 178 99 91 102 94 138 147 169 156 92 78 121 99 119 132 164 107 171 122 168 93 75 83 73 74 137 82 121 104 105 162 134 90 74 72 103 94 100 99 138 132 119 94 89 107 103 105 101 121 85 83 100 141 82 69 106 103 64 67 79 83 109 90 93 132 106 128 105 88 68 81 92 118 197 145 118 189 94 197 208 212 199 188 184 155 169 155 160 173 124 157 131 103 148 131 93 125 67 84 119 170 181 167 190 156 190 110 112 203 122 140 147 148 190 187 178 164 112 114 201 208 121 180 97 106 170 81 83 89 81 86 98 133 107 179 172 186 131 173 123 153 84 117 165 131 172 168 191 219 150 135 211 168 169 97 110 181 89 185 195 203 188 222 217 193 107 178 149 98 130 81 112 61 145 75 156 135 170 161 135 158 55 135 166 130 122 216 174 190 124 166 124 78 143 157 124 101 151 164 122 94 149 94 99 141 148 138 85 88 156 158 77 105 100 120 92 85 90 112 116 99 179 94 99 80 101 79 57 61 95 92 97 123 156 134 131 88 172 190 97 97 111 105 128 184 196 148 131 92 179 168 108 90 106 169 123 89 97 104 157 103 121 142 180 145 164 152 154 45 46 93 63 75 77 94 80 154 146 98 183 185 155 92 124 143 72 175 177 125 106 171 185 145 86 174 156 85 134 84 179 103 142 137 71 55 86 129 58 150 79 80 143 158 156 100 146 165 171 184 140 210 113 180 189 188 177 162 48 101 73 152 156 116 142 121 155 69 71 158 139 165 164 179 213 111 202 90 136 140 136 197 181 92 107 98 117 75 180 190 199 216 158 184 204 90 156 168 170 145 191 194 167 96 96 133 95 78 135 65 88 179 157 162 127 97 121 167 98 177 160 90 122 90 151 102 65 114 92 130 172 170 85 133 156 150 110 163 108 97 154 79 105 186 135 99 175 170 154 70 144 143 67 61 151 89 180 134 141 147 122 131 108 132 78 81 170 176 86 101 95 133 101 68 127 159 69 159 125 68 87 139 160
118 125 137 155 171 176 185 180 180 169 161 167 150 160 171 175 174 165 159 164 157 160 165 166 168 178 196 203 202 198 190 185 179 169 172 181 199 206 204 195 181 165 143 129 147 152 159 166 169 183 195 177 189 168 158 169 138 130 185 116 143 124 126 121 126 87 134 145 147 117 78 115 148 178 148 87 90 123 180 157 112 90 95 78 72 113 151 110 119 128 116 100 92 74 89 71 86 99 107 153 142 113 136 104 97 101 139 99 81 91 120 127 82 88 67 63 58 125 53 103 63 113 166 86 147 111 86 164 63 90 100 95 98 110 115 119 182 81 87 102 190 163 195 140 182 197 108 105 135 186 190 129 163 129 174 129 179 142 164 161 186 182 126 199 193 158 121 129 189 205 123 97 172 132 133 111 154 150 141 182 137 216 188 133 185 139 99 69 106 97 66 143 94 102 209 154 169 195 113 94 117 136 162 81 145 85 187 145 130 123 255 203 163 168 179 76 128 157 89 148 100 199 154 223 121 105 127 84 166 140 117 126 68 149 56 83 123 179 175 102 163 156 73 169 150 163 156 121 172 88 159 76 127 151 116 255 106 151 121 159 161 154 98 91 71 71 132 159 145 105 179 170 84 167 159 144 125 149 103 197 131 188 207 121 103 190 128 159 91 84 174 95 95 91 166 124 183 121 114 108 142 101 135 143 183 142 184 95 137 123 89 180 90 111 170 76 178 116 195 100 101 105 88 95 98 89 106 87 90 114 57 86 86 85 144 115 183 161 146 152 133 168 146 161 123 90 135 100 166 111 94 123 179 88 148 101 130 144 107 160 141 99 165 78 68 43 146 142 132 124 137 88 87 141 143 145 151 154 140 183 203 194 176 164 182 163 159 94 144 73 99 76 106 97 126 63 127 72 168 131 85 193 150 183 170 148 83 170 90 193 140 104 184 169 151 66 159 114 91 173 125 197 174 190 158 154 173 99 203 169 121 187 145 179 147 162 162 97 104 102 91 170 130 158 127 145 107 183 118 122 174 161 63 68 152 72 136 143 128 170 140 100 85 180 168 158 75 114 102 93 77 162 193 200 102 105 136 89 57 151 58 55 135 71 120 130 180 197 172 110 80 141 59 82 82 111 138 86 88 126 82 126 103 76 77 74 73 66 85 130 114 100
119 128 143 160 177 181 188 181 179 161 154 149 140 134 152 169 183 180 176 177 171 165 167 174 180 199 205 196 198 191 180 182 180 178 185 188 205 212 218 201 193 174 159 153 153 147 170 202 197 181 205 214 216 162 179 129 112 112 164 148 117 171 163 133 162 89 89 146 102 90 115 165 170 127 163 103 146 137 116 93 147 151 98 150 113 140 95 129 164 126 120 128 88 76 104 74 100 112 165 118 129 115 122 102 118 123 106 105 93 81 106 107 144 149 70 80 72 129 57 72 124 137 64 168 175 121 90 84 77 116 173 90 166 103 194 184 118 154 135 97 147 104 196 96 172 121 112 110 129 194 201 104 170 155 177 178 172 181 152 191 150 212 135 167 159 183 175 184 170 188 197 138 191 185 139 126 77 125 175 146 200 209 184 112 153 162 121 105 107 49 114 57 83 97 108 154 115 96 118 162 162 117 153 65 68 118 194 127 120 179 164 177 185 125 142 73 74 109 179 185 175 188 190 119 157 110 103 180 157 168 163 159 155 125 142 177 155 130 174 166 71 87 141 89 166 112 186 175 145 162 128 146 184 101 128 113 201 176 158 164 174 132 82 147 44 140 66 78 100 152 162 149 58 136 108 72 127 156 183 120 195 187 142 143 114 170 187 126 192 171 169 90 183 139 92 120 82 82 83 97 115 102 136 137 178 126 122 109 172 136 170 167 132 129 164 136 149 176 113 172 91 165 83 166 173 134 120 83 143 70 70 167 172 82 99 185 90 86 61 144 154 149 74 73 117 97 175 195 135 175 95 105 94 181 97 91 166 164 117 147 169 196 166 109 108 100 74 125 176 170 78 157 116 144 143 132 62 114 87 153 119 126 100 102 121 161 166 154 71 87 156 170 153 165 92 137 86 133 162 170 161 153 189 178 139 93 176 162 149 135 198 148 173 148 81 143 127 167 145 193 138 177 163 119 78 161 150 120 168 160 160 170 255 174 125 155 163 135 176 107 73 140 158 150 66 96 180 100 150 191 81 72 67 161 156 74 89 166 97 139 172 168 186 151 158 90 89 75 104 87 119 171 134 140 204 86 71 159 89 76 131 68 68 114 138 172 95 121 196 153 142 72 68 148 116 86 86 111 109 126 123 119 99 88 108 174 156 71 84 79 75 74
122 133 149 164 172 175 183 174 174 163 161 148 127 122 143 159 178 178 181 178 177 172 183 197 209 212 216 210 192 177 174 175 179 180 190 199 210 212 210 207 203 190 176 156 167 178 171 192 217 190 211 201 209 171 170 153 116 92 145 152 116 179 176 102 143 177 111 147 158 155 82 170 135 81 144 80 115 100 89 164 118 98 147 83 135 144 106 142 197 131 172 99 107 113 87 129 99 98 129 111 116 107 98 92 93 97 145 100 95 122 80 139 86 86 80 104 118 83 80 91 74 67 92 78 82 83 95 72 101 151 73 182 94 158 160 100 65 155 154 171 109 198 182 127 120 193 104 113 132 103 102 134 186 187 173 106 126 165 180 187 152 191 172 186 220 158 180 224 164 210 141 196 168 110 198 144 135 172 147 89 106 161 105 208 132 114 114 47 103 91 143 113 169 86 98 189 98 147 147 112 122 111 99 72 103 176 100 141 164 187 94 168 92 142 171 130 161 154 154 134 88 132 185 175 183 124 84 83 92 120 76 161 146 176 142 188 100 85 144 101 97 152 161 141 165 113 104 192 166 198 99 135 175 119 124 184 197 196 187 169 164 111 150 116 58 57 136 111 122 126 161 112 78 159 161 76 78 153 131 186 203 195 121 217 135 107 178 167 140 112 194 101 116 180 90 117 76 140 76 92 81 145 205 140 145 125 113 156 84 123 168 79 140 78 165 79 124 90 79 136 111 85 149 158 182 87 183 136 119 149 81 138 152 171 175 177 137 77 163 79 90 98 152 89 168 134 102 191 140 117 93 183 155 130 177 161 126 136 97 184 160 188 83 169 164 171 85 136 129 153 183 185 103 97 73 67 144 153 167 100 166 108 169 70 152 160 180 118 83 157 91 161 93 167 119 121 97 141 174 100 185 175 118 160 123 177 158 177 85 105 128 82 167 162 96 65 140 145 170 183 140 177 106 87 138 87 152 159 127 137 130 162 89 175 159 159 167 79 140 110 164 83 146 156 161 172 182 200 207 123 138 118 126 138 168 154 152 141 157 103 147 156 186 125 136 136 139 172 112 108 133 209 142 131 193 108 151 62 134 109 56 146 71 98 62 113 88 160 179 83 160 138 76 151 77 157 86 76 143 125 139 93 93 151 172 89 163 156 170 157 72 59
255 136 155 166 173 172 169 168 164 164 155 147 129 119 137 150 159 175 158 170 177 187 188 205 227 230 220 209 190 175 170 169 175 177 192 204 210 204 199 189 190 195 182 169 176 185 206 215 212 219 219 185 208 153 158 96 110 138 143 168 122 133 171 255 175 170 161 170 128 128 127 151 140 160 122 111 79 67 70 84 85 119 83 115 73 134 97 116 168 114 100 111 123 128 151 92 112 89 93 108 123 116 123 98 121 133 100 99 133 86 81 80 117 101 138 87 131 140 114 95 86 143 130 89 78 167 89 77 107 157 74 157 123 181 132 120 92 128 154 74 175 187 107 83 173 177 197 118 120 171 192 172 158 122 160 103 109 134 195 170 141 153 169 158 185 230 233 231 197 194 176 125 132 181 151 166 178 139 88 156 114 156 125 189 170 159 150 49 52 152 154 146 137 91 189 96 184 94 182 179 167 171 119 96 79 81 87 189 123 107 81 135 87 164 99 109 88 178 179 102 179 96 87 171 120 179 161 109 84 64 154 167 183 174 199 195 134 171 107 119 71 165 85 107 90 176 163 98 106 107 99 173 183 193 115 167 147 198 167 94 125 160 89 80 95 162 106 149 197 182 140 122 152 145 90 158 159 183 92 144 103 115 185 142 197 124 100 132 191 104 103 94 91 163 136 149 115 112 149 77 81 170 134 142 140 116 119 133 84 159 116 94 82 103 93 70 162 109 106 79 96 81 86 147 112 103 153 109 103 117 86 69 64 146 82 76 125 119 90 112 164 159 121 169 94 92 141 181 199 197 99 174 170 170 192 172 163 161 162 161 177 182 103 175 172 159 88 113 195 124 146 181 103 171 85 104 93 160 135 158 178 139 139 112 89 135 109 133 178 183 103 138 130 154 85 123 144 148 181 89 102 183 107 145 112 129 183 110 120 81 72 160 149 82 158 103 128 151 165 166 176 108 89 143 158 110 133 88 167 124 123 162 176 75 154 164 82 90 84 167 124 150 61 84 117 98 196 153 115 116 115 208 136 143 185 121 82 162 167 121 131 84 137 190 123 162 89 191 123 171 198 135 201 200 167 74 116 64 89 102 96 153 59 160 127 140 83 81 123 118 80 111 130 85 75 74 169 99 83 98 112 142 90 133 93 86 96 173 87 94 95 122
127 139 154 162 164 157 155 151 156 169 163 161 144 137 124 136 139 156 161 163 155 185 203 218 221 232 224 209 198 182 175 175 173 186 194 208 209 197 181 180 183 172 190 189 184 187 202 203 189 210 202 179 208 150 139 101 138 143 147 116 177 156 119 128 126 195 127 138 141 92 111 95 134 82 119 60 82 90 66 89 87 99 137 127 73 73 136 147 147 91 80 138 99 152 94 75 75 84 83 85 81 91 112 72 104 87 122 97 81 73 129 88 138 90 71 65 105 85 73 95 94 96 89 79 77 160 91 87 77 82 164 150 178 176 121 97 68 255 155 88 139 99 133 161 110 144 184 169 87 129 178 99 151 107 160 144 138 127 201 130 191 132 133 145 140 137 229 206 186 195 205 198 209 141 169 166 112 114 143 90 135 157 76 142 114 117 137 155 139 140 125 77 84 149 107 163 155 98 183 199 164 159 208 187 167 104 118 129 90 185 93 90 123 97 169 99 177 150 144 160 140 167 72 130 128 176 155 92 90 146 133 182 176 109 127 201 102 91 134 77 95 82 157 172 141 94 182 189 105 157 147 86 159 176 181 147 146 108 186 158 197 173 170 101 96 162 153 133 197 113 172 158 147 141 118 174 105 142 164 159 201 122 121 106 111 134 140 180 174 145 187 127 104 91 72 123 69 73 176 173 255 188 203 119 121 202 110 143 117 144 73 101 82 88 82 131 103 110 102 144 170 82 125 93 88 97 113 144 103 179 107 122 133 72 128 74 135 165 103 145 159 113 98 104 175 193 109 166 140 169 119 165 137 154 193 145 113 150 154 151 189 177 111 97 96 83 140 175 168 207 165 129 191 90 116 145 115 92 177 159 179 88 167 95 69 64 112 94 83 123 134 129 108 126 61 113 82 164 93 108 113 169 143 121 203 134 74 152 56 146 137 108 71 74 90 99 68 166 102 109 173 84 103 150 146 82 93 100 106 154 131 88 107 81 167 158 174 113 151 89 87 89 115 177 152 109 187 200 114 141 185 217 129 204 189 153 145 122 135 69 101 149 173 186 106 167 186 112 170 116 129 152 178 141 69 83 109 52 114 175 152 163 78 87 92 174 99 123 97 163 131 177 100 161 166 82 81 155 123 172 101 124 94 73 79 141 83 125 122 135 200 195
126 137 149 154 156 154 150 158 158 163 163 156 148 136 129 135 123 142 145 142 145 161 186 202 213 210 213 200 196 255 178 179 182 191 204 209 212 196 168 161 159 181 168 190 180 189 179 193 187 194 207 213 206 188 133 108 149 153 119 185 172 172 134 167 185 138 173 190 157 119 117 112 118 129 115 67 94 137 73 96 133 72 71 84 59 103 69 91 81 84 70 77 95 101 106 71 92 91 96 87 73 94 61 72 78 121 79 77 75 100 79 90 107 102 115 135 86 149 157 107 93 89 153 79 175 97 130 136 190 136 141 91 164 148 154 121 103 113 73 109 155 116 174 127 133 86 87 179 150 150 165 186 89 176 133 175 185 154 145 155 193 211 154 170 183 186 133 206 208 207 184 147 161 217 191 194 174 104 125 106 165 103 156 118 100 156 134 88 160 145 156 179 141 93 178 174 77 92 140 150 208 163 201 174 117 146 128 87 188 125 127 106 139 130 176 113 137 55 61 95 75 132 55 158 157 171 82 133 164 171 88 114 198 197 127 103 152 91 148 171 164 142 120 180 99 171 94 95 191 179 91 63 65 72 165 180 174 175 158 157 106 120 81 149 60 146 113 138 129 187 111 110 117 132 128 151 132 134 126 154 119 206 173 87 161 120 80 113 149 96 90 131 172 131 130 81 153 75 98 90 111 90 193 169 112 138 174 107 188 112 103 114 64 121 172 95 87 81 101 74 75 79 173 84 126 176 175 189 167 120 69 157 65 168 87 166 99 187 118 167 255 101 146 92 176 191 131 177 196 153 183 186 189 128 161 203 114 122 178 113 164 108 139 192 156 119 80 67 177 134 123 96 164 164 63 69 163 192 166 174 98 116 75 66 123 143 145 105 173 134 111 147 169 168 146 98 116 135 106 194 154 108 116 180 112 180 67 146 76 138 95 55 76 81 104 100 74 114 155 163 135 143 143 169 84 170 89 159 190 172 178 115 71 90 107 165 173 178 172 131 111 187 156 186 148 132 93 90 137 161 202 172 125 213 196 159 87 148 157 93 108 87 125 167 88 77 179 175 134 102 94 134 90 163 100 124 45 121 164 159 166 157 161 126 104 163 81 123 117 148 139 91 130 130 155 93 152 104 104 93 122 133 91 149 55 157 161 108 176 199 117 213
128 134 143 148 153 154 154 159 165 171 159 167 160 157 138 127 136 138 137 144 155 159 179 186 199 200 188 193 186 181 176 176 255 190 208 211 210 197 172 174 173 176 171 180 193 190 178 164 180 169 192 212 206 155 161 136 162 144 159 170 196 176 107 174 134 175 176 123 130 120 209 138 153 173 138 83 73 124 88 121 73 106 125 39 38 46 60 98 109 130 81 65 90 81 84 75 89 95 91 74 75 69 92 69 63 62 114 122 72 144 119 103 99 96 91 93 103 121 79 101 168 132 93 102 99 140 119 207 175 109 103 169 105 78 170 87 76 78 172 72 166 174 145 173 153 143 179 86 160 80 90 186 92 184 150 90 190 103 131 163 196 208 99 179 182 194 135 172 140 168 194 204 118 208 184 111 193 138 122 110 142 173 152 100 79 166 151 128 103 83 174 89 191 184 187 141 174 84 100 205 206 145 198 186 145 77 175 177 118 103 105 95 87 169 74 121 114 117 129 146 143 91 134 162 121 125 126 180 142 155 99 105 198 128 161 178 95 98 126 172 168 170 175 103 189 192 147 143 168 176 169 110 155 78 83 78 126 163 163 125 202 100 94 114 146 66 91 138 95 110 168 99 170 144 123 135 190 175 196 209 166 120 100 166 147 146 69 110 112 70 168 181 143 107 154 84 105 79 117 101 255 180 100 141 111 193 192 189 110 91 78 168 95 75 163 122 144 156 79 97 98 106 101 109 140 123 160 168 89 105 77 122 160 173 99 138 113 164 194 101 149 149 129 158 91 174 106 108 95 166 137 130 133 128 197 132 165 172 114 184 175 187 97 101 171 60 103 76 80 130 108 124 63 95 108 171 142 110 203 166 197 164 137 92 108 140 127 112 153 191 107 185 160 108 97 154 122 172 108 207 195 195 190 109 132 171 126 119 61 130 143 164 181 96 187 100 74 93 138 139 104 124 119 124 133 175 100 182 159 176 119 85 98 127 168 151 161 88 191 188 109 192 96 82 177 148 156 167 166 133 125 124 189 159 188 140 98 183 87 103 106 120 193 163 85 88 80 186 162 154 100 181 107 77 118 131 52 123 91 65 136 176 118 115 208 190 85 160 157 97 126 85 86 65 79 139 126 149 184 155 101 164 148 137 80 72 78 146 129 156 166 123
125 130 137 146 156 159 164 163 170 167 162 172 163 161 150 147 139 148 147 157 144 147 163 176 174 168 161 170 169 168 173 175 186 198 207 210 202 191 179 168 176 179 182 183 175 184 174 131 149 184 204 204 195 168 131 172 164 150 153 199 139 120 125 96 167 153 130 189 125 151 167 175 197 185 112 142 89 77 112 69 95 78 76 63 76 47 117 90 85 116 56 96 102 104 95 88 111 114 99 91 79 74 78 79 94 87 92 88 80 90 96 105 117 104 107 135 68 91 79 81 99 88 98 128 97 159 172 203 122 255 203 95 163 169 173 181 183 174 183 85 184 172 120 149 200 191 88 76 77 172 176 188 96 166 102 156 120 142 151 212 209 190 105 144 97 135 154 101 186 132 142 188 134 162 164 127 127 136 183 148 125 126 150 169 111 190 168 85 120 170 81 170 119 189 100 167 166 178 181 166 104 108 131 98 151 130 181 145 176 163 146 148 81 146 62 120 133 78 134 80 108 52 159 83 187 103 104 182 190 118 172 88 110 186 118 175 185 137 100 177 86 173 93 182 117 101 195 195 188 169 173 102 98 167 182 70 63 153 122 182 132 98 115 171 91 85 171 130 166 90 91 101 154 98 105 173 187 120 182 139 121 151 201 183 91 131 135 62 55 156 109 170 167 164 98 115 74 78 101 161 138 203 105 171 173 92 166 126 107 88 84 81 118 103 73 132 110 129 107 121 83 158 71 90 173 155 92 89 84 145 140 69 122 93 155 99 165 202 111 138 182 146 123 168 70 145 87 95 141 102 116 150 152 183 103 186 202 190 98 99 184 136 152 181 180 80 56 79 117 148 42 43 84 88 153 83 100 115 158 189 174 142 85 120 69 91 65 161 85 191 167 93 167 99 113 81 86 125 192 119 120 157 198 160 146 79 105 132 79 76 173 88 183 157 133 103 162 99 116 169 70 97 78 102 178 95 125 172 165 123 158 151 137 165 107 152 142 87 98 112 106 157 92 112 99 180 95 107 67 77 164 131 161 185 116 166 148 146 185 169 180 116 126 105 104 149 128 140 114 129 144 136 115 190 158 65 86 108 70 163 71 147 190 166 165 202 103 179 126 91 95 176 108 81 116 121 104 174 97 129 76 161 113 136 85 107 151 86 78 145 96 181
117 123 132 144 151 160 167 168 173 170 176 181 188 173 171 150 155 154 149 145 157 150 154 164 148 149 152 156 165 171 179 179 193 206 211 195 192 181 181 180 170 183 161 179 175 178 146 126 129 166 192 202 206 154 194 163 159 194 162 205 137 172 96 163 116 137 179 200 183 137 195 200 184 125 181 125 164 96 79 141 76 148 67 72 123 64 66 138 70 67 92 73 124 89 151 144 123 123 86 84 95 113 68 95 54 65 61 53 61 84 102 121 108 95 76 63 88 61 151 81 170 123 109 85 87 141 153 165 202 115 109 132 148 115 63 88 133 189 191 174 198 109 150 125 200 99 180 159 177 91 155 139 187 145 156 198 142 155 180 192 203 153 159 141 156 185 185 168 167 148 126 170 133 100 182 112 187 160 157 114 134 190 107 112 111 96 166 155 169 169 138 175 80 85 113 92 123 177 126 175 102 152 89 154 94 124 90 82 94 77 81 79 74 89 79 160 149 73 164 69 74 74 170 85 176 135 202 205 209 192 163 187 163 176 192 192 104 127 130 91 184 173 131 196 174 164 211 119 171 86 181 180 139 131 158 139 158 133 162 126 87 98 157 173 99 168 184 140 102 187 178 170 125 179 169 137 157 175 200 122 136 183 123 93 121 141 151 107 154 162 79 74 69 144 88 95 113 115 135 126 217 218 115 191 160 127 69 171 122 176 189 176 107 147 149 103 157 93 183 103 69 142 86 143 121 171 104 172 163 167 141 72 146 161 155 169 112 179 157 86 78 83 105 70 255 73 72 82 180 135 137 78 150 106 162 103 189 167 197 112 197 168 171 144 187 110 146 124 80 136 98 28 95 121 102 129 119 189 188 154 200 166 153 93 80 95 82 157 137 107 176 88 177 172 174 87 134 166 122 204 155 106 96 105 146 98 150 167 188 149 105 194 111 129 141 100 163 123 148 166 95 166 165 87 180 88 71 101 64 134 182 91 176 145 102 119 179 98 168 158 150 171 154 99 71 128 116 91 128 110 144 161 66 69 177 107 102 157 147 134 108 162 143 172 195 172 91 154 147 128 147 108 201 169 144 73 68 147 83 109 145 114 193 123 200 197 163 92 107 140 119 112 170 71 120 116 76 115 126 87 131 124 67 118 129 123 101 77 35 42 95 71
106 116 129 143 152 163 168 179 174 173 171 170 189 178 179 157 159 151 155 153 152 160 147 152 147 146 147 159 178 193 197 202 211 217 210 187 175 168 171 181 182 190 188 180 172 185 146 164 172 168 188 196 157 165 162 192 203 161 216 162 155 153 165 119 175 192 141 205 223 148 142 119 104 173 174 145 159 152 107 124 156 79 77 75 96 88 142 94 70 63 78 105 121 90 90 98 153 112 137 126 88 85 88 88 60 73 34 74 112 129 75 83 88 71 66 73 57 68 72 111 142 83 82 162 166 161 171 132 102 150 196 188 133 57 48 152 255 121 127 142 115 161 214 170 162 190 147 83 147 179 180 159 179 115 200 173 198 183 135 170 144 157 184 180 189 139 107 129 159 107 129 173 90 147 148 100 175 160 133 203 204 134 130 156 151 119 190 182 113 162 130 170 169 98 166 167 83 91 117 109 65 159 74 148 149 158 164 73 76 115 145 167 150 143 163 168 163 164 83 141 121 134 179 90 184 140 154 215 209 174 198 188 110 122 121 108 115 99 184 187 185 167 95 110 187 111 197 183 128 176 131 156 90 174 172 161 163 153 103 98 167 101 182 161 197 191 223 210 167 102 194 189 166 160 165 110 97 87 98 176 104 126 129 97 154 72 114 56 148 88 163 76 142 121 143 84 90 102 111 202 141 118 111 180 143 72 157 89 136 106 102 199 142 155 100 130 89 100 96 156 113 59 133 174 91 115 144 161 75 77 79 76 140 77 148 86 174 154 132 78 98 170 169 165 73 153 142 78 161 112 114 144 141 65 169 114 106 168 198 183 204 200 153 206 125 116 187 86 73 126 75 114 63 64 139 211 127 217 204 181 198 208 147 176 167 85 110 154 190 186 175 149 157 123 116 165 163 109 78 143 199 196 94 162 78 111 77 120 141 120 105 174 196 99 138 86 91 101 134 135 181 163 87 181 85 166 99 156 74 89 136 198 178 192 191 192 109 91 98 159 104 134 164 79 173 96 104 107 143 73 152 141 146 152 145 106 96 179 107 148 174 111 113 119 115 188 149 105 86 161 166 163 94 146 161 63 165 115 94 190 189 105 160 117 187 108 192 156 162 148 104 87 112 119 164 78 118 164 112 57 81 162 162 111 88 185 82 48 122 20 28 110
106 117 131 141 151 153 163 169 171 162 159 173 174 178 178 165 161 154 154 154 162 159 149 154 137 137 142 171 191 205 205 219 222 217 200 177 169 159 175 182 196 188 175 160 189 193 187 171 183 185 195 183 154 179 186 179 210 188 218 198 153 179 177 143 151 213 189 192 198 138 128 137 98 148 157 162 91 157 94 81 91 121 85 125 152 107 149 95 78 71 75 60 105 71 99 107 139 109 105 109 96 91 108 73 59 52 46 76 67 67 143 94 144 72 78 96 61 81 72 83 91 94 98 75 83 149 66 99 60 139 82 171 71 53 111 112 165 128 148 121 119 130 116 110 197 121 174 174 107 119 93 71 143 173 147 169 156 114 136 94 178 88 144 176 170 158 150 145 165 114 123 165 184 154 108 193 178 192 217 191 206 104 133 136 141 91 121 134 172 186 84 94 144 87 70 83 79 85 132 141 156 62 167 101 169 144 162 141 99 67 110 161 166 98 89 167 111 66 79 97 73 85 89 191 99 183 132 123 122 188 128 127 161 155 112 135 186 121 113 117 168 135 123 135 128 124 187 144 152 174 72 148 118 92 167 144 175 79 113 162 170 136 152 124 213 195 222 144 207 157 190 199 132 125 94 163 79 120 174 110 119 108 196 109 180 97 85 73 101 156 151 126 89 86 80 89 142 93 130 110 123 108 188 98 138 73 54 60 150 89 157 169 115 136 123 75 83 98 61 51 59 70 71 125 176 100 88 86 120 98 82 107 128 107 164 80 152 185 90 89 171 78 165 148 146 66 121 144 78 155 147 83 132 136 169 103 111 135 188 110 122 179 116 135 177 219 119 200 139 172 141 79 142 152 178 218 227 198 190 179 190 125 98 98 174 166 95 147 109 189 175 120 168 147 87 114 86 161 171 106 183 99 89 91 136 112 160 92 157 172 107 160 140 128 98 96 105 126 121 119 125 108 162 122 96 175 161 136 133 151 103 194 187 177 115 122 84 139 145 133 169 87 99 178 99 133 131 150 152 170 112 166 139 154 98 168 172 166 148 165 87 136 198 137 190 152 117 75 70 70 139 155 105 164 61 125 75 148 117 108 119 94 162 149 178 198 100 110 139 125 113 180 80 148 105 107 73 146 100 69 73 86 134 112 100 123 182 143 42 85 120 84
116 124 134 138 146 146 153 151 154 146 144 146 166 177 187 182 171 169 173 160 167 160 156 148 148 143 168 179 198 218 224 223 223 203 186 166 163 169 182 194 195 191 177 176 190 199 197 174 193 199 192 147 152 142 162 197 211 181 163 177 128 160 165 124 153 152 194 226 191 173 142 140 100 106 109 169 84 77 73 114 82 87 91 102 113 158 125 87 88 78 70 63 64 60 89 96 150 131 139 90 83 122 77 115 86 83 73 125 83 121 96 81 97 140 88 74 107 131 82 66 76 98 179 84 148 83 62 145 47 112 62 102 123 159 94 126 161 128 118 183 207 205 193 149 187 91 101 112 92 168 148 68 99 153 173 134 152 189 170 159 173 172 154 117 163 151 138 163 99 113 123 125 124 99 165 114 161 203 228 192 255 199 100 136 154 156 141 162 167 150 178 150 85 172 174 110 77 152 142 112 133 142 119 81 176 177 78 149 111 87 77 162 136 143 127 105 75 88 63 71 138 85 128 101 137 131 157 155 207 216 217 207 218 217 125 182 114 186 153 193 124 177 128 95 169 121 216 216 106 80 164 144 157 141 145 70 100 113 142 168 162 143 112 220 224 177 142 229 221 120 191 120 183 86 143 157 79 130 143 104 158 166 197 169 154 95 178 159 131 84 114 129 177 81 92 92 95 96 145 103 170 161 144 192 109 84 86 69 79 95 115 133 178 140 108 86 67 60 94 47 133 91 121 90 181 186 104 108 97 95 181 92 166 167 96 77 179 167 159 151 102 92 156 129 94 178 141 119 109 119 156 125 143 131 106 126 126 153 191 177 157 199 112 217 209 222 223 142 131 189 81 125 134 151 177 170 152 125 158 192 148 165 183 179 177 133 178 130 180 151 130 82 132 70 171 78 163 65 72 112 183 193 102 147 144 81 114 131 173 89 92 110 189 199 106 139 208 180 115 205 187 199 111 193 180 82 165 93 173 112 158 186 127 124 196 132 156 144 66 56 73 80 181 79 91 154 64 131 103 114 161 87 119 60 67 82 173 100 134 93 145 88 104 111 164 163 166 65 126 122 62 76 65 132 84 159 100 105 129 191 105 124 83 181 111 158 182 152 162 189 166 94 88 142 117 170 103 75 154 131 128 179 150 183 133 115 134 171 72 154 142 82
133 136 139 138 135 133 141 138 140 135 135 141 162 168 177 187 175 180 161 167 161 172 168 155 155 167 170 188 198 210 220 223 206 187 169 159 161 176 193 196 178 183 157 169 164 198 196 187 196 197 189 179 122 148 162 163 148 212 158 157 111 100 147 192 189 143 203 175 194 145 171 100 176 143 130 255 82 75 69 125 77 155 112 165 98 153 109 96 89 142 71 49 54 81 91 104 84 95 118 84 127 124 100 134 141 96 109 158 131 123 97 92 82 120 116 93 68 86 86 90 89 120 180 86 166 116 72 89 47 137 62 154 162 166 160 154 177 116 117 212 122 194 189 170 174 173 133 173 197 180 187 76 125 88 158 79 176 185 104 160 117 85 96 108 154 121 104 166 89 179 99 104 101 176 146 193 139 195 215 205 201 212 106 128 182 154 169 112 134 197 134 104 188 173 98 161 169 139 174 175 184 86 103 167 80 100 158 116 70 106 99 132 155 93 168 148 67 91 89 169 147 127 188 155 148 87 94 161 105 176 210 130 168 211 162 119 179 112 105 202 142 78 105 149 170 176 204 131 82 77 60 159 92 66 85 121 161 87 157 128 99 117 138 213 132 197 124 221 155 151 195 143 127 184 187 155 135 164 166 168 184 103 98 138 174 196 113 184 81 89 172 170 171 103 102 206 113 127 147 90 103 81 131 191 103 169 87 96 121 103 99 194 137 153 175 83 78 112 61 64 46 71 115 158 179 114 130 130 73 95 147 159 108 78 175 162 89 153 107 194 144 98 161 76 110 97 201 196 159 180 255 189 134 199 206 224 197 176 217 104 173 106 191 138 114 123 163 182 162 200 176 114 129 126 174 173 110 186 149 148 173 104 113 172 124 87 155 154 107 175 173 71 163 104 106 125 169 108 70 153 134 143 119 141 186 158 88 88 135 170 148 120 125 199 115 117 207 143 131 129 148 172 95 181 106 133 183 93 139 176 181 185 203 114 202 123 148 125 142 113 173 162 122 76 68 160 164 95 168 114 101 151 163 96 150 152 103 149 186 77 149 149 72 98 160 98 146 80 74 144 138 165 85 83 148 106 190 206 174 200 178 167 155 171 103 180 181 93 135 171 112 143 131 163 148 178 110 104 132 81 94 187 105 187 184 110 183 114 77 74 102 165
147 146 142 133 127 118 121 124 134 130 136 138 139 160 174 164 169 166 146 151 155 163 178 178 173 179 192 189 197 204 204 213 192 178 160 154 167 177 191 177 175 168 164 155 180 193 182 176 177 199 175 137 147 149 149 137 189 178 195 121 154 133 146 146 158 145 211 156 163 125 187 182 99 111 101 173 85 106 153 98 132 118 70 98 81 82 85 157 86 99 57 48 86 69 75 123 105 90 73 91 77 127 100 130 112 109 134 112 155 125 176 165 102 151 70 64 145 86 90 92 100 88 96 87 157 84 163 158 104 58 63 139 65 169 122 121 86 116 111 157 202 202 93 85 128 169 121 118 217 213 196 73 52 58 60 65 168 182 177 118 172 157 161 112 167 73 146 149 176 153 105 172 159 177 166 106 192 200 102 191 143 201 199 100 128 150 166 82 176 137 157 97 107 196 206 209 150 200 194 175 129 124 184 89 87 179 168 127 169 86 174 182 151 177 85 136 130 50 95 66 114 165 150 104 200 172 183 120 111 181 191 143 194 188 187 125 217 123 150 105 105 170 156 141 164 146 98 116 88 120 66 159 72 165 159 130 106 138 77 137 185 125 157 202 183 206 188 150 120 203 180 119 180 170 125 190 151 145 125 88 166 159 181 191 203 121 114 194 182 148 123 98 141 153 193 206 211 108 96 79 99 103 110 116 177 91 72 87 88 140 116 93 95 132 72 138 102 59 154 147 148 122 176 116 122 121 170 162 129 80 73 164 85 71 168 89 180 90 165 105 189 187 157 74 122 151 207 218 210 208 158 155 184 119 124 152 137 132 117 179 191 95 102 134 154 196 193 167 165 125 139 85 106 149 84 144 72 65 130 89 98 125 145 163 178 128 190 105 200 159 96 74 68 96 152 78 101 162 119 79 115 106 147 103 179 174 167 159 179 179 101 195 151 121 111 186 123 227 227 151 103 150 167 106 189 192 159 149 184 152 115 176 116 203 187 157 89 76 72 151 155 182 154 165 96 75 113 86 185 166 84 152 106 152 132 98 90 87 180 73 148 72 74 128 109 102 53 67 97 162 173 255 107 137 80 127 183 138 117 170 123 70 124 180 88 107 98 151 198 175 143 208 200 126 154 155 99 130 83 145 87 89 80 143 116 88 101 178 143 82 169 146
151 147 139 130 115 110 113 120 134 141 143 134 131 144 153 165 151 155 132 137 150 168 176 187 185 195 188 192 193 193 207 203 189 170 162 160 171 183 180 180 160 143 135 171 167 180 166 166 195 197 202 189 133 158 146 143 119 134 130 181 101 118 168 173 175 166 163 151 183 143 192 130 120 111 89 95 170 172 112 74 121 97 51 58 62 67 68 82 75 81 52 85 70 75 100 107 104 79 106 95 117 130 104 121 117 109 156 114 138 133 185 177 140 88 114 72 105 92 103 105 89 141 85 151 86 79 86 67 78 74 61 130 70 86 77 175 175 186 110 120 207 205 198 99 103 90 197 122 147 212 195 174 54 143 139 69 121 161 84 147 167 157 103 145 87 116 105 118 121 152 178 151 177 170 91 106 83 85 170 179 190 160 202 157 126 75 72 78 159 158 188 192 104 148 127 122 168 199 159 112 119 116 194 188 184 147 136 152 82 138 141 162 181 90 130 78 87 69 133 155 88 117 176 205 208 182 189 84 150 145 86 148 111 109 143 229 146 111 174 181 171 146 67 167 157 137 168 69 88 66 100 78 95 88 159 107 163 141 164 164 176 185 96 145 202 177 115 135 187 142 181 177 130 137 92 162 115 101 155 164 86 135 114 167 214 117 110 167 86 84 128 82 108 141 181 126 124 155 115 107 135 163 77 114 95 155 104 113 86 78 131 168 126 166 56 126 90 55 86 55 60 65 161 137 177 207 156 102 183 166 155 65 158 72 87 114 103 113 93 194 191 166 83 161 88 208 128 124 146 156 216 205 141 95 181 195 128 210 164 148 95 174 182 181 178 97 172 107 98 179 136 87 93 167 101 61 55 152 119 156 155 140 77 141 123 114 142 198 107 104 97 165 79 165 159 90 141 154 120 88 115 125 190 101 88 113 88 158 87 84 192 131 158 209 111 192 128 221 186 121 136 112 184 96 106 96 88 182 193 183 205 215 222 220 218 113 186 139 94 103 119 137 175 160 149 81 114 91 120 129 123 130 64 134 144 142 151 168 146 69 134 128 70 153 121 85 72 50 131 156 133 141 168 72 105 171 180 112 199 93 114 107 172 104 158 189 140 96 155 157 197 240 149 162 199 203 117 101 129 152 149 138 70 168 165 92 148 150 118 74 131 68
146 141 133 120 105 106 103 118 133 150 146 134 128 134 139 144 139 130 122 135 144 159 171 183 188 186 175 180 189 200 205 196 186 176 168 162 169 177 185 166 156 150 138 162 161 173 193 175 158 175 169 193 180 160 130 113 115 144 186 163 171 157 134 125 153 212 161 174 206 198 108 167 160 130 90 83 144 124 101 146 93 106 101 109 66 60 56 59 59 74 77 64 111 57 89 114 110 87 93 89 85 124 105 157 106 106 132 127 146 155 191 178 158 88 67 117 93 123 115 94 97 161 152 90 83 99 79 73 73 59 55 55 99 140 144 84 88 187 119 108 113 115 142 98 83 160 98 208 167 183 187 132 111 104 108 146 129 172 166 70 92 115 80 174 112 174 154 176 106 97 169 109 168 119 133 162 149 96 75 141 147 114 96 174 167 68 149 100 168 125 199 109 103 125 181 174 181 134 132 141 191 163 87 145 150 107 174 116 165 178 196 204 123 129 146 165 69 98 90 83 158 171 200 208 173 111 195 104 175 131 77 102 177 110 140 226 178 192 138 137 167 80 88 167 148 157 130 59 33 46 146 140 86 161 178 179 155 180 183 95 69 125 131 117 171 190 134 199 204 133 185 92 143 158 154 165 135 61 139 129 89 166 155 130 180 105 97 110 159 91 137 178 103 91 76 114 151 202 119 88 72 68 71 82 157 118 95 128 140 113 179 172 178 72 82 106 103 53 73 68 72 147 81 105 124 200 134 197 172 103 170 79 170 157 104 148 130 136 152 99 142 92 162 77 88 204 212 195 167 206 185 204 178 116 72 172 175 152 190 194 91 144 158 175 98 177 118 157 118 151 95 105 137 173 118 138 75 82 165 174 179 96 76 174 181 156 192 131 111 103 140 70 76 102 169 146 126 172 85 98 192 119 95 177 167 143 89 123 73 93 148 171 125 124 156 107 143 210 119 200 187 134 90 188 137 92 117 169 186 136 222 163 171 150 143 122 110 147 170 73 104 167 178 81 107 173 99 180 140 77 88 69 80 132 113 146 65 62 144 106 124 140 72 65 122 107 79 88 60 146 162 115 106 116 143 161 165 166 125 194 145 108 181 128 174 124 96 128 162 151 237 215 207 174 186 108 164 186 74 54 93 126 157 117 138 92 86 139 63 136 84 106
130 126 118 108 101 97 102 120 136 142 153 152 150 162 149 149 149 140 142 131 150 149 165 164 167 163 165 180 194 203 199 197 190 186 179 174 172 176 179 168 166 140 160 181 194 198 190 173 175 149 173 141 165 157 120 84 97 166 125 187 169 187 187 195 167 220 214 176 160 185 109 138 152 97 114 79 101 188 176 111 117 52 52 110 137 136 60 61 87 111 56 109 53 59 68 109 82 81 112 113 84 93 104 136 145 103 85 147 105 160 120 118 156 95 72 65 121 87 140 111 73 84 129 144 87 82 131 81 154 67 90 116 156 74 77 181 179 184 88 91 175 160 162 158 173 94 119 208 121 118 111 62 140 152 145 165 82 141 169 172 134 161 159 155 114 122 137 142 113 170 122 185 179 157 119 70 81 156 151 110 116 173 84 108 165 90 141 146 87 166 200 203 107 105 179 154 187 119 187 171 147 126 133 136 136 141 84 114 100 104 181 203 153 195 147 109 99 179 104 195 181 151 165 113 207 142 118 156 165 142 147 171 121 185 134 212 209 116 181 170 78 111 82 164 114 163 136 89 46 148 86 78 140 172 195 118 157 201 116 138 162 114 156 84 160 97 123 181 216 129 197 143 130 64 100 143 125 49 86 162 148 165 124 137 98 172 79 158 87 185 97 181 87 144 123 63 87 102 103 106 125 74 98 116 91 190 183 101 88 112 152 108 117 79 49 130 46 126 82 82 137 66 68 106 101 189 150 112 109 95 93 124 114 170 81 150 60 74 80 73 167 69 116 65 127 98 112 107 181 170 183 186 180 141 161 74 142 112 192 176 137 172 85 93 136 102 110 68 149 85 123 161 176 133 187 151 121 181 90 190 128 120 177 164 143 192 211 172 142 122 134 73 158 138 124 88 130 179 95 114 95 86 115 70 138 143 57 98 162 162 167 160 136 192 211 111 96 110 113 100 194 127 174 111 113 94 74 88 139 181 132 225 160 194 112 152 141 161 151 120 131 132 132 86 132 162 182 185 173 84 91 160 153 80 63 58 55 56 78 97 130 156 154 129 94 76 95 115 143 65 66 81 96 92 102 172 131 200 202 122 186 142 196 163 125 124 170 196 124 184 221 136 105 110 98 117 167 144 147 155 63 146 167 62 94 142 99 51 109 52 145 138
124 120 111 100 94 88 99 116 132 147 156 170 183 176 178 175 153 148 139 155 146 161 158 146 156 143 156 170 189 189 196 190 193 187 190 183 174 180 185 178 177 173 179 183 182 192 181 174 155 134 151 150 118 128 147 108 99 100 122 118 187 178 152 151 226 162 180 195 173 105 119 147 96 99 88 83 103 181 181 177 129 68 63 93 136 73 70 66 104 105 127 74 63 57 81 68 118 94 133 90 125 103 139 121 129 91 81 97 118 134 104 149 158 109 84 83 86 91 88 144 109 79 113 150 99 126 88 86 169 70 54 90 79 59 163 159 178 80 89 79 77 175 164 68 159 177 108 187 104 83 63 144 150 157 66 158 176 115 186 87 94 163 163 111 188 175 103 161 188 194 199 193 178 124 90 121 119 67 79 125 119 92 120 157 158 140 177 117 157 191 161 112 199 161 186 107 115 88 186 90 101 170 106 142 139 153 117 179 122 194 169 189 159 152 170 113 80 95 191 115 129 121 174 209 162 117 108 126 184 191 155 105 177 81 118 131 130 141 179 98 64 129 67 144 153 81 139 172 99 146 151 148 137 150 179 127 228 216 122 113 93 101 74 50 130 118 147 189 126 190 148 136 168 127 68 114 36 112 76 150 134 57 105 88 62 141 151 146 106 108 129 94 83 83 126 47 170 182 102 119 184 137 82 74 83 183 189 185 118 94 185 91 84 85 147 47 81 127 73 72 58 45 56 167 97 111 109 124 181 148 101 159 89 187 173 95 255 51 96 163 144 65 157 83 111 97 181 117 177 156 168 174 72 74 71 138 126 108 196 183 173 154 125 158 102 161 93 129 120 62 50 80 150 191 139 129 207 153 182 177 147 200 171 129 161 195 148 142 110 177 100 140 94 159 155 107 102 159 129 129 78 168 155 147 91 95 71 149 137 92 175 164 143 185 154 109 104 83 98 92 87 144 189 88 161 166 117 67 61 157 154 195 204 120 183 105 103 89 82 133 174 87 149 170 169 162 155 146 173 71 171 169 88 93 153 122 170 73 142 155 160 87 158 159 116 164 70 150 102 87 78 126 153 163 103 193 106 127 125 103 114 155 179 191 99 166 106 97 107 138 117 190 94 150 184 171 169 125 147 70 166 131 154 75 152 128 117 97 118 79 146 48
131 126 114 103 94 98 103 116 136 158 172 180 200 208 211 188 166 150 152 166 162 171 169 158 151 145 149 159 167 176 183 183 187 193 194 194 186 184 190 193 190 190 193 186 198 172 173 143 158 157 161 166 172 116 152 127 156 129 138 126 161 145 138 216 136 139 197 133 138 185 182 102 177 96 130 124 68 167 155 129 116 138 105 63 135 74 85 114 62 120 88 68 69 81 63 66 93 73 81 97 140 95 104 86 78 80 84 79 80 86 128 102 110 120 140 89 183 124 88 122 68 87 97 141 106 154 91 101 77 137 152 121 50 144 54 163 84 157 71 70 100 144 71 103 159 177 134 105 188 167 146 131 108 161 146 142 153 132 179 189 182 137 179 156 187 166 166 151 181 126 195 182 184 112 143 136 137 89 69 145 161 150 106 90 74 84 149 186 139 104 175 102 187 150 78 143 162 90 165 97 159 82 104 126 54 63 169 155 116 184 107 91 189 193 188 157 124 97 194 157 184 193 168 117 163 212 150 102 112 120 200 119 84 169 76 109 103 123 166 147 82 169 171 169 167 77 183 162 156 173 172 163 110 169 211 155 167 220 195 138 179 161 151 63 71 147 89 177 190 179 155 188 155 166 144 44 47 131 130 90 118 75 121 79 66 99 92 140 170 110 186 133 132 52 38 86 86 147 194 138 168 113 168 157 75 98 84 176 88 83 165 164 115 68 48 35 70 55 121 121 64 54 101 157 115 182 163 184 182 147 92 104 133 125 73 135 66 47 148 109 167 174 76 159 106 190 140 162 85 124 124 134 127 156 93 110 115 211 108 139 113 166 137 103 86 173 121 73 87 127 133 163 145 93 199 212 205 155 209 136 120 220 199 157 153 144 113 190 162 165 96 145 142 70 160 122 111 166 95 75 93 120 76 166 136 162 106 133 71 143 151 196 149 207 187 189 115 88 127 100 166 81 101 170 150 141 139 95 131 164 99 112 206 171 189 148 189 94 92 123 162 178 150 167 67 163 160 164 172 140 171 119 175 109 115 117 96 174 88 113 122 77 87 65 63 159 161 82 187 166 180 156 110 88 187 112 106 127 104 120 127 129 154 116 108 140 149 117 102 131 107 171 152 71 90 183 183 91 153 128 170 141 145 157 157 148 88 160 74 117 95 82
152 144 127 116 105 102 109 115 134 158 189 203 210 219 225 203 179 178 170 177 180 182 177 165 156 143 145 148 165 170 173 172 177 189 194 195 194 193 193 194 191 191 187 192 194 181 170 170 141 165 173 148 180 184 150 153 156 134 120 115 178 165 193 141 128 104 102 126 133 138 141 111 189 110 78 66 144 118 162 105 101 104 139 61 94 74 82 73 61 53 61 74 73 78 90 82 62 107 107 91 87 104 77 78 90 94 100 67 69 80 76 109 90 81 91 99 163 105 126 77 67 146 172 191 123 88 88 167 139 161 94 155 144 57 43 119 157 117 62 153 156 62 41 43 150 88 107 182 175 91 51 135 71 71 94 142 120 181 166 130 176 164 139 181 117 128 132 142 175 114 110 139 181 175 90 95 156 86 162 93 165 65 136 137 158 122 179 162 77 126 161 123 121 178 154 122 93 115 77 142 85 184 99 102 145 76 78 190 123 143 87 74 169 146 184 129 127 81 177 187 184 113 144 207 216 202 121 187 187 111 110 176 116 171 73 170 82 99 110 179 125 99 185 99 90 158 189 201 148 150 101 124 135 158 107 163 154 210 199 124 189 166 87 96 59 108 122 80 94 119 200 196 190 162 77 48 55 74 36 82 126 95 113 156 74 79 82 157 91 131 92 90 155 137 88 71 92 174 113 96 171 121 176 94 145 136 98 123 110 86 86 91 155 102 112 37 36 46 61 108 96 153 59 74 170 169 130 94 178 75 73 167 101 178 134 71 109 103 61 82 187 103 164 189 131 100 185 178 169 76 155 121 77 163 179 122 225 129 122 105 168 97 153 82 174 104 135 87 106 153 80 142 86 113 130 147 115 143 169 208 210 159 195 136 106 173 109 114 203 119 170 171 101 174 180 172 101 133 59 137 107 84 130 204 167 192 102 88 82 186 124 168 175 115 128 112 180 163 80 131 77 140 92 89 111 84 57 89 131 73 93 110 206 169 172 97 84 71 143 168 138 166 82 132 155 137 68 102 90 95 169 172 93 185 103 162 105 169 180 167 87 168 84 151 94 150 166 183 191 103 140 158 125 126 181 176 92 114 70 71 112 106 110 82 121 145 131 169 186 168 95 87 139 80 115 193 152 186 171 166 163 78 111 124 67 141 130 173 113 83 158 151
167 160 145 129 121 129 132 147 160 176 184 195 208 215 221 204 205 176 178 175 189 182 186 167 159 159 150 152 159 165 171 172 175 181 188 195 192 195 194 193 182 175 185 176 165 188 166 154 180 173 206 176 183 155 163 189 136 170 119 133 126 181 161 161 90 115 117 142 143 182 157 109 119 117 176 141 97 66 149 136 170 89 145 72 127 82 82 101 45 49 79 74 75 86 112 64 84 77 101 97 89 111 119 114 80 99 79 76 62 113 64 99 63 69 131 148 133 121 107 104 80 173 102 115 89 156 125 59 145 61 124 112 75 47 50 146 255 144 150 57 102 82 59 67 139 140 169 168 136 53 105 75 124 79 94 139 116 156 187 161 145 108 176 122 174 124 169 93 123 130 144 101 190 151 99 78 131 72 158 159 123 155 122 153 152 65 98 155 157 155 153 118 149 91 179 96 77 104 103 95 117 117 126 101 110 68 110 188 177 88 78 128 68 103 85 100 153 151 130 138 171 214 137 119 181 131 174 98 156 177 182 184 79 168 86 178 146 171 178 185 174 131 127 167 157 97 101 139 105 155 138 100 131 83 188 195 100 119 177 187 128 112 124 101 108 134 120 172 164 173 196 151 111 160 146 55 132 36 126 119 97 130 98 134 115 117 171 119 158 136 90 183 103 138 105 145 109 180 200 169 107 186 158 122 139 66 158 83 85 125 107 73 55 65 85 131 38 41 74 79 171 153 146 126 146 89 99 92 117 73 115 149 88 151 115 59 67 85 134 104 128 140 146 146 194 95 98 188 167 130 117 82 98 189 148 203 215 222 126 201 188 95 91 89 83 184 150 82 163 77 138 82 130 176 84 78 166 187 128 135 214 192 208 125 97 170 193 192 161 211 114 182 101 194 104 95 139 87 144 148 168 186 174 150 150 131 190 110 185 141 205 128 117 165 173 95 96 133 73 133 158 79 81 79 142 104 164 144 78 170 104 202 108 96 181 83 170 83 148 105 158 82 78 150 91 51 59 127 123 99 153 92 113 178 101 143 187 178 93 116 79 78 156 75 66 123 84 181 193 139 129 173 162 113 182 145 105 173 62 54 46 59 79 83 99 140 125 176 141 86 86 151 93 89 102 149 106 172 168 167 114 84 76 78 119 145 94 91 155 115 108 64
181 171 152 138 130 137 153 157 166 178 182 190 194 196 207 217 206 176 173 181 180 183 191 185 169 168 160 157 165 171 169 162 169 173 185 190 196 198 186 189 187 186 185 168 180 193 184 203 205 203 218 213 196 188 165 139 161 140 128 166 118 126 140 92 81 99 92 163 114 162 126 121 136 166 108 141 81 69 101 102 134 87 148 154 90 100 75 128 49 42 58 78 109 85 71 67 87 95 100 123 110 97 106 88 86 108 113 109 73 55 55 120 86 87 93 113 152 115 105 115 144 184 113 99 84 90 104 41 120 152 81 113 169 61 107 55 152 52 153 111 61 43 32 99 47 83 255 131 129 100 121 139 157 75 125 149 99 122 110 158 146 133 144 102 162 181 190 123 195 153 179 140 144 192 188 171 161 74 89 99 110 121 162 66 60 158 141 74 170 160 109 157 100 104 112 115 136 85 101 91 161 171 186 173 156 72 83 157 165 68 110 58 118 106 141 147 68 166 87 121 135 180 135 110 195 100 94 117 195 190 139 108 163 165 108 163 123 148 136 184 179 174 84 127 176 97 183 99 95 168 95 97 109 91 153 94 171 152 188 178 168 183 94 150 84 117 149 117 117 99 196 198 177 95 178 84 70 47 110 32 64 123 136 79 150 104 98 169 101 113 137 167 180 125 166 127 107 113 197 192 144 84 100 128 73 78 148 126 162 86 92 84 50 135 81 117 37 48 106 134 130 120 113 76 61 82 173 169 147 75 136 78 127 87 80 90 134 114 167 165 207 126 174 139 107 107 175 166 162 100 177 88 180 88 180 169 202 209 112 201 196 105 94 139 171 181 159 167 162 87 146 91 128 170 104 101 153 95 173 118 143 201 114 148 86 183 147 108 205 154 179 163 120 139 125 162 143 148 86 107 161 184 188 136 176 142 115 185 195 143 188 200 153 181 179 107 174 78 106 146 62 117 97 91 107 84 162 172 117 157 109 192 161 167 155 90 105 157 110 138 133 150 172 141 69 127 153 93 82 158 143 53 99 153 185 191 92 93 82 116 161 152 67 156 138 123 149 171 103 99 192 175 99 134 151 105 201 117 140 140 121 86 147 140 76 96 116 117 80 105 181 189 178 184 151 193 116 189 128 77 119 104 166 72 84 74 76 167 144 83 104 126
189 176 156 135 133 147 157 170 179 180 177 170 168 178 192 206 199 170 170 158 178 186 190 187 180 170 179 178 179 177 173 165 160 168 178 185 197 203 202 201 186 194 171 193 170 196 199 211 187 186 221 196 197 181 186 159 146 107 102 169 178 121 154 139 95 166 119 126 125 163 92 82 93 157 96 165 80 90 137 109 100 157 112 170 166 96 104 56 63 107 64 84 144 120 90 91 85 87 93 131 105 109 148 118 116 94 145 108 74 55 68 62 95 155 99 107 136 141 114 112 116 109 158 172 113 134 124 46 61 153 151 86 170 165 139 99 119 121 153 160 101 49 42 27 71 129 61 143 105 43 137 132 56 81 118 168 85 119 120 163 111 81 103 132 130 176 167 189 175 134 110 185 192 112 147 104 135 134 156 173 93 129 144 138 97 81 129 119 138 125 184 90 96 200 213 122 132 116 173 155 186 183 131 97 78 87 153 134 71 53 100 124 154 155 165 168 158 181 192 155 148 140 143 108 171 94 102 92 143 189 173 75 169 149 156 164 105 199 104 98 149 116 133 157 169 147 132 122 124 161 186 151 169 196 144 100 116 71 184 204 126 200 189 150 109 114 173 140 138 128 133 105 190 104 155 168 63 93 129 85 127 48 61 155 93 170 105 181 95 174 175 182 184 170 181 117 134 130 116 171 89 90 96 83 87 71 123 68 59 86 67 50 102 39 130 47 62 62 73 170 173 177 72 86 131 71 80 159 132 74 68 172 137 127 76 152 75 85 95 109 206 160 169 137 107 139 105 74 159 166 171 161 82 181 184 93 160 194 190 197 177 150 134 166 148 80 117 142 84 167 150 176 190 173 58 126 90 144 165 117 174 92 174 165 162 111 180 179 145 100 143 173 110 192 183 168 85 151 135 67 149 127 88 163 94 109 97 185 142 117 162 202 103 174 85 132 133 96 151 57 160 161 140 101 90 116 187 180 144 188 181 110 148 132 169 176 179 89 117 76 148 156 81 143 138 168 77 179 105 144 139 39 143 153 83 168 186 90 58 48 141 92 151 141 74 150 124 159 174 106 193 201 96 161 185 163 122 206 97 103 45 127 76 112 64 125 49 90 151 178 92 200 203 200 185 105 144 104 179 76 105 91 84 149 106 150 82 94 101 119 131 90
195 180 255 137 127 137 153 174 176 180 175 159 155 168 184 192 186 154 153 151 176 173 181 185 173 171 180 179 186 173 167 159 158 161 171 182 201 209 208 206 191 203 200 183 200 200 204 205 221 222 194 201 156 176 193 174 151 167 142 102 171 170 98 165 155 145 196 165 106 171 98 128 95 143 128 136 88 103 170 105 150 125 130 115 131 98 136 120 54 62 75 94 144 128 132 128 81 84 88 95 102 123 120 104 95 117 83 115 68 98 99 73 149 115 132 136 118 182 114 119 121 148 158 91 83 62 51 136 56 160 116 129 93 168 75 163 68 68 65 161 89 104 44 131 141 54 144 64 153 135 61 55 156 157 133 78 150 86 77 105 167 108 154 103 97 174 153 134 174 104 123 185 139 181 190 149 186 86 119 179 82 78 174 79 82 147 125 158 165 189 164 172 103 127 135 204 190 210 201 128 151 168 105 117 90 156 96 162 75 136 65 41 146 171 170 181 89 96 150 135 199 159 179 181 105 160 118 124 108 167 126 188 160 146 94 106 127 197 152 135 92 166 166 150 158 176 142 173 92 106 118 160 205 208 201 178 172 114 97 209 127 190 141 183 154 86 90 105 169 174 113 132 104 181 172 171 98 105 52 50 60 43 94 142 148 182 98 120 173 170 131 84 125 144 106 115 125 150 117 182 126 99 161 112 103 156 138 104 72 95 64 87 59 55 115 131 142 178 106 167 86 83 86 67 63 83 164 84 118 169 125 78 153 139 136 134 136 106 83 179 142 113 195 183 130 122 143 157 119 111 74 83 162 146 89 109 166 109 179 185 135 149 156 83 84 127 111 112 142 138 149 115 196 155 164 134 150 128 136 97 96 70 146 131 71 178 131 85 170 158 145 112 93 124 119 181 68 73 109 75 161 64 100 123 155 118 179 134 149 200 130 150 98 172 178 174 89 72 74 117 74 82 112 154 166 102 91 99 89 121 160 76 100 106 101 101 102 138 153 146 168 103 138 170 105 152 184 123 63 104 118 38 43 137 169 192 152 74 59 117 38 89 154 163 139 130 163 170 124 145 125 126 142 87 122 129 205 209 190 145 134 121 82 58 134 56 73 57 164 82 132 187 121 193 175 88 180 134 163 144 76 124 173 85 74 168 181 185 95 176 176 108
186 173 153 133 129 131 140 155 163 165 169 154 157 156 165 179 173 158 139 144 165 176 179 176 180 175 185 182 178 173 160 154 149 157 168 179 197 201 206 203 203 211 214 215 206 200 198 186 216 194 204 156 176 202 176 147 120 116 154 122 114 121 86 99 155 187 255 178 158 126 81 155 151 153 92 119 161 157 141 169 104 177 154 165 135 118 86 88 101 108 82 103 105 102 80 85 128 114 96 95 101 145 147 101 91 87 85 82 111 137 101 111 89 105 144 120 133 148 130 125 120 118 135 89 150 149 133 154 67 99 81 138 85 112 137 73 112 104 154 159 152 109 108 151 161 65 88 164 94 160 86 72 148 153 169 117 46 121 129 156 193 195 181 174 112 129 190 197 193 183 180 107 191 190 163 130 131 128 125 95 162 136 159 98 128 147 184 169 104 104 90 141 185 170 136 198 188 124 107 102 200 198 185 115 157 138 80 109 110 123 60 89 61 117 79 159 155 160 156 178 140 88 77 81 167 116 158 72 172 137 184 166 208 200 117 133 199 128 143 186 86 130 174 121 180 135 180 147 183 206 134 192 131 153 213 106 173 106 96 125 218 226 182 163 140 111 93 126 78 71 166 124 151 199 114 179 154 96 152 133 131 39 77 77 92 133 109 116 80 154 145 81 82 183 166 119 146 184 134 169 166 78 162 82 66 131 101 114 150 121 155 72 126 155 120 174 94 110 99 118 165 87 91 110 152 128 139 191 127 162 87 85 163 169 129 120 155 90 67 81 181 207 161 191 179 164 130 71 173 173 145 173 161 156 156 180 175 101 178 98 120 168 129 171 155 164 170 97 101 193 111 173 138 184 118 90 180 171 147 146 67 134 151 151 166 165 126 103 135 75 79 173 79 137 171 90 65 97 105 163 66 135 102 127 139 112 183 195 193 202 199 151 205 153 121 195 87 161 127 142 112 131 136 140 94 121 73 164 161 101 123 115 139 149 162 170 100 157 73 150 175 161 98 170 172 182 105 79 137 64 96 36 43 114 124 208 186 168 105 131 78 121 124 90 70 169 105 105 163 96 106 150 104 86 185 183 133 122 108 100 169 86 162 107 137 142 74 169 171 98 176 176 185 169 94 145 174 87 74 156 128 115 161 111 72 157 91 200 105 114 94 187
168 158 143 128 123 117 124 137 155 160 159 164 160 163 175 176 172 153 146 146 153 175 170 173 174 183 182 181 176 164 154 147 147 155 166 174 180 183 190 188 190 200 207 201 199 196 170 176 204 171 179 182 163 196 190 190 170 149 139 144 155 82 147 129 109 122 190 182 115 135 118 152 148 164 89 93 158 153 125 142 170 138 152 187 106 98 80 90 123 77 82 155 101 144 88 72 122 124 99 93 94 99 111 99 135 129 88 102 124 84 149 91 122 118 121 103 117 151 96 99 160 109 113 177 159 63 89 88 70 62 154 67 65 134 117 163 137 122 68 116 115 80 136 87 138 175 158 72 147 145 111 139 97 107 121 67 126 73 132 86 131 130 118 78 118 168 164 160 189 126 175 125 184 133 154 181 179 166 198 127 120 175 165 73 112 147 139 201 183 91 111 172 180 172 198 127 164 210 131 188 179 168 140 174 168 81 174 84 177 122 65 158 119 150 83 133 87 81 123 144 79 117 150 160 87 79 136 103 73 177 135 203 205 190 190 195 108 115 142 119 198 87 101 91 106 181 156 172 169 133 141 212 161 139 132 186 155 94 167 159 191 174 114 181 116 145 102 85 143 73 97 97 137 147 107 197 168 106 84 123 39 100 105 82 147 143 182 116 98 77 70 74 153 181 103 132 162 157 184 92 149 147 167 132 101 133 105 101 132 141 88 76 74 113 109 116 136 179 126 153 66 150 120 91 179 106 185 160 151 201 131 81 172 78 160 101 166 139 102 91 117 121 180 155 118 180 123 186 188 87 177 138 91 173 205 135 180 202 162 187 170 176 84 68 80 137 90 95 191 164 146 96 178 155 198 196 200 131 160 169 89 150 89 61 136 107 87 159 90 160 171 90 175 124 110 113 170 93 136 114 96 74 59 58 96 140 172 136 183 204 190 130 152 155 124 204 91 144 77 123 132 85 99 86 114 158 149 115 83 74 154 142 57 149 167 148 169 84 68 125 89 91 98 124 128 190 185 157 147 85 123 82 149 176 144 219 215 153 106 139 101 71 156 83 91 115 158 153 134 189 187 186 79 174 85 101 151 117 180 154 163 117 155 113 121 109 175 90 91 107 93 120 192 124 139 86 81 156 143 165 79 103 84 89 85 130 100 209 122 103 87 166
147 140 132 118 116 105 112 126 136 141 155 168 162 174 176 169 172 171 169 158 164 174 178 179 180 180 182 175 164 164 151 141 141 145 153 159 163 172 173 171 172 176 195 185 194 204 183 160 191 192 172 179 185 165 169 146 165 105 146 156 111 156 77 85 105 92 131 133 143 175 138 160 98 134 112 126 140 173 190 135 114 133 100 134 102 89 123 76 131 114 81 123 103 86 108 80 88 79 78 100 119 143 133 140 143 150 147 96 92 110 112 117 118 106 114 81 108 143 145 85 91 89 95 175 79 114 165 60 107 108 74 163 71 167 141 166 62 80 157 159 175 101 104 105 104 180 111 140 117 147 166 168 189 190 86 77 47 126 92 156 143 173 184 153 105 112 167 119 112 169 160 108 160 194 155 149 104 121 143 127 100 175 158 122 98 126 131 99 117 168 161 159 91 168 197 213 116 189 187 174 201 158 90 103 58 83 91 188 96 131 93 139 151 171 85 141 67 120 70 161 115 107 171 97 120 139 167 73 131 183 99 162 151 187 158 108 210 179 233 196 166 97 73 103 165 137 69 149 87 182 150 204 162 104 192 169 131 93 189 182 130 205 153 129 112 130 114 171 95 100 70 104 91 144 162 188 192 192 85 130 65 111 95 143 81 154 160 118 186 78 168 156 167 132 173 114 127 100 176 76 73 154 72 71 167 131 83 167 130 99 168 180 94 123 97 102 160 168 68 139 99 168 164 186 140 122 93 197 192 110 156 101 159 77 154 96 191 159 141 96 131 191 172 202 197 153 97 156 167 193 187 255 92 126 125 128 191 192 131 164 82 175 89 156 54 70 132 158 122 86 95 105 98 142 171 155 156 107 164 172 164 174 139 155 161 94 142 65 151 110 151 187 119 172 173 153 130 188 91 255 72 144 114 93 178 161 146 192 203 119 124 200 107 104 178 170 190 164 135 83 71 167 183 171 173 170 88 179 100 69 58 48 137 71 99 169 66 157 149 93 148 96 95 182 99 90 82 75 51 56 88 40 152 85 184 204 195 122 172 60 53 133 154 171 126 119 135 255 179 139 193 186 77 77 167 176 166 109 180 138 124 138 111 117 114 115 124 110 187 84 130 93 116 118 164 103 178 255 180 102 150 145 148 150 191 149 201 152 152 146 172 110
133 127 121 112 104 98 102 107 125 142 147 165 168 179 170 174 163 162 162 173 255 179 177 184 199 188 186 185 177 172 149 146 134 131 134 145 153 160 154 153 154 161 172 173 200 199 192 157 148 148 163 181 177 171 153 123 108 162 106 108 153 164 106 140 106 84 171 152 160 184 95 137 87 100 109 79 145 146 180 135 119 122 143 106 137 112 91 133 129 96 103 124 137 95 116 98 127 86 93 87 104 103 144 108 126 112 100 100 86 88 95 82 84 71 110 75 90 112 76 115 93 75 121 88 77 79 66 73 58 160 144 141 178 172 78 150 95 135 65 151 134 118 120 200 195 180 170 161 166 169 161 124 178 145 101 147 94 111 141 111 134 179 160 172 170 156 127 165 165 158 164 130 161 152 159 131 106 174 151 134 173 94 166 112 68 100 255 145 104 78 132 106 189 186 111 156 202 147 208 167 103 125 65 141 40 143 141 177 182 192 118 183 186 160 90 162 99 105 75 69 140 150 178 197 107 117 168 152 91 160 90 185 97 140 115 125 126 230 233 138 115 94 70 72 104 107 71 157 105 185 129 192 162 157 177 183 92 185 155 190 175 127 186 166 130 129 79 100 66 62 87 121 150 141 118 156 166 187 113 127 90 117 74 255 115 86 96 129 100 109 120 108 141 143 100 77 87 88 161 100 69 80 157 84 117 105 169 113 109 197 196 120 143 147 178 102 110 99 152 109 86 193 130 207 118 92 183 152 159 99 86 66 61 152 131 176 191 113 144 116 199 110 179 110 200 153 99 135 196 118 146 142 103 179 171 118 122 118 104 90 88 100 86 148 145 53 107 81 179 98 92 133 118 135 113 164 170 164 73 129 167 182 119 170 63 128 89 149 73 111 140 105 188 179 140 199 109 180 171 146 119 167 176 97 150 149 122 137 105 168 203 101 124 108 201 192 114 175 74 118 107 159 184 188 167 172 180 182 171 64 102 67 144 63 69 128 74 109 164 98 116 102 115 100 150 192 180 161 145 96 122 69 80 77 178 185 123 159 146 140 71 156 139 93 152 185 106 183 165 151 95 184 108 122 78 173 172 180 165 83 129 68 100 83 178 111 121 126 116 103 111 156 113 101 176 197 168 188 174 84 163 84 128 113 112 94 184 109 205 103 141 82
134 126 116 103 103 94 104 115 123 138 156 155 172 170 174 166 152 164 175 189 181 170 188 190 200 203 198 194 185 178 170 157 141 132 137 146 155 158 153 155 148 136 154 177 190 196 193 190 180 183 176 192 193 146 180 169 143 144 140 116 255 146 142 90 110 134 164 172 172 183 133 131 132 69 58 84 78 113 129 178 182 99 95 75 69 122 73 146 100 106 103 92 104 130 117 119 104 132 89 98 92 109 104 128 114 134 115 95 77 89 95 99 78 77 104 92 84 67 65 65 70 68 81 80 103 69 47 142 104 71 89 116 88 175 88 136 59 79 142 177 98 115 128 162 207 98 150 163 159 89 179 166 91 189 151 171 135 150 142 163 85 89 125 175 127 85 150 75 133 141 143 105 140 167 154 97 111 83 100 191 188 139 181 87 155 83 126 82 64 75 170 174 114 202 103 156 135 166 204 121 126 159 68 136 65 139 55 93 114 160 98 138 98 77 124 114 108 142 68 100 58 154 175 197 193 138 137 172 176 160 70 133 176 179 208 219 198 135 220 125 105 101 160 145 87 178 83 255 105 187 187 90 150 161 183 143 163 179 161 134 129 92 146 137 90 155 61 132 144 162 131 101 141 157 82 149 160 110 95 101 122 97 182 156 106 158 151 189 87 87 92 163 91 113 164 103 156 136 152 92 88 124 94 78 166 162 164 82 86 193 172 163 139 160 100 109 124 95 165 68 78 174 144 214 109 146 75 164 90 72 128 93 123 150 66 83 176 191 181 172 208 111 156 134 198 194 122 91 182 184 141 122 203 147 178 158 144 196 90 183 189 188 83 147 110 95 127 137 101 73 88 97 55 70 88 74 156 149 103 87 115 140 122 105 124 85 82 125 178 168 109 148 136 206 172 144 185 172 94 141 125 166 189 179 185 142 104 169 101 183 144 184 83 138 186 96 154 112 97 106 99 190 118 132 198 195 111 166 131 153 111 47 89 65 121 180 153 177 146 166 97 172 91 103 206 199 183 100 147 145 149 114 66 60 117 136 197 142 136 126 136 95 158 194 180 149 170 192 91 114 184 182 99 173 86 100 87 169 116 144 111 74 135 80 93 109 186 176 137 74 128 136 161 141 185 147 100 95 178 159 90 117 93 97 185 147 103 140 175 125 168 145
138 130 119 109 255 109 119 130 135 151 158 159 165 186 176 167 159 154 180 194 195 190 172 181 192 196 210 205 197 192 182 167 147 144 143 156 158 156 155 157 158 149 157 140 168 181 167 198 195 185 186 177 176 203 149 128 120 114 153 175 126 154 144 154 132 147 132 167 117 167 181 146 76 63 128 140 78 89 101 153 116 142 95 75 77 77 91 99 179 125 153 114 100 133 107 120 99 122 101 116 88 255 88 126 105 127 84 75 121 79 80 102 139 140 92 113 86 110 74 139 150 145 73 144 73 126 51 40 63 145 89 93 107 165 163 109 69 81 141 112 187 204 113 207 175 172 67 141 141 77 167 181 153 188 114 166 96 105 146 171 170 164 139 147 111 139 128 65 62 125 65 120 157 175 100 158 164 102 163 102 95 142 188 134 146 255 62 46 49 159 174 184 203 108 90 82 84 123 191 167 119 141 127 55 52 49 87 64 126 79 109 194 176 100 113 117 94 89 151 123 62 155 86 162 204 204 206 188 148 117 138 77 151 163 171 180 139 185 109 107 135 71 77 184 147 156 176 184 144 103 184 152 129 71 152 148 88 174 111 115 131 181 94 152 160 81 73 71 94 100 79 135 95 81 53 159 121 172 98 86 151 141 156 159 79 120 98 116 90 134 184 182 167 101 96 144 101 173 101 139 87 121 185 97 144 76 83 165 126 180 200 174 206 129 93 150 105 91 75 165 162 153 200 190 196 89 84 75 131 70 82 69 87 65 161 165 178 104 142 210 185 134 127 123 167 152 166 166 169 170 104 204 119 199 111 113 96 180 86 110 109 106 164 103 115 173 129 176 131 148 159 94 137 142 140 74 122 151 141 116 173 181 106 87 125 139 92 87 123 107 219 209 207 120 147 201 201 98 181 93 128 166 197 188 112 95 168 93 94 193 102 122 140 146 100 175 78 122 133 134 145 201 171 191 201 106 117 167 110 57 69 100 67 110 126 153 193 198 103 83 81 78 146 152 208 184 86 83 109 80 71 157 91 150 79 143 90 143 77 93 115 205 168 125 200 205 127 195 95 176 171 98 175 144 75 172 123 119 150 83 77 77 88 73 79 178 173 92 96 62 87 86 197 185 124 172 100 123 107 190 192 116 134 110 180 181 176 177 101 147 119 150
143 135 128 121 121 126 141 153 150 154 160 173 180 199 180 175 159 154 171 184 199 180 176 166 186 204 213 208 200 199 193 182 165 166 169 172 160 158 151 163 168 165 155 162 160 187 194 183 193 205 203 182 194 206 188 134 169 112 108 159 170 118 94 122 101 88 130 121 181 181 110 153 69 105 133 136 130 79 148 181 171 168 165 117 100 145 148 136 114 132 114 106 104 108 127 103 135 104 103 100 127 79 69 98 74 80 76 82 95 90 133 153 174 117 102 101 107 95 92 144 140 96 76 115 113 31 32 35 147 79 188 177 88 148 161 79 57 79 56 106 184 96 195 189 135 162 116 145 126 155 165 183 192 183 201 141 195 116 147 166 135 130 111 153 115 97 143 109 105 130 141 69 83 153 141 104 71 85 149 74 122 213 133 217 154 79 101 97 116 62 133 197 191 141 84 93 120 184 106 193 134 197 169 147 119 93 59 114 142 168 94 100 185 94 77 147 98 143 115 152 152 138 168 154 146 218 189 178 108 174 163 68 158 129 98 108 199 198 129 91 176 85 180 199 116 124 196 186 88 94 80 76 57 98 104 158 152 108 117 129 106 153 121 169 168 127 135 137 61 148 168 106 136 82 110 108 179 134 183 183 94 171 153 181 155 183 97 102 174 100 209 199 151 207 159 114 113 120 108 102 92 112 171 101 132 83 73 73 84 115 105 138 115 110 158 157 85 87 117 145 87 166 87 137 190 112 125 140 151 169 99 130 132 80 176 255 160 172 93 178 191 185 120 115 149 118 144 85 60 133 164 168 126 145 178 189 187 112 185 177 180 192 172 182 111 92 150 92 113 129 82 150 105 117 144 138 141 93 111 76 168 132 175 84 145 100 161 111 203 172 178 189 166 158 206 145 208 169 126 174 95 150 159 189 161 72 64 73 153 121 99 192 153 114 114 109 125 146 179 104 108 127 106 182 143 104 129 162 95 158 137 109 125 89 103 121 218 124 161 124 126 98 155 192 162 129 158 102 141 99 85 163 66 95 86 156 110 75 127 109 147 135 133 190 194 107 111 101 120 155 134 178 169 111 174 81 86 142 60 110 137 74 41 115 157 98 122 97 151 86 67 84 152 138 140 174 115 108 170 103 111 112 131 81 175 175 99 82 71 133 72 72
129 126 125 130 138 152 156 163 163 162 171 186 207 203 199 179 171 166 177 190 184 175 159 167 174 192 205 201 194 195 200 255 185 185 185 178 170 158 151 156 158 144 144 167 153 186 205 187 178 192 203 199 186 215 201 180 143 164 168 112 137 140 146 97 149 144 156 147 116 147 144 74 107 149 128 97 150 150 94 100 123 121 114 131 143 98 142 105 113 109 100 158 132 101 119 107 107 114 145 108 91 93 107 57 73 107 90 77 88 102 88 112 137 133 172 97 88 117 88 63 59 82 109 145 71 48 53 72 87 178 187 144 135 84 81 148 142 146 149 72 163 142 106 115 76 146 73 51 94 165 143 171 184 181 97 116 102 141 151 113 110 122 132 98 147 87 68 113 114 128 80 123 159 102 195 112 144 119 152 169 175 197 233 196 153 117 89 90 46 154 86 192 108 163 73 155 106 104 107 115 163 180 181 186 144 99 152 154 77 166 157 101 183 97 140 124 160 185 85 122 131 82 110 201 144 167 123 210 174 116 157 151 167 120 146 161 146 156 102 98 180 178 177 200 128 207 93 100 169 101 164 49 77 38 80 65 141 180 135 98 166 147 99 104 83 149 102 96 167 174 189 150 96 123 174 161 118 111 87 132 91 106 91 185 168 99 97 105 178 107 201 140 134 194 160 193 93 158 113 185 178 148 104 127 176 178 141 167 81 137 150 133 204 212 194 165 79 145 105 158 64 85 65 91 138 172 103 136 96 106 156 141 100 124 173 133 102 108 105 161 188 144 89 76 172 129 170 74 92 125 172 182 158 94 83 90 166 189 105 85 165 102 188 191 101 187 187 182 177 75 165 147 48 50 66 152 101 117 103 74 78 106 96 171 188 156 192 188 194 126 123 211 190 115 104 128 143 164 124 163 76 146 82 102 164 95 56 62 153 158 162 101 83 164 113 66 120 134 86 101 105 124 93 139 109 144 163 160 163 70 123 172 173 123 194 204 176 124 212 162 194 177 185 184 190 190 99 95 128 102 146 131 120 138 107 74 132 69 155 133 152 165 204 109 102 118 114 185 171 108 98 134 86 83 95 109 156 175 88 66 51 106 102 104 131 59 60 91 58 139 142 180 173 122 179 167 178 193 184 158 165 97 155 88 121 82 83 156 96 157 109 72
109 110 120 131 152 158 167 169 162 172 178 186 206 193 191 183 165 178 178 177 189 177 160 166 171 177 189 189 189 202 205 255 197 199 195 184 169 159 144 151 150 141 164 178 172 201 201 216 187 189 165 179 176 176 185 156 137 184 135 166 116 99 119 90 117 143 110 106 144 105 137 154 126 144 86 133 120 88 114 119 112 120 195 182 113 101 95 122 103 102 106 98 99 92 99 93 105 113 109 141 129 113 84 66 74 76 125 92 117 126 90 164 101 146 115 100 104 75 66 71 57 63 131 72 133 73 92 60 87 104 145 136 154 178 130 89 121 74 68 63 144 67 165 88 123 75 63 133 158 141 140 167 164 88 85 164 159 174 114 140 141 141 75 154 164 175 175 167 147 121 105 152 110 147 203 194 101 167 94 143 101 191 182 174 129 88 102 134 51 161 88 131 199 90 126 132 70 184 255 206 122 164 116 195 93 186 179 82 139 186 96 98 255 98 105 103 197 101 161 184 172 173 159 144 128 215 128 187 106 105 90 100 163 64 155 87 172 153 201 197 181 118 189 195 202 154 174 140 157 97 86 115 123 121 49 63 160 100 133 166 101 107 102 89 131 89 132 103 110 190 107 202 132 203 138 102 168 89 120 87 90 190 138 183 105 114 103 141 181 184 119 147 148 174 202 133 173 112 101 118 113 98 116 195 102 118 111 124 111 91 180 182 164 184 158 85 68 83 74 142 67 85 88 141 98 139 141 110 120 71 167 99 145 153 142 77 158 172 90 89 169 78 72 119 157 134 97 146 106 146 169 120 82 91 106 158 187 141 187 112 173 81 92 174 119 136 148 110 89 103 170 101 61 143 133 83 88 47 53 160 122 84 85 138 183 198 113 120 174 132 208 104 97 169 191 186 193 180 181 72 145 153 64 95 138 47 145 158 76 179 162 144 137 153 87 92 85 102 175 95 156 172 115 165 85 156 79 168 79 92 102 170 120 101 124 115 122 117 203 191 94 103 164 179 104 128 147 146 59 157 152 94 114 96 128 134 153 162 113 121 212 182 201 139 93 177 158 187 82 157 145 172 105 83 117 82 162 135 152 108 68 79 79 158 121 80 43 49 97 167 179 108 187 186 129 194 172 165 88 117 100 77 157 84 145 73 99 99 88 155 174 127
87 95 116 135 153 162 155 145 150 149 166 177 183 183 162 162 165 165 177 182 186 181 171 166 160 166 160 164 178 183 202 205 202 194 186 176 161 151 136 127 132 148 165 185 189 204 204 201 172 195 179 177 177 176 187 134 190 160 204 188 127 145 170 172 120 130 120 131 95 66 105 112 84 127 160 110 145 147 144 112 131 126 119 177 153 96 117 94 144 159 108 140 92 121 143 94 102 104 115 115 116 84 86 42 43 67 64 77 91 104 111 117 149 96 152 148 137 93 93 55 92 141 70 66 67 120 75 85 188 105 101 114 115 116 88 193 190 187 73 56 255 135 147 162 166 66 139 77 106 177 166 133 142 112 133 96 171 167 166 147 145 110 113 154 127 139 153 183 149 100 121 91 95 189 166 135 157 128 96 94 199 207 139 191 117 73 140 118 144 110 149 187 190 175 143 60 123 181 200 111 202 175 187 178 166 138 84 165 96 97 153 98 154 179 101 132 154 114 189 177 192 191 197 136 140 152 221 140 133 118 185 160 176 161 80 52 72 103 145 200 125 121 133 185 185 95 65 144 147 92 76 99 136 99 58 76 161 154 181 108 183 165 155 151 175 113 184 114 134 143 135 173 153 160 204 189 184 82 171 113 136 161 110 151 102 176 163 94 124 124 116 148 196 120 121 124 118 82 101 73 86 134 82 103 191 168 123 93 101 109 149 122 176 145 127 178 87 89 76 61 65 63 53 70 85 83 87 63 103 59 75 99 154 113 99 169 160 152 125 186 160 107 94 147 83 156 174 102 173 124 172 177 164 168 112 104 92 176 167 88 167 143 186 182 92 88 130 173 104 115 157 165 62 154 111 151 53 63 126 70 148 147 162 159 159 133 138 193 141 184 194 177 179 177 177 177 169 147 154 57 148 61 136 65 54 120 147 119 106 124 144 125 180 177 170 97 89 127 86 188 94 183 116 117 166 171 175 170 161 177 186 185 87 177 93 183 115 166 84 175 144 123 114 183 181 101 86 65 144 143 153 157 75 161 152 121 106 146 101 105 210 115 115 179 140 120 107 187 146 100 94 127 146 160 73 151 91 147 169 176 76 136 104 170 77 154 53 83 171 113 92 177 192 161 151 128 144 90 110 184 89 111 102 116 83 75 124 138 155 177 182 125
80 93 118 146 163 160 144 140 138 136 156 160 154 156 138 131 143 171 191 201 193 176 169 166 164 160 143 151 160 183 190 202 196 197 185 165 155 146 142 142 147 142 175 185 199 176 197 200 190 185 143 150 177 181 178 150 140 152 195 173 156 116 151 142 175 109 105 154 124 136 85 102 104 147 90 166 100 92 165 131 153 151 128 104 158 90 93 154 131 111 120 155 157 84 119 92 120 161 159 148 142 128 98 59 67 56 120 80 93 89 92 88 90 110 144 91 94 84 121 66 88 151 129 154 73 129 100 114 194 197 168 189 92 87 185 100 100 152 169 148 136 40 133 255 70 117 114 165 122 169 182 175 150 181 87 95 166 161 163 137 178 117 136 153 190 109 200 144 141 86 163 158 119 137 113 114 116 177 92 109 116 204 129 103 91 61 43 97 91 148 152 126 179 162 96 114 140 156 98 97 164 126 173 152 175 171 73 86 114 163 110 141 138 136 116 124 153 179 217 203 178 146 156 199 166 125 212 203 205 199 117 187 111 161 70 131 106 80 110 97 112 182 105 184 105 123 150 80 138 132 123 167 116 166 97 156 185 187 199 181 131 95 74 155 151 182 113 186 113 165 134 143 131 164 148 92 100 88 144 101 130 135 187 174 186 93 166 124 155 108 122 152 190 173 94 107 87 155 153 132 77 91 181 165 155 120 109 152 98 117 193 124 101 91 108 103 130 87 139 74 151 59 66 163 168 158 100 137 80 59 104 75 143 137 99 156 131 163 121 185 98 160 139 74 63 102 174 163 187 168 134 96 85 92 171 162 183 178 126 146 80 134 113 117 159 148 119 174 120 109 125 161 165 147 144 71 52 59 103 91 79 126 141 107 106 153 130 133 143 102 179 141 189 89 89 174 113 117 127 147 68 146 46 117 109 130 109 90 139 199 119 193 100 105 155 85 96 88 94 169 87 123 142 171 173 135 88 175 150 138 116 137 99 174 81 97 83 144 56 142 73 156 114 89 166 125 74 106 104 141 62 98 87 125 139 147 80 129 148 173 212 159 115 182 141 178 190 186 115 107 73 156 73 132 88 141 128 180 100 174 96 180 115 167 109 166 110 134 173 126 157 180 92 122 179 178 129 77 145 191 110 130 109 124 185 91 87 161 112 182 128 120
83 99 126 159 171 168 153 132 134 138 160 166 152 144 132 129 142 165 195 195 198 170 169 151 147 144 132 147 161 171 193 200 201 192 169 156 145 139 140 145 156 164 185 193 177 177 161 183 182 148 166 134 164 146 186 174 151 192 175 204 197 192 171 138 109 160 148 120 126 101 107 117 131 91 140 143 124 97 144 111 113 166 132 141 133 79 108 95 110 135 139 117 147 83 84 136 95 116 142 134 125 116 96 84 112 83 112 90 132 132 146 108 114 110 122 116 79 71 132 145 109 72 156 160 147 101 109 107 185 90 166 177 94 83 91 138 182 154 141 62 144 107 65 63 137 154 75 77 181 138 105 81 151 117 87 104 255 165 160 176 143 144 172 179 155 142 112 192 99 165 178 167 189 105 129 183 172 78 146 95 155 193 188 176 129 153 138 54 120 91 96 69 89 76 117 118 109 172 167 84 183 178 114 83 76 84 109 154 96 153 83 86 168 109 180 159 162 128 159 198 184 157 165 174 198 135 156 138 129 199 94 140 85 69 68 136 138 89 112 139 164 189 186 156 99 114 135 130 147 158 110 145 181 185 91 255 190 144 163 107 142 176 132 167 145 183 161 185 152 127 175 121 156 176 78 89 109 120 153 85 173 121 103 103 150 89 55 146 75 157 177 201 199 128 118 81 133 90 66 154 83 166 106 121 113 168 101 124 196 113 110 89 95 161 60 63 69 64 158 171 95 78 88 69 147 172 138 65 137 58 58 75 168 126 109 120 171 110 192 107 148 105 108 65 156 162 170 96 168 86 137 154 173 156 90 175 178 157 141 160 133 90 113 143 162 143 75 99 127 123 149 135 135 150 145 79 113 137 128 138 153 102 134 179 118 105 72 123 126 174 119 186 107 174 119 170 162 121 134 141 151 126 66 65 66 69 88 137 152 131 175 117 104 100 185 170 95 93 104 173 92 156 69 70 81 166 141 71 92 168 174 98 131 80 176 74 161 49 43 104 169 149 168 96 173 76 135 71 145 120 118 165 76 159 157 137 158 175 140 158 192 102 182 97 187 97 91 184 177 92 132 93 167 96 169 147 120 136 156 151 146 189 133 135 178 99 149 87 133 106 114 88 153 177 108 58 99 117 121 200 164 121 205 115 195 129 86 132 94 162 163 194
84 102 129 161 175 169 156 154 153 166 166 174 166 152 146 148 157 167 184 192 179 170 171 165 162 143 146 152 164 176 195 200 197 184 166 145 134 138 146 151 166 179 197 196 188 178 184 178 170 131 140 170 159 140 166 179 164 140 140 186 183 147 167 162 153 99 139 80 86 133 164 163 159 104 117 89 149 105 97 157 108 152 154 144 76 78 70 100 86 92 149 92 94 82 78 117 91 109 131 166 130 125 142 134 79 79 120 100 99 113 93 106 105 161 133 113 140 95 73 77 80 161 90 181 101 96 97 184 111 175 174 176 155 157 84 147 154 183 89 79 137 163 106 162 75 69 72 173 182 142 85 166 152 177 149 87 157 151 114 119 176 108 101 124 196 181 184 165 156 183 117 184 183 100 128 137 161 109 130 189 154 189 158 138 95 107 68 155 143 98 151 152 94 151 136 88 182 84 140 101 182 143 181 92 160 159 87 163 174 146 155 144 124 96 203 159 189 159 173 102 171 177 149 169 175 191 164 149 111 106 158 177 103 149 127 139 109 255 81 88 192 190 103 198 192 123 88 175 114 171 172 157 159 175 99 137 195 128 115 199 125 93 84 176 89 189 104 190 105 137 143 86 166 99 176 115 77 137 169 85 169 90 169 102 50 111 112 65 73 166 129 138 152 174 91 84 81 117 255 69 120 96 126 189 170 140 112 114 163 137 109 87 94 125 87 138 77 158 141 77 93 109 70 160 166 95 137 170 65 128 88 76 78 75 102 114 145 95 96 143 143 195 145 159 105 166 81 117 162 163 129 148 80 130 72 133 145 103 63 149 160 180 124 148 176 72 60 147 150 100 171 128 85 118 75 116 151 142 117 85 112 184 213 197 113 124 149 163 167 112 175 175 175 93 165 163 124 109 143 166 72 130 148 62 59 123 173 192 182 121 124 181 110 194 152 118 121 176 93 118 111 104 109 145 154 123 112 73 50 69 155 108 171 113 154 167 92 76 87 90 181 186 123 189 104 129 166 164 124 80 156 115 157 165 194 168 106 112 92 147 94 106 93 172 186 187 176 163 187 132 111 184 95 119 104 101 163 136 179 178 138 98 161 142 124 182 144 152 90 167 93 132 174 128 64 46 61 100 151 210 125 140 126 127 187 119 142 169 172 158 192 179
81 99 125 155 169 168 165 175 179 196 201 186 178 176 168 172 174 174 188 194 173 174 173 174 168 151 156 150 172 180 187 202 196 179 158 134 133 140 141 162 181 193 199 186 178 148 178 142 149 109 144 124 179 182 153 156 139 158 152 145 130 120 186 147 158 148 161 139 156 125 140 161 109 154 108 86 163 118 162 133 165 89 152 72 76 81 60 68 127 74 87 84 86 90 75 81 89 124 120 129 143 163 129 104 125 93 100 103 126 151 100 160 132 172 112 177 162 157 92 88 85 83 99 113 103 108 94 105 67 68 164 82 79 77 89 91 94 99 104 180 163 133 127 148 164 169 133 81 85 105 109 165 111 107 128 78 129 169 170 169 131 130 181 179 130 140 148 175 157 184 141 148 167 102 116 148 147 186 142 100 111 131 100 177 180 92 184 75 126 155 156 150 115 95 86 135 152 193 174 113 199 112 164 188 107 173 87 138 129 152 67 136 94 193 183 161 145 99 126 154 79 149 147 82 83 152 193 196 190 122 102 156 167 137 59 134 134 43 158 181 160 163 137 103 95 156 180 132 109 159 104 121 167 133 88 90 185 130 153 154 113 185 184 152 180 190 163 88 180 141 109 167 177 113 182 123 123 88 71 97 99 144 77 136 91 96 99 83 66 153 58 118 169 148 90 184 108 167 169 84 140 91 134 172 180 89 102 105 148 153 105 54 53 43 129 71 81 120 142 77 78 88 67 61 120 169 159 79 142 107 108 90 89 153 155 51 51 81 88 112 101 157 91 84 176 150 129 81 74 99 68 145 62 160 173 108 104 169 157 161 169 92 123 111 114 86 111 99 69 164 70 130 106 82 160 81 72 68 122 128 189 198 211 181 74 51 133 128 113 133 77 170 178 129 87 160 71 152 181 150 109 101 156 140 100 66 100 137 189 133 150 190 201 115 203 165 85 73 80 145 113 89 152 95 104 118 96 57 132 58 164 84 184 172 110 69 57 153 121 126 187 129 107 105 103 140 130 118 171 168 155 116 106 99 189 146 134 94 108 172 96 115 178 182 124 105 122 183 120 140 116 141 203 100 92 183 170 181 172 188 145 196 116 196 179 190 98 91 143 166 112 158 163 63 49 119 62 102 128 177 123 184 130 179 106 106 126 141 114 128 102 83
78 94 117 144 158 163 168 183 197 210 209 200 184 190 180 182 184 185 190 191 183 173 170 180 176 172 159 172 173 177 190 193 190 165 151 136 137 146 162 171 177 184 185 176 164 161 167 163 151 135 115 125 181 183 146 108 137 154 148 182 185 133 112 180 151 165 148 157 168 116 140 103 160 86 138 91 95 130 121 104 255 83 132 75 74 80 69 58 108 68 74 67 84 63 74 124 115 116 171 128 125 135 255 102 105 113 105 116 108 131 113 133 99 129 118 100 141 100 112 140 144 106 77 73 111 83 176 136 75 68 78 156 155 74 175 131 96 192 102 93 92 181 159 89 117 70 94 126 158 80 109 178 135 143 80 165 115 144 161 110 133 109 152 186 201 193 137 133 118 103 145 146 174 98 163 96 191 182 124 117 94 126 77 123 140 195 133 131 98 132 121 141 144 177 180 125 174 167 169 203 220 154 109 190 172 196 190 94 118 96 66 136 127 205 114 149 189 176 84 108 92 123 129 143 63 109 123 181 164 119 60 121 160 113 57 141 93 114 61 164 99 133 179 186 99 173 155 82 173 121 79 188 192 185 134 174 123 119 88 156 140 112 180 191 199 179 123 122 99 133 148 173 79 152 117 126 106 110 108 115 57 120 72 110 125 85 75 118 129 122 83 53 95 164 89 139 154 86 143 161 103 151 104 83 96 89 151 112 126 89 69 132 128 98 41 133 88 57 144 162 154 66 145 103 152 76 129 178 173 89 181 161 148 146 67 153 72 66 96 150 197 114 189 102 102 100 174 171 86 64 92 136 56 167 84 144 97 91 175 173 166 136 133 188 163 85 157 155 139 97 88 98 105 62 92 129 89 156 150 64 150 195 201 199 76 137 52 61 88 155 73 76 113 128 155 94 91 185 175 186 180 153 64 65 122 72 108 101 187 109 185 185 127 116 121 94 88 137 72 86 173 121 136 78 97 108 134 119 143 75 108 189 170 167 108 121 63 70 95 136 122 91 141 125 121 176 98 88 75 127 166 170 169 169 107 202 128 160 92 178 104 196 160 142 183 117 189 130 167 112 170 207 152 127 175 130 77 84 115 110 106 117 194 147 123 117 208 156 186 79 93 60 72 53 112 119 85 59 73 98 111 173 174 71 74 97 160 167 136 102 136 117
88 98 113 132 148 156 166 187 202 215 214 200 194 190 187 199 189 178 178 182 184 183 182 178 185 179 171 169 176 173 178 178 178 167 152 144 150 152 168 179 175 185 163 164 153 143 130 147 143 104 115 123 181 140 177 116 154 141 132 186 154 163 147 128 115 182 139 131 122 163 95 160 86 171 158 157 148 115 101 163 95 84 130 125 82 75 97 58 63 99 107 119 106 97 97 102 113 156 135 146 127 124 114 122 115 108 109 107 167 132 163 96 97 117 100 103 101 91 88 99 96 94 75 100 142 135 76 143 137 84 87 126 92 184 126 97 187 179 94 81 106 104 107 114 154 169 167 152 180 167 119 122 130 79 158 122 144 81 72 152 137 118 88 130 190 202 193 96 141 189 156 149 192 115 165 175 199 200 145 151 155 85 62 112 143 199 185 146 133 131 149 70 166 108 130 178 155 198 189 181 121 171 172 181 187 122 180 105 80 153 153 157 176 101 158 130 174 149 130 104 85 156 152 137 68 147 57 136 166 78 146 144 73 120 64 145 102 144 156 173 195 141 128 151 134 178 154 87 129 102 158 135 107 189 182 174 177 171 172 158 116 150 160 127 194 150 139 186 126 86 116 143 76 155 135 124 197 206 143 173 104 75 120 50 145 95 160 94 138 116 138 49 136 127 76 71 107 81 86 120 94 130 100 89 111 90 197 150 155 132 88 67 77 61 83 48 67 46 149 152 66 63 61 86 142 125 152 83 90 196 115 188 159 88 75 104 146 154 119 171 138 130 106 204 202 102 184 167 91 111 125 90 104 91 105 176 187 169 93 104 151 182 169 193 120 128 156 180 165 178 122 132 158 73 150 70 120 111 139 104 145 176 114 134 166 81 156 95 175 157 120 126 171 172 112 170 182 132 186 97 169 149 93 142 77 157 74 178 97 191 105 187 134 202 122 178 163 62 141 74 86 77 167 122 80 164 145 71 116 124 93 197 95 140 102 82 74 171 149 194 131 98 83 180 172 184 131 179 153 73 165 136 152 105 119 95 131 171 93 194 118 144 157 93 86 111 109 190 159 172 138 183 143 128 133 88 140 89 128 142 133 112 138 197 192 185 130 166 130 149 170 160 138 142 81 75 83 98 89 85 165 172 166 138 127 76 134 187 255 102 140 131
101 104 111 127 135 152 157 182 185 195 198 196 191 193 192 181 174 164 169 167 178 177 178 188 194 181 189 179 160 158 162 164 168 164 162 158 162 168 171 182 178 174 168 155 119 136 139 113 152 139 136 167 159 186 131 169 117 154 136 180 120 157 97 104 144 124 124 130 127 87 96 88 158 170 148 158 107 115 134 105 119 255 84 112 112 144 255 58 114 65 64 62 112 93 102 115 165 137 125 123 116 126 111 157 166 147 162 111 111 120 115 109 118 103 127 131 146 84 92 100 90 158 97 80 64 63 139 78 150 96 156 189 193 108 200 186 155 188 170 160 127 158 73 128 103 140 79 189 198 119 152 172 98 117 128 120 164 100 167 107 80 162 128 117 205 179 110 103 106 140 159 135 157 104 189 172 127 188 145 206 181 104 124 81 118 168 201 177 66 58 58 114 146 131 75 116 186 189 121 134 127 106 158 101 172 202 144 109 88 148 136 118 170 89 121 150 163 169 188 192 162 182 157 141 146 133 52 88 67 148 66 89 255 176 93 112 66 147 74 178 159 186 121 204 186 177 94 131 177 159 110 174 157 157 187 187 184 139 168 149 96 92 171 198 162 197 146 126 96 115 167 135 61 97 84 147 212 152 174 140 163 141 55 72 153 145 104 108 184 168 130 59 83 159 151 59 107 110 140 89 104 176 193 173 92 175 179 107 192 97 160 96 105 140 160 77 127 138 66 76 171 145 116 159 177 87 139 97 109 164 106 186 193 157 121 144 145 145 161 103 199 123 149 199 159 133 79 159 142 110 74 150 105 156 182 120 93 101 139 139 107 95 152 108 114 174 221 146 148 186 96 90 102 72 79 128 147 113 125 89 139 167 179 168 172 82 98 145 176 133 179 87 107 84 85 198 188 211 151 97 98 125 72 66 56 99 89 197 115 118 188 166 100 187 134 91 159 125 56 166 133 118 95 112 124 137 83 170 93 183 104 121 184 178 102 61 63 174 189 172 144 172 183 116 183 103 99 169 166 150 187 179 201 115 183 171 65 69 116 108 180 203 122 96 118 139 167 143 110 191 162 115 137 151 179 138 151 177 174 106 93 119 192 145 136 131 139 136 203 207 98 87 110 63 57 142 94 49 55 74 160 143 148 159 77 72 81 91 151 140 179 139
118 119 121 129 135 150 162 174 175 172 169 176 170 184 179 177 151 146 155 166 170 174 182 177 194 189 186 173 155 153 147 158 160 156 160 161 173 182 189 177 165 172 168 150 150 141 117 122 164 135 166 158 167 163 149 129 142 164 151 170 139 129 128 125 102 138 117 143 125 147 97 161 163 175 142 173 148 169 145 133 99 96 92 99 119 129 54 67 62 63 80 69 112 83 111 125 147 124 135 122 139 151 134 112 117 144 109 108 145 148 160 117 87 143 100 73 67 61 85 160 94 89 169 69 127 76 88 183 180 169 133 194 122 131 201 197 96 94 81 171 69 81 55 81 137 70 172 196 205 183 202 185 78 148 148 109 167 180 147 187 140 121 146 171 141 195 191 143 150 195 194 194 141 206 118 156 188 189 215 143 187 131 78 172 194 149 190 185 101 142 65 255 157 162 83 128 191 184 191 194 108 143 83 81 133 195 191 130 175 141 155 63 157 139 83 130 155 82 153 184 107 186 167 164 146 152 138 66 157 164 124 124 99 111 152 118 169 79 88 94 189 205 176 182 138 175 93 193 115 181 160 77 79 81 113 111 143 159 91 141 119 127 157 206 124 116 148 141 145 161 171 77 81 94 131 199 135 179 157 100 144 54 119 91 170 120 137 201 112 91 124 146 151 119 81 69 152 110 80 94 121 173 189 147 124 86 182 107 119 105 118 96 92 132 118 69 89 51 55 88 168 165 198 104 150 190 200 195 114 190 196 125 101 174 168 193 193 191 121 160 192 151 89 172 101 127 101 163 163 71 167 106 89 130 87 111 139 79 171 94 187 175 166 189 125 156 217 205 106 107 191 156 67 152 138 255 133 67 97 129 40 65 159 192 169 191 98 146 129 130 147 61 136 67 83 194 189 113 125 95 148 148 82 166 83 176 131 115 154 191 195 136 143 122 90 180 79 70 165 131 115 130 75 93 196 154 172 177 105 172 121 147 115 170 165 79 75 146 95 191 145 98 192 198 107 180 174 169 106 183 131 111 115 111 103 130 92 101 103 92 125 180 170 88 78 172 84 172 191 100 119 123 108 101 183 162 83 125 94 140 89 108 108 159 126 222 154 207 178 163 105 111 78 153 145 70 119 133 149 71 123 120 140 75 94 75 105 171 99 96 177 206
131 132 134 139 144 152 159 164 163 161 162 156 164 178 167 151 143 129 142 156 170 176 173 182 179 185 182 162 142 142 146 151 161 159 153 158 168 181 189 185 181 176 171 150 144 157 163 167 164 163 162 147 146 174 137 140 180 171 162 170 152 77 137 126 127 124 116 110 152 136 164 150 89 177 178 136 119 148 148 113 90 134 139 85 119 50 57 63 81 107 76 103 82 92 100 136 146 158 120 113 130 96 98 102 149 134 104 110 105 155 160 141 85 91 63 55 50 57 65 91 151 169 80 95 81 139 162 91 148 113 111 201 105 97 94 100 187 93 184 176 162 114 96 144 144 114 134 175 121 115 196 164 128 146 148 80 71 168 144 199 173 109 112 172 181 124 184 133 168 185 93 176 197 125 200 170 194 123 199 173 103 90 124 166 198 183 152 186 105 149 99 75 121 186 192 105 184 199 170 179 166 177 167 134 185 199 216 129 203 184 157 102 153 74 124 140 55 147 180 112 191 137 175 177 144 76 151 91 55 88 116 117 194 166 190 141 78 180 187 103 190 166 103 127 103 131 191 153 125 179 120 132 165 176 184 114 198 114 85 87 130 161 168 197 207 114 109 171 121 152 99 166 107 145 112 184 178 208 135 97 128 155 152 57 73 130 96 112 147 103 121 173 77 118 56 38 50 73 139 81 70 102 112 96 137 151 81 111 127 162 101 101 147 109 110 81 71 54 155 112 191 147 179 195 255 135 116 206 146 185 202 174 103 160 186 134 149 122 183 191 95 89 112 59 94 97 68 86 102 183 181 99 69 76 136 88 126 94 155 83 136 192 197 181 208 170 174 187 99 140 182 81 140 152 147 255 48 47 38 124 131 97 128 182 185 163 124 204 117 179 153 54 50 152 138 92 178 134 148 164 162 82 103 157 94 87 95 130 173 138 204 105 152 162 102 88 97 94 187 160 189 116 151 110 137 143 173 167 68 72 82 170 115 111 92 157 78 121 167 135 97 108 153 178 194 190 130 94 180 196 199 120 126 113 161 126 148 142 132 114 142 97 102 172 79 156 94 93 196 194 95 111 108 119 88 132 88 137 90 83 82 106 110 198 167 214 148 148 181 203 116 102 158 174 119 150 75 81 82 159 110 119 94 172 113 108 76 74 103 184 186 149
146 147 148 149 153 161 157 158 150 147 154 155 164 167 162 161 141 132 154 163 177 181 177 183 183 180 171 145 139 133 138 144 160 158 155 152 163 170 174 179 174 178 179 181 183 156 181 162 158 158 144 110 119 171 184 143 172 129 161 162 158 85 143 94 125 102 184 127 159 173 118 94 93 98 173 193 189 149 117 90 116 93 75 124 59 65 51 55 83 84 126 121 92 85 122 88 87 92 88 107 115 116 124 101 137 103 134 91 123 93 89 77 76 66 59 47 33 96 40 48 62 86 132 85 82 146 93 119 159 188 115 135 175 94 124 93 185 161 187 174 78 101 55 138 78 146 171 192 195 152 174 171 163 146 128 59 143 132 143 196 199 196 132 158 157 80 187 189 132 122 100 130 189 198 185 182 181 196 202 110 140 104 140 151 129 188 119 104 141 145 173 175 145 122 129 188 115 202 125 172 182 195 159 108 134 176 212 136 201 122 181 77 160 77 132 134 68 130 161 127 193 102 179 188 106 165 151 60 120 48 64 167 198 179 194 162 98 117 193 141 165 85 85 180 135 134 119 183 174 157 120 150 153 175 99 128 163 140 121 157 73 75 182 185 192 188 145 175 71 83 126 179 168 155 140 98 192 255 133 180 183 71 82 63 77 172 185 97 181 148 123 82 121 91 57 50 43 152 89 73 114 130 98 146 85 175 117 255 112 112 90 115 101 103 151 91 112 79 96 110 102 120 176 137 204 196 150 192 215 122 127 123 118 190 96 75 97 130 132 165 94 152 112 57 54 108 170 94 107 107 128 115 162 85 155 145 61 35 64 82 170 171 112 160 202 118 148 131 132 179 174 149 123 157 130 144 87 98 145 69 41 91 122 111 173 199 111 127 98 90 135 55 91 157 90 97 130 190 114 76 161 101 151 106 124 146 80 100 110 183 157 126 132 125 93 119 131 137 124 179 127 134 89 161 119 171 197 111 60 116 154 165 138 168 149 171 143 140 75 119 126 131 170 155 179 123 157 204 105 202 117 135 159 121 125 132 156 119 75 131 148 93 79 118 128 155 86 130 108 159 188 88 98 150 118 167 167 79 141 169 88 93 157 98 101 206 165 223 128 223 200 110 168 92 101 79 121 190 184 163 176 77 95 174 94 100 145 132 171 188 197 218
147 149 153 156 163 165 164 149 152 151 156 255 169 178 165 168 143 140 153 172 167 172 173 169 183 172 170 147 134 130 140 150 162 160 150 147 151 165 174 172 165 161 172 178 176 188 188 177 156 119 139 153 175 136 150 165 120 161 175 160 136 151 164 95 155 102 150 160 117 172 166 143 109 128 168 114 173 129 86 79 130 97 76 77 143 75 144 119 151 99 135 154 103 95 111 95 98 100 78 91 102 112 125 133 148 99 146 113 94 74 86 97 89 92 55 114 42 37 43 66 130 70 129 95 97 96 160 103 192 183 120 206 115 153 189 141 180 187 96 75 151 61 152 155 113 151 178 153 180 177 77 139 159 155 134 146 162 86 163 168 176 122 130 153 166 154 152 192 182 170 128 163 185 185 106 181 147 153 152 117 176 152 166 97 193 126 114 170 68 151 135 136 102 112 172 160 121 200 201 179 117 199 119 204 109 106 106 190 175 140 102 171 175 170 84 160 115 143 102 128 196 130 96 119 141 146 131 43 104 74 119 173 175 141 198 95 119 174 125 181 87 98 124 81 178 166 75 121 171 136 174 158 98 137 172 177 189 184 154 176 255 86 134 140 186 101 188 165 151 128 143 179 165 186 177 156 187 181 177 171 97 86 162 70 78 149 140 186 98 145 88 133 68 86 36 85 64 114 109 64 92 108 158 83 151 114 101 170 176 186 181 180 96 101 84 165 130 64 151 136 192 131 207 189 211 163 202 111 110 158 187 159 137 114 156 67 63 138 139 163 179 95 139 146 145 151 175 201 184 199 107 158 122 166 63 129 105 129 133 86 188 192 171 194 179 101 143 103 144 111 124 120 98 130 189 170 181 255 158 137 51 84 100 179 178 165 191 161 134 79 122 156 67 154 170 196 112 171 157 159 110 151 169 91 178 145 135 88 132 182 196 172 113 102 123 107 91 189 189 183 107 164 114 116 187 198 113 116 163 74 176 152 143 166 177 202 106 115 106 105 84 121 137 128 174 128 159 120 199 128 107 174 193 118 189 87 114 69 112 140 115 149 133 51 144 171 127 124 125 124 153 109 80 127 141 67 93 53 135 78 190 118 179 134 103 106 135 188 111 207 198 99 164 156 161 79 170 186 136 135 150 108 95 160 159 201 185 187 177 106 187 177
138 142 148 155 163 161 161 150 150 156 162 155 168 177 168 177 164 157 163 172 171 186 180 180 179 172 163 144 132 132 138 150 165 161 160 150 155 158 161 151 143 153 143 161 175 189 157 171 140 140 119 171 145 158 180 170 110 170 183 167 153 115 120 152 155 151 167 137 137 170 176 188 146 140 154 145 86 157 108 106 127 90 89 91 156 99 122 95 126 129 95 137 83 127 87 92 93 81 96 91 108 117 135 122 129 97 113 82 101 61 65 76 90 75 77 69 123 69 64 118 108 77 134 95 111 98 195 101 105 198 118 213 213 122 115 193 192 191 116 156 123 144 74 141 158 156 95 167 87 162 91 160 128 126 157 143 149 124 99 161 202 198 122 138 165 115 133 184 138 155 161 161 143 184 198 125 153 111 193 171 160 130 94 185 85 170 123 84 124 68 83 184 134 103 120 197 132 170 116 179 148 116 190 96 103 184 89 112 134 193 146 95 124 184 86 86 104 120 172 169 185 188 116 121 135 174 99 145 36 128 139 158 128 112 141 109 107 202 124 163 98 146 135 172 98 130 161 107 80 184 174 207 209 163 153 209 166 205 96 152 188 132 157 164 154 187 148 117 170 153 123 167 119 77 166 97 179 127 185 109 153 109 112 70 112 91 185 94 122 103 98 94 72 142 82 104 56 95 73 71 61 71 74 142 138 108 123 98 175 96 157 118 159 93 184 162 69 79 145 63 173 111 110 122 103 154 190 193 192 186 128 201 134 107 129 80 90 167 71 153 78 80 95 159 65 131 156 193 185 163 137 183 118 75 153 43 39 35 102 160 186 160 129 207 154 147 137 103 98 68 105 142 105 173 175 164 196 154 90 82 145 116 109 180 143 169 182 201 177 182 78 157 82 94 184 185 122 95 118 106 58 120 88 126 159 112 139 117 150 69 138 109 127 155 126 129 177 99 169 153 183 141 174 108 172 134 162 166 104 75 175 104 102 171 173 111 200 199 181 83 103 116 85 114 163 192 125 216 203 199 113 195 98 106 187 148 86 155 134 170 135 103 98 76 72 78 127 121 116 102 94 82 113 155 81 132 117 90 57 125 112 142 147 106 152 157 182 118 181 127 80 88 167 160 73 71 157 75 133 82 153 110 178 177 155 132 127 137 106 137 116 223
116 125 137 147 149 150 143 134 137 144 156 151 147 164 166 171 169 156 170 173 170 166 178 173 163 169 152 141 136 136 140 148 157 159 161 154 155 150 154 136 143 146 142 153 152 156 171 142 154 148 146 163 178 195 179 131 104 167 186 165 163 189 164 105 143 141 86 91 95 118 189 149 176 166 146 82 115 74 93 140 164 94 101 120 111 116 141 127 105 134 92 145 95 104 155 119 107 117 108 109 106 107 105 89 98 95 91 79 62 75 47 117 100 97 102 112 87 82 136 159 154 104 135 104 165 118 107 163 93 192 111 136 197 123 123 112 204 109 92 72 107 160 152 104 153 181 182 177 76 138 98 166 121 98 160 123 98 174 172 88 201 154 193 187 122 170 159 140 184 161 66 95 118 126 195 174 118 192 191 124 185 175 124 155 107 171 153 109 66 79 79 180 183 181 190 101 103 154 124 105 181 141 170 111 93 82 91 140 183 178 149 108 118 138 187 90 161 187 154 110 148 198 122 136 129 117 171 96 114 130 110 142 157 200 182 150 201 117 175 182 124 93 139 127 139 103 127 88 175 121 110 146 107 180 151 146 123 123 106 189 184 176 185 165 126 92 159 150 144 173 88 157 100 116 171 88 165 130 89 133 174 84 145 109 82 87 149 136 126 147 105 169 72 135 81 156 75 89 80 62 139 137 131 167 110 185 162 204 169 118 133 154 110 140 117 77 132 149 118 153 87 137 176 80 130 87 191 149 158 201 188 123 116 196 184 101 154 169 159 81 172 129 173 165 107 101 152 151 140 199 117 99 95 89 101 102 84 46 148 150 156 103 154 126 166 133 147 110 112 107 86 150 134 151 191 121 105 133 107 163 153 129 71 88 191 190 118 128 104 199 177 91 115 188 140 115 123 175 79 63 116 133 168 157 177 74 107 132 154 161 166 74 133 118 125 98 166 98 142 80 112 102 177 168 113 192 185 155 120 144 124 103 176 199 123 94 98 123 163 66 138 129 124 70 124 141 208 175 159 108 99 190 169 150 172 171 123 153 79 169 148 144 68 44 148 138 154 209 152 179 129 161 164 107 69 53 113 101 149 176 100 103 115 94 154 97 80 129 83 80 81 84 174 190 84 148 136 77 76 167 158 93 190 155 119 166 133 150 123 192 123 148
103 116 127 137 132 124 116 124 126 137 144 149 153 155 159 164 172 154 171 176 168 168 162 155 168 155 150 145 144 144 144 142 149 149 159 156 161 158 154 142 141 135 140 156 161 149 164 133 134 137 157 182 186 145 119 153 120 157 180 182 211 130 172 101 143 80 102 103 118 174 205 144 125 103 153 146 98 103 88 136 100 151 177 139 105 101 106 140 92 90 115 71 91 122 112 112 154 125 107 118 119 108 113 119 133 144 145 111 62 42 73 91 110 119 139 119 99 107 95 119 74 75 162 148 255 103 173 91 107 100 185 155 124 149 196 170 96 94 156 168 77 159 72 118 130 94 87 171 140 77 160 129 65 98 152 152 140 136 141 192 197 118 119 178 159 162 165 184 154 165 90 145 150 162 104 140 119 203 117 111 91 99 118 98 69 118 88 143 89 119 120 139 172 174 83 180 95 138 153 107 179 146 156 83 77 119 154 125 92 104 172 172 156 126 188 178 168 95 172 192 178 202 212 144 194 132 115 161 93 155 97 102 154 199 126 198 201 196 190 95 183 96 161 119 172 147 147 140 78 182 204 127 160 137 187 168 169 212 116 205 213 178 176 130 158 190 138 104 117 119 124 173 160 118 133 153 77 84 161 195 91 71 154 53 150 128 133 161 155 88 122 143 72 82 76 81 255 144 96 64 56 84 56 68 116 116 107 116 122 124 108 96 102 149 140 85 99 83 63 134 72 68 69 65 77 85 137 186 189 100 102 108 157 111 120 207 121 159 164 173 145 180 186 182 82 80 117 103 189 126 117 190 101 132 81 64 146 135 74 143 114 151 161 192 81 153 134 146 145 75 131 129 144 157 163 127 133 78 90 123 93 169 131 96 92 168 164 198 189 200 204 116 106 174 130 194 151 106 58 59 162 115 99 104 178 101 124 70 90 68 145 168 169 136 93 178 168 114 93 90 153 170 91 95 112 108 255 171 141 192 108 209 130 103 183 145 125 91 188 168 62 133 129 159 136 173 169 186 91 111 163 118 134 171 110 139 159 154 146 149 110 55 93 106 89 162 190 189 115 169 73 72 133 116 144 144 137 138 70 87 181 103 172 91 108 80 109 70 66 131 149 178 111 194 119 116 70 56 135 161 128 110 101 114 87 121 93 142 114 169 124 204
98 110 122 127 122 112 106 104 113 133 147 136 140 135 141 154 152 167 167 159 162 147 154 153 165 160 144 147 152 154 153 146 147 151 160 165 166 165 166 161 165 164 164 138 150 135 139 147 113 132 144 140 153 125 114 144 132 96 168 152 207 158 140 139 123 131 146 118 98 132 165 158 148 103 145 119 106 71 115 142 133 97 114 119 136 149 82 100 87 98 73 68 75 124 112 126 111 107 101 136 130 90 72 93 105 120 107 94 94 50 62 136 92 111 184 127 125 117 83 68 104 131 145 153 89 80 62 144 89 95 120 206 179 198 100 86 97 99 154 123 177 131 165 61 66 151 171 169 135 119 161 160 133 108 163 168 175 172 92 167 162 104 165 133 161 94 182 174 157 167 125 136 141 79 91 148 127 126 125 185 97 175 64 128 154 137 130 134 111 127 173 87 135 174 79 81 179 146 161 200 150 152 82 150 79 78 113 135 80 125 75 83 96 192 197 180 107 146 191 107 175 187 199 105 180 166 130 85 175 138 163 131 174 173 110 187 103 175 86 168 163 177 206 173 93 123 72 76 174 167 109 172 81 160 156 189 158 134 216 202 255 108 121 203 117 110 164 173 195 123 190 182 162 167 182 156 120 156 131 97 155 155 255 143 83 161 186 192 186 154 138 152 177 76 80 113 91 169 85 101 105 86 92 165 134 197 112 130 140 194 100 164 156 98 91 172 106 102 104 113 105 107 65 75 122 130 185 110 103 194 196 197 198 106 189 144 202 113 142 159 89 189 104 192 170 124 89 140 163 179 216 176 103 171 165 145 150 127 170 162 154 172 135 115 101 159 64 158 88 113 177 140 113 135 134 158 89 80 97 137 173 175 174 119 164 132 102 174 212 156 120 145 143 119 102 122 184 75 139 56 150 93 130 189 141 165 151 138 170 74 106 175 155 155 194 175 78 97 89 170 197 88 118 172 161 119 186 103 126 142 172 205 177 209 180 116 75 72 121 172 153 151 67 154 82 168 87 95 161 118 76 78 180 82 171 86 174 92 95 176 140 145 71 146 120 178 140 187 155 115 92 172 91 150 135 60 151 129 149 156 87 173 74 90 128 182 114 134 108 55 65 97 110 115 159 164 160 59 57 121 93 178 185 100 70 160 125 99 183 216 143 150
103 112 118 123 122 113 107 107 116 134 144 135 132 128 147 144 164 168 165 167 148 153 157 153 164 161 151 142 156 165 160 158 154 161 164 175 170 178 181 170 173 173 168 169 140 144 150 134 153 141 160 119 170 150 151 106 109 120 147 142 183 186 115 113 78 123 85 137 140 162 142 133 187 106 167 143 80 84 75 71 102 154 117 172 153 88 125 94 78 137 76 62 71 92 96 112 96 88 83 101 77 80 78 77 113 96 97 112 95 102 85 68 135 116 134 171 129 94 84 140 150 90 147 94 138 105 65 153 124 91 152 110 135 190 133 142 117 82 130 157 81 67 141 145 149 160 168 168 100 66 166 102 184 166 88 148 92 168 104 124 188 190 120 160 146 111 125 178 99 159 151 75 91 145 70 123 206 161 209 121 189 83 150 98 125 68 73 91 96 174 93 167 91 177 166 175 86 99 167 178 113 177 104 175 178 98 157 134 105 174 118 187 125 177 116 108 110 109 179 199 121 194 176 122 76 87 175 98 94 172 153 167 180 111 156 100 175 160 165 164 179 193 171 190 179 161 59 80 181 119 189 78 152 85 172 191 188 156 212 198 169 191 197 202 185 144 190 196 181 162 208 195 94 145 95 89 177 110 182 128 156 107 74 70 78 191 143 101 87 180 178 96 94 144 137 168 132 185 82 118 170 133 111 178 89 152 136 129 165 120 180 116 105 178 80 79 74 178 92 188 153 169 102 88 124 96 105 106 185 135 97 113 191 96 191 109 114 151 198 150 111 97 116 158 169 210 163 193 211 221 206 225 167 134 81 156 158 158 186 185 182 111 102 87 88 108 79 110 176 135 158 157 94 110 119 107 132 142 108 115 133 141 149 127 182 189 161 164 193 204 121 176 159 183 128 193 140 143 60 63 136 117 169 128 165 130 71 95 74 157 83 95 180 148 173 132 114 96 168 188 111 168 158 103 167 118 122 169 106 132 119 124 214 172 162 73 112 77 66 163 72 152 156 146 115 114 159 78 168 85 134 118 140 153 176 89 165 188 157 112 124 126 81 139 162 89 183 164 180 101 126 125 190 89 133 143 144 106 168 143 169 115 110 84 106 187 197 104 99 148 162 161 187 130 105 177 75 151 101 96 81 108 189 79 65 140 74 130 180 126 170 207
105 108 114 122 128 130 125 127 142 153 150 150 134 134 144 151 165 174 157 171 165 160 174 172 163 165 155 159 166 170 174 175 171 181 191 196 199 202 203 194 168 171 159 167 174 139 165 164 138 149 158 146 113 158 129 135 96 115 89 160 133 180 133 167 92 132 152 165 123 157 126 137 167 172 169 98 116 150 77 66 94 127 122 153 124 100 99 87 79 76 67 67 67 93 87 91 116 108 77 72 83 76 121 83 90 92 113 81 76 64 95 96 82 122 126 113 118 118 255 84 136 105 146 100 100 123 64 71 87 111 97 105 192 168 168 146 100 176 172 190 84 98 125 70 142 87 162 149 77 176 170 160 194 180 97 158 150 96 153 134 170 115 114 105 147 146 158 173 156 163 85 150 69 155 153 139 216 217 214 170 130 115 153 83 125 128 127 109 83 150 133 136 150 164 90 169 67 142 125 190 197 130 188 98 191 129 102 95 162 132 134 126 196 140 125 109 164 125 202 138 100 106 86 173 68 151 161 129 182 126 160 165 88 177 196 128 159 181 156 125 139 93 128 182 145 163 73 164 183 193 187 150 154 153 150 153 179 178 120 179 92 129 119 173 202 114 122 150 128 210 189 144 183 150 97 86 166 106 136 146 111 53 110 153 86 154 120 179 161 90 112 112 109 96 162 95 126 98 139 169 122 103 160 122 133 120 189 120 159 131 220 122 117 102 94 161 83 106 98 130 184 128 150 82 148 137 98 106 90 152 92 100 173 129 92 204 200 119 104 91 140 139 98 199 224 129 120 144 123 217 142 161 209 171 89 86 174 177 160 104 121 170 146 99 169 92 120 138 106 175 104 103 105 135 149 57 62 136 69 157 157 154 186 103 191 106 142 196 140 205 156 117 182 95 97 153 111 64 117 161 124 176 123 161 175 130 88 106 157 146 145 100 112 146 102 96 188 177 112 116 106 74 146 152 170 127 91 185 176 119 107 207 140 173 112 169 54 65 150 92 144 163 70 162 129 157 156 77 135 126 134 167 171 84 86 107 69 90 136 172 140 135 101 61 169 91 98 154 152 90 187 200 208 149 174 186 92 95 109 158 148 164 166 170 161 144 205 200 172 92 164 76 86 156 149 168 127 112 89 139 184 111 101 179 69 97 87 184 197 146 134 234
101 101 106 121 134 147 152 149 157 159 170 148 144 145 146 153 172 160 160 166 176 184 167 177 171 167 163 167 174 180 186 189 193 197 205 211 218 221 217 205 182 168 171 170 176 178 160 183 182 183 172 147 142 155 131 139 121 158 121 172 118 174 255 99 100 144 128 126 103 109 138 95 158 125 101 123 78 104 76 72 80 117 255 189 155 134 140 82 75 110 129 68 87 79 74 91 75 77 75 60 61 64 65 89 82 96 119 125 83 110 103 106 146 85 79 129 122 112 99 123 140 164 105 81 79 149 75 88 88 91 157 127 96 75 136 151 152 168 189 189 148 97 141 147 136 169 141 177 125 87 173 194 103 185 153 101 146 143 135 165 80 146 109 156 85 141 95 179 164 115 168 116 71 130 169 134 150 174 175 160 178 122 142 169 177 129 149 93 144 183 93 88 178 95 95 89 159 67 150 157 109 96 174 105 156 205 203 120 191 125 157 212 176 99 148 174 170 192 132 176 136 152 86 149 67 162 177 176 97 92 90 150 168 191 152 144 160 135 123 91 50 48 143 175 151 131 162 100 181 179 148 139 129 141 100 87 193 198 179 173 178 121 103 194 167 187 106 141 148 157 106 156 116 160 115 138 148 86 150 148 138 66 130 139 185 167 154 129 97 132 178 147 153 177 187 149 131 102 89 96 94 180 155 90 84 171 111 158 126 210 156 224 174 102 161 140 167 99 124 198 118 108 183 114 115 99 94 154 160 109 78 126 132 87 172 195 207 210 113 188 104 108 120 204 218 137 140 112 205 216 205 114 201 175 111 132 106 104 201 110 141 198 112 106 151 142 184 179 146 191 164 137 161 100 94 96 100 134 61 74 136 85 165 159 114 90 90 107 145 201 165 177 151 152 94 177 169 67 81 140 169 92 194 105 95 136 83 122 70 115 112 122 83 143 103 178 103 98 160 105 93 101 83 75 81 110 151 95 195 165 107 181 123 204 145 174 61 152 152 137 161 133 102 82 92 140 71 109 150 70 99 92 161 90 170 133 50 154 74 111 154 53 148 159 178 182 132 179 147 140 112 201 157 200 105 97 106 152 173 98 93 177 108 145 179 172 121 177 186 169 117 153 88 115 171 134 185 90 91 186 134 152 108 98 100 80 107 86 194 106 141 209
92 92 96 110 137 157 164 169 169 175 170 162 152 167 172 162 156 165 159 169 181 183 183 179 180 161 169 159 172 181 196 193 199 202 208 218 227 231 218 200 181 168 150 178 196 207 183 170 198 162 169 104 98 104 154 185 183 140 139 132 117 148 170 143 156 160 122 89 123 128 78 97 140 86 147 142 125 83 70 45 58 149 114 113 106 127 162 157 138 75 138 79 131 114 77 67 121 74 53 89 41 67 69 109 73 126 98 90 93 108 83 138 65 108 65 100 115 88 137 84 117 78 145 75 179 101 151 179 86 154 129 188 89 73 79 124 159 176 94 112 173 88 127 66 162 144 154 186 163 161 105 97 88 174 74 60 56 141 136 65 166 105 76 78 78 183 149 180 141 168 95 98 155 154 104 114 159 114 121 154 80 163 166 114 179 136 137 132 162 176 139 134 185 188 182 178 112 117 140 141 175 162 176 83 113 105 199 149 162 116 171 135 196 180 75 87 142 167 94 161 84 151 126 56 130 154 79 74 141 134 40 135 151 186 193 213 147 104 166 68 107 99 140 164 172 138 163 156 113 87 142 98 143 57 58 152 75 181 169 87 147 169 182 185 114 84 165 86 185 153 188 107 111 156 147 128 117 98 171 146 128 84 121 127 113 183 109 175 170 93 119 122 155 130 140 166 149 184 88 161 89 165 132 84 102 167 113 125 125 181 179 123 120 117 136 90 115 112 108 113 208 153 132 176 94 95 147 95 83 169 74 168 111 175 91 143 124 169 178 117 160 157 165 129 170 132 199 96 92 117 170 184 104 127 129 127 159 164 171 150 189 167 184 86 181 175 107 140 173 136 117 95 190 171 165 97 78 154 141 97 68 160 126 74 128 168 155 170 146 174 126 108 133 98 183 102 141 151 66 117 148 152 174 152 86 169 181 84 145 86 77 117 142 168 175 140 103 133 200 100 181 82 154 118 192 137 96 183 178 120 112 120 129 159 164 113 104 120 79 149 176 110 102 82 82 158 81 74 81 109 170 111 195 102 163 147 58 146 156 167 162 128 75 122 85 171 192 192 175 112 197 133 171 182 115 184 114 160 93 100 163 147 149 99 156 72 115 116 154 83 112 105 168 151 173 103 105 132 109 114 126 161 176 190 96 174 80 71 99 84 185 110
91 91 94 106 127 144 156 170 180 181 171 165 171 178 169 175 160 154 152 159 171 168 181 175 173 169 168 165 173 190 199 192 200 196 201 206 214 222 205 199 173 160 176 178 206 191 188 201 192 161 169 149 95 157 169 186 181 188 176 156 162 118 129 151 104 150 143 133 117 131 136 148 149 118 96 123 73 52 39 88 83 97 83 80 164 102 109 119 147 104 100 99 116 81 75 73 55 51 53 47 45 58 57 105 113 83 85 102 98 84 89 80 113 79 130 84 164 78 150 71 68 62 76 83 98 99 148 128 133 86 165 146 79 74 164 122 174 181 158 183 160 91 170 141 79 99 175 125 95 168 175 95 154 158 134 124 141 56 110 112 164 134 106 91 160 175 99 179 160 73 61 110 166 140 201 200 163 106 184 138 177 101 90 112 95 93 174 129 112 155 142 182 141 103 184 174 94 149 90 94 150 113 158 175 129 100 116 190 107 149 127 208 174 175 141 153 103 74 86 130 87 106 152 82 156 94 105 133 146 143 87 49 80 170 194 210 123 159 171 111 64 59 105 81 90 150 68 142 106 161 86 137 150 114 145 119 141 162 83 175 178 197 163 177 104 84 176 164 105 82 75 117 128 97 96 117 128 99 88 155 107 173 100 163 161 144 100 178 81 131 116 95 158 166 203 139 173 139 110 137 84 95 98 145 155 83 97 148 132 109 196 123 169 132 107 87 161 66 148 101 136 186 194 116 104 88 98 164 145 255 173 73 102 152 125 195 162 98 179 165 86 187 113 215 148 116 110 115 78 175 169 255 146 169 156 130 147 73 88 168 139 142 108 139 118 151 83 82 170 177 91 115 166 197 188 179 89 143 160 61 144 154 161 63 152 151 71 181 121 194 136 171 161 200 115 198 89 95 68 58 113 113 80 77 143 164 96 175 169 91 172 79 75 137 157 169 186 181 135 191 97 84 138 108 152 192 167 205 187 155 214 196 162 136 149 110 117 101 165 132 87 175 110 91 83 160 163 159 71 162 182 136 153 104 157 152 130 156 177 182 101 179 114 161 160 118 99 104 187 125 132 137 157 116 115 153 134 106 108 158 171 113 150 157 89 157 68 70 107 166 126 120 100 107 123 147 120 164 155 156 189 142 183 89 100 161 64 151 112 157 85 195
102 101 98 98 108 117 134 156 160 169 156 152 169 177 180 177 167 153 150 164 168 179 178 174 171 179 177 172 172 181 198 203 198 191 181 187 194 203 199 175 164 163 165 198 186 196 186 184 167 178 136 129 128 123 153 150 151 137 174 142 154 111 142 113 131 145 122 136 100 108 116 96 159 159 156 103 128 76 101 123 105 83 64 105 147 91 149 124 169 101 107 91 115 77 76 61 46 45 57 59 95 86 92 103 100 130 99 100 96 90 68 69 90 63 114 138 79 148 78 59 118 101 81 93 128 145 122 119 137 87 190 97 185 76 175 180 95 192 193 195 125 185 158 155 160 167 83 192 166 182 157 175 79 144 108 121 159 103 123 148 168 176 167 135 166 126 192 169 255 146 95 128 138 163 165 202 204 191 101 108 171 83 138 199 192 173 102 143 156 121 125 159 171 145 141 106 197 200 193 147 157 165 174 121 175 188 193 208 206 192 133 156 100 81 120 61 149 170 158 186 147 90 136 91 174 120 164 104 174 159 142 86 141 87 173 184 172 180 149 129 98 158 173 175 82 108 115 64 55 129 144 115 137 116 103 104 126 121 107 164 137 158 120 160 182 159 128 107 92 131 59 60 79 76 110 101 126 62 89 175 169 121 76 119 119 97 127 104 88 78 117 161 112 87 167 152 196 116 175 96 146 175 113 122 165 156 106 115 143 130 98 108 100 151 104 85 85 54 71 85 156 154 118 100 111 91 83 85 175 141 110 159 107 74 80 103 255 80 69 163 88 106 183 175 123 174 91 106 126 160 85 154 146 60 63 106 109 147 130 162 150 115 98 179 172 91 94 182 167 174 79 174 123 102 174 95 164 106 122 135 149 78 88 91 114 61 165 184 203 115 162 173 101 156 201 119 100 75 138 135 103 76 157 153 164 98 172 75 78 157 136 94 90 190 202 108 170 196 110 110 111 184 95 108 184 193 154 111 205 116 113 108 203 164 142 139 165 69 158 122 70 171 135 151 173 102 78 66 115 176 96 194 198 207 157 164 132 156 183 123 168 175 118 64 153 119 178 188 211 116 142 124 184 189 119 99 200 130 135 201 109 108 99 112 154 128 91 129 91 115 187 164 138 110 158 177 143 162 159 207 125 177 182 81 167 85 108 74 95 117 96 107
127 123 115 107 103 106 116 125 141 152 144 140 159 165 170 172 149 143 151 156 168 175 175 169 171 174 181 178 177 183 195 197 190 174 166 161 161 171 179 174 156 164 170 177 180 184 139 143 151 155 149 142 126 147 161 168 112 165 121 116 175 167 173 140 121 76 146 157 88 125 89 162 154 118 87 91 79 72 73 138 142 103 67 107 98 128 141 98 106 154 125 135 83 92 109 67 53 37 71 71 99 62 83 72 96 106 131 164 158 100 130 87 138 104 99 109 97 81 71 66 87 137 137 133 105 176 155 83 164 87 136 184 94 184 140 108 166 186 139 106 116 180 162 147 143 153 105 158 199 197 169 122 117 126 126 160 137 64 103 156 158 116 158 149 106 136 122 111 138 144 80 134 90 147 127 146 209 179 144 139 162 136 160 115 185 84 117 107 72 147 182 88 86 180 189 129 205 134 198 94 152 103 91 174 167 170 255 162 114 107 104 117 122 157 92 102 155 159 191 178 177 173 140 139 138 147 216 130 108 116 155 154 70 107 91 180 176 95 89 169 184 181 182 171 172 178 100 98 152 131 143 121 89 49 105 105 68 179 208 211 162 226 213 171 179 138 97 177 184 132 59 80 142 255 137 123 57 74 101 66 69 113 78 98 60 140 87 99 83 69 56 77 132 66 97 110 98 182 120 187 172 141 95 113 106 196 185 163 209 126 134 108 122 111 112 153 149 78 74 122 111 198 122 98 174 78 78 130 163 139 131 132 104 77 164 173 72 154 150 69 75 89 106 167 196 172 91 75 73 67 167 82 121 48 96 38 109 64 63 142 96 149 174 79 178 147 179 182 187 170 141 125 66 75 118 100 123 173 104 82 164 156 126 81 73 95 132 193 218 160 202 207 202 157 201 144 127 165 160 113 154 109 133 132 86 165 137 110 90 183 148 178 166 171 202 166 199 174 156 82 170 134 165 92 94 99 114 92 172 182 203 188 107 182 106 92 172 162 91 119 169 176 118 126 108 87 79 90 77 102 128 110 165 170 148 122 186 118 137 156 210 108 169 133 70 84 101 213 180 101 144 109 75 142 161 128 206 138 131 150 123 115 179 131 100 164 91 177 162 112 114 148 153 108 174 84 185 133 183 191 124 193 117 82 87 83 142 68 57 136 70 136
152 146 133 119 108 106 107 116 119 138 143 138 148 152 155 155 148 134 134 147 152 179 176 178 163 177 175 174 176 178 183 190 181 167 154 147 157 171 177 174 162 152 178 159 174 166 151 127 113 154 127 151 125 92 135 153 118 154 143 143 158 140 132 120 172 114 96 110 154 166 116 144 115 144 152 156 119 88 152 156 86 76 75 140 67 74 103 77 143 84 114 84 91 130 70 92 255 44 45 48 92 73 113 98 124 139 121 133 118 84 108 130 139 88 139 86 90 138 160 82 104 136 101 126 169 85 95 113 125 83 178 185 97 155 116 102 99 195 203 136 182 82 162 124 85 178 118 104 201 179 146 169 169 154 159 85 165 73 125 152 124 186 167 165 209 204 102 141 146 53 129 143 145 172 153 196 130 185 143 181 186 197 186 144 171 94 255 155 97 162 71 113 108 168 89 101 177 166 180 184 142 88 111 175 200 170 214 130 210 99 182 175 131 68 144 148 151 151 132 138 136 152 127 209 139 127 145 217 113 169 175 74 174 124 147 106 169 86 99 103 174 72 172 179 181 91 181 76 84 149 146 147 58 114 139 81 170 188 128 213 176 185 220 191 135 108 176 113 101 158 173 132 67 112 117 59 86 48 129 102 54 71 128 157 61 126 110 125 165 137 151 120 53 127 72 109 186 126 171 120 188 180 94 162 101 124 128 186 151 148 137 122 102 165 108 97 102 125 70 132 132 148 159 136 84 152 82 141 160 168 147 180 125 93 134 96 124 95 136 109 68 166 172 135 156 82 78 137 154 157 87 150 69 36 67 78 111 60 110 170 181 127 93 75 116 123 188 181 170 166 156 139 59 79 63 125 123 155 139 163 159 137 109 98 180 178 95 198 214 198 182 172 119 205 99 85 80 98 123 84 181 179 136 129 118 131 148 91 82 152 89 135 165 183 169 162 153 145 188 108 82 158 76 100 154 173 169 118 94 152 138 191 97 168 155 156 130 169 153 101 137 142 108 143 126 199 93 167 167 181 183 111 180 171 125 192 177 196 101 106 195 143 166 61 68 85 102 137 124 134 162 136 118 162 164 138 116 141 178 226 181 171 96 75 78 131 129 120 141 73 163 84 99 117 170 107 84 86 138 147 111 117 128 83 55 57 68 54 133 46 87 70
171 169 159 147 129 121 111 106 114 133 140 138 149 158 151 143 129 126 120 135 155 169 178 181 177 173 165 170 166 175 188 178 169 159 151 149 152 169 174 186 184 182 173 153 172 142 147 134 132 149 137 151 124 143 115 114 102 143 127 148 131 115 98 106 144 104 145 115 114 166 192 185 130 183 115 139 120 90 161 102 137 82 94 123 123 63 61 66 75 97 65 71 75 109 64 93 51 52 69 64 50 106 75 90 135 127 160 154 138 85 125 73 146 106 112 149 143 132 92 126 115 188 129 75 66 75 135 96 89 82 75 155 86 167 92 92 160 87 187 191 182 88 97 145 176 171 144 147 163 177 173 178 172 165 134 172 78 133 109 153 178 186 165 184 152 174 119 91 142 145 114 140 151 74 168 150 156 171 190 110 176 170 182 116 202 182 101 120 65 141 93 68 67 147 64 159 98 152 120 156 105 166 81 105 189 140 136 121 107 127 115 80 147 69 156 65 70 169 127 104 102 154 118 114 202 141 206 216 186 199 96 187 99 155 153 192 103 96 153 79 83 149 114 122 99 191 103 162 170 129 161 72 84 159 150 95 129 173 153 180 111 203 190 165 80 67 121 179 205 150 155 110 130 91 82 106 142 33 83 47 129 85 74 124 65 107 104 102 150 79 89 59 50 153 157 174 104 111 76 79 126 96 175 95 111 150 203 209 179 155 103 119 138 162 204 124 176 126 116 96 184 149 127 183 145 81 75 122 122 147 163 101 144 191 92 83 167 140 145 160 165 131 121 181 131 96 153 172 73 75 121 126 46 105 113 110 45 83 68 166 165 99 106 96 176 185 193 127 119 180 70 105 44 61 82 130 182 135 132 201 196 178 114 111 185 182 190 154 210 127 192 193 212 157 199 117 80 83 90 138 101 181 192 87 111 93 145 117 79 174 161 87 168 143 160 149 118 202 182 156 91 158 163 138 161 175 80 166 186 169 158 92 119 90 81 103 87 175 171 105 84 102 106 109 209 208 148 190 103 90 180 113 90 91 108 94 167 151 179 149 91 98 136 84 156 102 142 192 101 179 136 96 115 165 75 88 179 255 164 131 192 195 81 154 147 104 163 167 104 94 75 95 158 180 192 149 173 89 140 165 100 104 64 61 83 109 121 153 52 49 109 58
171 176 179 170 152 137 123 123 118 138 141 154 151 139 137 148 134 122 113 120 156 176 183 181 183 173 164 159 177 182 195 185 166 162 161 163 166 171 179 194 188 190 186 179 167 174 155 121 128 134 153 115 138 104 150 134 114 87 106 135 106 108 171 158 142 150 109 131 150 185 127 143 155 155 151 164 125 105 123 84 87 79 76 148 99 88 61 65 69 109 91 80 80 105 78 72 62 70 59 70 89 78 94 88 117 150 115 139 104 123 136 81 117 110 103 166 93 90 175 100 106 192 132 68 68 62 72 176 154 128 71 151 119 86 135 91 130 150 88 95 98 114 134 193 166 197 188 109 179 109 142 115 183 157 173 163 168 160 82 177 174 101 196 197 190 150 112 146 82 120 132 63 110 106 148 107 116 137 127 183 153 168 192 182 185 167 94 93 147 74 139 66 143 110 143 161 127 177 184 181 167 158 79 192 128 177 184 176 182 102 90 154 175 171 77 88 162 107 80 178 121 155 160 193 164 204 116 131 209 207 106 123 190 153 185 133 170 184 94 158 66 141 70 153 95 184 132 125 176 137 74 78 154 166 116 157 120 65 70 107 161 163 171 106 99 155 171 194 178 193 166 154 125 91 89 151 56 44 100 101 98 124 148 154 140 125 171 105 100 155 117 81 62 129 162 165 87 81 80 112 162 75 173 86 110 101 104 98 98 104 154 128 118 128 134 120 103 165 161 172 142 177 153 136 255 171 153 87 81 128 139 96 132 98 92 189 182 94 156 62 130 167 176 174 71 92 152 96 142 82 129 145 123 70 36 97 112 108 162 132 184 100 162 79 155 156 193 107 120 165 155 255 80 142 74 145 165 124 211 119 111 197 156 150 169 136 135 102 95 114 126 111 115 140 98 184 163 176 91 106 215 134 161 186 92 148 159 182 183 87 158 55 153 106 159 192 124 175 185 255 102 172 112 139 140 165 159 119 186 182 173 155 71 72 168 171 156 179 149 168 169 165 103 126 125 123 208 185 181 176 167 147 67 66 68 75 168 143 80 88 157 131 131 183 196 108 178 134 111 76 105 156 152 117 132 101 147 114 127 191 172 95 116 62 61 66 169 87 131 61 136 109 189 203 105 106 151 136 164 104 135 90 88 93 168 87 83 123 150 120 53 69
157 171 183 181 167 156 141 139 140 147 152 149 139 139 136 128 142 129 131 140 158 177 192 191 186 177 166 165 177 189 186 185 168 172 175 179 179 185 190 199 193 197 191 192 167 188 157 168 153 154 118 122 163 156 175 174 149 103 108 117 141 133 100 154 109 174 129 147 119 152 104 159 110 139 148 189 114 114 117 153 132 102 160 95 141 93 89 126 118 76 100 106 77 93 74 81 78 100 92 60 55 67 90 75 104 123 116 126 103 151 141 115 163 115 101 101 176 105 168 118 156 130 85 143 136 52 99 94 116 85 111 104 80 157 126 129 135 138 65 144 120 51 77 89 115 111 164 126 191 121 159 187 150 168 155 165 72 126 141 193 148 203 212 144 166 117 148 84 139 134 93 91 80 82 84 67 88 109 197 192 123 139 154 146 82 145 74 86 180 146 124 175 122 73 115 107 129 152 138 93 77 168 169 185 179 171 111 117 78 165 79 154 107 140 163 174 166 137 114 69 112 143 126 146 91 193 115 206 114 139 97 165 115 164 126 179 141 146 117 141 75 121 48 71 169 122 189 182 146 137 76 143 77 83 151 74 100 105 153 158 60 150 84 120 151 130 181 113 161 178 88 166 70 133 77 155 99 103 87 133 144 140 106 154 85 79 137 176 156 96 180 174 134 68 159 152 90 80 105 152 135 153 74 137 74 136 113 194 140 155 99 193 117 153 147 208 112 138 87 102 93 174 127 121 92 79 82 85 181 89 169 157 129 187 189 171 124 74 78 149 164 121 75 163 147 110 137 110 194 130 182 152 157 53 47 72 149 69 80 109 137 176 119 151 78 125 191 185 106 147 150 146 96 167 172 168 115 196 186 165 134 110 180 174 154 148 138 168 107 162 167 91 92 164 188 172 155 121 191 214 127 183 179 123 140 84 159 97 95 152 83 143 124 74 178 90 129 189 112 152 112 176 187 124 145 158 171 88 165 137 163 107 62 152 154 146 186 180 76 91 62 114 169 170 170 203 180 113 187 177 170 102 63 64 119 131 68 124 100 48 137 164 149 161 117 143 155 164 143 159 119 90 113 133 173 136 183 195 153 149 176 169 102 78 154 134 97 82 152 155 127 131 111 108 185 133 85 82 114 110 132 47 107 181 109 142 200 105 148 173 98 114
135 157 178 188 175 162 147 153 153 155 156 136 137 138 131 130 142 153 142 145 164 170 191 190 201 184 173 169 174 184 176 180 174 178 181 182 189 183 193 193 201 201 192 192 192 187 187 181 169 133 148 166 149 186 153 133 169 154 128 135 104 107 151 107 173 114 167 167 170 112 90 99 148 166 113 175 147 159 120 147 80 106 99 99 94 116 68 63 76 75 133 95 85 127 91 78 95 106 79 104 77 53 64 101 76 79 113 130 96 133 157 91 93 120 160 102 142 83 79 90 174 84 147 45 43 80 162 166 190 116 77 159 76 125 131 94 47 44 89 124 122 107 147 72 158 201 185 87 88 81 97 156 166 162 255 74 139 111 152 206 121 153 189 181 153 120 175 104 87 142 77 45 83 143 145 149 124 122 108 145 184 164 158 146 103 115 82 89 179 154 98 113 132 90 94 105 97 92 122 69 160 158 148 85 164 134 124 170 145 67 77 98 111 180 84 123 87 157 81 66 64 64 150 81 134 166 144 152 167 179 119 171 86 170 114 187 103 189 141 115 82 158 110 137 91 91 166 173 185 153 111 108 145 172 143 79 107 90 58 146 142 141 116 100 62 154 132 139 147 91 113 89 159 161 104 88 166 102 120 188 152 110 96 116 142 79 115 82 186 98 97 131 77 73 155 93 118 123 120 178 170 102 85 83 115 80 111 194 168 92 110 92 101 180 126 141 111 160 100 90 163 152 72 92 93 154 70 82 90 151 185 187 184 148 138 153 93 107 76 129 159 91 153 102 153 152 176 201 216 154 135 185 111 89 72 124 66 142 136 160 178 168 129 82 151 143 184 164 92 93 79 159 126 173 97 182 102 182 124 162 114 170 153 114 77 165 162 66 150 94 182 164 101 151 177 100 174 155 141 157 180 121 129 177 86 161 159 109 92 152 115 65 153 159 153 77 166 75 172 193 110 174 210 204 124 77 139 126 171 77 78 152 100 165 113 144 108 179 162 140 150 64 128 122 97 163 109 181 192 156 166 92 122 109 84 148 121 142 49 119 141 156 88 175 108 108 166 178 169 126 159 134 119 89 125 75 94 180 122 180 106 106 119 88 156 113 134 139 70 78 121 165 103 186 130 178 159 86 69 101 35 43 159 132 255 158 163 124 200 178 139 169
115 140 168 182 175 160 153 156 158 159 148 129 127 132 140 145 143 148 146 150 157 174 191 195 194 186 177 164 164 160 168 171 174 185 189 196 199 205 205 199 194 182 195 207 189 207 190 198 188 156 183 178 184 197 150 135 157 166 86 128 142 126 133 185 168 188 172 169 151 102 113 97 95 94 161 157 132 80 133 127 82 81 84 151 92 151 104 69 78 81 143 103 114 79 125 75 87 133 97 87 61 76 49 101 86 86 121 100 81 145 91 129 94 88 83 128 141 88 161 74 90 123 139 121 106 51 75 101 173 122 182 106 118 90 71 97 144 136 31 92 74 111 130 150 88 167 198 144 172 98 77 171 136 145 59 117 114 154 195 151 217 201 132 131 189 107 103 105 103 149 155 152 76 124 71 109 172 122 149 182 120 156 107 69 177 91 177 189 150 195 180 120 168 148 158 98 109 109 77 65 255 138 141 168 78 167 148 83 107 120 113 163 95 138 141 190 181 173 74 143 59 140 131 80 173 171 160 159 79 87 168 103 68 88 168 102 199 123 198 127 100 182 169 172 160 167 167 156 165 150 165 126 140 172 136 185 119 145 154 103 62 143 136 139 71 77 170 155 174 160 141 178 104 127 170 171 87 115 127 205 128 162 90 73 176 130 114 102 106 129 144 95 169 91 127 159 141 108 99 101 137 142 109 74 170 170 172 144 100 95 180 133 146 110 112 167 129 143 69 74 88 83 68 127 121 57 126 120 169 183 190 135 161 69 111 75 76 58 131 157 153 83 161 64 156 156 181 131 204 209 154 107 169 139 86 161 56 102 86 74 142 112 93 96 75 161 185 113 84 177 128 183 173 194 183 134 90 105 146 136 160 191 176 147 136 93 121 70 167 82 145 96 139 141 169 74 89 126 141 188 127 151 99 77 130 116 76 101 135 181 79 141 162 123 58 67 61 126 161 178 113 180 185 114 173 126 169 78 123 113 177 118 150 93 125 125 167 122 137 61 87 158 167 162 125 177 106 175 95 128 83 149 126 142 121 163 153 164 157 118 148 155 102 107 87 150 159 170 76 154 156 84 163 111 140 68 96 140 163 119 196 106 107 110 164 63 57 136 93 88 102 189 146 107 168 95 164 145 101 136 84 135 166 191 255 161 159 230 199 163 200 131
103 130 161 180 170 161 153 164 165 164 145 136 124 136 136 136 142 147 138 151 154 172 168 185 175 166 170 157 152 148 152 162 177 189 193 198 209 213 207 191 186 166 184 177 214 212 218 209 167 191 192 193 181 168 190 183 186 158 99 145 123 159 168 161 158 176 116 169 160 128 166 130 108 157 88 99 91 117 109 154 255 255 82 85 166 161 83 73 85 84 132 121 92 127 76 80 103 118 77 66 46 64 54 79 78 88 90 100 128 82 93 152 89 82 110 130 109 76 163 70 65 128 99 113 76 139 98 186 120 139 146 95 89 166 66 158 57 108 44 97 85 126 134 150 176 101 108 172 113 164 138 131 155 66 141 148 151 158 160 185 180 157 178 109 189 145 110 103 163 133 119 140 147 172 156 177 114 189 145 102 84 80 75 173 181 107 191 193 122 162 171 155 133 154 111 163 136 121 136 52 49 51 78 103 161 169 93 155 103 167 171 142 166 136 97 187 93 129 103 150 121 143 158 95 92 156 124 110 64 93 89 88 85 168 167 144 119 207 112 206 108 145 172 109 175 98 74 160 134 127 69 70 168 120 121 155 188 172 144 187 110 92 158 119 71 129 104 84 148 119 130 196 97 147 149 83 103 193 178 156 111 120 133 162 122 157 92 169 113 210 184 123 149 70 64 109 89 197 135 173 205 191 168 179 168 136 120 190 116 94 88 92 126 136 181 198 163 80 116 162 97 83 83 147 62 154 158 123 80 173 95 145 152 60 153 57 157 67 110 125 97 167 69 69 148 75 189 207 222 138 226 207 125 110 185 114 116 156 164 112 118 162 121 167 167 181 98 153 158 135 90 108 170 182 191 182 90 182 150 104 118 109 93 192 168 189 175 126 128 82 166 167 135 102 110 145 155 183 180 207 166 184 98 169 113 56 146 129 105 72 178 103 156 123 58 37 60 136 73 255 158 177 130 124 117 113 95 72 70 150 139 187 137 124 89 94 182 159 178 160 92 71 144 123 180 142 144 147 178 159 132 94 143 69 65 83 176 88 68 63 159 70 103 171 187 185 178 127 90 167 147 124 103 92 170 127 124 172 121 194 166 132 118 196 99 84 137 150 87 127 113 168 133 134 127 174 73 112 96 78 64 72 163 100 192 181 120 218 125 136 126 104
94 120 150 167 160 158 155 171 179 177 159 150 135 138 141 146 140 141 140 154 150 162 166 166 167 164 168 154 150 136 140 154 176 193 198 204 215 216 208 193 163 171 174 189 206 217 219 182 208 207 196 207 199 158 156 190 150 183 152 136 127 147 154 143 161 193 163 133 157 104 169 104 133 118 70 138 80 136 131 143 96 98 131 80 84 87 80 91 73 126 120 99 92 104 133 123 85 94 93 83 65 37 86 54 73 104 122 82 131 90 86 102 86 93 65 87 86 97 142 79 139 146 147 132 123 99 174 183 195 107 176 169 188 88 166 168 101 149 53 52 120 143 144 140 78 103 185 167 108 122 170 104 124 151 109 113 79 150 109 136 133 163 170 141 156 168 130 199 185 133 205 213 110 141 130 171 182 199 119 182 163 128 147 178 122 212 208 189 184 92 155 128 158 64 102 156 148 146 85 41 46 81 58 89 131 115 71 79 104 132 189 149 111 139 170 158 128 185 93 135 127 75 83 190 99 123 119 143 97 76 94 146 180 140 184 163 187 119 179 203 208 201 201 204 197 94 96 145 154 134 158 71 176 122 187 179 126 138 206 155 166 112 154 154 171 152 178 160 178 100 105 182 111 127 164 144 83 163 143 183 159 145 175 77 173 130 98 116 133 120 120 192 152 90 150 102 107 130 127 151 127 121 84 118 77 81 181 151 80 168 133 127 109 172 97 119 122 89 116 178 93 134 144 106 156 91 127 171 91 255 84 92 61 125 48 128 107 69 77 83 182 135 128 84 168 163 96 136 193 139 162 205 197 208 160 163 77 121 143 156 114 87 79 90 182 118 115 93 126 100 177 193 176 111 96 162 157 173 165 149 177 84 165 161 160 184 150 188 186 125 170 102 86 102 101 167 77 108 127 143 111 144 166 131 106 76 58 128 57 158 93 173 146 88 145 45 46 139 108 50 85 82 167 104 151 180 255 161 167 148 113 165 93 145 191 104 102 120 186 177 152 68 114 88 150 96 88 83 171 64 153 95 66 153 93 76 110 120 74 114 74 145 142 179 188 154 82 143 72 115 112 127 110 163 90 143 122 97 81 105 91 198 125 192 90 168 91 93 164 103 81 154 135 189 111 184 92 63 98 69 148 163 110 142 120 140 96 110 85 179 81 122
88 108 130 144 142 140 139 159 169 170 166 160 158 161 139 130 137 130 138 147 155 161 147 157 160 157 161 161 147 140 143 154 168 183 193 199 198 203 197 175 169 148 158 172 195 218 224 212 197 173 204 196 203 174 191 151 183 144 115 126 113 120 126 157 157 187 171 119 103 92 106 93 159 118 87 120 174 170 87 79 79 149 80 106 99 85 91 108 66 135 102 153 142 103 81 110 60 51 79 53 77 54 55 65 66 82 118 82 85 87 77 97 89 74 98 72 86 77 152 107 84 143 59 63 135 81 121 101 106 107 183 197 99 97 87 174 172 69 159 166 158 123 154 122 110 138 178 201 192 174 176 176 86 137 64 60 107 140 142 99 135 113 101 124 162 205 166 127 184 164 230 165 109 107 124 143 165 205 197 196 176 105 146 170 209 157 205 186 175 151 134 63 124 67 92 157 64 120 76 100 105 69 146 139 156 153 96 142 158 105 93 113 127 170 172 145 157 90 172 141 159 138 165 107 182 164 115 180 151 127 87 112 102 197 197 190 163 69 78 186 198 204 143 212 114 114 96 148 152 151 161 152 169 126 168 188 110 162 124 204 164 143 137 177 150 159 167 180 97 149 166 173 133 115 105 92 122 105 127 159 163 189 179 163 139 131 191 151 187 106 180 141 147 104 110 90 115 157 141 140 205 113 88 172 94 173 98 158 97 110 68 159 88 110 98 103 90 112 173 101 186 127 112 116 119 115 178 126 104 171 177 161 56 46 49 122 62 115 172 107 116 110 138 182 90 113 195 169 211 208 193 211 213 110 85 170 136 167 147 57 126 100 153 150 121 138 164 121 113 85 166 100 98 183 81 178 138 84 175 173 84 150 96 107 138 176 186 157 100 100 95 132 131 57 62 152 78 123 163 195 204 112 113 169 88 57 136 44 51 146 104 79 76 64 65 150 51 44 137 53 121 132 147 173 168 72 81 107 164 131 176 103 157 157 136 154 107 143 123 94 167 160 73 187 199 131 105 97 89 164 84 92 54 136 150 165 78 169 96 82 164 176 104 208 139 103 166 176 130 124 186 128 195 150 53 124 150 71 70 165 97 109 203 132 102 183 149 66 71 143 132 154 135 200 154 166 109 60 81 170 102 155 205 126 198 102 105 134 72 63 72 83
78 91 107 116 120 119 121 136 148 163 181 184 176 173 152 138 137 141 148 159 154 145 145 144 165 171 174 163 160 144 148 154 156 170 179 183 189 187 183 173 150 152 125 150 181 205 186 204 168 171 160 188 168 161 179 193 142 149 121 98 96 136 123 143 173 164 109 131 176 167 142 163 136 87 129 111 100 168 173 84 84 121 99 127 80 127 59 92 101 76 87 100 120 120 96 91 111 50 59 66 48 47 64 62 68 129 140 103 89 88 82 104 73 67 61 81 80 154 174 109 84 67 70 92 96 113 157 115 102 178 77 88 147 104 198 99 180 150 167 177 116 160 153 107 159 166 165 197 182 179 147 103 177 114 157 161 138 158 173 166 107 145 123 168 195 191 223 185 192 211 222 200 161 174 167 182 196 202 164 133 151 192 168 206 161 134 171 191 174 125 114 145 96 105 79 156 146 96 175 80 129 112 176 178 145 151 101 95 82 74 170 109 159 108 69 85 129 83 109 120 128 114 165 180 211 208 154 185 171 98 181 95 210 203 101 168 127 50 55 143 143 174 160 185 131 177 175 140 43 67 132 119 118 171 188 186 199 121 223 200 202 119 101 99 104 189 100 131 154 82 168 122 138 158 137 94 139 99 83 139 111 109 117 81 92 78 92 118 103 134 98 184 91 103 58 74 198 162 149 216 186 117 166 76 169 95 113 151 88 126 139 184 115 137 97 96 117 97 176 128 95 88 84 101 116 92 115 186 181 166 77 154 120 103 96 87 60 86 130 182 178 170 171 95 175 112 154 179 92 189 203 212 128 176 169 167 165 126 149 95 143 168 195 155 110 172 158 123 146 82 135 170 168 155 163 146 107 105 89 117 156 56 148 151 149 153 171 186 111 163 82 126 50 114 148 103 55 149 176 98 151 129 117 149 94 146 134 80 88 143 61 63 55 92 161 68 149 41 39 64 142 126 99 146 60 93 85 78 169 158 130 148 124 112 182 113 195 143 178 163 137 140 183 206 160 180 119 201 140 96 141 151 99 141 139 129 63 153 153 89 86 166 173 198 203 99 180 158 165 97 126 135 125 83 53 83 85 91 96 168 101 107 163 146 202 119 131 113 133 80 82 168 186 145 128 43 50 40 149 155 162 165 125 177 201 162 79 100 43 87 59 146
72 80 91 98 102 100 108 115 129 154 170 180 188 180 166 142 138 129 134 157 165 163 159 150 170 173 172 172 162 161 157 156 152 160 163 168 172 171 170 155 151 141 140 139 147 173 204 199 183 169 136 169 169 174 141 180 127 138 127 92 137 157 130 135 171 139 134 153 151 87 111 147 102 91 115 120 124 104 122 91 69 51 53 75 97 102 44 106 42 64 108 127 102 171 144 109 94 60 74 84 68 40 29 47 68 124 94 142 146 98 102 82 101 82 99 76 101 85 92 139 93 85 83 150 125 127 223 166 100 170 160 167 116 109 179 114 186 92 170 87 79 169 141 90 162 149 103 100 182 153 112 122 136 191 158 172 146 169 119 134 93 107 170 181 132 224 236 214 135 188 176 132 154 116 178 173 113 186 194 122 189 203 169 211 189 150 114 143 73 65 155 103 139 46 136 160 94 125 188 135 112 185 181 89 118 94 125 119 109 87 125 138 68 65 161 138 94 86 144 84 138 76 97 134 163 157 218 113 165 73 159 135 208 213 95 113 109 124 130 108 189 159 149 123 201 202 82 108 60 144 85 136 169 182 106 120 162 165 135 151 134 206 129 169 140 159 146 182 147 143 172 176 126 187 191 114 84 123 134 179 140 178 177 105 120 101 159 73 154 91 93 107 125 74 73 147 130 164 127 192 101 169 153 146 137 102 137 90 82 60 79 144 187 176 183 100 101 88 98 172 99 171 166 107 110 97 175 112 174 143 144 146 144 92 139 149 56 52 105 178 101 188 148 174 140 162 93 181 146 175 98 106 105 177 164 159 81 122 99 57 150 112 127 177 147 136 183 182 98 170 73 160 82 160 88 102 86 162 158 155 108 56 54 87 83 156 131 109 155 174 54 43 63 152 76 86 48 111 147 101 180 198 151 162 164 75 152 129 62 61 76 125 50 149 61 155 91 132 105 62 80 58 139 143 118 112 133 127 193 181 136 192 180 124 127 123 187 181 179 179 96 190 183 141 136 139 204 224 124 200 167 81 115 72 94 47 121 147 146 80 134 183 181 120 98 185 106 70 165 140 183 202 98 118 138 64 117 78 89 160 96 127 126 210 202 132 160 63 122 85 117 160 112 174 101 42 61 52 71 63 156 126 204 138 182 93 125 32 123 141 79 109
