P2
512 512
255
174 165 155 142 140 140 146 165 183 204 192 160 135 127 122 131 138 134 126 136 140 153 139 135 119 118 136 150 181 191 183 157 145 141 142 156 158 165 174 184 195 195 182 180 181 194 168 186 154 146 160 145 174 147 185 168 145 176 224 205 171 206 126 156 142 171 105 126 75 146 141 131 152 151 78 104 70 131 159 160 184 110 121 161 115 171 123 170 116 67 88 122 139 177 154 136 116 78 67 52 63 72 75 105 93 111 129 129 125 132 194 134 114 155 93 134 70 122 108 72 83 136 93 87 152 81 185 192 138 180 89 183 167 167 148 87 67 86 127 170 102 221 124 186 104 148 193 159 85 86 184 180 94 129 210 149 206 215 191 255 178 148 160 106 134 97 179 131 137 138 186 169 118 171 128 174 212 208 204 211 93 162 116 161 202 225 218 207 95 80 143 95 89 117 63 115 143 99 149 111 173 91 189 97 189 85 111 79 63 162 186 184 167 147 191 155 141 110 50 51 144 129 156 165 173 94 88 182 115 161 159 76 170 142 86 131 131 87 103 95 123 168 79 172 151 163 67 170 203 218 130 198 191 185 97 127 176 150 161 140 200 175 116 107 164 79 75 96 151 85 76 139 185 137 136 176 121 165 167 79 69 141 69 65 105 114 130 87 88 161 166 147 123 132 65 141 122 74 121 64 74 109 119 138 96 121 151 74 71 146 73 46 97 44 97 78 50 119 89 95 160 255 180 159 131 160 174 92 85 116 199 176 94 105 112 135 125 169 161 172 181 182 157 173 162 79 108 127 49 121 53 142 97 79 97 37 62 105 155 194 164 178 229 208 190 170 142 130 218 170 234 202 172 63 146 126 166 157 156 99 120 178 109 156 151 154 117 135 160 161 162 171 92 39 32 121 111 37 58 174 104 106 93 98 124 155 182 125 91 118 156 155 103 169 80 68 101 153 148 106 166 140 155 87 189 115 118 187 91 178 60 141 95 143 144 75 109 183 190 102 210 165 111 196 86 159 122 78 178 141 160 124 106 196 119 112 182 137 127 148 187 100 138 82 101 83 157 81 70 132 80 107 139 152 157 161 83 151 113 204 115 80 110 187 105 174 167 110 143 171 88 91 62 128 115 161 108 179 163 169 132 172 105 216 164 141 121 99 68 137 59 0
176 169 161 151 152 153 164 175 192 197 183 163 138 131 123 132 145 145 136 129 149 146 156 145 138 128 135 163 174 192 185 163 143 150 157 160 163 165 173 178 176 187 183 159 159 177 162 170 179 153 172 160 144 192 153 165 160 202 206 177 221 198 134 127 127 171 175 110 163 94 160 104 106 113 105 116 121 82 138 107 123 177 173 100 147 109 112 108 142 81 81 98 174 134 122 113 119 125 63 50 72 91 71 95 73 108 128 111 124 138 188 179 120 183 128 109 74 88 151 71 170 165 166 66 89 92 83 160 77 165 129 87 129 175 137 147 148 137 129 119 103 177 152 108 101 91 110 125 117 88 149 183 130 151 200 196 216 215 216 213 198 128 145 174 187 154 192 176 190 148 124 100 170 155 198 174 142 160 203 121 119 180 158 113 145 186 170 105 122 103 146 105 37 136 109 61 150 140 53 121 172 84 175 90 127 177 122 98 74 120 176 122 195 115 150 169 163 114 150 142 96 91 74 73 122 152 148 178 121 101 187 186 155 90 78 88 94 146 108 186 152 90 165 176 76 70 64 168 126 156 140 192 149 190 126 159 190 103 103 202 197 107 108 101 116 74 111 73 158 154 160 153 104 172 185 167 160 136 77 137 151 59 160 169 156 141 124 102 92 110 158 126 120 120 64 81 85 58 60 95 100 92 89 105 178 95 81 67 155 75 87 116 146 93 141 119 83 72 143 99 116 189 107 108 184 170 170 86 90 173 160 197 189 104 120 179 197 141 180 73 169 74 97 79 75 168 162 142 132 41 129 148 63 64 112 128 138 107 192 107 200 203 148 136 170 156 111 121 215 184 184 196 105 136 57 53 66 123 114 196 125 144 98 92 95 60 110 160 144 168 77 72 110 134 88 84 76 55 148 70 81 132 105 147 158 111 172 185 84 93 76 134 175 184 137 90 63 113 135 91 75 118 96 165 173 180 187 170 172 165 112 55 91 55 78 175 147 136 95 200 150 186 203 139 185 133 135 159 107 185 127 149 172 98 183 182 178 183 173 204 106 106 115 126 93 123 119 81 124 169 124 159 80 149 66 130 106 125 119 108 147 126 142 120 110 126 124 179 193 160 148 173 77 94 71 87 199 169 139 138 80 83 102 215 238 196 154 101 181 159 118 132
173 168 160 152 158 173 182 184 188 184 173 173 144 138 126 136 150 159 151 157 163 158 168 169 158 147 148 150 176 185 181 166 152 160 166 164 164 160 166 170 169 167 158 178 179 170 162 173 171 149 164 143 156 166 150 190 126 148 167 169 211 140 194 135 153 192 170 192 164 113 96 111 100 117 117 89 62 68 86 138 109 182 167 164 92 142 109 137 86 95 120 133 112 125 127 99 93 87 113 109 58 66 76 91 70 94 122 97 133 123 108 161 150 136 109 102 153 88 170 103 120 132 72 88 69 81 81 172 170 70 80 189 189 88 148 174 94 186 190 193 106 200 147 190 174 121 72 101 82 125 122 152 110 209 115 210 214 172 183 169 183 112 157 159 135 213 214 211 164 176 134 131 148 98 190 213 223 175 201 141 129 180 79 159 184 122 145 174 171 172 160 105 49 49 62 97 116 71 159 118 148 152 168 79 176 73 72 118 138 102 105 184 184 138 153 178 101 67 104 66 171 174 174 96 85 162 74 67 105 121 138 198 99 191 187 164 193 201 192 198 99 103 101 112 97 173 153 163 162 144 178 160 122 146 128 199 129 117 206 187 200 195 188 93 130 158 89 162 84 104 61 162 160 106 110 161 123 111 167 175 95 91 77 132 88 124 107 95 109 90 75 155 143 68 72 78 95 135 66 59 141 107 116 123 123 96 82 170 69 74 62 87 135 155 157 144 110 113 78 99 101 104 180 158 76 130 137 197 109 143 203 155 80 180 99 201 97 176 125 139 130 167 124 113 140 58 66 73 157 152 117 137 137 64 156 147 79 172 156 91 183 168 116 202 128 160 174 110 115 178 129 115 111 108 152 58 86 135 118 169 199 222 209 175 145 135 68 81 124 73 111 170 66 110 63 84 133 52 66 109 63 77 141 147 87 112 131 163 156 112 165 167 75 81 100 148 165 129 129 147 170 136 163 161 147 191 170 71 75 183 94 170 133 150 135 180 93 163 110 190 185 180 195 140 104 131 148 99 172 87 182 74 107 74 87 112 161 111 96 189 115 120 149 106 101 171 172 88 114 165 117 127 181 119 96 93 177 168 96 174 78 111 93 182 104 124 178 129 119 102 190 180 97 98 86 155 108 167 195 89 167 133 92 205 216 118 110 144 200 107 180 181
159 152 143 141 151 175 189 185 181 178 174 174 166 152 144 145 147 152 153 154 167 184 181 168 165 158 152 147 161 182 184 173 168 171 179 175 159 151 151 154 152 163 168 169 155 153 158 132 177 170 197 156 177 208 193 144 176 181 173 210 208 201 123 157 187 153 111 170 191 145 118 100 102 54 91 86 89 148 162 91 101 121 104 115 83 141 99 145 123 114 96 112 110 97 137 107 112 75 115 66 69 111 123 104 77 76 75 84 118 100 134 154 119 150 176 154 116 107 175 148 161 70 70 63 81 77 79 167 84 160 84 169 97 92 93 119 194 207 208 194 209 188 175 145 90 166 78 152 160 144 93 199 206 197 143 134 200 121 168 101 177 162 155 92 148 229 209 157 191 196 162 181 130 152 114 212 225 143 197 176 103 84 162 163 99 147 143 187 123 186 74 133 149 78 141 159 70 124 64 142 77 76 102 84 159 63 128 131 141 170 194 132 136 130 167 126 185 160 149 78 76 168 171 184 108 168 76 100 72 170 116 170 104 125 143 195 112 197 163 147 125 125 121 192 87 90 72 78 127 139 183 107 157 89 198 114 120 217 132 197 180 113 127 161 62 99 83 191 92 157 168 91 192 176 134 185 90 134 146 180 169 103 167 152 181 104 179 177 121 117 83 77 131 127 163 93 95 85 80 170 183 177 128 143 138 198 104 81 76 99 61 87 102 174 182 167 79 119 89 135 100 134 154 81 68 84 86 164 209 189 126 108 180 177 185 98 117 84 111 66 65 133 97 93 91 58 160 168 92 121 77 79 175 164 81 164 105 160 136 183 130 139 124 171 96 98 72 87 134 156 104 113 127 104 120 67 83 85 135 103 128 127 157 114 134 51 50 158 147 108 162 147 74 145 149 162 100 151 115 114 85 100 89 82 91 189 131 111 176 105 156 157 124 97 143 175 75 74 123 118 93 183 180 129 90 181 141 79 179 111 91 91 86 191 165 167 103 155 138 193 115 92 177 98 173 125 175 76 169 75 168 164 158 146 169 168 139 157 155 80 132 96 204 189 199 184 141 125 161 123 155 79 86 130 82 69 89 172 136 80 73 97 132 185 110 161 76 178 176 111 149 207 129 193 105 151 176 164 135 183 173 133 176 170 143 174 168 167 205 208 112 186
148 137 122 123 137 160 182 182 255 255 177 186 182 162 162 168 166 171 173 178 177 188 191 184 167 154 133 145 166 183 190 184 178 179 182 172 159 135 138 140 138 147 166 156 154 146 149 137 179 168 208 171 178 211 183 143 129 151 188 135 178 168 160 153 178 121 141 107 187 107 90 115 89 109 99 94 61 72 82 78 94 96 122 153 95 136 99 118 170 116 114 118 104 87 70 80 87 80 89 92 102 107 150 142 94 123 97 88 90 91 136 138 109 157 119 126 143 104 106 87 111 84 150 76 133 134 85 126 146 71 115 150 126 139 189 98 196 214 157 142 118 119 98 160 157 152 49 130 160 111 197 170 188 194 157 161 179 120 97 106 177 125 133 125 136 156 240 208 205 127 179 180 95 94 178 128 134 208 124 149 116 89 139 60 89 148 116 161 255 163 132 80 92 134 73 142 135 159 77 183 134 117 168 159 151 76 133 171 184 151 126 119 177 85 112 97 137 172 124 154 152 138 91 133 89 153 170 111 174 107 169 205 125 162 194 199 112 94 119 195 193 106 105 195 98 174 173 97 84 142 86 93 175 168 144 205 154 112 104 146 194 91 117 89 120 63 83 173 100 120 136 94 103 193 170 134 160 168 103 126 202 149 135 255 168 123 99 180 108 163 92 82 95 137 95 149 196 91 75 140 191 134 218 220 200 178 96 129 75 109 75 74 148 83 141 106 155 109 71 74 154 94 171 63 60 137 100 95 112 213 172 100 115 78 184 121 153 89 94 69 161 142 49 57 61 163 166 88 255 96 173 87 85 98 170 154 141 180 98 148 158 175 97 147 135 117 76 78 100 138 187 187 176 139 66 78 60 42 108 123 203 178 161 169 123 85 148 66 85 159 104 144 126 109 130 98 165 155 48 141 147 166 81 86 98 147 196 167 129 106 77 138 65 160 143 147 67 127 100 68 153 161 141 122 94 146 101 107 95 178 100 91 150 118 88 85 112 97 204 203 194 193 109 130 126 98 110 170 109 129 154 152 167 113 173 113 121 161 164 151 181 102 166 93 135 75 144 101 119 125 97 125 82 99 125 93 140 174 102 104 173 172 186 171 148 148 152 97 121 86 114 196 174 191 204 147 171 141 102 91 154 71 97 82 78 116 184 192 197 156 172 197
142 128 112 107 125 155 173 180 169 175 181 195 187 189 179 168 165 173 175 183 191 194 184 175 160 140 143 134 165 187 199 194 193 191 188 170 155 138 128 137 136 157 161 132 145 134 159 181 184 217 187 196 202 168 168 194 157 134 122 156 106 255 165 123 174 166 183 183 161 128 115 145 103 114 64 134 79 74 70 140 159 103 137 84 80 104 168 108 153 179 115 119 92 83 108 85 71 118 100 93 150 112 123 113 129 115 124 114 75 111 83 89 97 115 150 114 179 85 77 59 152 70 68 87 101 185 77 62 52 63 156 150 178 84 96 176 169 110 111 199 164 115 181 131 78 138 146 168 91 199 100 183 177 116 90 94 186 126 197 180 161 161 115 105 119 134 224 164 192 173 169 169 120 101 172 134 187 188 182 163 115 103 70 148 76 117 78 172 105 184 112 101 155 86 180 79 140 74 71 89 133 97 150 155 124 136 137 132 199 103 94 77 120 88 138 94 255 155 149 50 48 98 70 111 184 169 109 186 117 93 194 110 206 112 114 121 89 89 176 191 196 136 181 187 145 77 93 176 76 151 153 175 150 137 109 192 164 156 177 121 104 106 154 139 133 150 122 162 135 94 156 78 160 94 85 123 166 169 155 207 146 139 141 174 103 157 102 158 195 110 102 129 86 180 200 194 105 180 163 145 80 166 198 191 156 109 97 88 98 123 93 88 158 90 89 57 59 54 64 101 162 103 69 137 109 97 88 142 170 124 163 194 163 82 79 79 131 132 131 122 103 92 91 153 156 177 179 154 105 95 145 107 100 188 165 115 94 118 136 174 135 91 143 86 66 255 125 152 150 115 105 178 255 171 64 119 47 125 109 83 161 123 98 148 45 133 136 149 142 112 129 149 85 127 81 155 158 145 74 144 81 175 143 196 147 120 121 127 105 93 74 145 57 153 115 107 121 111 129 137 77 168 71 88 164 95 100 196 160 109 194 124 153 183 161 101 117 184 136 191 155 201 191 114 122 188 170 125 145 151 165 123 141 188 122 96 164 164 90 107 188 169 97 119 85 87 102 77 171 136 111 73 96 87 112 122 188 85 80 111 95 99 208 203 135 198 184 186 183 182 119 112 201 125 122 120 141 94 179 98 81 168 57 99 121 134 82 117 146 134 166 134
139 125 108 106 120 142 155 165 168 184 191 196 194 181 177 178 176 184 187 186 183 181 183 170 159 155 145 146 156 179 197 203 201 200 194 173 143 129 125 136 146 161 160 127 141 117 164 195 217 186 175 202 159 195 160 187 135 175 161 135 138 128 115 168 106 99 187 154 164 148 116 172 91 81 133 68 65 133 142 70 142 84 120 103 105 145 127 130 109 119 116 111 101 107 124 75 75 76 105 115 95 122 126 134 132 139 86 74 70 69 134 85 93 121 165 98 117 165 154 48 48 146 71 157 141 99 138 70 56 152 70 167 87 96 130 145 129 205 157 179 187 183 81 164 149 50 89 168 178 164 194 196 168 124 151 174 188 187 136 181 173 143 132 204 218 207 225 160 199 207 116 127 131 146 94 127 95 120 153 143 72 130 71 103 66 114 114 173 123 111 131 183 120 192 164 130 171 123 115 177 149 191 96 132 129 84 129 183 134 199 145 178 141 161 149 101 182 120 147 133 73 140 52 162 125 168 189 123 150 168 91 91 96 123 135 96 154 135 77 139 198 116 206 207 110 119 150 165 169 146 170 146 138 117 136 180 175 87 154 153 178 139 75 163 160 122 79 177 138 165 153 94 90 179 149 99 173 129 106 197 209 132 95 154 80 165 113 132 129 147 82 120 183 93 96 195 94 89 112 168 166 116 94 81 86 97 152 83 121 83 110 91 97 145 94 59 58 80 94 78 174 78 69 119 156 112 175 117 98 206 138 129 112 124 124 160 71 119 97 84 65 105 134 165 94 160 161 183 93 139 176 154 142 166 92 100 192 169 97 115 158 103 152 152 120 133 135 181 104 178 131 171 121 160 109 101 102 132 153 128 178 139 106 124 62 122 152 170 139 106 77 59 128 42 71 74 101 158 161 130 79 182 107 154 119 108 181 140 109 123 113 106 53 51 129 124 133 157 146 180 169 78 155 92 164 181 94 155 130 104 201 180 121 102 169 71 187 141 179 180 129 167 213 108 189 115 101 175 129 168 166 95 173 190 107 103 149 118 102 193 116 134 106 104 120 140 139 128 127 97 89 100 183 171 111 185 196 180 93 104 102 107 123 171 127 128 193 114 158 89 98 156 118 207 167 169 81 101 172 88 110 138 117 54 73 129 173 104 138 191 103 206
130 118 105 107 116 129 140 154 167 190 196 206 198 193 176 187 185 175 177 173 174 169 176 166 170 169 157 149 158 166 186 193 202 204 201 177 149 134 123 145 154 141 140 147 139 147 172 186 210 211 185 185 165 144 162 147 134 125 150 109 110 74 95 130 193 125 146 127 135 129 98 106 144 120 88 132 82 86 96 95 97 82 73 67 127 74 95 87 102 90 152 100 95 83 91 95 80 63 79 75 87 153 132 143 155 162 101 104 100 75 74 87 87 137 129 158 130 143 146 126 103 76 129 90 99 111 129 129 78 158 144 138 120 191 166 149 178 197 187 127 87 81 104 119 65 144 173 87 166 196 185 119 190 112 132 151 130 160 148 96 144 90 198 131 194 189 132 160 183 117 114 153 140 137 125 141 137 118 178 91 108 169 153 72 86 108 169 72 111 118 156 129 120 152 172 103 142 152 110 78 167 111 180 160 59 159 156 155 204 125 131 117 116 96 186 161 161 97 99 115 144 56 124 124 73 104 88 131 118 100 180 101 96 169 87 172 77 179 103 172 202 188 198 208 185 73 165 119 103 100 164 166 175 171 88 178 130 80 179 177 82 121 173 74 117 167 149 156 124 191 185 117 149 156 137 179 119 96 134 149 105 109 187 140 147 143 97 187 143 109 147 88 117 93 91 146 98 178 121 83 152 55 94 60 164 93 89 72 73 85 90 144 177 151 114 96 76 74 81 85 151 172 71 154 95 155 157 204 203 170 99 189 77 63 65 54 147 143 125 48 134 155 85 75 79 167 102 188 171 84 85 181 145 161 92 186 106 204 107 145 180 109 166 150 118 78 106 190 104 101 139 170 71 171 85 115 50 68 84 155 81 122 130 114 165 68 108 176 86 160 82 70 157 136 104 71 141 169 111 170 195 185 172 134 107 103 147 143 190 100 142 67 132 134 160 88 140 93 108 191 158 181 84 148 102 178 150 93 188 122 118 163 127 148 167 85 112 129 255 170 201 112 208 137 177 196 95 92 87 166 152 84 115 165 105 96 159 119 204 119 174 185 101 186 171 125 178 92 96 87 183 188 160 172 101 174 197 121 170 165 192 198 175 210 143 205 163 198 126 100 96 113 111 116 169 174 160 113 62 68 78 163 138 152 158 66 98 168 183 195 146 181
114 107 104 106 117 121 129 150 170 189 197 207 199 198 189 193 184 178 182 183 172 167 180 180 182 185 182 156 147 154 167 179 195 207 206 184 149 128 129 143 146 161 161 152 141 141 162 178 201 179 184 171 125 166 142 115 170 153 91 78 95 142 176 137 204 185 129 191 121 150 116 106 147 100 89 79 137 151 108 124 83 144 58 59 72 125 136 255 82 73 98 92 91 148 107 124 74 94 62 70 114 130 163 152 174 164 132 77 56 55 83 80 76 81 73 101 152 83 79 81 61 88 87 157 166 120 113 193 99 82 185 117 210 134 129 185 211 137 83 118 144 171 173 75 149 170 82 192 107 179 114 136 182 187 89 124 140 132 102 181 194 171 195 180 206 141 193 162 168 98 142 162 156 140 131 143 66 120 173 119 183 170 255 171 80 170 134 77 157 128 106 141 197 190 182 182 166 177 131 85 68 145 171 65 61 158 81 113 106 198 141 166 170 140 157 192 157 178 120 169 94 105 69 146 163 173 114 144 112 179 73 107 65 100 46 67 165 134 185 103 133 209 121 106 126 152 114 176 174 167 154 153 160 149 161 140 100 172 149 175 143 183 80 91 83 175 143 160 164 194 181 195 170 146 144 165 105 131 140 130 186 194 183 187 188 160 141 158 94 92 118 81 184 98 181 103 159 81 137 85 99 130 128 148 54 100 109 121 94 106 86 129 127 110 124 98 188 131 102 139 94 173 88 135 185 202 114 195 128 207 194 157 102 149 167 104 109 59 83 85 139 80 158 167 75 77 175 100 140 163 75 174 87 157 152 175 179 210 103 159 149 170 140 131 90 159 163 155 107 190 82 175 121 121 138 141 137 166 65 119 150 131 128 161 157 73 150 177 184 102 182 164 154 157 75 176 155 171 87 163 109 107 171 116 187 107 164 139 142 190 84 71 166 140 73 175 179 159 157 126 103 104 200 191 147 78 119 172 131 186 103 182 135 181 185 94 154 165 117 146 138 163 94 92 113 135 119 167 72 255 111 121 168 69 150 97 130 171 166 125 182 196 150 151 172 142 148 93 164 108 137 129 198 188 121 125 193 165 182 184 198 95 96 102 205 187 105 144 169 92 136 116 192 96 164 134 115 154 60 168 97 102 110 139 73 159 70 175 97 104 97 157
102 102 103 111 121 127 130 143 168 182 197 197 200 210 195 193 179 172 177 181 165 179 176 183 200 204 185 166 152 136 148 167 190 204 210 195 167 151 143 144 144 159 147 159 158 164 154 167 179 165 172 162 165 167 109 163 157 122 113 154 117 169 190 174 168 134 141 159 164 177 110 104 166 186 112 146 105 161 119 115 138 121 120 124 54 69 74 83 49 111 74 86 96 101 140 97 77 84 73 69 99 101 159 129 127 146 164 84 77 99 94 132 255 100 154 77 159 105 121 142 102 156 81 130 110 127 111 168 104 122 135 178 217 122 190 182 106 193 92 69 71 163 103 174 158 170 181 124 149 196 122 191 164 184 89 87 135 159 181 190 156 165 125 138 100 173 102 170 109 180 182 158 176 147 123 132 90 122 142 172 170 69 151 62 104 165 66 65 152 69 124 130 121 103 191 106 103 94 74 144 83 118 118 60 150 140 142 97 137 190 140 157 146 158 99 97 87 99 176 98 177 136 101 93 140 182 96 187 165 165 129 145 144 86 29 76 111 177 97 149 206 177 188 189 170 144 156 91 125 136 57 62 122 142 172 129 91 180 80 91 103 173 75 150 142 125 164 97 150 126 143 207 158 124 190 152 183 178 150 106 132 138 103 102 192 165 96 168 137 88 167 89 90 78 79 84 166 71 138 96 77 132 114 83 73 69 140 111 154 173 138 151 142 100 125 188 190 108 114 168 116 95 153 153 172 114 147 190 135 111 196 133 168 177 91 125 65 117 54 138 38 69 142 61 153 72 124 86 146 102 83 92 112 108 180 104 205 177 193 173 154 175 164 107 164 157 223 218 141 149 169 82 132 107 169 170 135 91 171 103 111 102 67 133 155 162 93 100 167 193 182 165 59 71 132 108 194 156 181 106 194 104 175 135 170 209 147 184 140 152 184 172 179 131 109 100 179 106 130 101 102 144 140 209 144 159 148 121 79 183 163 140 134 182 95 111 111 212 187 104 193 130 93 138 179 114 179 176 170 84 160 53 49 44 143 135 104 172 180 108 172 152 85 181 108 119 89 102 194 105 209 178 130 165 143 177 95 104 197 183 131 97 118 179 116 149 103 181 153 166 99 104 163 75 163 160 74 68 62 113 71 130 161 59 84 63 90 104 140 94 138 171
99 102 111 120 130 134 137 145 161 167 174 191 195 202 218 203 192 184 175 173 178 167 174 188 209 199 184 161 143 132 140 168 194 206 212 197 180 167 154 149 147 155 164 167 148 143 166 158 174 167 186 188 149 162 168 161 174 126 135 162 137 161 195 139 169 194 192 115 169 93 141 145 120 138 182 179 167 119 124 136 108 85 80 117 60 61 66 66 63 89 56 132 89 101 124 129 132 103 81 119 98 116 110 120 149 133 137 115 106 106 73 83 117 142 112 83 133 99 116 96 90 77 78 111 137 119 194 201 110 180 135 96 255 103 112 104 179 101 90 114 72 112 92 120 165 117 171 116 139 86 145 112 131 91 179 114 67 112 108 167 170 100 185 88 172 167 106 148 145 174 127 119 165 157 150 152 155 162 169 160 151 130 86 102 156 89 166 154 130 64 103 169 255 88 182 171 136 111 98 64 112 62 80 135 98 74 100 112 95 141 100 90 164 158 107 81 170 87 76 80 83 176 182 163 179 144 149 103 143 157 86 74 143 58 126 68 137 108 184 166 174 120 205 180 97 112 136 114 158 92 56 147 143 157 133 168 71 169 105 170 90 65 159 117 106 135 111 75 80 97 111 225 159 137 112 196 179 184 136 206 119 128 118 93 193 92 190 87 83 96 180 177 75 89 112 81 83 89 70 86 113 178 87 86 74 78 81 75 146 173 136 148 111 88 82 149 90 190 100 172 120 194 171 118 160 164 130 207 120 149 104 114 108 204 108 173 108 50 38 47 134 50 62 161 155 78 163 112 131 62 62 153 74 114 93 84 177 172 177 172 70 107 89 200 145 237 162 213 193 183 96 137 204 197 159 176 99 123 140 167 145 107 117 105 152 157 105 113 198 193 112 76 64 163 154 94 193 103 147 187 88 86 181 132 97 104 167 146 209 126 168 165 187 184 120 133 206 155 183 97 166 176 192 222 112 178 61 124 122 118 187 118 113 187 200 116 111 210 205 110 86 125 85 72 143 178 101 85 87 110 65 108 134 117 43 66 156 193 194 183 108 78 148 94 71 171 137 103 171 137 126 112 181 112 161 162 159 146 205 94 78 136 148 167 173 150 183 77 86 115 152 92 179 150 72 155 72 159 101 68 83 150 63 63 77 159 163 112 115 169 82 116
110 111 117 130 141 140 146 146 149 144 152 161 178 203 217 217 196 183 169 173 166 188 192 199 213 199 178 156 133 127 141 164 193 214 218 213 190 179 169 157 157 155 160 169 157 175 173 174 148 182 177 182 155 160 114 141 157 175 181 163 178 165 125 176 149 179 187 161 129 124 138 164 181 154 113 156 109 109 155 186 99 132 60 70 77 72 104 80 64 55 98 115 139 91 152 103 102 144 89 94 100 138 129 105 114 138 107 88 80 72 144 87 89 86 87 152 110 123 167 109 83 104 74 85 119 184 146 186 117 208 107 83 70 72 147 110 102 144 174 117 161 124 173 153 73 66 144 140 58 166 162 160 107 172 180 169 131 58 62 159 174 141 94 112 134 95 144 153 154 113 95 114 115 114 83 139 165 127 73 82 151 134 147 148 57 155 159 157 81 61 93 95 130 148 148 160 87 150 156 132 161 159 76 157 82 161 74 172 117 113 99 105 174 163 141 140 87 133 156 146 171 95 86 108 146 166 125 199 172 163 160 94 156 63 142 123 172 195 148 115 224 224 206 162 58 81 144 130 110 145 114 160 74 154 161 67 91 73 142 119 78 58 61 119 158 178 95 137 172 108 152 221 222 179 178 113 124 123 201 168 142 181 125 79 100 113 186 96 84 163 98 110 121 126 102 121 185 79 92 135 153 94 125 132 183 145 120 79 144 120 130 165 111 72 90 89 180 90 125 88 109 158 86 122 100 79 160 116 143 109 179 205 116 170 141 153 112 138 109 56 69 155 133 75 150 173 81 132 103 161 61 156 58 159 165 92 142 172 122 154 161 67 126 195 205 243 212 146 135 82 105 146 127 174 223 174 201 119 98 155 139 126 111 137 90 127 143 202 199 155 164 72 120 74 137 148 136 164 82 87 148 76 133 86 194 108 119 113 201 165 200 194 86 130 133 200 200 114 92 76 79 151 201 117 189 103 104 109 84 158 87 191 159 103 198 209 122 166 185 174 129 177 161 84 74 175 172 103 186 180 145 86 91 101 125 73 104 111 167 200 101 129 140 70 98 155 101 147 144 95 180 193 155 164 180 131 193 104 134 173 132 81 104 171 157 158 119 79 97 74 156 128 99 154 179 148 117 72 137 42 137 66 51 53 134 154 140 89 74 67 79 191
128 125 128 138 142 143 136 129 127 130 136 151 170 183 199 211 199 183 179 174 181 192 206 217 219 198 183 150 131 126 141 169 192 219 227 226 205 196 190 163 157 159 161 164 171 178 158 169 177 144 183 159 137 166 123 130 138 177 165 190 115 114 164 148 128 126 125 136 120 76 148 101 169 152 128 85 89 177 148 93 91 69 128 71 90 67 114 147 76 64 70 75 71 96 119 116 105 143 94 135 141 130 103 103 152 142 95 78 110 74 117 91 120 96 95 150 143 190 100 156 80 72 123 131 116 182 119 165 185 200 95 76 141 151 146 167 116 87 86 111 101 131 169 173 134 64 145 150 130 123 76 154 131 178 193 98 182 78 103 98 150 178 93 98 157 118 163 145 64 138 166 168 179 101 147 151 69 79 117 91 65 102 120 83 135 93 166 165 103 130 136 53 100 43 154 76 150 153 80 101 124 140 178 147 71 116 143 79 125 82 91 96 173 165 163 136 152 158 84 139 155 168 184 189 204 207 166 190 92 108 178 91 174 165 178 125 114 199 212 138 230 219 101 168 145 128 55 38 98 61 145 132 95 81 182 144 165 138 147 164 118 105 138 60 75 177 164 85 169 84 157 191 201 141 150 138 166 190 136 125 163 136 77 84 168 93 125 141 163 130 153 82 137 117 182 160 95 129 145 169 91 93 187 124 159 190 124 87 158 119 113 108 83 160 104 152 163 91 173 90 76 180 83 83 78 157 165 152 194 108 181 112 134 221 114 175 140 43 84 88 153 122 121 169 179 182 87 102 160 105 127 60 57 131 88 73 168 95 111 66 76 121 146 190 173 185 121 156 100 96 153 189 166 169 152 136 204 123 169 161 133 51 63 142 107 84 111 120 160 110 171 153 161 178 179 188 87 135 171 118 77 153 187 90 193 142 101 105 177 109 200 105 85 152 156 183 172 117 193 143 144 180 114 195 180 123 55 116 110 78 102 121 163 124 133 109 194 196 90 112 174 116 167 71 69 175 156 178 99 80 77 155 113 72 87 103 182 182 222 160 158 133 150 79 148 143 178 188 169 99 98 103 113 76 88 92 86 172 106 98 54 120 113 147 184 130 155 117 71 88 179 87 83 183 93 87 82 65 94 44 33 131 39 81 58 146 167 74 90 167 126 90
149 142 136 135 134 132 121 119 119 120 127 152 167 175 190 199 181 187 172 179 181 197 209 219 224 211 185 162 145 136 145 168 197 224 238 238 227 210 188 172 161 153 140 154 174 184 170 168 186 175 170 163 135 146 157 131 128 177 167 169 191 147 140 111 111 117 125 162 150 97 132 122 161 98 163 97 86 84 169 105 116 79 138 103 74 71 75 135 75 70 135 73 119 94 90 123 108 134 92 148 135 93 100 92 108 90 105 75 66 99 139 98 113 96 84 132 105 102 118 88 96 116 155 155 128 177 126 193 196 151 119 88 169 163 97 107 92 122 164 118 176 90 99 181 90 151 75 143 130 103 138 75 113 186 193 189 163 106 112 65 153 122 183 175 161 75 116 141 133 62 74 117 172 102 75 152 167 160 119 138 141 65 91 123 154 130 90 86 107 68 160 57 134 51 59 63 65 64 98 158 193 102 201 197 153 71 159 64 97 173 82 193 163 169 132 63 128 154 167 91 80 121 144 115 114 133 164 191 97 95 103 117 204 215 221 196 157 183 196 219 124 207 113 163 52 147 59 118 60 87 93 187 182 191 110 157 165 170 148 73 129 55 140 167 151 124 80 123 101 76 139 98 97 202 174 211 161 107 92 178 90 70 65 56 153 65 177 154 133 86 130 119 89 162 198 116 192 140 87 148 170 128 198 123 205 115 101 89 92 164 92 76 255 48 160 98 171 91 71 90 128 136 119 91 178 199 195 210 161 101 113 169 198 131 173 154 139 147 63 161 87 160 172 83 165 92 189 189 178 135 128 55 90 114 158 79 148 96 162 95 83 172 119 200 216 213 142 167 80 108 89 174 164 201 223 184 201 136 177 178 138 129 92 96 72 182 206 135 97 177 145 87 83 185 171 89 93 162 83 72 145 190 120 200 96 109 94 153 136 133 151 114 179 171 143 189 109 201 150 83 80 188 113 155 157 97 62 103 72 172 180 94 115 99 112 192 182 141 154 186 131 186 101 86 107 101 84 107 161 172 163 87 150 58 120 116 175 199 112 114 148 185 162 91 96 175 191 137 146 145 178 96 73 149 73 131 85 68 157 67 111 98 177 138 167 165 121 124 157 159 165 98 101 186 93 104 164 81 149 43 130 60 105 46 116 159 106 162 103 117 70 127
157 149 139 133 124 119 115 119 124 134 135 150 154 169 173 190 187 191 190 186 178 201 213 221 217 217 193 187 157 154 144 167 192 224 240 237 214 190 162 157 255 153 166 150 165 181 185 192 164 182 168 136 141 169 147 137 122 171 169 138 150 142 122 142 157 104 120 170 151 106 99 111 105 179 117 125 125 81 131 116 144 128 93 103 116 144 80 77 66 68 133 93 90 97 153 90 127 91 91 114 99 104 91 137 116 117 77 96 132 68 74 110 75 101 71 140 137 177 102 84 109 90 98 129 100 106 103 189 99 124 186 144 140 180 76 93 71 158 128 80 183 108 136 100 103 91 119 135 60 121 172 173 183 180 113 178 171 98 87 136 161 89 148 171 174 101 145 89 146 73 74 97 136 179 174 175 149 149 126 94 88 147 154 82 156 145 109 83 128 86 87 111 67 81 65 72 173 107 103 91 144 203 204 107 191 75 62 127 125 90 146 179 143 157 124 81 66 165 75 167 173 118 194 202 114 184 101 96 90 181 186 115 195 216 155 134 206 116 175 141 169 141 114 148 53 161 130 98 88 97 107 188 179 199 209 197 111 165 122 159 131 111 156 113 134 83 79 163 168 95 142 96 122 183 198 123 173 134 81 92 90 121 108 68 51 79 106 83 104 149 159 83 190 152 126 197 173 168 146 170 94 151 142 123 127 146 105 90 89 89 131 126 47 78 81 117 196 91 68 86 140 63 114 95 100 184 161 170 191 191 108 111 152 146 182 122 101 73 162 139 93 78 85 134 136 133 122 163 135 135 129 147 58 52 106 120 109 122 88 132 163 176 155 159 226 172 175 180 171 109 141 175 113 197 201 162 180 168 89 115 185 110 96 70 87 128 194 174 110 101 83 71 120 150 145 171 80 89 82 115 138 164 196 129 150 121 118 167 95 91 86 76 70 80 138 184 121 201 95 192 142 97 136 102 71 85 122 90 85 169 89 159 121 185 89 169 67 176 89 93 98 197 197 159 185 187 109 138 139 74 144 173 74 169 171 152 165 120 96 160 102 108 255 114 170 183 112 138 173 134 115 181 74 74 120 107 158 150 108 163 74 181 194 98 89 164 107 65 100 92 99 107 109 182 129 147 173 113 66 73 74 133 46 152 77 97 155 71 129 67 41 49
155 147 130 119 111 104 106 119 127 136 147 149 168 166 171 183 186 188 183 200 206 200 210 210 211 209 210 191 179 160 155 169 187 255 231 232 204 170 144 130 137 152 168 174 184 173 162 185 159 180 164 141 154 155 148 129 183 157 165 180 162 132 144 99 103 139 149 111 181 99 191 115 174 97 150 147 90 91 91 164 94 164 103 137 130 140 129 68 71 105 101 92 116 103 101 105 111 77 86 122 81 90 135 142 115 74 72 78 71 73 118 91 152 129 67 111 113 107 148 88 164 105 103 105 89 147 78 80 164 104 102 205 110 126 79 71 65 108 122 174 183 195 89 95 159 142 133 60 78 144 167 172 182 144 120 118 106 133 177 189 142 119 154 112 88 175 102 127 78 155 87 92 164 130 125 156 100 148 157 136 76 165 128 60 152 174 80 166 144 94 140 98 140 72 132 160 74 163 172 160 164 161 178 109 92 75 65 151 162 69 174 96 176 163 114 37 52 108 165 99 156 182 136 107 167 143 131 179 84 91 113 101 179 192 195 186 170 156 192 194 185 163 69 94 80 176 139 81 101 124 127 193 115 201 120 135 150 66 108 146 75 143 149 102 99 85 86 97 94 151 167 138 168 122 200 195 147 162 94 68 70 145 75 80 119 60 167 159 98 123 167 91 98 127 202 173 92 88 116 87 183 99 207 119 164 161 154 119 76 171 89 59 146 101 173 163 109 105 104 62 124 152 168 198 109 218 194 149 164 191 189 184 212 165 159 119 106 90 100 178 100 87 174 134 114 191 100 84 101 128 61 60 58 84 58 90 140 89 125 146 158 155 185 114 213 129 182 171 158 108 117 158 87 83 89 99 78 163 168 109 179 107 152 159 72 162 178 176 90 163 171 125 156 97 161 128 116 89 86 80 192 204 151 142 182 161 162 160 145 172 101 138 112 161 71 103 173 129 107 188 166 200 110 109 117 128 98 172 82 78 174 174 176 102 93 83 64 159 102 148 106 122 114 217 132 187 86 168 149 123 73 77 144 71 113 162 189 185 135 172 124 161 83 73 168 194 207 229 128 161 135 180 118 155 128 131 151 168 97 164 178 102 132 158 103 92 49 158 104 153 159 87 182 140 114 139 89 166 108 114 140 60 57 131 167 183 116 95 97 40 106 65
136 132 118 104 94 99 106 118 125 143 157 149 162 170 165 170 181 186 193 195 204 194 183 189 187 185 203 197 177 163 152 170 189 211 223 216 178 148 114 105 130 149 170 180 162 172 139 159 172 164 148 123 104 139 164 168 177 137 131 166 154 78 122 140 84 139 96 130 113 158 109 190 163 147 150 122 144 118 102 147 104 132 99 143 169 101 97 81 112 82 85 93 109 132 137 99 109 73 66 89 97 141 100 107 98 109 126 78 78 68 96 152 147 84 85 140 149 87 157 98 85 89 154 104 89 73 163 92 94 88 123 136 183 137 157 162 65 161 164 174 160 118 184 130 73 168 96 159 79 136 142 97 177 98 86 150 136 202 143 175 164 196 130 102 176 98 133 148 83 171 180 174 93 172 174 112 187 112 178 172 118 155 76 105 166 170 97 187 93 144 188 155 191 169 132 139 79 128 80 168 151 106 148 205 89 174 166 67 77 163 170 179 172 83 99 120 141 147 100 91 119 155 84 177 87 130 188 188 160 188 187 134 98 108 99 95 73 132 104 179 92 132 67 87 71 189 92 179 163 58 73 161 198 202 200 184 96 167 71 139 71 47 37 141 52 109 89 178 120 156 141 137 98 147 175 115 69 120 103 136 70 103 85 174 165 97 163 111 74 76 125 176 168 115 185 110 168 76 129 112 199 166 109 174 120 106 114 108 173 88 148 64 62 163 91 169 204 114 142 118 102 89 109 170 193 217 202 209 183 158 88 89 101 114 199 132 176 113 116 84 163 162 116 104 93 192 177 84 150 85 70 160 143 43 38 66 53 55 144 51 75 119 132 145 190 166 137 138 81 93 139 177 123 112 115 56 143 53 111 172 96 104 143 111 76 98 180 89 98 186 119 180 73 69 116 160 179 89 81 88 111 203 103 91 108 68 119 154 100 71 172 61 154 150 153 105 156 121 138 115 189 191 118 116 146 152 122 110 149 92 165 141 168 141 70 135 64 172 104 115 111 206 112 222 158 164 194 86 110 156 161 144 77 73 183 101 92 145 76 164 131 144 47 150 169 135 140 232 209 134 133 82 161 58 105 164 106 182 151 195 115 161 190 207 167 143 73 128 79 89 181 168 72 179 167 106 130 92 91 150 109 71 54 77 91 123 122 63 55 47 27 39
119 115 101 91 85 96 114 130 140 149 155 154 159 163 164 178 183 191 200 206 210 193 186 172 168 172 185 179 164 155 155 165 191 208 217 199 173 146 110 114 116 158 173 165 146 154 152 140 148 167 115 135 104 125 152 144 119 177 155 94 101 94 98 80 79 137 123 183 183 98 179 136 171 81 145 84 100 182 156 89 161 83 165 144 137 121 169 98 112 100 85 110 136 178 122 103 121 66 87 65 74 99 97 139 89 92 89 108 78 137 114 97 121 80 108 70 162 76 120 93 65 160 81 179 133 113 67 141 71 159 90 174 99 141 71 67 168 76 173 75 78 186 181 84 77 67 159 79 64 180 161 99 123 192 174 182 158 119 162 194 168 133 197 179 169 93 152 110 95 105 193 149 166 133 74 70 113 164 126 144 174 183 114 169 63 166 155 186 101 121 189 196 97 80 137 138 59 64 172 99 150 177 112 203 145 81 133 76 88 160 64 136 144 169 154 149 57 91 134 166 182 193 120 118 168 149 124 171 135 98 84 125 139 147 100 141 112 159 106 155 165 255 56 154 152 119 127 85 91 119 143 71 163 187 178 186 97 106 57 77 110 123 70 73 76 156 80 178 190 143 141 106 94 174 104 165 132 162 64 151 134 105 114 86 82 69 140 160 66 130 58 67 172 186 193 180 80 137 118 105 196 105 120 120 88 87 102 87 176 181 76 79 70 165 194 137 161 127 106 99 94 112 147 181 112 215 119 113 121 179 175 91 173 110 191 109 186 87 138 156 164 112 140 128 158 139 186 182 165 163 78 171 151 73 115 59 136 136 121 121 48 56 167 172 157 192 100 164 88 158 84 168 84 107 100 54 81 146 159 91 156 107 134 107 123 63 88 128 186 105 96 153 164 161 164 173 123 184 83 114 189 199 116 158 147 53 151 91 160 175 85 164 151 116 122 62 158 186 87 171 165 80 178 166 135 148 113 162 94 176 119 157 170 179 187 81 137 119 104 115 175 151 109 205 135 231 158 184 158 101 125 119 94 102 86 103 88 154 128 125 88 137 142 121 171 204 189 128 183 152 125 167 90 158 118 96 136 104 136 178 127 128 201 203 196 79 117 173 179 133 72 163 131 123 178 99 116 133 156 92 130 124 38 150 72 71 58 98 145 140 66 131
100 96 89 82 83 96 119 135 144 147 161 149 157 167 166 188 184 203 212 212 201 193 178 155 162 158 171 162 161 149 157 173 190 204 204 192 168 151 129 136 133 158 180 176 136 138 115 130 155 140 171 163 146 138 127 162 116 102 149 132 141 151 124 120 110 89 158 163 108 89 122 135 87 110 105 135 144 182 103 136 90 100 124 135 112 148 185 101 107 107 112 108 126 149 133 114 93 105 70 63 55 100 90 93 86 111 70 122 83 100 112 95 98 133 92 86 89 75 69 56 90 87 63 160 92 180 155 113 168 77 180 95 169 189 153 170 83 183 78 156 175 174 190 103 183 72 96 154 145 139 171 184 108 95 146 196 179 191 85 135 126 124 165 163 163 173 140 148 156 112 147 184 174 119 113 143 73 88 183 194 106 99 189 103 113 133 143 186 99 139 178 200 116 154 94 67 107 101 114 189 121 175 195 205 90 159 133 174 69 68 71 172 177 163 77 87 106 87 112 110 116 148 97 121 187 166 197 200 177 126 133 181 177 133 163 196 140 163 160 74 138 72 157 151 166 192 187 147 86 113 92 108 162 121 192 179 111 80 96 44 26 41 71 123 152 182 111 152 190 118 208 164 124 192 154 176 166 112 103 153 179 131 140 85 166 165 98 53 80 102 60 64 72 92 153 135 137 172 206 116 120 142 127 137 141 79 80 126 101 192 99 188 84 152 133 155 115 207 179 101 163 105 164 197 195 114 205 105 195 94 91 112 106 106 116 137 175 125 154 60 144 125 148 177 132 166 105 182 89 88 120 113 52 82 64 75 97 126 138 106 147 117 116 176 160 171 182 180 185 163 183 174 78 66 132 153 87 71 66 170 111 94 121 180 166 127 142 145 123 170 175 159 124 255 157 169 86 107 168 76 185 166 101 114 139 59 65 83 156 188 182 107 84 65 50 95 172 85 80 170 99 63 120 80 61 133 156 154 175 155 69 139 156 190 137 94 120 148 181 137 148 105 103 161 218 190 211 113 91 109 104 166 79 187 124 159 113 79 117 103 141 140 44 156 132 176 101 187 96 91 110 59 52 154 81 129 101 114 97 99 123 94 190 139 115 158 102 103 87 163 92 61 99 165 139 164 87 175 108 102 52 44 39 53 63 53 69 48 133 57 109 59
91 87 84 87 95 110 126 144 164 158 159 160 161 159 157 177 196 222 215 201 194 185 184 173 171 175 172 158 163 159 165 175 189 193 188 174 165 159 157 157 163 172 185 179 164 150 149 131 150 154 164 144 162 124 155 105 142 108 88 77 103 114 153 110 106 98 149 150 88 85 86 142 82 92 130 146 94 175 104 88 91 126 162 102 131 92 98 89 88 93 118 110 122 183 152 167 127 101 73 65 74 80 95 83 107 79 85 89 126 94 140 94 108 107 121 97 116 99 73 51 37 56 77 59 78 90 90 154 97 99 184 128 195 103 95 101 201 173 163 149 103 126 187 176 179 165 158 114 85 147 178 197 158 198 193 94 144 83 156 134 76 139 144 150 150 134 152 130 198 194 136 158 168 95 130 139 162 180 186 119 186 192 126 154 93 83 97 107 141 92 89 86 137 174 111 112 96 112 176 140 134 237 181 172 177 106 110 80 160 123 164 135 130 91 182 185 163 151 145 138 134 143 183 133 96 190 116 126 167 106 79 152 160 213 151 117 78 86 162 169 143 119 173 74 119 93 87 86 147 103 123 81 93 165 150 111 148 134 121 37 76 45 115 129 120 167 140 128 145 114 205 122 118 195 193 180 195 112 185 113 183 84 147 153 107 87 135 144 142 113 157 140 120 165 102 189 100 112 124 126 119 147 194 93 81 157 97 97 108 184 255 135 180 177 158 161 136 196 171 140 189 183 111 197 109 135 125 191 138 88 93 136 107 210 109 205 176 87 159 49 104 106 167 110 126 144 170 140 255 180 80 60 75 146 175 180 198 92 153 73 90 123 187 200 94 144 156 91 112 100 169 123 140 165 72 153 79 127 167 90 161 207 164 146 152 59 66 115 136 71 154 117 140 130 51 64 87 173 109 157 159 84 147 173 179 105 147 169 180 116 119 177 121 158 57 93 76 109 89 110 127 153 170 81 69 112 86 170 164 89 66 132 166 150 144 129 163 178 180 119 190 180 192 136 108 210 213 209 104 93 81 170 181 198 104 194 95 129 105 56 67 50 109 133 115 182 105 94 160 72 124 69 92 122 151 102 168 94 96 172 84 110 121 172 101 157 142 103 91 160 91 74 120 174 78 87 178 148 146 106 149 59 67 80 75 79 124 95 57 153 107 172
85 86 94 105 119 129 140 152 160 165 175 163 168 161 163 176 199 213 204 201 177 182 189 177 189 186 174 172 174 166 168 184 185 186 175 162 161 166 173 168 173 190 181 192 171 166 147 135 157 145 166 189 162 162 120 164 146 118 160 136 155 98 127 154 178 119 128 80 68 100 96 100 135 64 77 161 115 90 164 134 167 167 96 79 76 98 75 72 81 90 130 122 122 133 175 129 103 80 97 96 90 98 116 97 76 87 96 130 104 103 137 110 145 108 107 94 160 118 68 49 54 75 42 76 140 173 106 91 74 116 152 102 95 94 200 153 206 152 89 180 87 172 108 115 151 164 70 123 141 175 174 179 179 196 153 65 137 60 63 79 159 103 58 144 133 85 127 193 177 97 76 133 140 132 69 99 118 177 171 166 109 122 100 190 104 139 198 133 105 92 175 109 114 147 137 157 70 129 186 169 226 166 143 119 143 180 137 100 152 167 157 99 184 192 192 117 175 162 128 89 191 107 106 195 204 197 111 169 64 49 139 130 179 136 163 188 153 84 140 177 190 152 176 150 156 107 185 173 74 178 149 176 150 150 129 90 84 144 65 116 130 79 163 83 135 116 102 94 100 91 109 210 213 192 129 208 125 156 98 84 81 134 144 194 115 141 74 67 137 96 159 176 88 151 160 200 115 187 209 170 127 144 169 138 81 132 111 110 106 185 189 198 109 97 104 190 127 189 107 184 79 133 92 179 169 181 137 136 172 170 179 108 198 214 116 204 174 142 159 113 147 133 90 116 136 109 176 168 134 112 81 91 148 165 179 114 203 123 146 161 120 192 180 215 209 129 166 132 117 94 66 166 172 170 83 82 102 153 110 174 123 222 141 198 150 82 131 71 141 165 53 51 34 115 64 92 79 101 91 161 92 134 157 193 153 91 148 75 71 174 255 183 185 154 134 155 175 104 153 57 139 62 76 90 156 137 160 112 160 170 99 154 108 124 206 112 120 152 97 119 200 123 161 199 198 134 122 198 172 191 123 142 192 121 126 206 131 113 71 157 53 104 87 65 129 162 123 140 174 133 49 115 85 146 128 147 67 79 72 147 144 170 75 110 139 185 166 176 101 144 127 103 91 121 189 127 201 200 121 128 79 55 45 60 86 49 85 148 151 87 95 99
93 100 113 136 150 157 153 153 166 179 184 175 164 155 174 187 200 194 180 170 163 163 184 197 184 186 184 173 164 177 181 193 200 195 186 170 156 170 177 190 194 203 202 196 177 188 164 159 146 161 140 183 195 167 145 124 183 165 126 163 135 173 184 158 171 186 130 150 60 141 97 89 134 91 121 120 76 88 147 71 141 120 158 142 68 64 68 87 84 90 92 113 129 139 178 120 144 80 70 112 94 88 126 74 116 112 99 142 116 135 109 103 132 95 91 98 147 145 105 34 31 106 69 134 168 80 74 66 122 154 186 169 92 175 89 151 202 104 166 191 160 86 88 173 174 165 93 182 144 184 199 199 195 161 64 118 111 86 146 150 141 128 147 64 144 164 178 95 150 108 103 137 156 106 70 165 129 181 92 116 113 174 128 88 196 132 210 203 196 89 179 183 92 174 154 105 74 125 104 207 111 121 118 199 100 168 151 93 138 164 142 164 85 196 205 199 149 168 141 72 187 202 139 123 214 210 97 178 161 118 48 147 160 69 153 78 160 78 116 70 148 179 111 102 125 87 168 169 79 182 158 90 184 81 186 150 102 117 64 141 165 139 165 130 57 75 71 98 73 126 148 195 201 196 209 201 170 166 100 181 116 141 96 175 129 82 131 89 145 93 154 144 117 166 165 106 102 97 100 138 165 94 69 88 171 175 147 98 150 143 100 184 163 197 117 172 179 118 165 117 78 78 120 182 106 188 109 114 181 85 81 102 109 199 127 198 172 74 164 127 59 150 95 117 102 185 140 142 126 155 94 85 56 104 193 104 100 96 135 117 178 164 115 152 172 193 138 41 101 73 93 157 87 165 176 151 88 177 135 122 156 148 187 203 193 155 122 101 96 73 133 116 38 40 106 53 152 139 122 72 143 161 110 177 184 129 186 83 155 112 177 175 213 195 156 132 173 91 119 168 86 78 100 117 177 101 173 93 69 66 126 76 140 102 191 194 199 152 211 127 163 215 126 194 187 100 140 255 199 165 103 180 159 137 105 125 146 134 166 108 127 141 102 142 146 147 111 176 112 157 76 152 67 118 77 67 71 87 143 64 134 130 161 115 67 70 99 80 168 179 106 140 124 113 108 167 126 163 118 122 97 85 106 47 47 53 134 158 172 127 142 156
106 116 136 156 172 168 164 149 154 162 173 176 174 163 176 175 183 183 148 133 138 155 167 182 188 189 190 178 169 170 187 195 213 215 202 183 172 174 182 194 204 217 216 203 199 195 196 166 159 148 166 158 191 196 190 175 190 175 125 142 121 106 168 186 186 138 85 123 86 133 84 128 98 94 70 84 133 61 74 127 127 86 119 71 135 80 79 90 94 157 141 107 154 156 174 109 126 82 74 87 106 94 97 103 80 116 130 152 152 139 180 127 105 125 114 123 98 65 76 112 80 127 97 77 72 85 85 163 70 170 103 191 83 84 136 88 112 196 190 166 170 178 130 151 94 148 157 171 195 100 95 192 175 69 137 135 62 142 94 117 95 169 162 114 163 137 127 169 160 157 76 117 154 82 173 184 181 194 125 118 172 165 73 184 174 208 167 199 166 84 161 133 187 154 151 128 84 172 114 107 132 187 189 193 97 153 111 121 180 89 105 177 80 180 134 101 168 66 150 68 106 191 216 200 228 137 182 137 120 153 156 255 124 57 144 152 76 158 149 140 175 181 117 209 94 113 161 144 70 128 96 181 76 163 139 155 114 112 129 163 114 164 155 148 137 47 90 116 171 178 184 162 115 181 112 153 115 111 133 186 157 118 186 114 178 168 86 86 96 92 89 95 180 160 102 133 90 174 127 102 162 71 110 86 89 161 139 191 130 100 109 143 143 134 198 135 160 137 136 146 97 154 137 185 154 179 166 185 172 167 71 86 202 121 205 159 94 181 73 161 158 72 115 118 182 157 134 113 115 103 154 142 77 174 90 195 143 103 180 148 197 187 206 209 197 160 96 135 64 112 44 170 120 175 90 174 112 188 153 206 151 187 177 131 145 168 155 108 131 174 137 117 149 126 130 99 54 141 157 85 163 173 185 148 151 98 111 85 108 121 122 198 121 138 221 204 197 177 80 81 108 158 156 96 190 179 159 60 89 66 142 158 110 91 129 97 186 121 114 219 187 214 106 184 129 166 110 87 190 167 173 77 117 156 192 195 134 185 107 82 134 115 137 118 47 72 94 125 116 139 156 95 83 177 144 93 160 176 73 73 63 54 129 143 128 144 79 65 127 172 93 97 192 196 179 204 143 164 171 202 93 150 80 44 76 47 106 128 170 184 112 65
125 133 145 159 167 167 157 150 141 145 165 180 172 171 180 185 182 160 144 118 128 133 154 173 186 191 176 172 154 169 178 202 216 218 213 197 177 172 172 195 210 207 224 199 194 186 182 164 179 179 180 150 176 182 179 146 153 188 166 173 175 183 190 170 193 115 117 94 82 99 157 168 105 93 98 146 84 42 85 105 62 74 144 75 76 160 92 95 155 140 143 114 86 102 98 95 84 69 63 76 89 131 109 84 93 92 131 137 135 127 112 98 177 104 145 114 83 63 58 94 48 75 55 109 181 168 153 133 159 175 149 190 105 131 73 86 103 104 170 156 180 168 94 86 110 178 193 209 201 193 199 153 168 158 82 95 136 48 159 183 160 158 182 144 175 129 165 85 92 116 71 150 130 169 166 113 197 164 144 101 154 146 118 123 191 164 94 120 134 89 142 109 155 143 69 170 136 165 125 144 181 95 118 110 92 146 182 191 175 85 75 154 122 158 162 114 79 63 162 67 170 162 117 119 195 203 131 141 77 117 69 161 103 161 78 105 136 159 158 116 163 178 107 194 179 80 140 44 40 153 167 166 69 136 93 102 143 83 104 130 73 74 159 144 143 141 110 159 147 120 119 108 113 169 171 119 146 206 202 105 121 95 160 179 185 169 186 93 87 103 121 177 176 180 169 96 63 151 159 85 87 152 102 141 112 123 172 200 123 95 87 100 117 106 188 144 149 208 179 144 146 114 103 96 143 123 97 110 112 124 130 85 157 95 122 137 184 184 106 170 147 77 184 101 171 88 102 82 80 174 146 61 72 169 141 182 159 181 181 130 174 198 92 192 86 159 165 52 32 112 84 106 174 161 138 175 99 203 184 177 171 175 125 164 109 136 150 106 153 194 154 114 156 47 141 101 47 57 156 163 177 106 91 89 94 147 112 113 161 104 161 126 149 217 207 144 91 184 84 110 100 170 110 181 148 159 158 77 62 55 87 163 126 102 102 87 142 118 186 105 201 203 192 160 155 100 152 96 174 82 93 53 116 119 162 88 171 192 184 95 61 149 140 58 119 158 154 64 156 107 167 131 181 187 139 177 155 135 157 74 99 129 132 108 48 155 83 65 168 109 84 122 114 136 111 136 139 196 116 106 186 161 59 43 92 141 113 116 132 87 165 120
141 143 146 145 146 143 140 131 128 135 147 165 169 175 168 169 173 168 140 126 121 137 143 156 172 177 168 174 168 163 178 181 194 197 198 191 179 176 179 194 212 227 212 201 152 165 146 166 169 174 173 190 160 198 143 189 194 195 188 154 172 175 148 166 176 168 84 77 130 107 105 180 96 119 95 63 71 130 124 137 113 100 66 116 74 95 146 89 121 118 91 111 131 100 137 86 114 79 115 95 90 108 109 91 128 83 113 125 147 181 110 95 96 101 158 173 122 130 113 107 126 63 61 171 175 93 170 172 89 86 185 185 178 77 153 110 162 104 112 152 88 162 94 142 158 104 140 134 193 208 101 96 181 122 145 97 55 124 164 154 93 162 166 186 125 138 146 100 151 146 122 128 99 169 114 122 100 132 189 99 94 131 152 144 185 185 130 100 137 152 157 114 127 159 165 101 86 169 121 117 104 149 116 102 188 85 76 122 158 111 157 142 176 114 76 107 169 88 147 133 112 80 193 204 195 217 163 115 170 95 117 255 160 175 116 166 141 120 174 71 147 129 152 147 117 167 79 47 53 150 159 166 119 139 161 155 190 141 84 175 87 116 158 149 53 139 124 162 133 176 190 191 92 116 147 130 147 102 171 112 112 187 131 99 119 166 91 174 191 117 82 178 134 75 136 108 119 56 55 69 67 179 92 111 108 201 113 103 99 87 115 89 85 82 123 212 135 233 222 214 151 222 185 129 122 170 186 85 70 155 80 58 106 106 95 189 191 171 174 69 105 173 153 125 172 107 158 93 184 101 150 160 119 151 138 118 161 185 186 189 142 94 112 180 175 115 131 85 91 128 124 88 190 109 150 109 182 202 121 193 173 180 195 129 108 102 164 139 201 103 124 149 164 164 143 135 51 143 135 163 188 104 147 179 118 153 202 116 114 178 142 167 181 162 120 142 153 112 178 179 155 124 71 69 129 80 152 63 146 152 72 70 152 96 164 88 156 55 73 116 184 91 179 170 160 74 151 156 153 149 65 77 71 91 137 139 84 132 127 145 149 84 47 48 138 104 53 143 51 163 113 127 196 179 86 70 116 158 156 111 166 72 63 147 78 58 103 109 103 92 76 124 105 110 150 152 175 126 162 116 142 86 150 130 34 129 167 101 98 173 151 150
148 147 140 128 120 122 116 122 115 132 153 178 184 172 167 182 163 161 162 148 136 146 146 144 149 166 175 177 170 170 171 167 162 168 173 181 176 176 179 191 194 211 212 188 162 130 146 161 171 175 195 195 181 200 163 159 133 184 151 187 190 132 192 162 175 106 184 125 163 114 163 103 185 157 90 150 76 108 78 80 118 117 122 70 81 128 107 83 125 85 123 113 78 80 89 120 78 80 64 80 74 76 77 109 83 132 153 123 124 162 99 106 92 97 94 95 76 52 79 112 100 74 147 132 82 82 135 78 96 114 103 99 167 85 96 84 196 167 164 97 190 165 88 177 107 112 211 128 214 218 209 114 188 160 166 100 96 81 164 126 131 133 153 182 152 109 131 166 104 137 85 76 88 119 87 188 157 112 117 101 68 86 152 104 168 186 69 59 151 104 156 114 170 64 57 147 89 131 128 150 159 124 91 128 179 178 162 65 124 125 146 103 135 163 79 180 141 169 154 255 72 89 183 129 156 174 101 181 169 180 101 178 187 179 174 149 74 132 178 145 125 178 109 74 72 64 75 161 123 67 145 95 81 103 153 93 87 162 116 146 97 135 64 105 158 255 154 143 120 111 200 198 178 91 77 175 191 139 106 123 90 176 163 82 65 141 178 107 92 163 90 175 77 86 129 89 86 130 125 90 103 135 138 104 105 194 134 154 124 176 83 67 68 71 157 200 151 193 201 198 226 133 138 153 82 109 169 166 85 144 134 78 150 124 90 174 86 142 96 79 69 159 131 151 115 180 193 196 90 159 130 113 74 69 71 109 104 116 147 126 120 119 131 81 146 87 105 169 168 129 140 78 182 162 163 113 87 120 128 149 107 148 164 125 107 166 105 100 208 202 151 144 137 177 101 79 142 69 78 170 188 111 171 170 182 113 198 204 198 185 174 131 174 82 181 187 147 195 120 129 90 88 109 86 131 88 155 142 70 88 82 133 97 160 77 104 131 88 159 71 78 111 188 174 133 175 114 68 47 140 99 73 139 151 63 147 142 147 140 106 107 157 129 97 112 111 106 102 140 115 172 111 197 163 165 84 60 138 167 103 87 73 143 77 60 142 170 174 100 78 68 99 63 80 118 192 116 103 91 125 86 63 145 111 140 99 166 120 110 156 60 104
150 148 141 125 114 106 102 107 107 124 144 177 184 177 173 172 167 167 156 157 149 150 145 148 153 147 169 175 180 182 171 157 146 152 165 175 185 186 174 188 197 203 191 146 127 116 140 132 164 178 170 183 198 167 189 131 167 186 161 132 144 203 166 162 143 176 133 157 169 148 153 108 107 122 119 114 130 168 81 137 96 71 105 88 82 94 91 130 68 117 105 76 79 94 122 87 89 83 115 73 62 77 88 71 78 109 127 127 136 108 149 90 136 94 98 162 91 142 59 132 113 114 148 157 155 62 129 83 255 202 111 118 146 143 105 118 115 164 157 173 195 122 100 127 173 202 196 199 196 182 210 195 182 156 139 172 131 145 122 87 126 186 101 196 197 201 168 90 156 119 109 88 127 124 97 185 187 171 92 122 171 185 107 162 196 171 117 57 123 110 120 66 146 155 88 93 97 183 171 217 123 157 183 85 161 176 158 57 42 39 142 124 66 72 91 177 181 187 162 171 168 76 167 114 170 114 167 176 100 169 86 106 118 191 165 145 181 169 97 94 113 184 94 116 142 102 70 177 150 69 106 103 91 161 179 160 165 75 176 174 173 173 132 60 79 135 67 165 160 90 209 205 202 166 80 178 164 186 131 197 147 74 63 152 45 59 73 89 136 82 173 115 70 82 74 86 182 146 84 116 89 102 165 118 138 160 181 112 155 80 108 103 137 68 95 138 121 103 188 112 184 183 145 91 159 81 90 149 182 175 110 153 82 59 154 146 129 118 69 163 158 133 169 84 131 145 99 91 99 116 83 168 104 134 179 156 166 102 87 129 142 172 105 87 118 88 185 110 175 104 142 169 78 72 170 146 130 117 115 193 191 104 174 104 105 166 93 182 187 177 208 201 196 173 80 153 168 162 155 110 170 108 154 112 186 141 163 222 204 134 93 77 172 157 153 172 152 143 139 180 76 144 123 122 96 148 164 125 157 166 140 80 159 107 84 84 79 70 172 74 160 97 193 189 133 189 173 59 146 106 133 145 148 169 172 109 151 191 158 198 99 79 64 94 133 57 120 37 133 72 123 93 131 82 98 58 147 143 171 188 106 132 82 163 92 77 142 121 121 165 130 85 50 163 158 126 199 182 64 48 85 90 71 97 78 160 73 68 105 147 111 59
148 147 141 134 121 115 105 95 106 120 154 182 176 176 178 181 181 167 157 153 156 165 156 149 147 157 156 173 178 181 167 166 157 165 177 188 192 182 174 182 174 177 154 141 139 132 143 149 176 175 186 203 197 142 128 155 167 171 126 175 155 193 138 169 170 122 208 159 139 198 194 105 151 114 156 184 116 116 119 143 70 71 142 152 114 87 105 102 86 72 65 107 81 77 103 110 115 102 108 106 67 58 51 66 67 64 73 110 140 113 109 159 97 121 112 103 100 58 103 82 74 91 65 54 53 133 51 162 140 200 188 127 112 96 119 94 85 116 177 159 189 177 198 157 99 89 169 95 101 207 155 85 175 95 158 90 167 166 119 166 135 188 135 156 131 101 111 121 138 120 170 138 172 174 178 103 167 98 94 167 77 166 189 206 199 176 71 151 99 152 173 168 77 154 62 158 151 119 204 205 104 190 94 77 76 77 71 80 43 129 119 59 79 80 162 179 188 112 179 87 140 161 152 149 77 104 84 140 106 159 60 169 82 197 106 116 139 199 88 102 109 167 103 167 147 170 160 89 94 88 161 153 208 206 169 184 116 91 140 157 98 172 166 154 66 102 148 162 173 134 182 219 198 149 155 132 189 200 203 187 87 87 75 95 106 98 81 152 123 134 167 75 77 73 70 124 79 100 96 118 88 100 151 118 113 127 152 117 126 83 180 99 169 110 184 179 103 185 166 98 199 164 177 92 85 119 188 181 101 147 74 63 85 118 138 168 79 177 117 98 156 69 168 172 113 72 161 167 185 189 148 149 120 175 86 183 102 76 108 103 103 143 145 88 92 192 198 156 156 119 138 126 141 147 147 84 133 110 169 137 188 132 113 195 190 90 109 120 120 178 137 150 156 103 84 112 66 117 161 151 93 202 122 209 163 198 212 165 130 120 172 87 84 186 167 116 196 98 108 81 100 90 60 126 140 97 127 151 79 105 95 138 166 171 94 116 111 174 89 130 98 169 128 192 106 195 126 166 97 75 47 101 160 167 108 92 165 194 145 155 195 109 144 85 91 126 46 62 116 148 156 96 176 172 132 121 62 80 162 131 191 181 116 94 183 80 83 77 165 111 96 46 44 68 84 147 108 89 64 50 110 118 82 170 93 184 174 102 165 159 117 97
150 150 149 144 133 121 111 97 101 118 152 176 174 189 186 174 178 155 140 156 162 184 172 152 150 161 162 169 176 173 184 184 184 190 195 199 189 181 169 165 184 168 162 139 138 128 154 169 180 195 200 187 189 140 140 132 155 110 110 144 159 186 120 123 154 127 122 198 189 175 126 97 167 117 204 176 180 145 123 76 82 67 89 122 134 88 71 255 106 120 62 61 76 94 98 113 124 152 129 102 90 79 88 50 60 81 109 92 104 127 86 98 131 102 109 82 113 107 128 87 97 69 57 106 133 100 137 65 153 114 223 128 147 105 78 148 79 92 118 90 97 182 101 197 97 174 101 173 147 176 137 66 119 137 159 108 151 134 160 143 138 184 160 188 148 115 168 192 145 107 171 92 84 85 148 99 126 181 98 120 89 159 188 136 175 97 133 165 164 124 69 159 67 114 138 157 85 132 180 138 158 137 76 134 68 103 164 117 78 76 138 107 122 62 134 133 94 133 100 108 126 77 80 73 155 53 141 48 113 120 90 137 91 194 194 162 118 207 190 104 184 192 182 195 185 171 184 155 94 185 179 158 209 134 214 154 177 99 108 150 179 187 181 86 169 77 164 85 165 152 205 142 126 179 104 153 104 185 191 153 176 75 67 74 79 77 142 100 132 165 91 80 74 68 79 98 97 176 102 130 84 175 171 87 153 82 151 86 104 159 101 119 99 149 195 134 178 117 68 142 83 127 161 149 91 138 88 88 173 157 132 170 134 54 67 90 89 185 163 112 68 128 64 112 157 165 149 101 151 176 97 87 130 117 186 179 99 174 91 179 182 151 123 170 164 112 205 203 149 119 165 161 167 185 113 149 169 122 95 157 144 145 181 107 163 147 186 181 166 193 113 189 173 172 70 121 165 85 151 99 165 208 209 220 205 196 212 209 128 110 195 100 136 89 101 146 139 95 159 115 129 28 110 137 65 87 70 80 93 84 135 136 126 94 159 141 124 187 95 156 194 183 191 114 138 171 82 164 88 57 62 173 121 177 134 92 172 182 143 111 189 107 108 120 71 66 50 80 175 150 208 162 95 75 154 131 172 154 158 123 176 159 215 117 102 150 143 94 107 137 125 119 82 117 147 104 196 92 73 55 142 71 58 111 96 106 128 169 159 86 96 179
148 145 142 141 141 139 119 117 119 129 148 176 190 193 186 179 162 158 139 150 169 187 185 164 158 149 169 179 180 179 195 201 198 208 205 199 178 172 167 165 184 170 163 142 136 158 155 154 191 172 179 191 179 167 174 139 159 171 103 158 169 168 141 145 129 255 123 140 138 146 114 152 176 185 132 191 171 108 96 91 120 124 96 159 84 106 82 104 118 98 59 75 70 87 86 118 149 147 123 149 101 94 61 94 86 69 94 69 137 87 76 125 147 119 108 120 83 61 63 71 158 87 109 110 34 96 52 149 176 163 177 176 207 87 108 162 169 100 88 133 92 188 114 197 200 165 186 199 205 195 127 142 107 148 164 157 150 153 157 119 104 168 81 128 138 129 187 196 188 122 161 118 162 80 93 162 76 171 77 149 172 102 149 141 91 106 154 88 65 120 99 156 51 119 137 163 144 188 184 142 142 130 62 71 52 80 109 79 143 175 153 170 74 153 69 132 179 168 134 114 183 168 75 162 139 52 43 64 79 67 177 160 189 132 154 158 143 131 137 88 119 187 199 138 125 112 95 171 109 93 124 210 160 146 208 130 161 140 121 99 163 187 172 173 116 76 178 101 104 99 206 200 222 195 166 159 142 106 176 175 101 137 178 89 80 112 192 142 134 152 137 161 78 65 134 86 157 91 90 96 91 180 104 156 71 86 109 92 95 103 107 149 168 114 116 139 108 153 84 106 156 90 140 80 116 80 115 89 77 163 84 175 68 145 163 178 142 200 134 88 65 128 99 159 76 102 179 91 131 94 184 85 90 106 96 187 174 79 69 70 170 158 199 163 191 145 156 115 197 187 137 159 176 134 182 120 164 71 87 84 96 74 177 129 134 152 108 175 77 162 124 172 183 74 89 69 101 146 69 81 161 174 166 139 227 215 158 198 163 121 164 202 167 187 107 175 180 114 184 91 136 41 138 89 71 139 119 152 90 78 66 154 122 169 96 94 157 151 116 187 155 192 169 134 146 161 181 162 87 53 124 125 167 94 104 121 111 204 118 213 172 201 94 86 131 89 111 131 156 179 155 207 92 116 106 70 141 94 146 162 185 129 216 221 116 190 131 110 75 59 164 157 190 164 204 184 108 96 110 163 78 111 161 99 146 153 111 124 169 202 132 151
141 137 133 136 139 143 141 134 133 149 158 172 187 180 187 175 160 141 123 130 163 175 185 163 158 162 175 185 191 199 202 206 211 211 201 193 176 171 172 179 188 185 164 139 156 171 174 200 198 190 163 186 170 114 157 186 154 127 147 157 123 166 162 123 132 79 114 171 106 182 101 152 129 189 163 174 132 133 105 98 114 85 83 88 85 75 51 68 56 91 56 61 78 105 108 150 108 115 161 111 112 96 74 60 77 41 68 101 88 95 95 66 97 89 111 84 94 76 154 83 79 110 55 84 98 35 59 77 100 119 141 115 104 102 69 82 90 112 117 77 84 136 209 181 184 90 92 106 110 123 169 56 43 124 71 163 149 117 117 106 91 119 111 153 77 168 177 170 183 174 82 150 69 145 153 132 78 150 138 164 171 162 70 146 77 144 70 134 68 155 154 135 122 111 134 119 100 108 86 175 170 159 121 54 74 148 87 169 199 156 123 185 185 139 87 89 180 82 167 73 91 168 76 69 138 79 61 73 68 79 115 175 167 89 168 91 105 169 127 93 130 84 193 166 181 101 139 162 134 152 182 117 125 172 232 205 157 146 55 78 138 178 164 140 111 79 143 129 108 108 195 136 225 118 128 116 95 105 147 63 63 95 188 97 122 117 186 181 177 151 82 180 74 107 53 53 157 92 91 78 183 77 163 66 77 62 73 85 122 173 194 128 119 150 145 125 136 80 67 94 89 129 92 74 69 165 93 129 86 107 188 94 81 66 96 141 128 159 188 170 79 107 60 133 155 175 128 197 123 117 73 117 141 171 76 184 93 139 61 99 128 152 185 139 199 101 108 203 174 179 169 198 194 199 172 177 101 175 161 75 146 175 153 143 187 124 92 89 101 77 82 139 136 60 122 123 168 159 78 136 197 132 222 194 218 130 153 211 127 127 178 168 183 176 83 126 72 141 86 83 78 156 61 92 120 96 170 167 156 125 169 88 60 145 127 112 175 116 168 188 98 196 188 85 184 189 85 67 94 70 62 155 163 159 105 130 131 184 198 210 141 98 112 119 189 85 182 128 186 90 95 98 143 95 158 161 139 165 127 136 163 140 157 133 137 139 158 109 67 76 111 138 135 168 128 112 160 104 156 93 163 101 172 175 152 114 165 191 203 157 201 190
127 125 124 126 139 146 154 153 153 156 158 170 194 193 175 160 142 130 133 142 152 173 176 174 173 169 174 195 207 207 207 209 207 206 201 192 186 171 173 174 169 182 178 170 165 172 184 207 196 204 172 164 153 153 163 131 152 192 181 162 146 134 142 92 107 159 166 137 111 123 105 176 178 179 155 199 136 122 117 113 96 146 154 137 93 45 79 66 125 61 74 126 120 148 92 91 102 109 153 107 130 110 66 83 81 62 61 86 105 95 94 77 77 91 89 146 140 102 102 143 151 67 49 115 47 126 62 175 91 94 110 192 145 77 142 93 65 71 145 183 156 179 195 196 168 97 184 199 153 194 113 140 143 73 121 69 103 63 62 127 103 86 146 90 104 159 120 167 92 147 152 76 147 75 127 110 117 51 98 102 131 62 58 115 158 121 71 171 143 116 115 114 142 141 147 57 166 146 191 131 131 120 143 104 40 147 148 143 120 207 221 130 114 89 181 150 125 167 130 79 84 161 167 172 147 113 138 154 87 175 146 115 141 164 92 67 178 183 175 175 180 84 95 195 164 124 178 136 103 114 177 82 189 204 205 199 116 89 62 143 130 160 100 107 107 53 61 108 169 101 113 114 122 101 78 110 161 69 154 147 140 143 88 102 207 173 157 190 130 179 90 164 170 81 61 144 74 87 172 116 88 127 115 163 140 148 144 168 184 124 116 94 114 119 116 100 180 141 71 132 139 175 63 86 99 166 144 86 109 145 170 193 166 104 85 98 117 110 86 75 85 74 95 154 78 154 174 103 162 156 66 62 98 155 160 163 173 106 144 65 125 182 176 103 152 128 195 153 191 204 189 117 113 202 178 87 176 180 134 114 90 174 133 126 189 129 181 82 163 156 162 161 64 89 67 105 81 128 64 82 192 143 141 207 186 138 185 108 114 195 189 215 121 103 180 94 158 115 138 117 77 119 148 92 187 186 104 129 74 107 157 162 115 75 167 169 188 89 84 183 155 158 173 146 181 191 154 162 53 130 77 65 63 184 206 205 128 146 103 112 162 154 126 153 199 193 200 160 168 100 174 186 89 179 95 113 82 164 185 139 224 218 230 117 115 150 117 119 140 124 201 183 152 211 147 211 192 107 126 152 112 83 86 164 166 169 119 87 148 201 152 98
112 117 124 131 145 151 161 170 171 175 174 182 195 189 176 141 126 118 131 152 163 179 190 194 177 176 185 206 200 200 200 201 203 205 203 201 193 182 171 171 166 192 187 174 146 167 177 203 179 173 155 145 124 137 122 168 185 171 127 181 163 176 112 155 119 118 156 137 170 183 179 139 142 181 234 222 184 174 107 146 101 153 80 62 43 40 74 51 64 75 82 146 98 139 92 82 77 113 98 147 90 97 77 98 107 60 70 80 108 147 86 71 72 153 85 143 128 64 84 91 81 118 55 54 143 73 177 129 81 78 100 167 173 171 71 61 163 154 126 83 132 132 183 178 154 63 93 190 109 103 112 125 69 132 126 153 159 164 127 112 165 147 67 64 144 125 138 137 117 158 93 111 105 108 82 46 99 125 66 80 57 97 150 94 84 70 84 99 111 182 177 66 67 134 101 159 159 92 140 190 178 67 126 140 141 122 169 114 168 148 206 187 197 130 123 156 120 187 174 129 66 51 130 150 157 86 123 168 96 116 201 213 197 110 169 92 151 100 119 111 180 182 187 115 170 116 159 117 113 179 159 147 85 95 200 119 99 174 124 122 188 96 84 98 49 140 150 70 163 179 151 184 106 151 97 126 83 65 76 164 147 138 85 117 154 211 129 120 121 193 128 194 136 147 72 110 99 95 131 160 73 86 93 114 125 132 56 71 130 141 115 156 173 129 135 110 115 77 91 83 160 171 160 154 60 165 70 150 83 69 145 91 116 173 87 121 127 169 105 176 167 144 119 122 181 163 92 93 79 175 78 163 110 116 69 91 154 71 140 139 155 71 92 103 203 149 137 153 145 126 139 104 123 162 164 198 147 94 181 151 163 80 191 190 155 202 141 179 118 111 109 87 49 136 139 139 91 100 74 177 208 199 144 128 137 159 205 150 198 155 110 122 109 137 190 89 82 142 73 161 92 178 151 132 99 87 162 73 177 107 75 90 146 155 130 164 91 92 179 87 100 181 107 93 127 176 129 147 144 35 111 115 73 178 206 210 205 155 176 174 136 76 103 178 124 198 130 194 180 83 86 98 134 89 174 166 167 184 199 204 121 190 164 201 202 152 137 110 133 95 186 180 195 157 106 136 139 151 112 195 116 176 169 90 105 179 87 153 82 80 144 99
101 113 128 146 154 158 167 172 170 170 167 182 185 187 169 134 134 123 141 161 178 178 184 197 191 193 198 213 193 191 183 189 202 205 206 198 196 183 169 168 181 190 199 181 161 166 162 199 193 183 145 134 128 122 162 146 164 169 178 125 150 127 138 179 147 154 162 190 162 178 104 106 158 158 146 138 149 145 98 104 120 152 95 71 46 46 60 110 135 90 104 129 124 103 143 106 69 88 122 116 99 88 86 83 94 77 58 86 110 102 80 72 72 108 107 165 138 79 84 99 98 147 55 151 85 98 111 177 64 146 54 61 156 119 84 76 160 159 103 177 169 199 145 117 135 90 79 89 171 160 127 157 148 174 187 119 181 137 136 141 104 124 147 154 121 71 74 150 95 174 158 149 141 85 88 59 61 129 109 74 156 78 85 81 107 122 111 113 131 133 97 117 178 128 77 124 255 169 147 157 174 152 52 81 37 138 149 143 106 135 190 149 188 130 98 92 173 87 97 74 108 62 103 107 123 147 111 113 169 190 139 203 160 184 151 71 69 97 178 106 82 115 92 108 105 170 101 180 141 167 155 138 73 120 143 182 104 172 169 80 187 130 171 147 106 132 66 132 154 158 160 131 156 95 119 72 159 165 153 121 119 73 79 81 114 200 181 184 215 255 163 196 126 190 108 142 95 116 113 76 70 65 101 59 151 152 65 71 119 179 178 112 147 94 142 58 74 74 100 169 94 82 79 78 62 149 82 72 126 105 159 158 171 175 77 78 167 169 171 115 106 193 99 88 116 111 90 81 105 88 89 89 79 156 112 66 157 135 69 113 96 88 186 166 136 197 190 94 189 193 161 181 108 193 154 187 113 200 92 77 106 175 93 211 151 155 195 189 140 86 109 152 119 53 116 68 86 101 73 173 167 113 130 162 111 143 93 118 115 196 104 196 103 105 197 155 109 93 135 191 95 155 178 165 107 177 146 133 127 166 127 141 64 68 127 84 181 152 79 176 79 170 124 145 114 109 94 96 106 139 43 149 164 85 178 130 182 108 197 108 140 112 168 126 201 194 223 205 81 158 92 125 119 85 82 102 128 91 195 163 192 217 120 136 175 138 86 146 97 95 104 151 209 115 107 131 111 182 94 148 98 101 118 181 197 148 192 81 90 74 75 78
100 115 135 150 158 165 158 162 171 171 169 176 174 156 152 131 138 142 149 173 188 190 190 190 202 210 207 208 183 171 179 190 200 198 199 193 193 176 163 168 181 205 208 203 183 147 184 179 204 196 155 135 138 147 158 166 166 162 117 147 176 176 169 153 134 150 181 157 177 156 102 121 112 206 150 121 104 145 109 139 117 89 161 114 87 132 116 138 103 100 113 163 116 100 116 75 99 93 134 114 119 131 86 93 76 106 73 110 54 128 65 101 129 115 81 157 165 121 113 181 82 84 66 143 131 189 191 78 146 100 78 69 107 157 86 69 49 147 160 79 196 197 150 69 145 146 112 86 82 94 165 135 160 183 110 184 185 95 155 92 146 109 169 151 90 85 120 156 105 120 164 134 137 176 124 92 161 103 155 73 131 159 98 81 82 129 179 124 217 111 106 189 126 187 182 178 136 175 79 255 149 166 98 67 82 132 89 179 97 104 162 187 152 109 132 170 180 148 74 149 128 106 93 99 173 173 109 83 84 129 117 192 111 179 68 122 128 150 174 133 193 111 113 210 197 200 102 170 92 142 77 163 67 168 182 159 155 181 180 118 181 181 132 116 136 83 79 74 76 144 68 92 166 101 66 160 137 81 78 83 87 152 90 136 107 117 191 124 139 121 137 152 211 161 193 111 94 133 85 67 63 46 72 144 96 96 51 164 119 153 173 132 155 70 123 50 64 142 160 102 77 116 102 142 87 143 67 150 56 56 118 75 172 163 73 101 97 183 95 125 115 145 208 102 147 95 179 104 82 127 104 102 185 143 144 116 63 127 159 102 65 72 165 177 107 151 185 156 175 123 91 166 207 109 157 182 122 133 103 124 162 159 185 194 198 111 112 143 90 93 155 144 46 106 129 76 53 126 170 94 191 119 97 178 132 116 184 174 174 184 90 179 92 170 197 106 115 118 204 173 103 99 183 171 159 160 100 164 82 125 155 55 139 73 70 90 81 113 162 114 177 80 143 197 196 114 64 83 140 134 119 69 103 170 183 125 192 129 212 175 117 94 166 97 197 166 137 111 166 74 52 143 150 139 78 181 142 173 122 91 179 184 169 197 91 136 142 173 126 95 167 202 161 165 171 105 172 191 97 104 67 149 110 135 119 141 167 126 59 50 83 78
111 122 135 150 157 165 165 167 155 167 171 174 162 151 139 130 141 138 147 168 183 193 189 196 195 207 209 203 187 176 171 193 204 200 191 184 171 172 164 174 184 190 190 191 188 179 194 184 196 163 173 144 144 129 155 149 105 157 90 134 100 151 124 187 191 190 137 154 168 125 181 122 101 107 188 163 80 95 132 106 97 92 95 90 148 124 96 104 102 146 99 102 103 91 79 87 91 102 155 121 122 134 121 96 84 93 75 53 51 59 65 77 141 99 153 129 110 164 133 188 96 96 145 125 78 88 157 107 76 126 143 144 79 138 146 139 124 143 156 75 115 197 138 145 120 126 101 132 90 89 150 78 116 166 171 136 153 187 140 181 87 153 140 168 170 92 123 178 95 162 88 123 125 162 107 153 84 132 109 95 99 65 85 147 109 159 170 124 110 173 92 170 89 183 187 170 158 92 160 120 164 162 107 37 37 46 64 154 168 124 121 155 93 84 77 79 140 167 71 99 135 105 113 164 152 158 50 142 151 87 147 129 139 172 165 165 127 136 136 180 203 128 197 224 220 213 100 102 124 92 189 83 88 170 165 168 79 85 161 92 89 161 95 137 122 56 40 46 143 143 132 74 75 92 102 85 175 86 145 116 193 143 91 99 95 126 113 126 116 185 112 107 201 113 213 107 115 179 90 65 52 45 43 109 47 92 78 154 85 83 100 127 114 79 91 72 156 163 99 116 75 121 84 84 166 68 67 69 108 46 88 104 74 80 113 126 138 86 87 118 122 130 152 213 99 171 166 146 108 103 209 117 184 117 65 91 106 106 95 66 150 100 134 160 101 132 145 165 123 73 118 198 210 117 143 176 102 209 139 157 108 107 175 195 161 120 97 136 187 193 182 83 119 48 139 49 107 112 148 192 92 126 123 139 83 69 181 113 123 82 158 181 130 181 104 216 135 174 210 157 165 203 150 130 154 142 168 90 129 166 57 69 131 145 147 79 109 115 115 108 164 86 121 132 202 136 174 145 95 77 156 167 105 194 190 209 138 219 215 129 160 170 110 87 166 212 177 186 87 63 150 57 80 144 169 107 188 131 130 118 98 173 90 121 102 93 180 102 168 127 107 187 110 143 122 138 112 119 80 73 114 157 102 173 146 136 107 124 119 68 66 128
123 125 127 130 143 156 160 160 159 171 179 179 152 142 133 128 146 155 154 162 175 184 175 189 179 202 194 195 174 174 182 196 195 195 179 167 157 171 176 163 170 183 192 198 187 186 199 181 178 171 178 147 108 151 110 171 135 129 112 78 125 77 167 165 176 154 100 158 133 155 130 99 166 92 105 80 66 132 59 148 89 112 107 164 138 105 96 101 97 132 97 98 93 133 111 77 109 108 117 123 152 107 104 127 113 87 99 76 35 76 54 76 101 154 155 116 101 187 166 113 97 102 72 77 85 163 94 115 83 127 74 110 86 158 43 43 37 130 123 84 153 196 171 78 96 145 135 96 147 149 137 181 183 110 199 168 180 141 155 171 172 105 78 170 130 160 187 115 138 133 178 180 178 137 126 142 101 86 86 147 139 130 65 88 48 154 134 186 148 182 160 153 188 183 82 83 81 154 80 181 80 130 146 54 60 129 134 94 151 195 150 189 88 171 147 182 85 144 163 172 84 150 60 74 156 150 47 65 132 67 83 176 80 99 146 137 180 189 150 129 126 214 225 141 132 199 118 144 97 202 180 128 135 139 112 75 115 123 86 140 179 128 168 123 127 135 101 99 112 136 149 95 73 150 126 96 122 104 116 107 120 112 187 94 95 183 189 146 191 112 191 101 171 186 182 203 116 86 121 175 92 99 78 138 137 130 67 88 173 113 173 140 59 42 117 66 135 126 174 91 94 156 109 99 115 116 76 64 131 95 83 107 91 157 117 170 176 136 82 180 97 198 163 115 199 124 143 157 90 187 165 197 96 160 51 124 97 60 163 76 120 134 183 178 189 196 142 164 98 174 186 125 140 207 192 94 168 122 129 90 124 146 85 197 180 133 175 182 168 82 146 85 123 145 125 67 163 85 193 117 161 175 128 95 65 156 139 149 119 85 98 84 142 128 211 206 153 181 204 104 183 104 179 175 149 152 93 151 101 81 65 95 151 156 65 143 63 72 162 97 106 180 115 200 124 98 136 70 156 82 125 170 124 93 109 125 122 197 120 180 88 145 135 145 101 152 217 162 142 141 140 162 110 127 189 104 178 168 138 149 92 133 181 158 153 109 154 120 126 122 189 201 145 213 119 183 106 156 150 129 128 69 117 153 151 147 126 135 155 70 148 67
127 122 115 117 126 144 151 148 148 163 181 177 159 149 145 148 143 156 159 170 163 173 169 172 178 185 182 173 169 178 192 198 198 186 166 157 152 166 169 174 171 169 179 170 187 200 188 217 202 203 183 146 149 144 108 111 116 104 125 100 112 127 148 94 182 149 174 130 103 179 182 121 157 102 72 86 69 113 61 125 145 130 116 133 143 115 91 100 110 91 100 82 105 99 83 85 102 116 135 153 150 108 95 94 66 56 85 79 65 56 61 100 85 105 107 92 96 124 103 138 104 119 163 63 75 159 117 139 113 108 154 174 138 100 95 54 123 69 73 90 105 96 171 152 151 144 65 133 140 124 107 150 189 101 178 212 136 147 153 195 176 166 107 134 145 102 120 184 167 109 105 96 89 146 143 163 106 163 122 110 183 131 124 162 144 157 146 86 185 133 187 183 104 103 162 71 167 150 113 149 146 123 58 125 163 172 86 75 131 182 193 95 134 154 159 160 184 161 123 162 66 78 141 62 136 164 80 55 152 137 181 98 101 182 179 190 193 163 191 99 105 190 207 122 204 184 152 77 97 184 137 198 171 79 147 131 137 97 191 99 105 142 127 119 74 66 164 72 177 80 108 99 106 165 141 134 135 180 108 186 111 183 179 98 125 139 211 205 209 114 115 255 172 94 102 124 99 96 93 180 93 68 144 72 82 99 134 108 88 166 118 144 110 118 140 152 94 157 102 126 160 95 111 147 93 93 72 70 129 153 160 74 103 122 144 176 180 85 114 122 100 104 178 105 153 176 173 168 148 151 96 185 88 118 88 161 61 71 124 158 93 182 126 180 203 100 187 151 128 125 166 230 185 150 93 97 160 166 170 176 178 139 88 174 142 87 182 86 99 158 120 135 62 70 173 167 92 135 188 89 177 68 58 133 138 62 68 158 154 135 80 78 121 112 147 221 194 193 166 136 145 181 140 121 105 66 150 199 122 95 74 131 85 153 106 160 136 65 155 154 178 94 141 149 96 183 113 179 138 64 159 95 135 184 209 115 161 128 194 208 193 167 154 166 197 192 154 211 183 184 149 88 111 184 182 148 126 110 172 88 187 135 91 170 133 206 119 138 220 122 164 111 100 118 115 208 139 121 171 108 61 122 152 131 54 92 110 134 124 84 71 163
120 112 106 101 113 127 137 138 149 153 179 183 177 169 149 151 147 157 147 154 165 154 157 173 182 173 168 160 156 174 184 191 192 181 166 157 156 171 175 163 168 168 172 174 178 193 171 180 191 175 191 171 162 165 174 160 128 101 134 74 131 152 163 146 132 99 101 139 155 93 182 100 77 69 141 74 116 112 74 140 80 134 162 134 77 135 85 255 97 154 78 132 74 93 91 92 132 121 121 137 124 145 138 81 101 88 100 95 101 71 75 106 92 99 118 158 88 172 99 105 98 100 144 64 86 99 123 192 176 145 138 77 119 163 138 65 62 157 92 195 206 185 175 58 147 138 143 61 132 119 64 140 161 137 197 207 214 211 149 158 120 103 80 167 72 87 85 97 141 142 104 177 92 98 170 83 86 180 151 125 185 173 110 175 72 153 174 120 130 150 169 193 149 166 141 144 66 105 130 96 158 58 58 72 104 138 109 90 84 129 139 149 66 128 93 121 197 185 186 84 90 145 153 160 180 179 86 78 121 143 143 205 213 205 105 126 113 179 194 193 198 110 107 199 98 103 169 86 131 120 215 166 152 81 80 161 93 173 202 210 149 186 91 172 124 165 125 152 147 150 145 88 139 96 96 174 130 104 170 169 150 176 84 76 176 117 186 183 101 99 143 83 83 88 108 192 109 167 95 100 90 75 144 74 84 184 132 125 132 131 99 96 65 69 80 82 175 109 105 113 91 90 176 78 138 88 114 177 156 65 68 74 87 182 90 85 98 182 79 80 114 183 201 132 175 170 110 173 171 160 71 173 93 97 87 104 154 115 172 164 156 158 182 154 153 112 189 125 92 128 185 236 169 193 183 85 119 74 174 160 177 101 91 122 145 121 127 142 162 158 73 86 163 96 83 95 156 93 153 164 152 144 73 63 124 65 114 70 102 158 117 105 128 116 131 164 158 117 140 166 127 179 150 63 56 96 82 148 200 112 124 93 95 72 158 136 67 56 145 109 179 154 93 89 94 175 77 173 63 54 151 167 182 155 109 117 181 223 209 172 192 113 168 179 150 174 169 169 193 122 105 122 126 116 181 197 144 169 97 99 173 152 148 105 105 135 153 183 121 198 145 85 174 191 112 200 103 114 142 133 160 120 170 155 55 143 68 68 66 75 97 99
118 114 108 109 117 123 134 139 150 153 172 178 165 167 155 166 160 139 148 149 138 145 143 167 164 172 162 145 155 173 186 193 189 181 176 174 255 182 185 169 179 174 162 152 169 159 188 196 168 185 177 165 189 187 155 173 114 148 122 124 155 102 162 107 144 157 164 126 164 123 100 175 142 157 134 161 153 112 105 119 116 108 107 127 79 88 125 175 104 84 78 95 66 83 84 101 135 132 152 122 147 110 93 114 63 107 57 84 82 93 89 84 111 107 134 169 156 137 91 174 86 95 102 128 98 115 115 136 101 187 79 140 114 152 111 87 158 165 135 192 149 189 80 165 67 161 117 48 142 129 71 132 182 114 100 180 142 223 150 126 91 172 175 160 154 119 156 135 180 183 98 160 152 131 108 155 77 125 171 127 206 203 127 87 112 181 99 101 146 145 165 91 163 66 139 123 90 123 123 65 78 162 92 95 118 145 160 118 57 160 63 82 50 90 80 101 176 106 88 159 81 107 161 119 179 183 92 106 118 84 134 167 197 201 142 202 96 120 168 86 146 189 184 173 149 68 81 144 186 179 195 98 147 137 118 77 189 117 214 207 157 149 153 180 149 154 110 161 150 114 147 144 152 197 166 179 111 166 151 95 80 73 65 70 124 83 84 155 123 100 194 154 139 149 108 160 196 140 100 98 178 137 61 74 153 145 189 159 115 182 180 82 76 68 168 103 96 96 97 169 106 76 74 138 155 74 119 174 179 120 113 155 119 177 87 90 124 180 99 144 69 90 128 109 130 156 158 169 89 157 120 109 162 201 187 135 195 140 136 135 76 129 159 174 125 102 90 83 187 202 212 237 190 113 135 136 175 163 93 95 186 131 80 136 69 163 125 88 78 137 163 128 91 75 89 181 201 158 72 147 53 131 162 143 111 58 119 90 128 151 145 94 121 149 120 164 183 196 191 131 113 123 170 66 145 120 129 140 91 186 97 77 102 149 157 59 115 77 105 66 180 189 107 81 141 162 121 161 106 141 146 60 79 136 163 115 119 128 135 200 204 154 156 108 157 156 110 145 108 99 137 187 177 210 165 191 145 130 124 174 85 157 115 101 151 206 146 192 132 94 148 82 133 150 169 219 206 181 93 117 97 148 92 137 136 68 76 162 146 130 93 120
129 129 129 126 126 128 134 137 143 153 162 164 162 166 160 162 170 161 147 131 131 143 143 159 163 157 155 154 156 174 181 184 190 186 191 194 195 199 191 186 192 173 164 160 151 168 175 183 150 191 194 178 174 183 179 175 164 109 173 120 159 145 179 161 138 161 191 118 139 140 146 91 167 107 80 111 141 138 86 73 143 136 82 119 97 89 142 116 114 106 73 82 78 74 87 110 125 152 130 144 128 123 97 74 86 79 59 133 88 110 81 129 102 100 88 88 167 93 110 130 142 68 88 111 164 118 126 187 198 143 78 166 110 161 63 165 66 67 85 107 109 192 83 160 78 72 161 157 139 95 150 173 96 121 200 117 146 227 141 180 181 188 179 164 98 107 158 164 178 106 151 116 154 149 152 85 72 102 90 180 147 174 165 194 194 153 198 139 194 188 121 172 157 124 97 35 109 41 46 57 158 166 89 132 147 175 182 147 143 40 144 53 102 52 166 95 255 168 190 160 160 157 171 128 107 163 132 164 108 88 152 112 117 199 192 148 92 181 114 81 156 178 80 62 87 79 134 130 136 180 92 152 68 118 154 103 133 100 160 183 183 92 147 179 167 176 114 144 175 118 123 191 197 125 116 134 152 108 100 75 133 142 77 162 121 74 81 80 101 169 192 109 86 116 89 109 106 105 102 187 169 84 115 107 187 143 114 202 181 119 152 143 170 80 72 150 170 109 89 142 83 67 102 74 167 108 131 86 118 84 141 98 174 167 172 185 168 99 83 59 73 189 112 126 165 58 106 63 64 145 67 81 175 158 197 212 124 195 147 106 132 88 177 87 183 173 73 108 145 174 152 140 126 125 100 168 145 178 78 89 125 178 141 109 69 91 71 98 134 96 128 88 101 187 188 133 183 124 58 73 65 81 165 182 130 159 50 45 49 86 154 137 120 108 184 178 192 110 121 155 188 152 72 145 70 130 66 90 128 90 108 171 117 148 124 151 155 153 60 150 75 174 169 105 61 67 133 111 148 88 42 104 173 179 194 121 198 179 182 142 215 192 127 102 175 147 185 171 168 104 184 137 170 165 174 158 120 117 187 146 71 76 175 139 181 157 157 140 83 78 79 115 192 176 131 168 128 213 205 154 107 106 162 156 85 165 88 88 117 87 114 168
147 153 158 155 149 150 141 145 149 155 155 162 160 168 168 168 167 150 154 144 142 136 138 162 158 169 170 178 178 180 185 187 184 192 197 206 205 204 204 205 207 184 178 153 152 178 175 177 160 184 190 156 191 199 171 201 174 183 178 151 146 151 115 130 199 138 167 145 81 98 78 123 136 107 152 135 84 111 110 105 119 124 82 106 75 78 91 108 101 142 94 134 147 90 92 138 121 123 155 150 143 111 89 81 92 80 69 107 86 73 137 87 88 89 146 168 96 106 135 91 146 122 76 178 108 206 113 191 188 100 94 177 76 90 130 93 74 93 81 100 107 183 84 185 121 184 144 161 165 175 172 84 187 103 134 168 141 152 169 216 161 104 158 173 160 67 99 104 118 160 134 97 126 152 114 83 134 168 91 160 109 189 216 109 153 95 136 144 120 146 133 79 63 69 60 103 159 106 61 106 96 124 183 91 172 168 177 154 60 100 103 93 72 74 143 182 152 119 108 129 188 111 77 133 184 90 82 135 165 179 167 108 103 192 180 98 95 158 86 163 154 141 114 88 77 42 143 155 73 170 133 129 67 143 69 126 100 99 180 160 105 114 147 117 93 99 97 182 170 117 128 147 149 145 216 133 140 206 154 90 80 96 102 168 171 137 127 169 150 86 93 88 144 89 178 185 114 168 168 94 81 60 85 103 90 108 97 136 123 197 107 142 117 111 167 93 124 125 113 91 177 89 74 148 63 67 88 106 180 193 192 88 172 85 77 109 124 179 91 96 86 119 143 202 101 156 149 53 88 73 187 98 113 176 129 126 199 190 129 97 71 81 161 115 149 140 137 172 165 130 209 206 155 95 190 175 161 173 71 166 165 173 169 98 153 163 134 145 84 150 97 142 192 180 176 186 113 142 142 76 34 47 70 150 176 158 133 97 73 99 170 182 173 157 182 119 102 174 149 168 102 93 79 166 147 129 61 67 98 138 142 140 145 255 149 173 81 111 163 144 78 76 137 122 82 58 104 57 92 147 116 55 84 162 109 82 192 129 119 118 119 145 185 94 129 167 179 113 81 163 108 172 175 106 96 127 88 125 169 170 159 69 90 131 94 171 147 121 145 70 75 103 142 191 118 153 129 117 127 184 112 115 91 179 172 96 186 129 144 144 140 183
159 170 177 176 164 163 158 162 159 162 154 166 150 159 166 162 163 150 153 127 141 142 150 159 170 175 179 191 181 183 180 180 177 189 196 199 202 194 198 206 201 204 193 189 192 191 186 177 160 175 185 184 189 194 149 153 200 177 143 146 176 140 141 192 108 139 149 101 100 119 76 122 81 160 163 151 154 126 133 102 89 147 95 136 65 72 85 104 99 102 97 147 99 106 136 121 104 114 140 138 132 129 139 82 74 65 104 90 92 89 81 142 147 103 115 119 111 166 129 185 171 76 77 105 103 168 113 170 113 103 184 104 186 83 171 146 71 65 178 188 82 149 133 122 98 167 125 161 135 162 167 146 164 186 186 161 191 114 173 193 204 157 173 157 162 179 138 160 189 195 195 120 141 141 99 147 83 158 81 162 124 207 158 194 112 151 188 155 204 188 134 139 90 144 173 131 185 173 150 178 150 173 134 192 184 97 182 150 64 139 129 152 169 90 78 121 172 111 141 166 180 98 69 70 160 104 77 179 180 177 179 116 185 90 74 158 154 164 136 134 163 82 159 93 47 132 67 55 155 82 154 77 150 171 136 162 68 166 75 168 127 60 168 165 124 179 149 161 189 108 138 189 114 204 192 133 136 119 156 140 94 106 145 136 84 173 157 107 85 137 104 79 146 158 184 178 158 164 129 185 78 77 124 184 168 183 122 109 189 195 91 138 182 125 142 131 204 220 137 130 91 68 131 118 102 65 65 171 182 154 182 183 89 169 131 172 177 159 156 103 135 213 216 204 82 85 144 113 77 164 182 154 144 122 215 202 137 85 75 139 107 167 173 157 91 99 97 135 174 163 169 140 127 195 197 198 132 110 165 125 158 114 178 81 72 112 70 158 180 105 187 197 192 109 187 118 66 42 92 39 45 85 81 76 83 66 58 123 56 152 149 135 124 93 136 96 159 174 180 152 169 163 76 163 144 134 64 134 93 89 83 104 83 84 106 92 180 181 171 97 162 175 130 152 54 96 71 54 82 75 68 99 111 139 115 65 73 155 117 206 136 186 176 119 94 108 102 98 127 143 177 89 190 111 166 132 99 154 114 94 153 148 123 121 130 118 175 143 70 62 148 142 182 206 133 203 215 128 132 195 88 101 186 151 132 178 190 87 114 103 169 138
150 165 177 176 171 169 163 173 170 171 163 158 158 157 161 150 150 141 136 130 141 146 156 156 172 182 182 187 182 176 172 172 173 184 185 187 190 191 194 202 196 200 207 197 201 196 173 165 147 164 189 169 194 196 199 203 199 155 194 216 181 140 166 109 108 92 127 121 128 100 76 86 146 89 149 66 147 112 110 128 97 84 86 127 123 255 84 93 130 113 98 157 122 94 89 76 107 141 145 142 108 102 81 95 100 107 87 59 88 84 81 75 94 126 80 102 92 177 114 187 148 85 90 96 195 119 92 154 96 207 213 155 179 163 174 129 163 74 165 174 71 78 170 115 187 107 91 178 175 86 87 78 165 74 91 178 168 94 196 147 133 114 200 188 169 171 105 190 140 106 157 93 125 79 123 124 148 145 178 153 133 119 198 171 152 178 84 166 147 179 167 73 85 142 196 117 148 102 99 148 151 163 79 125 107 132 169 154 177 83 82 159 156 136 95 146 112 184 107 167 121 104 178 103 179 82 150 183 139 181 167 183 169 87 71 101 63 157 68 74 137 187 115 103 56 143 150 71 73 57 74 86 82 173 108 78 138 96 131 78 90 155 154 174 128 154 195 181 121 180 204 210 151 212 212 208 124 172 113 186 103 147 126 178 105 109 189 180 128 168 146 96 99 122 215 141 194 150 138 110 107 112 171 196 191 164 162 192 194 111 157 73 115 146 193 194 218 137 145 131 95 77 64 131 53 96 161 145 134 87 186 194 96 110 148 144 136 127 112 145 97 165 180 156 168 113 167 152 91 167 209 113 164 201 132 126 192 111 66 102 133 74 120 173 82 141 193 140 200 105 187 158 196 176 115 134 86 136 77 160 183 137 143 140 143 64 67 149 79 191 117 207 150 110 89 92 142 128 61 124 134 49 93 163 80 159 70 73 81 72 164 159 179 80 92 171 169 138 122 79 150 174 84 127 97 155 160 171 180 100 101 161 117 83 133 93 178 133 164 164 81 179 108 98 70 165 155 74 113 80 77 163 75 168 157 67 118 127 130 115 139 140 177 114 106 160 104 120 201 98 128 174 162 178 74 74 108 158 76 139 162 86 112 183 130 161 77 66 66 85 76 177 194 104 200 104 158 126 108 129 141 126 124 125 201 125 187 92 158 99 116 102
129 145 159 161 159 159 171 178 177 163 170 164 161 173 152 142 143 135 143 141 147 157 157 170 176 179 178 170 159 159 166 166 175 182 183 181 183 179 181 183 192 204 186 200 193 197 163 171 170 186 200 181 161 183 199 192 137 180 130 169 206 164 164 103 111 145 129 111 126 83 82 82 76 82 123 66 89 117 132 116 124 79 72 130 71 81 108 100 133 89 100 100 131 92 69 60 117 86 96 135 90 105 91 100 59 62 99 116 63 82 142 81 97 73 140 113 105 137 130 146 123 163 119 108 117 142 145 92 147 188 213 122 120 120 183 255 123 61 76 153 108 117 149 166 83 109 97 185 185 151 180 104 123 124 155 154 89 107 167 175 139 144 105 116 117 190 117 170 110 91 170 99 123 60 76 144 135 158 112 91 131 105 148 217 161 186 84 143 126 100 161 136 150 146 199 187 219 104 171 163 102 84 106 70 107 86 168 121 103 180 113 131 162 93 95 139 104 155 92 113 99 193 98 94 191 168 90 98 144 196 136 108 129 132 92 94 154 154 102 79 100 177 88 154 74 70 157 89 82 115 63 141 129 181 91 119 164 129 57 103 64 157 137 156 150 109 142 140 204 160 107 113 209 210 154 123 156 138 140 198 93 76 168 161 143 204 154 209 111 153 78 99 143 192 160 220 138 173 159 91 68 133 189 116 151 88 177 112 118 178 66 101 137 96 155 213 159 158 213 143 161 133 77 47 151 76 161 97 71 168 186 141 160 68 124 98 147 186 120 95 180 115 135 190 173 166 166 186 98 103 142 111 152 118 156 173 178 160 97 108 137 77 163 144 99 114 204 150 144 129 191 174 99 116 95 185 94 109 168 87 95 109 161 83 72 61 127 140 75 181 166 130 133 181 188 86 91 42 106 38 90 153 88 172 85 162 74 47 103 75 146 96 137 83 179 123 151 146 153 68 132 159 63 60 141 137 109 84 100 135 141 161 172 173 184 95 112 149 195 148 169 161 100 199 190 173 143 113 144 185 126 134 184 88 166 156 152 73 163 119 187 147 153 176 121 148 205 127 118 178 99 192 160 154 95 68 149 70 156 178 113 114 112 76 172 174 102 119 114 170 86 116 97 135 169 120 187 150 94 154 175 137 105 133 182 104 196 104 160 91 82 123
107 122 140 146 145 149 167 178 172 167 160 166 175 172 168 169 150 137 148 134 139 153 160 173 181 171 166 158 157 159 161 163 171 181 182 188 178 188 181 188 172 192 194 188 196 188 183 163 145 147 190 202 209 153 188 149 165 106 124 162 123 120 109 80 141 89 121 100 71 104 157 124 120 145 83 132 75 53 76 110 79 81 107 96 75 100 108 110 90 114 78 149 104 126 126 61 66 96 102 99 98 101 52 40 42 44 110 64 125 100 121 98 102 135 79 101 113 112 143 205 128 186 118 103 93 117 165 157 130 131 130 120 201 102 197 132 175 76 56 161 87 153 128 155 150 179 153 100 168 165 124 175 163 91 167 136 77 161 95 81 112 94 114 121 188 191 141 148 191 92 117 160 155 126 70 104 144 129 131 99 63 134 184 216 185 133 145 64 109 121 116 176 91 98 111 119 193 104 109 71 160 130 137 157 163 168 105 111 101 182 187 79 173 157 89 129 157 80 117 163 98 125 128 204 157 140 112 126 115 109 181 179 173 97 85 64 115 62 76 141 162 171 180 96 175 76 78 176 174 69 66 146 95 170 125 167 135 87 107 164 168 178 107 134 184 202 160 125 182 192 139 187 223 221 208 107 152 153 119 118 98 85 139 131 103 110 151 173 173 102 89 104 222 191 161 217 152 134 121 76 125 125 126 104 149 156 87 97 90 88 67 61 136 95 132 205 134 139 171 100 89 111 126 157 65 125 81 154 74 163 162 150 152 66 160 169 96 120 204 179 188 93 81 168 169 182 150 121 139 173 101 148 132 167 171 76 105 80 106 76 172 167 109 191 131 209 179 111 138 206 128 204 181 189 175 164 163 102 185 178 158 92 179 138 111 130 55 56 124 135 113 162 96 198 162 192 88 158 98 114 56 122 106 82 82 107 79 58 46 80 79 84 180 144 145 89 81 123 85 72 89 146 126 78 87 130 67 156 166 170 179 91 183 183 186 173 108 119 121 187 137 173 212 132 213 113 156 191 176 194 155 179 191 134 98 157 71 172 174 99 169 103 147 153 70 116 185 97 173 134 116 94 184 187 95 174 172 96 122 196 182 110 163 135 119 82 86 157 169 80 126 165 204 128 104 141 133 102 104 190 113 146 155 177 149 106 114 137 255 76 155 150
105 115 128 136 134 143 154 170 166 162 150 150 160 170 173 182 174 156 147 148 161 161 165 180 184 173 165 162 165 166 161 162 166 174 190 192 194 189 185 167 176 180 189 193 181 181 181 177 168 170 190 178 204 194 175 152 93 122 119 146 91 154 138 124 106 91 159 131 94 115 160 130 158 143 122 137 61 122 52 87 98 75 71 133 83 118 154 102 96 82 84 80 125 89 135 79 115 126 112 103 86 67 72 64 40 88 52 109 66 118 84 153 98 81 105 155 102 122 180 147 134 214 137 113 175 151 87 101 106 174 110 113 141 95 154 91 116 66 159 153 119 71 70 159 98 173 122 196 180 139 198 166 165 174 134 169 165 114 159 156 173 142 190 165 189 95 175 149 152 159 111 179 91 173 153 154 151 132 148 72 170 178 103 209 124 100 100 175 69 72 176 126 145 116 96 113 185 160 116 95 78 111 144 134 65 140 156 176 101 155 160 104 79 127 106 171 167 84 119 80 160 188 112 196 104 178 84 126 136 156 142 146 160 171 138 79 160 154 100 140 137 113 160 174 179 89 174 177 97 112 162 133 66 173 97 119 86 87 155 148 176 190 99 90 144 103 160 142 204 124 167 202 149 228 152 139 167 176 138 186 94 156 125 152 198 168 150 91 86 75 90 92 110 222 202 135 181 182 115 84 82 139 174 144 84 86 83 66 60 115 85 76 104 115 128 97 97 118 184 82 105 80 163 89 88 92 87 83 112 174 153 156 68 127 79 178 110 116 181 174 102 172 72 170 93 92 164 83 72 166 133 88 153 65 150 129 87 92 124 105 111 222 143 165 223 190 201 142 109 210 159 131 179 149 99 163 170 138 123 180 83 174 118 69 143 80 82 130 76 83 65 177 193 198 153 211 208 131 160 142 79 151 182 113 88 71 64 46 42 149 98 172 164 183 93 179 145 61 140 144 146 58 44 123 141 143 153 98 82 81 161 185 120 182 186 170 149 206 142 157 205 196 121 175 116 136 107 115 161 124 85 97 195 198 255 168 79 183 189 127 102 138 158 62 132 122 150 150 184 163 151 185 175 195 171 161 161 164 205 149 109 88 159 119 60 61 90 154 163 122 105 112 162 219 213 143 138 118 95 109 185 176 113 101 147 205 106 193 78 151 133 59
113 118 124 128 127 132 139 152 157 146 145 138 156 173 172 178 177 170 150 155 155 164 172 177 182 178 185 182 185 183 168 168 165 176 190 201 200 196 185 170 170 175 181 195 195 178 169 152 154 160 181 203 181 201 140 166 100 144 136 122 150 84 104 98 157 172 151 159 131 88 155 150 127 128 93 61 62 83 119 76 70 138 68 132 109 91 95 136 87 75 90 111 105 101 90 87 67 69 86 102 99 91 65 63 50 52 53 110 99 62 99 111 135 102 160 86 107 149 132 175 135 143 183 213 169 192 99 173 94 190 100 106 185 179 171 119 177 92 109 136 162 75 109 71 149 79 193 189 121 212 193 156 104 181 187 143 156 136 174 178 154 144 100 130 107 117 182 198 179 165 149 162 174 105 96 119 134 155 96 133 127 162 125 143 191 86 186 191 87 177 187 156 143 174 181 182 100 94 94 91 83 118 93 147 81 158 114 109 120 175 78 120 142 140 172 102 111 183 176 106 171 194 128 175 90 123 87 128 83 185 178 157 182 76 171 109 169 134 77 161 150 62 62 149 176 85 115 113 194 188 167 176 176 107 90 122 171 156 200 167 201 159 143 177 89 133 196 135 214 199 104 202 168 172 112 189 76 146 159 157 88 114 146 178 190 162 184 160 169 58 150 86 110 105 187 159 148 83 151 69 68 67 74 117 163 126 76 83 59 137 121 61 160 90 110 79 77 136 89 144 182 146 157 105 150 98 92 99 150 76 174 75 162 58 61 83 163 205 195 195 160 167 105 134 171 88 109 113 95 99 137 79 73 141 164 167 111 155 189 205 129 205 217 140 131 183 159 192 192 121 142 134 123 91 155 105 139 111 134 93 106 142 151 85 150 94 140 178 85 161 66 153 124 178 122 218 181 181 203 154 196 96 100 185 149 174 158 62 57 48 163 117 175 104 178 91 129 60 56 146 72 67 69 90 140 73 166 118 172 92 150 118 147 84 182 195 195 186 207 196 115 209 153 150 207 180 176 205 132 199 103 119 151 174 180 198 186 192 98 184 154 160 134 58 68 134 120 86 131 108 197 103 98 174 120 169 194 170 101 200 103 91 169 69 50 47 145 68 95 93 81 123 186 194 162 144 86 132 114 107 100 198 195 147 136 161 98 102 170 112 55 35
128 125 120 119 117 121 132 140 138 141 141 146 141 148 165 165 176 163 174 162 155 150 156 168 162 181 191 202 208 214 199 186 173 173 190 202 200 198 185 176 177 182 190 207 191 193 183 160 134 172 183 177 178 177 165 127 127 177 120 159 111 123 133 123 134 181 189 120 163 103 151 85 141 126 103 78 140 102 74 82 116 90 140 70 114 92 85 139 121 81 80 124 103 112 149 91 74 64 56 55 52 48 64 77 89 49 61 57 126 92 154 118 147 107 166 143 99 188 164 188 214 189 157 185 180 104 187 82 92 93 179 90 77 67 145 173 143 90 71 47 54 122 152 86 81 165 192 190 195 211 144 188 184 182 179 179 92 91 131 150 206 191 144 119 113 142 155 219 164 171 178 94 172 203 180 173 186 172 166 127 185 186 186 122 79 182 155 98 111 98 117 96 92 78 173 177 114 156 107 163 166 112 90 101 129 153 177 152 157 89 160 129 115 81 83 119 184 168 180 108 122 208 198 88 163 165 115 122 108 119 197 184 144 156 99 175 107 71 172 167 135 144 95 95 138 181 114 158 122 176 195 132 145 180 198 113 206 115 189 194 159 145 148 181 100 170 94 188 205 149 139 113 121 177 169 155 93 71 158 183 123 129 122 155 92 141 177 75 84 61 65 106 59 145 125 165 203 95 166 86 180 111 69 60 121 155 117 166 105 116 81 79 107 84 66 156 79 102 189 185 175 149 121 207 152 116 77 160 68 89 132 122 160 64 156 163 195 207 203 129 133 161 146 67 151 98 199 179 126 122 169 181 111 159 77 165 189 143 107 109 209 169 162 228 190 127 134 152 210 143 223 219 157 172 108 76 65 170 174 179 173 137 50 80 94 122 130 139 186 73 75 82 103 156 127 167 193 193 206 164 177 213 184 98 91 179 130 63 160 138 161 106 184 98 94 109 84 175 166 113 59 50 79 121 98 129 159 166 173 155 158 170 82 95 100 198 199 110 178 191 97 191 101 204 191 163 141 109 198 154 148 92 179 189 167 115 189 183 209 112 193 168 156 147 65 73 82 166 92 197 183 169 162 204 136 205 209 196 192 91 187 181 154 124 102 118 54 135 138 160 74 156 208 143 110 119 170 70 94 135 100 148 170 199 174 97 154 140 87 159 103 124
136 130 121 115 114 117 118 121 114 126 133 149 151 152 155 154 164 183 180 168 147 149 156 157 158 174 180 187 211 213 213 191 181 175 188 199 199 195 182 179 181 190 205 211 190 179 169 167 137 142 180 170 181 171 161 171 174 165 198 190 108 94 163 157 141 137 173 158 130 115 94 76 72 90 119 86 115 99 126 159 165 118 71 66 104 136 95 127 94 155 145 94 107 117 143 109 70 82 61 85 73 83 49 80 59 100 111 64 106 141 125 168 130 118 117 110 116 163 105 160 127 129 217 143 118 111 162 178 80 105 90 176 71 75 55 133 166 71 153 43 51 78 195 201 174 195 192 179 194 158 151 140 115 77 140 145 153 127 185 189 164 196 190 88 150 191 188 183 130 111 133 105 191 196 167 195 138 106 138 94 154 178 86 119 173 128 96 144 176 178 188 199 152 179 177 91 110 118 161 193 87 177 166 98 60 162 173 187 86 103 138 146 46 79 62 105 93 153 145 165 217 131 115 101 110 176 163 143 156 96 116 165 161 158 146 140 90 110 77 174 90 149 126 116 169 172 86 190 196 140 122 192 175 204 111 193 210 113 205 184 189 178 81 175 82 76 80 173 137 154 127 119 169 209 120 178 87 183 142 90 157 98 143 102 98 91 175 79 112 110 93 133 129 103 110 113 130 122 143 108 100 111 86 156 58 110 117 107 114 50 149 98 93 126 153 74 89 120 100 115 133 136 151 119 165 164 139 162 118 82 111 87 176 129 160 104 111 106 182 188 110 163 62 92 101 98 166 131 174 112 183 159 121 107 171 187 128 162 112 128 137 119 177 201 163 173 126 127 143 130 143 148 189 119 161 170 86 73 155 85 165 121 158 58 164 181 95 163 190 123 140 195 107 207 203 175 113 100 196 214 200 173 210 126 126 92 85 73 135 140 164 121 91 167 188 194 191 182 120 82 135 26 42 29 49 83 73 81 170 165 159 161 147 189 105 213 116 105 110 185 173 187 96 160 181 175 81 165 101 155 91 86 86 104 159 157 100 182 189 141 175 138 68 112 100 166 175 139 121 84 138 182 132 187 159 115 180 192 82 149 95 83 151 96 100 131 129 122 147 51 142 162 174 87 79 110 124 61 164 143 113 115 83 114 172 149 190 181 110 83 153 74
149 144 133 124 119 118 116 107 109 117 136 152 156 150 153 150 160 169 183 165 155 152 146 160 158 160 169 172 187 207 198 196 185 182 179 186 193 183 189 179 186 190 192 186 172 160 135 155 186 179 182 191 151 147 164 133 198 207 206 199 127 168 140 185 155 154 104 102 65 144 109 77 77 145 79 119 167 88 160 170 164 109 68 72 76 91 83 87 92 105 97 96 111 148 117 100 107 61 77 55 101 69 98 55 57 64 114 84 158 103 131 151 185 131 145 163 100 138 129 91 104 196 212 114 110 156 74 76 71 88 122 127 55 123 138 155 160 115 71 144 126 176 123 151 155 112 81 157 120 171 83 166 82 154 159 154 161 74 160 113 146 107 168 142 73 105 170 161 159 89 87 135 87 184 147 165 136 139 164 84 156 118 159 82 149 92 179 139 169 89 84 190 97 161 178 93 106 93 180 152 98 77 76 101 146 64 104 160 102 96 99 141 50 49 74 148 136 199 179 114 129 197 196 110 192 109 91 95 95 186 97 90 87 192 166 201 164 137 82 156 148 130 63 72 176 87 83 192 147 138 209 202 137 157 183 208 202 116 100 174 176 174 171 138 170 79 148 97 108 109 176 183 222 150 193 171 97 146 172 174 140 190 95 77 175 172 143 121 168 58 63 62 61 131 123 169 111 132 209 170 184 152 88 91 156 133 90 73 163 54 158 66 71 74 180 119 114 91 176 120 193 101 142 94 84 159 81 68 128 161 112 83 94 110 96 132 189 107 98 94 140 166 144 180 111 102 179 125 197 98 169 102 101 68 177 94 206 204 166 175 198 188 103 103 179 102 155 73 169 169 97 182 203 124 196 132 92 69 84 86 105 111 147 97 139 111 110 112 181 147 197 114 213 207 110 188 163 100 100 187 123 206 101 81 162 142 161 164 166 135 141 187 170 126 107 106 179 171 94 128 41 64 30 81 123 73 107 176 178 145 153 178 100 164 205 216 114 116 156 162 134 160 184 188 158 174 102 123 188 117 104 255 80 68 104 159 102 108 187 179 199 188 73 54 118 99 155 166 169 104 162 159 97 82 112 144 145 94 124 109 160 162 105 127 98 134 107 51 50 132 83 43 97 49 150 48 79 53 53 39 41 52 105 157 120 150 95 114 135 91 83 177
159 156 145 131 117 114 105 104 104 110 134 155 170 153 157 141 148 169 166 160 151 140 149 146 165 164 174 170 172 187 187 184 176 175 174 173 175 178 171 176 189 196 186 192 183 169 147 141 186 198 163 197 149 146 169 184 171 196 215 182 158 177 144 167 148 136 97 95 88 113 119 114 132 87 109 138 105 104 101 94 89 118 151 87 137 94 90 146 164 97 105 147 103 120 172 130 89 75 97 69 112 83 75 99 87 92 65 92 131 117 140 191 126 166 90 94 89 138 179 106 101 102 103 185 79 154 160 59 63 108 127 155 140 41 46 158 110 78 126 107 117 167 146 108 102 191 178 114 136 166 138 75 130 145 56 150 118 125 162 183 150 169 161 67 101 183 101 185 160 112 129 82 131 193 199 197 127 152 179 160 181 182 122 146 130 183 146 105 108 138 129 82 116 79 161 78 74 119 77 159 180 136 73 105 88 86 86 178 93 97 109 134 56 132 99 159 153 155 166 196 202 183 220 132 204 196 200 148 114 97 156 184 94 154 198 141 169 76 105 65 75 53 67 122 182 85 177 184 199 205 145 210 155 189 187 126 116 132 170 188 162 75 96 81 116 127 136 164 176 195 160 150 163 162 122 92 116 167 191 92 117 160 134 158 79 75 71 94 80 115 119 132 169 125 178 196 118 112 103 108 118 96 99 143 86 88 86 99 169 85 77 74 101 91 127 112 203 190 99 159 134 87 133 93 98 59 63 77 152 71 140 81 101 181 197 101 127 148 138 123 166 194 162 86 142 93 191 105 149 97 131 162 153 62 180 185 134 119 200 93 104 175 92 148 174 154 135 147 71 168 67 165 86 103 125 148 90 109 103 126 146 179 93 174 156 128 103 114 88 109 213 182 215 116 149 128 105 103 147 123 108 167 80 132 149 92 146 97 175 181 96 118 199 200 182 207 146 162 157 105 65 95 44 70 83 74 185 120 147 80 131 187 118 170 221 191 199 172 153 70 73 178 102 98 125 106 65 81 178 127 97 142 153 65 66 103 189 170 182 112 208 93 134 107 102 187 177 83 255 146 64 150 80 96 114 99 107 104 110 144 104 112 145 59 42 66 68 69 97 61 71 131 88 122 118 43 71 113 93 134 125 65 105 111 190 157 192 98 131 173 131 199
174 172 162 141 118 104 105 102 110 130 143 161 181 162 159 150 165 148 160 149 157 141 142 147 169 175 187 175 176 175 180 183 179 178 171 166 161 167 170 161 174 174 184 185 179 177 182 165 189 197 183 150 162 183 180 152 167 178 184 204 165 203 144 178 166 103 71 95 133 141 96 95 121 87 74 81 162 83 162 89 95 127 115 105 99 105 124 134 126 146 102 127 112 121 166 163 103 91 89 90 139 127 89 88 79 97 90 102 104 126 113 182 132 135 132 90 89 104 112 191 118 115 83 145 87 123 49 68 153 167 167 131 43 77 59 76 137 178 88 160 175 93 195 194 86 74 152 66 64 101 148 137 82 126 107 165 139 157 143 181 125 179 173 173 154 191 161 178 181 157 174 169 140 135 107 108 182 178 102 162 171 165 146 90 135 136 164 84 118 50 124 147 166 118 83 64 154 145 124 168 173 69 142 115 96 121 195 202 170 153 155 150 71 50 113 137 128 81 116 144 129 103 214 195 114 199 191 112 158 185 98 94 87 190 95 86 176 64 149 45 129 111 125 159 130 177 172 82 86 96 178 192 181 182 162 228 210 195 194 188 87 184 109 100 102 110 205 141 133 147 200 176 187 204 107 86 93 143 87 129 160 157 107 58 124 146 135 72 79 83 97 100 87 88 104 99 97 93 123 129 103 94 83 77 180 84 179 164 86 86 171 80 91 191 112 125 198 101 168 157 155 84 92 81 167 67 71 105 83 76 174 125 124 105 103 112 91 181 99 198 182 176 181 82 161 70 104 174 76 177 181 73 83 133 178 103 133 129 90 139 99 147 255 166 176 155 52 128 141 102 143 153 115 86 105 103 88 176 173 66 149 124 138 153 185 142 169 162 100 200 191 127 216 112 199 147 185 205 102 198 193 163 64 80 77 130 40 134 60 78 169 117 117 111 119 152 205 117 142 128 159 93 100 119 156 158 184 122 102 84 102 151 218 222 128 202 131 164 193 178 172 188 107 110 142 176 170 90 77 176 110 98 175 108 132 102 101 89 103 161 192 95 151 96 132 208 107 135 157 122 110 57 148 71 111 191 136 130 210 186 168 148 255 111 48 137 64 116 63 146 126 36 114 49 139 139 137 132 47 33 83 131 124 146 145 101 132 107 90 164 97 102
180 178 166 142 115 97 98 109 133 143 162 171 176 172 180 162 161 167 153 165 169 165 169 173 173 194 198 193 180 181 185 188 186 174 164 157 152 153 165 167 150 146 168 164 182 183 159 188 193 180 187 161 159 148 132 146 199 153 206 213 198 188 138 117 117 171 114 147 99 58 106 149 112 159 148 143 80 104 75 86 183 178 191 116 178 109 91 114 102 100 96 94 119 124 139 145 155 125 137 99 148 111 109 97 111 82 105 77 90 111 97 91 152 119 122 95 96 174 136 146 203 169 96 102 120 117 46 132 99 61 167 161 124 151 164 173 142 179 173 166 188 156 114 106 173 139 68 69 125 166 126 137 170 97 176 157 166 78 183 188 151 138 90 102 198 198 153 167 133 174 108 172 171 146 188 176 107 136 145 91 91 180 165 140 123 56 84 149 125 136 155 154 138 108 155 103 62 58 80 61 142 169 80 74 132 118 117 128 189 142 82 166 64 57 79 121 65 164 114 172 141 174 134 139 178 106 103 125 145 184 119 194 150 130 124 100 162 154 93 95 52 113 46 90 177 95 163 164 149 163 174 173 176 113 143 229 207 180 192 161 113 183 143 135 187 206 147 201 150 111 171 110 165 181 127 155 143 86 78 158 149 83 54 52 42 142 58 112 90 105 164 135 133 123 88 87 184 83 81 174 166 132 174 97 181 114 110 128 147 174 104 90 80 109 169 205 110 93 94 75 83 109 173 124 94 81 84 92 181 113 161 107 100 92 151 86 177 183 184 133 137 117 168 152 102 69 54 147 105 176 112 96 170 139 172 180 182 158 182 106 95 179 182 132 184 107 58 65 77 130 99 143 104 157 116 83 88 118 171 109 167 172 90 173 127 69 171 186 117 208 129 171 127 142 100 155 192 204 157 152 84 69 95 92 51 65 62 134 76 86 139 183 159 107 176 189 173 118 131 174 96 87 170 127 132 174 101 200 113 84 189 171 115 210 164 194 158 150 139 157 94 183 185 218 110 126 172 144 169 90 157 123 95 90 63 156 166 153 141 185 107 111 191 190 193 164 126 165 83 97 57 138 59 68 118 154 119 163 147 140 194 125 107 79 87 154 129 163 90 156 95 54 129 95 78 175 83 166 151 41 72 92 137 135 101 155 66 78 75 187 155 164
186 184 173 150 121 107 109 121 148 152 170 166 178 186 189 180 190 169 171 160 184 185 188 185 195 207 208 193 190 184 187 191 190 175 162 157 153 158 171 172 166 154 160 167 160 184 174 192 187 182 172 188 191 195 181 200 177 195 203 188 141 195 122 141 95 120 120 91 124 99 80 130 157 73 140 114 75 87 124 98 165 175 118 107 95 100 82 87 133 148 100 91 127 159 134 127 117 112 135 143 135 149 111 150 136 121 101 73 71 58 89 111 88 159 169 120 101 106 185 107 168 112 82 124 51 49 81 145 52 61 105 77 161 164 158 178 87 176 169 181 128 186 190 179 158 146 145 104 168 159 177 154 198 177 156 171 152 153 176 123 182 165 187 206 173 188 187 140 176 150 138 97 139 95 119 165 80 145 92 89 164 101 92 61 106 129 154 59 93 72 74 141 157 60 165 135 119 72 94 102 167 76 149 109 189 210 160 125 146 94 109 87 91 152 60 77 146 154 110 175 81 172 165 130 196 152 186 89 94 96 95 194 137 84 172 115 59 90 35 35 121 128 89 160 116 169 126 71 182 85 151 87 95 209 213 216 207 137 149 215 126 162 104 95 169 174 154 183 170 207 199 149 177 111 89 98 84 147 135 63 135 83 66 46 105 104 100 65 83 162 176 129 95 92 95 180 114 121 98 103 99 100 172 81 85 93 102 154 176 128 132 62 101 120 190 195 99 79 88 70 91 165 116 84 183 90 98 119 123 184 82 177 113 175 147 96 84 108 178 84 190 139 90 64 40 39 117 50 140 93 131 88 176 146 70 150 73 69 74 100 118 137 95 200 185 82 100 155 53 156 115 80 115 70 142 150 169 136 116 70 167 110 128 102 148 141 123 185 135 104 169 138 147 212 212 217 115 208 107 185 75 58 65 154 66 53 62 125 22 33 50 73 102 130 109 106 107 187 162 192 146 122 174 134 80 130 105 162 174 104 188 95 140 149 101 87 87 126 96 111 126 218 154 226 141 145 90 134 132 197 151 199 138 79 118 161 89 255 80 162 121 167 92 189 163 205 126 126 170 89 55 53 140 126 129 163 99 201 194 120 188 105 104 196 149 177 165 108 127 164 132 70 129 183 123 197 99 150 159 58 67 52 161 76 136 137 45 85 61 116 136 116
181 182 173 151 129 107 106 127 140 167 172 178 184 180 196 193 195 186 173 169 174 192 186 193 214 218 215 206 190 178 182 188 191 178 162 152 149 168 176 173 165 148 159 168 180 186 185 147 159 171 141 162 154 151 192 208 151 197 202 199 157 156 162 166 103 140 104 153 155 62 82 78 78 73 91 55 120 105 158 126 163 157 118 161 90 86 106 165 124 155 129 137 96 150 117 135 117 103 107 94 105 97 108 142 104 116 135 115 50 75 101 43 64 152 149 120 99 100 99 105 107 116 98 86 164 162 62 147 134 174 77 76 149 164 94 81 177 79 78 89 99 148 195 89 100 165 161 75 181 106 184 108 202 210 199 173 99 95 138 150 169 141 153 203 216 163 176 161 166 132 180 138 145 162 98 89 149 126 61 159 76 120 98 81 124 123 98 63 77 150 124 157 163 98 85 84 83 89 57 135 105 86 191 201 159 201 122 199 106 92 140 164 63 81 147 42 84 161 105 255 94 169 95 175 172 176 180 88 92 182 85 84 74 166 128 66 154 140 83 78 50 129 149 114 136 106 92 161 168 162 176 127 177 158 176 163 170 94 184 107 134 198 147 137 189 177 181 203 209 129 101 90 108 121 168 176 169 141 95 69 58 141 119 75 148 63 161 84 186 108 205 96 136 129 73 168 89 80 112 118 133 121 183 101 141 183 102 192 166 147 95 51 149 140 109 94 120 127 154 127 53 74 57 152 175 119 178 111 119 99 94 159 131 178 177 155 72 144 113 88 155 203 190 98 62 101 32 67 99 145 126 170 166 103 76 84 75 84 157 83 173 178 162 205 197 162 81 69 141 175 169 107 100 97 87 168 81 106 130 74 151 72 62 102 41 137 155 78 101 110 192 97 191 204 206 123 211 122 148 104 159 156 156 82 69 113 120 94 92 124 99 82 181 103 189 204 209 110 113 111 133 147 80 173 152 194 164 175 167 72 175 184 84 101 80 97 72 172 188 202 165 121 222 126 174 91 120 143 164 197 97 148 185 107 161 255 110 163 171 126 173 125 172 123 159 197 92 169 65 107 82 86 42 105 124 54 108 102 199 103 99 101 107 200 115 194 100 146 181 139 112 162 121 126 108 177 163 126 101 174 85 83 73 121 81 155 102 40 153 93 195 107
171 172 168 155 134 122 110 122 142 166 173 174 177 180 182 176 194 187 179 173 186 175 191 207 208 223 224 209 178 169 170 182 189 180 167 159 160 255 161 163 150 158 162 157 182 168 179 159 166 154 147 194 193 181 205 170 207 182 154 185 140 176 91 134 159 186 109 148 139 126 126 122 92 117 118 120 95 165 109 144 106 138 127 98 54 62 78 99 175 111 105 85 130 99 152 113 116 109 99 91 100 66 75 101 105 83 75 83 74 25 92 61 60 76 108 95 109 111 96 156 115 170 134 187 98 179 160 79 179 187 189 80 75 84 164 108 193 160 196 186 104 187 189 193 188 183 177 189 131 106 208 214 207 189 192 88 171 172 165 130 147 152 187 138 155 228 138 208 178 104 189 123 161 134 134 114 124 150 113 148 59 137 96 61 147 105 59 148 70 166 129 159 148 175 167 141 152 103 140 67 95 181 116 140 161 117 99 156 142 188 78 130 90 128 65 151 166 109 162 124 177 97 148 143 73 147 84 166 166 156 170 161 164 118 112 156 104 139 59 21 126 131 142 172 113 94 162 90 194 120 163 190 182 168 146 75 100 162 140 94 160 188 176 175 186 130 210 229 197 171 105 167 167 143 134 143 176 178 106 163 106 118 149 82 170 96 92 115 99 143 170 161 105 69 139 178 101 99 115 123 200 124 94 183 96 104 137 102 96 70 89 90 140 93 138 131 109 149 152 71 94 133 130 66 81 167 104 132 200 142 186 177 89 116 122 168 102 166 71 88 207 187 104 76 143 48 72 87 143 184 97 142 191 92 95 185 168 72 92 77 164 195 202 203 193 174 113 135 172 116 190 190 168 125 158 173 161 167 75 103 165 117 85 110 133 81 81 173 74 71 147 70 85 126 127 218 218 104 141 158 81 102 98 116 84 141 105 122 30 119 42 90 176 127 112 155 179 199 135 170 150 84 177 111 109 163 101 85 72 163 119 175 105 172 100 141 109 184 192 157 200 200 116 208 182 138 168 167 177 193 184 185 184 101 65 57 148 133 85 142 67 75 169 81 175 132 168 127 64 81 109 48 80 29 67 54 182 106 202 148 169 145 140 187 209 180 120 150 181 169 155 137 134 131 201 119 138 127 151 149 168 64 95 120 147 156 109 40 65 94 180 134
159 158 155 149 138 132 118 121 136 158 170 175 183 169 171 166 180 171 187 182 171 177 178 188 193 209 255 202 188 165 170 180 180 182 171 162 160 153 149 148 155 161 173 165 190 177 165 147 128 129 178 152 186 210 199 212 207 175 158 197 129 100 135 128 158 106 192 120 111 109 151 98 145 160 129 119 148 104 106 186 159 154 96 118 49 83 128 161 153 120 93 77 87 77 85 101 138 118 121 103 104 74 59 71 106 125 121 77 78 99 38 45 60 113 87 84 80 106 123 126 97 108 118 210 114 184 185 103 107 97 142 92 74 161 175 94 105 170 133 183 201 198 181 143 92 138 137 141 185 203 195 108 115 196 200 127 154 172 166 107 61 102 122 156 156 161 185 128 127 175 186 173 170 167 122 74 110 151 126 133 51 45 69 55 126 144 91 118 132 150 147 151 108 69 137 118 100 110 148 166 78 123 134 200 159 83 178 89 104 190 122 68 122 140 81 115 186 116 202 115 168 154 64 103 146 157 161 166 91 126 109 156 76 59 150 150 143 72 132 113 42 146 161 186 185 120 168 168 86 112 189 105 94 166 135 149 64 93 110 180 179 158 118 97 195 131 185 160 147 202 105 103 84 176 184 105 178 107 78 169 92 148 74 91 177 76 176 80 104 106 88 159 168 73 171 172 201 121 150 143 114 179 131 146 123 187 187 192 136 135 145 140 110 128 54 116 44 49 104 65 72 83 162 54 69 88 146 134 136 112 100 93 109 180 133 69 157 57 108 146 209 212 149 105 51 135 72 144 86 178 173 165 170 153 163 199 94 93 80 76 172 153 191 189 97 196 94 181 184 189 188 190 188 172 220 203 115 98 136 106 125 159 113 95 85 153 102 159 81 130 143 135 147 96 165 130 222 107 76 149 62 110 113 67 69 118 160 57 154 91 105 151 78 85 200 208 111 202 197 138 199 191 89 146 98 164 138 79 137 64 154 79 98 113 124 80 80 179 191 189 111 143 109 124 160 91 165 80 181 154 157 146 172 166 140 124 49 142 145 148 48 137 157 178 129 174 82 176 79 77 69 108 63 135 47 140 150 157 101 142 169 146 85 183 179 206 109 172 184 123 168 109 127 119 198 208 226 223 190 146 111 80 180 120 166 101 109 145 55 97 79 96
153 148 142 140 141 140 127 132 135 161 173 178 167 170 162 163 166 183 183 172 164 157 152 160 176 192 201 196 192 178 176 181 185 184 176 160 158 155 149 161 164 166 168 188 195 188 173 121 125 148 166 189 197 173 211 183 208 167 141 159 138 111 104 150 146 133 167 137 107 103 91 153 139 87 147 105 166 255 125 152 112 74 58 124 50 123 100 112 87 88 111 74 117 83 86 142 114 133 100 114 61 70 92 99 82 88 90 111 66 51 47 83 93 84 88 161 82 155 91 88 86 98 111 113 147 108 120 106 110 194 186 181 75 92 92 203 119 132 160 107 134 196 196 90 151 178 191 192 101 146 187 116 108 173 176 156 92 184 149 99 157 171 144 190 205 124 163 156 192 172 137 169 114 168 120 163 67 148 107 101 117 87 140 62 102 109 74 164 62 56 140 86 72 83 138 160 189 115 178 86 139 190 144 102 158 156 88 67 176 121 117 76 54 49 163 152 190 190 184 195 190 78 65 98 145 112 104 171 157 77 56 76 156 139 95 44 50 97 68 40 41 148 164 172 177 160 75 141 153 167 152 79 156 86 127 150 143 96 160 115 192 190 171 213 228 207 186 151 160 130 93 101 147 152 168 129 107 186 172 97 147 167 93 85 75 75 87 81 141 149 134 94 125 170 124 153 184 210 172 155 117 101 115 121 180 183 182 115 184 83 73 144 98 62 102 82 64 131 88 98 102 92 80 147 67 131 72 79 106 110 143 204 86 143 136 72 59 60 108 178 178 148 109 169 156 44 147 128 135 76 173 76 124 199 197 152 132 157 168 177 94 181 184 95 188 193 168 131 104 147 83 149 102 201 137 198 114 173 170 125 124 151 120 197 104 98 105 80 104 68 37 85 174 191 177 199 176 172 123 169 61 108 54 74 128 169 127 166 105 129 166 67 113 139 87 198 142 167 211 213 115 118 132 119 161 131 166 165 92 156 173 86 125 165 104 72 156 142 97 145 163 115 173 169 85 114 71 108 82 182 189 174 179 175 156 160 90 71 62 115 141 49 162 90 96 98 197 188 182 130 74 140 119 61 153 173 163 190 132 83 98 105 177 161 190 134 148 178 179 132 125 92 101 187 111 158 143 179 122 166 161 121 163 169 201 201 154 157 117 146 166 87
153 144 135 137 141 147 140 144 140 152 163 170 172 169 151 163 168 187 182 180 160 144 136 131 145 166 181 199 195 194 193 191 193 185 173 160 151 158 166 162 169 175 167 169 195 188 173 155 154 161 147 146 197 196 216 216 158 170 128 170 173 160 115 160 139 185 120 178 114 169 178 147 147 92 155 111 100 161 114 162 167 123 79 56 62 67 94 73 69 85 65 68 130 82 127 135 119 109 91 79 75 67 94 120 92 116 91 74 107 61 63 68 84 79 114 105 93 104 136 105 83 185 103 98 160 112 100 103 107 93 159 167 103 113 117 202 183 119 111 198 130 116 185 142 173 172 113 131 166 134 76 156 158 202 118 111 193 185 84 74 76 160 187 191 255 140 98 113 142 128 184 200 185 195 177 255 162 161 148 155 111 74 172 117 158 149 66 118 108 122 154 103 139 75 124 181 179 222 136 125 140 93 174 110 108 125 51 92 80 74 73 141 83 100 170 98 176 191 151 98 154 127 110 105 149 70 77 103 153 148 127 65 163 76 108 146 137 115 160 162 95 80 80 104 99 178 157 149 56 108 90 110 164 83 120 50 62 124 182 99 191 117 147 218 159 189 192 195 153 193 118 169 178 174 178 132 112 188 99 155 99 129 125 82 134 95 155 88 98 170 195 193 90 128 145 200 170 167 221 221 187 166 66 68 141 134 107 95 168 87 70 84 69 81 85 115 63 142 66 124 157 190 196 96 151 49 65 166 92 213 153 174 90 98 186 111 176 72 62 76 171 91 116 162 118 148 50 151 81 176 89 130 173 98 153 207 160 154 200 88 82 180 116 172 112 188 99 161 181 169 161 163 179 97 122 181 191 173 142 97 196 102 134 154 149 182 89 168 143 74 134 137 89 144 139 127 123 136 90 175 122 96 162 164 159 100 117 164 177 192 178 170 100 54 65 143 122 121 187 211 113 169 123 116 132 127 111 145 168 166 173 194 105 100 91 172 255 185 117 65 138 135 117 169 170 173 169 165 173 172 184 105 174 110 183 103 59 138 43 46 140 73 58 70 133 255 163 205 191 113 101 90 85 153 82 138 118 197 153 145 64 125 78 83 87 115 91 179 187 170 119 99 196 176 145 155 119 166 170 195 147 171 111 92 200 201 102 104 75 100 152 184
154 148 140 139 142 152 154 148 149 141 147 162 160 166 165 165 182 186 188 167 154 148 122 135 148 170 189 197 203 200 205 203 200 193 185 168 157 165 179 191 169 175 158 177 161 158 170 154 120 138 166 156 173 209 196 204 200 154 136 150 139 175 172 154 149 122 116 166 100 119 138 176 160 148 106 124 116 204 116 102 118 90 69 117 76 87 132 76 74 73 64 73 89 141 126 102 105 116 91 71 83 89 125 136 115 90 92 110 60 58 60 116 44 60 123 106 127 102 98 90 171 108 79 104 65 72 73 184 132 93 72 255 80 177 97 97 187 178 160 91 149 194 187 165 119 158 98 82 92 111 163 172 130 225 228 123 201 162 186 151 130 102 158 148 173 167 150 143 175 95 150 175 107 122 109 149 90 188 177 170 149 175 130 86 143 81 118 164 93 155 63 133 65 95 183 153 158 139 145 121 155 111 163 138 69 153 114 58 75 117 103 139 119 77 84 185 109 135 179 172 183 131 159 124 167 173 97 182 187 151 167 72 173 77 66 146 88 159 166 99 78 145 121 170 85 83 63 152 86 54 145 153 68 71 149 148 71 133 205 198 165 167 214 218 210 108 188 143 86 168 97 110 161 183 95 95 97 141 139 202 125 89 114 105 93 138 95 135 112 133 117 189 96 124 98 139 191 132 119 164 111 160 136 50 102 89 68 102 72 70 77 86 93 176 117 48 95 137 142 179 132 203 111 110 73 143 91 137 85 200 211 100 89 131 96 125 171 189 77 172 69 111 89 152 157 152 59 158 148 169 102 127 59 112 182 171 144 161 186 175 112 151 187 176 82 163 157 125 108 173 139 123 96 160 164 92 131 91 188 148 115 207 212 120 204 150 104 70 143 116 147 153 177 134 110 111 168 91 191 83 80 78 155 179 191 139 184 170 209 147 94 110 151 101 66 64 92 111 141 147 194 203 134 107 143 166 68 158 86 142 204 136 156 176 91 67 155 175 115 61 143 94 87 141 101 152 129 158 166 176 91 113 181 124 148 141 157 79 143 84 52 137 105 164 87 162 210 221 175 147 166 109 122 116 150 203 111 132 145 179 141 114 138 118 170 179 128 142 122 186 170 117 146 119 93 120 109 195 196 108 119 78 89 87 107 184 118 91 76 70 82 178
150 151 152 151 158 160 153 148 142 132 139 148 162 180 159 168 169 191 185 178 169 157 147 143 163 182 194 196 205 213 214 212 209 205 194 180 165 171 187 196 184 183 177 175 184 175 144 160 161 149 182 148 176 201 180 153 180 174 121 144 142 126 130 125 182 157 166 125 86 141 91 107 125 157 134 164 177 148 112 97 83 120 63 128 105 155 99 82 70 83 255 109 88 140 135 108 120 105 69 66 68 108 119 90 134 97 99 117 103 68 64 51 54 63 72 143 165 114 187 177 88 92 121 130 53 74 128 68 79 72 99 143 87 172 173 121 80 97 189 191 187 140 158 84 168 94 102 63 137 161 64 180 176 204 214 225 179 120 99 178 170 182 107 121 143 156 126 161 121 154 145 166 165 159 180 188 117 138 117 117 107 81 188 189 199 119 180 190 117 113 169 148 158 166 189 115 204 186 173 115 75 134 58 146 134 131 168 77 105 47 81 106 145 105 170 86 137 171 139 87 113 99 183 164 111 168 89 192 196 98 141 124 182 83 84 93 79 74 86 144 110 142 73 76 134 161 80 118 154 72 74 94 81 132 69 78 167 196 123 215 204 118 193 154 116 110 158 108 67 255 137 145 159 81 119 171 89 96 144 174 151 112 88 184 193 131 122 255 217 121 113 101 98 111 103 182 80 96 132 89 167 97 55 134 118 64 153 134 108 86 76 87 120 114 70 49 67 50 120 104 112 105 166 169 126 178 148 90 175 97 102 116 179 86 103 112 119 193 111 106 168 69 73 81 89 185 76 155 162 159 55 82 64 144 153 193 118 211 124 207 208 112 118 86 120 116 145 96 118 183 76 96 98 163 138 126 87 177 82 183 108 119 158 126 149 183 91 150 162 89 149 66 159 168 85 100 176 145 84 170 177 138 89 182 196 96 192 127 181 190 186 115 124 88 94 131 175 187 191 114 161 200 131 190 182 143 126 80 86 100 209 109 134 147 68 75 67 88 71 159 106 140 93 101 162 92 141 87 158 103 173 184 177 149 161 186 92 174 99 81 122 61 128 144 164 114 161 217 108 87 120 165 93 192 206 113 172 149 107 119 109 170 198 89 94 92 185 150 82 144 168 176 202 119 140 129 142 103 166 188 96 73 102 112 144 91 102 83 80 152 137 120
147 153 159 164 163 163 162 157 145 141 152 159 174 191 178 155 163 180 182 170 160 167 165 172 178 193 186 201 196 198 196 207 208 209 203 196 186 184 189 195 180 167 164 182 183 143 165 135 168 159 176 182 151 162 142 175 157 144 121 143 111 177 162 112 128 123 98 139 73 144 106 105 169 121 135 108 115 157 119 89 156 69 71 75 78 136 73 78 80 73 117 109 83 109 126 113 98 108 59 52 71 69 94 95 106 91 82 87 60 60 61 126 113 96 69 90 123 196 104 99 112 166 75 61 53 146 140 92 62 155 68 132 164 87 65 86 166 75 90 193 108 157 115 119 173 103 160 157 172 80 137 179 210 216 218 209 150 159 172 169 169 184 177 115 192 93 141 172 175 88 162 141 84 99 141 190 126 138 174 176 85 186 127 103 201 207 197 87 119 136 164 166 84 109 125 141 154 108 110 183 75 161 62 172 86 189 182 176 64 86 154 58 163 150 167 87 153 101 106 103 174 164 99 135 176 80 143 96 179 110 162 135 84 180 158 76 155 89 172 169 170 163 60 140 98 166 146 78 158 128 154 190 185 93 125 112 152 95 200 171 174 191 112 111 140 100 112 136 68 89 142 115 79 89 73 98 133 93 84 108 73 135 135 114 111 125 127 137 138 114 133 104 176 149 187 155 150 169 100 87 75 62 149 63 148 121 84 108 146 79 95 88 95 98 138 149 112 77 68 90 105 98 153 200 169 89 128 138 151 176 152 164 99 79 118 191 184 207 100 89 96 62 82 87 158 198 183 138 169 63 64 158 162 171 181 191 97 187 195 201 118 206 212 133 167 114 177 187 134 171 146 170 132 169 137 176 168 100 79 88 141 127 124 136 122 87 72 127 172 116 84 76 138 140 146 82 158 64 71 139 87 110 191 198 119 118 137 78 92 184 179 143 99 55 129 155 166 155 161 150 176 186 129 188 178 138 138 96 170 98 196 95 85 79 148 76 101 134 146 167 124 90 193 203 205 193 70 108 62 164 109 123 137 165 178 97 177 197 213 190 118 165 94 84 78 204 122 182 141 113 154 167 178 94 102 136 127 117 111 158 183 207 164 179 153 111 103 153 100 72 160 114 181 202 136 106 91 83 86 181 105 172 90 116 136 91 82 182 174 119 96 126
135 148 164 169 172 170 163 153 147 153 155 176 195 189 186 174 160 164 172 165 173 165 186 182 190 188 195 188 190 192 190 195 198 206 210 208 196 195 194 197 192 189 186 175 183 173 165 160 157 147 160 146 158 170 170 175 120 125 147 150 136 120 144 124 136 88 108 133 88 115 127 144 142 76 108 170 101 163 90 94 126 147 98 79 89 154 75 85 84 114 97 76 73 124 125 144 89 87 61 69 56 67 84 94 120 90 84 111 70 84 120 94 74 54 75 83 142 124 88 113 166 181 84 65 100 144 93 141 73 126 71 70 156 141 62 64 155 147 201 189 221 135 203 115 171 101 163 158 180 172 161 177 110 161 179 221 185 186 93 168 176 149 98 183 122 170 170 153 90 168 84 91 120 71 161 116 144 81 64 149 111 92 120 113 154 140 145 134 170 95 109 135 80 156 176 83 125 107 93 175 153 159 118 188 145 106 144 93 75 165 110 176 79 144 73 109 77 110 165 158 88 180 115 179 84 173 90 110 138 181 136 173 139 184 173 179 153 73 158 110 156 124 131 155 104 167 129 68 107 179 195 99 92 160 88 63 127 115 168 219 177 162 87 132 149 109 145 78 163 173 168 156 168 162 136 161 113 73 65 106 54 78 65 178 178 140 129 169 129 113 147 127 123 133 125 79 66 118 114 85 172 71 105 97 154 113 172 202 115 123 179 99 121 110 73 148 134 129 71 100 78 107 130 190 179 158 167 110 150 100 138 118 64 56 72 137 81 94 91 128 70 129 173 89 193 209 199 168 81 78 174 77 92 180 181 105 165 178 152 86 100 209 143 97 180 123 185 100 172 70 121 117 180 184 131 130 181 113 174 151 171 139 151 100 134 120 162 113 83 195 155 94 140 176 169 62 155 75 75 156 153 161 97 108 199 185 177 185 176 171 127 147 104 151 58 141 155 63 72 61 141 159 152 185 124 104 130 109 165 136 144 85 171 157 123 141 47 129 72 91 118 114 217 143 217 99 165 156 158 169 82 142 130 88 92 205 226 140 128 207 187 162 157 85 185 200 106 175 197 180 181 151 109 111 153 169 110 117 179 188 174 169 87 132 83 114 163 198 97 177 132 91 203 208 105 190 94 178 163 145 83 175 100 75 114 159 145 109 117 174 102 152
125 141 158 166 170 166 164 157 153 163 171 174 191 200 183 181 172 171 156 148 168 170 176 189 182 191 185 173 177 169 172 180 177 189 206 209 204 198 196 192 193 169 164 158 180 174 158 161 122 156 125 118 141 151 128 166 163 151 255 152 149 188 173 154 166 152 165 138 144 119 76 106 85 121 146 151 183 153 84 68 74 63 72 104 132 131 156 117 97 114 255 124 83 131 88 94 73 90 67 87 93 82 115 89 113 98 86 77 107 70 63 75 90 102 62 77 142 70 134 135 130 101 144 160 76 62 90 107 82 82 84 172 141 88 103 60 76 170 110 176 182 152 109 167 171 141 133 81 139 170 135 107 110 155 223 165 110 177 171 105 179 143 127 67 77 122 165 193 177 175 99 127 57 111 175 143 80 99 136 127 107 191 101 127 87 136 152 92 75 108 67 171 171 178 156 147 101 177 83 146 116 159 133 99 107 120 106 195 108 114 170 172 85 177 161 57 160 151 82 81 171 122 75 178 75 143 97 169 191 115 133 94 183 199 192 94 91 81 94 156 147 128 142 77 133 68 110 161 113 107 185 128 185 57 137 36 114 100 202 171 144 96 97 172 151 57 146 155 157 153 174 150 128 61 157 127 138 115 51 115 145 53 108 147 122 146 144 165 162 199 138 182 166 142 185 168 87 144 181 85 97 81 105 153 91 71 95 199 208 162 100 118 97 82 159 84 72 76 62 127 102 140 201 162 98 127 109 177 155 182 173 164 143 111 122 54 128 120 159 91 74 79 81 160 192 111 193 153 103 98 93 176 99 184 165 145 86 176 72 164 163 191 199 105 150 177 174 128 170 97 112 85 195 99 89 157 180 159 80 179 103 182 123 57 49 123 110 62 102 179 182 199 93 151 108 95 86 112 117 80 139 124 154 98 190 140 188 207 122 110 155 170 73 171 85 173 158 56 118 65 75 107 130 113 87 81 159 151 167 85 132 168 143 133 129 64 41 140 70 101 157 167 150 169 204 110 156 86 150 107 158 152 128 168 93 140 224 222 201 180 164 163 71 168 166 101 156 171 181 97 136 134 102 152 182 177 167 158 94 143 125 129 170 141 142 160 173 138 102 183 160 104 205 115 193 164 121 183 78 142 173 78 139 134 99 190 200 123 175 76 157 45
115 134 153 164 162 156 147 150 144 154 157 170 180 180 178 186 169 156 156 147 151 154 164 182 188 184 169 173 176 178 178 175 163 174 189 200 193 194 182 197 191 170 170 169 177 171 144 164 149 116 141 136 116 142 137 108 164 158 158 175 156 193 183 142 99 98 152 178 85 119 128 122 108 76 152 113 103 156 169 93 66 108 80 87 93 113 125 94 107 128 135 75 70 85 80 72 74 74 83 92 110 91 117 114 132 136 104 81 71 103 107 76 104 84 90 69 88 71 141 63 88 149 102 123 91 66 76 148 126 96 96 184 171 59 164 119 157 204 123 124 161 170 194 86 77 132 63 97 124 202 209 170 206 209 213 153 198 193 174 148 136 138 65 46 60 167 164 170 96 87 75 154 159 136 137 170 157 104 144 125 90 125 107 189 183 167 202 112 114 77 125 165 109 118 255 67 79 168 163 160 88 199 199 193 183 131 108 198 117 86 149 172 96 90 157 150 162 167 163 74 127 153 70 171 167 172 72 112 163 168 178 168 104 152 153 168 200 151 172 163 93 161 168 172 166 152 72 119 93 187 193 116 174 89 142 65 143 84 163 162 113 133 188 180 179 83 148 100 88 78 157 69 147 70 76 151 149 60 53 53 64 105 85 95 145 128 197 118 143 189 170 101 85 106 72 74 141 140 133 190 158 155 90 102 54 80 82 146 199 101 105 183 184 77 111 63 42 58 88 93 93 176 152 208 151 187 152 86 130 100 147 135 62 145 66 58 166 79 134 90 87 115 92 112 190 111 187 107 198 198 110 175 161 151 179 185 107 121 159 172 176 102 193 171 142 115 105 188 167 136 127 116 166 123 182 99 158 149 103 183 175 179 107 55 67 156 108 133 67 128 133 171 168 84 83 133 80 83 42 140 123 75 88 186 201 121 143 225 184 169 110 118 98 127 195 188 174 76 62 76 176 139 185 97 186 138 174 75 171 181 92 182 158 135 54 43 75 85 120 128 221 212 196 140 205 184 70 60 147 159 154 159 74 117 115 199 106 100 179 114 171 127 148 165 125 94 167 94 152 146 108 190 174 162 107 165 159 153 120 71 164 109 154 107 92 166 151 106 179 108 152 120 215 138 148 117 153 91 173 76 178 152 170 91 183 196 105 197 196 174 109 80
116 134 150 159 154 148 142 144 140 149 146 158 151 163 178 192 178 169 141 139 138 140 160 160 168 179 174 183 172 173 182 175 164 161 170 178 181 184 181 193 193 163 169 168 175 168 183 168 132 157 134 114 156 132 136 161 119 167 150 173 195 192 125 125 170 142 163 118 125 144 134 93 112 82 157 105 114 108 92 138 125 69 78 152 100 133 156 146 99 94 90 83 114 93 76 85 111 126 102 120 147 142 110 133 139 157 95 113 74 145 158 119 104 90 86 71 136 77 63 88 69 134 106 108 119 132 166 133 178 114 106 192 84 115 69 146 196 144 124 224 211 176 189 78 78 149 162 142 90 183 118 158 213 200 110 204 121 181 166 172 135 98 94 74 140 81 180 190 127 144 129 161 137 95 113 154 154 161 155 171 193 181 104 92 89 89 201 103 137 134 57 87 62 99 133 170 170 162 108 152 105 170 192 95 100 157 204 114 116 153 77 120 139 130 138 160 88 119 98 111 124 163 167 116 89 72 159 154 59 132 169 178 193 123 176 182 125 106 171 164 145 168 97 147 161 152 112 155 167 152 135 119 164 154 119 146 107 102 163 159 172 110 133 93 190 164 152 166 181 125 175 71 75 157 129 177 158 88 42 35 61 76 59 151 92 92 199 97 91 128 167 113 80 102 57 122 113 108 87 113 141 88 179 76 57 57 94 111 177 80 90 148 158 80 76 59 83 55 112 133 194 147 200 124 199 186 145 149 109 71 88 170 156 140 65 119 175 105 182 83 169 94 196 173 128 196 101 186 136 106 196 158 134 109 197 132 197 128 135 154 151 175 81 109 97 175 153 182 111 107 156 184 163 165 139 175 163 96 129 106 171 182 157 105 100 171 89 118 66 76 68 53 77 158 115 90 58 142 124 129 63 139 174 168 97 168 143 228 208 209 104 104 116 131 209 200 138 98 93 178 125 109 190 137 89 133 137 74 166 132 184 105 94 62 145 112 57 50 74 183 194 230 151 159 131 89 87 126 159 66 137 136 122 167 82 187 111 156 164 130 143 167 64 68 131 63 80 57 128 129 198 164 107 187 75 72 92 155 73 171 69 129 171 135 161 183 196 148 129 220 137 132 144 111 179 93 187 112 156 161 169 76 151 98 164 192 99 97 108 161 169 135
122 136 149 157 155 145 142 136 145 146 147 142 134 143 163 176 185 178 149 136 139 134 155 164 166 183 198 188 189 186 191 176 169 154 149 158 159 171 179 193 196 185 165 173 167 184 181 183 146 171 170 167 170 168 151 121 119 182 146 173 157 190 180 178 104 146 175 127 168 94 63 97 119 127 111 89 176 128 99 119 162 136 108 143 99 116 87 93 96 89 105 70 63 117 104 101 75 144 129 132 139 117 109 147 143 113 154 87 122 107 102 101 102 119 142 141 73 65 67 45 52 152 151 96 107 105 94 145 110 103 186 146 124 101 70 75 92 115 122 128 208 200 86 101 70 83 82 158 168 161 156 173 117 154 196 200 131 165 169 173 167 86 149 113 140 149 134 178 159 152 122 77 73 144 150 99 171 98 79 163 170 103 159 194 142 183 179 181 95 103 60 86 65 108 165 76 138 132 73 134 173 192 113 168 110 126 155 188 89 73 89 75 111 105 174 108 76 169 83 64 138 157 90 111 105 131 96 104 56 59 122 145 93 189 163 146 183 184 183 88 138 126 77 69 91 158 132 164 79 179 157 78 121 172 83 192 97 99 167 176 174 136 87 173 177 176 149 83 87 79 88 69 163 158 194 196 136 139 129 107 38 81 96 139 167 75 176 168 160 132 111 159 143 127 65 153 67 168 76 103 77 159 76 119 112 95 80 78 71 155 102 176 103 76 61 111 145 95 125 183 140 167 157 116 94 163 77 113 160 75 96 85 88 107 159 132 102 174 98 95 101 181 93 133 110 194 122 85 100 150 114 92 112 128 151 130 167 191 207 127 129 131 95 173 255 169 187 91 156 100 107 114 194 201 101 117 148 148 108 191 128 88 147 164 174 184 127 122 148 139 54 110 44 114 155 59 111 48 95 101 115 95 80 134 117 110 190 135 160 126 172 156 210 129 213 123 114 92 105 95 117 94 189 147 96 99 67 102 183 141 202 179 133 95 140 155 61 107 113 86 177 200 220 113 91 99 83 163 119 144 143 140 93 157 171 131 169 166 105 130 72 116 160 80 135 105 80 59 76 202 159 115 189 151 70 152 165 105 81 82 109 172 117 82 171 127 95 178 127 130 235 209 219 103 140 86 153 127 121 81 101 170 189 111 114 177 86 107 191 128 178 96
127 135 143 149 158 159 158 158 155 142 144 135 133 145 162 174 180 183 176 169 153 150 156 155 174 192 203 196 186 185 190 182 169 150 142 143 154 167 177 190 200 204 201 196 172 190 156 186 169 145 149 150 162 185 167 175 132 190 190 164 159 180 185 189 134 124 145 117 154 255 65 78 117 82 83 91 99 107 149 140 148 102 172 104 123 141 87 104 120 93 106 104 57 54 66 64 76 123 106 157 126 121 147 151 128 117 106 112 69 93 101 102 122 176 255 85 88 55 51 115 128 115 179 112 97 85 177 86 112 197 179 131 175 76 169 72 89 194 214 216 208 145 92 132 156 110 171 79 153 69 175 187 194 160 125 194 176 142 117 171 182 173 163 122 124 126 96 115 161 130 104 155 100 82 107 186 185 118 111 172 102 97 125 162 128 74 79 154 91 77 163 81 74 83 103 92 125 157 82 98 105 113 109 110 105 145 92 143 139 143 255 104 176 77 64 104 159 71 115 160 170 161 132 178 170 74 148 69 144 151 92 110 110 123 183 183 133 194 82 71 159 162 61 84 147 71 150 118 111 155 162 110 81 128 195 200 172 177 159 171 71 121 161 86 90 165 117 85 166 168 84 101 103 184 94 97 183 72 84 153 80 49 139 134 54 112 135 57 141 45 141 141 159 119 162 122 160 81 144 71 161 100 69 149 86 102 59 161 72 125 165 79 98 68 61 121 52 50 77 111 119 98 130 96 95 155 96 92 98 74 126 167 86 77 74 88 183 169 157 172 156 180 157 167 75 75 156 68 80 87 77 182 85 92 183 171 206 205 206 182 171 161 60 133 174 182 95 174 72 141 139 98 128 204 163 138 185 161 168 201 163 171 85 86 175 135 118 118 159 129 78 69 95 92 143 133 136 159 95 85 112 102 71 124 108 177 174 199 201 158 188 190 222 182 125 198 95 92 156 93 147 160 121 182 74 166 84 163 170 143 111 177 130 99 126 162 66 160 127 70 94 122 115 148 124 85 169 178 87 123 54 96 145 157 167 161 67 66 151 141 66 168 168 143 70 153 139 83 114 130 170 123 205 110 100 162 120 164 144 131 84 149 126 90 187 145 113 159 118 132 232 157 213 101 85 70 76 154 145 105 186 176 96 87 145 121 113 118 189 182 119 150
125 127 133 143 155 163 162 158 158 139 144 137 133 143 149 176 171 175 183 164 173 166 144 159 168 186 197 188 186 183 188 190 174 152 143 148 159 168 170 184 192 205 211 198 191 183 186 188 188 190 171 165 169 194 139 175 146 136 158 180 148 160 112 154 156 147 118 185 153 84 56 90 93 94 163 92 156 157 113 139 171 142 158 137 102 154 91 134 111 136 111 69 77 102 68 79 102 91 103 107 116 127 128 131 130 161 98 105 103 104 79 112 151 95 137 112 118 150 79 162 78 91 200 114 92 164 154 184 194 102 116 201 92 151 155 69 82 191 109 204 162 102 178 98 111 98 90 140 61 137 168 82 197 210 174 189 75 130 113 159 147 185 126 153 75 136 108 122 155 130 106 158 161 125 119 202 177 89 107 173 157 90 184 149 74 61 151 121 78 92 170 156 165 125 142 103 161 183 168 92 181 202 201 108 192 99 86 97 152 157 139 173 80 107 70 77 115 67 165 126 108 105 189 170 73 112 69 67 149 59 75 175 204 119 149 117 186 181 76 157 98 165 102 109 154 145 59 71 80 126 120 156 123 192 137 197 183 87 139 154 92 65 81 116 118 92 144 144 182 83 161 116 81 176 159 170 146 150 131 97 143 147 101 137 54 158 86 143 43 77 124 146 132 82 183 186 160 130 84 86 127 80 110 87 166 83 71 117 86 159 130 84 78 105 154 87 50 50 66 66 110 163 88 96 173 184 105 148 71 140 82 93 77 131 104 75 113 190 95 177 98 121 161 161 128 129 166 67 67 70 101 120 167 88 170 193 109 201 186 79 77 71 164 167 133 124 153 86 163 162 77 116 163 150 170 199 151 139 199 197 202 142 103 168 122 183 184 181 69 87 46 102 141 87 164 135 129 167 92 117 179 86 142 154 117 169 126 100 153 178 103 177 188 189 163 118 106 136 117 132 145 150 170 113 87 103 68 82 147 211 118 118 181 170 82 95 168 127 72 85 183 121 115 164 175 131 84 82 73 151 97 59 61 143 141 74 152 136 153 120 153 102 135 138 118 140 61 147 167 152 155 197 134 106 98 160 151 137 171 97 158 77 99 149 144 183 146 174 214 164 168 123 103 174 164 61 104 141 197 176 113 189 92 115 82 64 88 109 99 150 82 131
115 115 121 133 149 157 158 159 157 149 149 140 147 167 171 171 176 185 182 175 164 166 158 153 151 165 175 180 182 185 191 189 177 156 147 151 159 169 170 168 178 190 185 214 191 202 194 161 192 157 174 151 159 141 135 139 118 176 124 139 168 159 123 103 158 143 187 167 148 99 82 72 137 173 170 145 113 116 147 145 116 139 169 140 146 139 149 156 113 101 147 99 77 79 92 86 92 119 122 102 100 113 255 126 139 123 108 76 97 63 138 109 91 90 90 68 102 161 129 168 98 115 127 144 116 76 109 105 105 102 109 96 86 91 58 150 86 178 189 190 113 91 130 203 196 171 190 81 137 166 131 159 97 98 166 174 160 168 97 138 187 95 127 115 255 139 129 102 61 106 83 139 114 149 198 189 170 172 77 134 174 136 123 162 162 158 157 141 81 177 145 156 98 155 106 146 113 187 175 195 197 187 115 98 192 186 173 151 110 125 109 84 144 121 168 170 79 121 140 167 156 198 160 158 107 123 47 52 50 86 100 206 179 162 111 101 255 111 90 134 66 84 175 140 102 50 137 115 79 89 154 125 158 144 112 195 152 166 133 162 66 141 71 152 122 114 97 182 134 186 150 174 175 120 133 83 68 145 147 95 141 165 69 54 139 138 97 109 92 54 136 80 101 148 115 162 200 188 110 139 103 105 183 165 131 83 114 136 112 122 100 131 73 134 80 40 43 72 75 75 146 124 143 96 168 153 182 174 125 61 131 126 168 165 77 171 166 201 127 96 137 52 125 147 68 102 167 143 114 164 180 92 103 193 183 194 148 147 191 102 169 129 170 73 158 131 138 198 165 178 102 143 157 174 209 160 178 102 189 97 137 185 102 167 169 166 182 165 166 65 153 95 121 185 88 87 140 70 164 167 165 112 89 127 155 102 84 129 170 121 180 86 178 128 164 138 115 164 167 108 85 188 169 162 128 183 93 148 116 113 216 141 149 90 165 146 87 95 109 132 115 187 191 189 190 84 163 175 150 66 147 153 168 90 101 93 149 109 64 126 79 133 126 104 144 78 164 170 165 188 119 140 177 145 106 62 161 124 108 120 166 60 129 135 177 183 195 137 178 151 187 113 169 151 159 125 143 90 90 157 194 154 118 166 72 126 172 83 93 92 116 96
98 103 116 131 144 151 145 141 147 150 153 155 161 181 178 176 182 185 169 162 156 142 133 144 151 165 169 182 189 189 201 198 185 165 155 157 163 168 162 161 149 175 192 203 209 181 183 185 167 196 196 148 178 162 110 139 111 151 149 135 89 151 147 98 162 119 153 181 137 101 123 136 109 131 86 83 167 95 135 111 147 165 151 122 159 143 140 152 161 107 129 105 89 105 109 97 106 112 120 117 118 134 127 148 125 112 81 74 55 66 88 143 148 103 86 153 79 93 165 171 103 95 104 169 94 82 177 86 191 117 189 97 145 163 152 66 49 65 129 154 175 89 89 99 207 186 159 196 122 176 103 156 188 117 178 150 155 172 169 172 87 131 148 144 168 161 110 78 164 165 95 111 178 160 191 218 177 102 100 148 90 83 127 148 64 64 155 58 171 98 195 197 114 184 101 172 98 195 176 167 109 102 107 191 117 103 90 99 111 169 144 169 175 126 192 126 151 101 142 187 124 197 185 66 144 100 141 147 137 79 119 205 178 143 136 193 79 157 161 143 167 175 190 134 181 162 58 65 91 63 99 76 93 180 208 168 199 173 101 72 126 166 146 130 86 163 179 169 145 179 98 115 157 72 154 144 150 134 115 93 111 77 113 164 118 99 182 108 60 161 168 87 100 87 164 112 217 129 214 216 105 97 138 90 89 120 195 159 172 129 126 137 135 118 130 103 47 65 94 76 99 98 143 189 122 157 113 172 118 131 167 158 85 136 98 148 128 118 99 86 74 158 120 148 174 176 144 134 82 75 183 101 108 186 200 108 157 195 184 128 92 97 87 160 89 155 98 146 198 169 194 198 119 203 192 104 84 71 96 173 121 201 117 97 147 119 112 87 141 119 74 87 88 119 188 89 168 167 140 134 157 167 80 136 110 132 137 75 74 86 135 153 161 77 151 123 100 67 64 170 113 150 167 200 201 131 184 113 182 117 107 178 169 176 93 172 114 83 107 199 142 162 197 187 104 179 115 91 80 90 146 167 136 172 132 156 148 127 144 123 153 178 184 153 98 140 77 171 171 138 96 182 133 116 110 147 172 170 110 72 97 121 158 160 158 98 113 189 105 136 75 182 89 110 72 129 118 164 99 87 164 181 131 137 74 146 155 85 156 132 89 105
84 98 122 144 154 155 145 133 144 141 153 155 166 175 186 187 190 179 167 139 121 121 130 123 143 156 167 183 195 209 215 206 197 178 166 163 157 168 161 151 156 160 187 205 202 202 176 195 205 200 201 184 118 150 151 159 160 176 172 118 103 149 162 165 115 109 122 136 156 171 89 167 99 106 169 96 86 165 133 91 74 76 115 92 110 90 165 96 132 117 151 112 145 95 93 131 100 105 120 100 121 117 131 96 104 107 71 99 77 106 117 134 157 123 130 83 167 162 158 81 180 105 85 91 86 91 94 104 108 96 186 88 181 163 52 39 110 53 55 170 185 110 176 138 95 99 101 204 100 202 155 200 132 165 107 179 132 118 171 98 99 101 177 149 82 121 152 94 171 182 110 210 219 221 173 205 151 155 140 139 163 136 95 88 110 64 105 147 167 90 184 217 181 194 158 140 174 134 159 196 104 144 141 127 179 154 191 102 198 95 91 196 195 110 208 181 108 109 124 192 135 125 111 152 149 61 58 154 160 93 101 112 133 218 120 204 93 184 121 75 171 93 113 135 190 170 168 163 153 161 64 114 99 194 210 178 161 151 174 160 167 163 171 115 178 179 83 156 99 150 79 111 161 136 140 146 85 70 64 70 101 131 152 172 94 133 140 178 71 139 174 109 178 127 172 168 201 139 155 195 101 104 94 147 194 96 195 153 238 208 114 73 109 84 128 39 42 79 52 58 167 118 132 144 159 123 159 163 135 169 130 162 111 137 83 122 101 173 107 101 153 176 85 116 151 95 170 106 123 174 171 165 180 178 180 110 162 185 101 180 179 84 93 114 175 174 153 118 108 216 160 165 212 202 166 125 140 145 73 188 121 198 162 169 113 175 103 190 145 141 138 108 131 182 92 84 96 90 71 134 163 74 177 178 130 159 95 53 124 60 68 64 89 55 141 147 142 50 116 95 61 64 148 167 132 151 152 164 183 181 92 134 155 76 106 163 169 172 192 203 211 168 207 117 110 171 159 160 154 177 158 119 167 173 157 136 52 133 64 116 167 111 143 158 99 75 140 82 116 141 83 134 119 156 159 155 138 151 85 108 137 75 74 156 86 136 144 74 80 114 99 173 186 172 122 47 142 151 107 85 165 115 84 181 83 126 182 84 174 111 167 113
82 102 129 153 163 156 142 131 131 134 152 153 164 170 191 189 192 183 156 133 109 114 109 119 145 154 167 182 197 213 220 215 207 193 186 176 170 178 179 176 170 170 182 195 199 198 200 183 201 179 179 174 120 126 143 122 176 180 168 171 171 158 155 141 94 161 107 161 127 106 100 134 168 129 91 140 123 90 80 89 67 77 81 77 68 108 76 88 142 128 122 162 126 128 139 90 139 109 105 123 97 123 86 83 84 77 73 73 76 98 99 94 118 97 92 101 79 116 93 150 152 109 85 148 138 157 124 115 94 167 87 182 82 82 160 45 140 136 142 119 128 180 116 83 87 168 169 174 200 107 107 166 131 133 98 186 140 96 101 137 166 165 159 142 115 187 174 184 188 113 122 175 204 205 160 157 175 74 112 164 179 80 90 103 178 107 56 73 163 92 215 224 224 124 172 110 93 171 87 120 193 101 84 80 91 122 99 175 179 89 192 136 174 148 195 113 123 187 183 136 219 238 126 123 143 128 74 167 104 169 196 217 139 201 146 213 175 156 189 84 93 199 134 212 203 201 160 173 168 167 255 127 118 121 210 202 204 167 161 159 100 77 163 181 85 138 97 91 176 148 177 101 177 174 160 161 120 111 88 104 61 89 161 101 136 163 194 182 108 94 176 123 145 77 73 133 107 123 165 99 100 97 150 112 152 91 103 149 218 175 153 75 56 103 122 97 128 88 73 71 96 198 135 171 201 209 104 94 70 87 176 178 183 175 93 80 157 207 130 180 190 149 190 202 102 81 69 155 59 107 132 200 186 193 198 192 102 106 159 197 97 155 134 99 92 151 71 178 204 212 120 184 175 102 140 143 255 141 111 180 183 156 104 165 163 159 111 135 98 86 163 124 139 99 91 86 106 100 90 147 108 122 102 98 168 156 120 44 56 99 100 62 74 125 56 63 48 101 125 50 47 56 155 152 198 145 141 198 171 127 104 83 172 69 129 88 94 152 83 92 194 197 101 185 163 165 170 160 173 94 170 123 75 159 98 135 58 142 61 144 87 140 157 150 141 135 120 136 129 86 143 159 182 88 115 113 94 110 188 85 137 154 55 162 127 90 159 146 97 65 110 99 145 150 98 146 132 83 146 141 87 80 118 173 172 93 111 178 80 86 83 103
101 119 144 160 169 161 139 127 134 138 144 160 175 177 185 189 197 187 154 137 123 120 127 136 149 159 168 186 190 207 206 203 199 197 192 186 181 187 189 191 184 188 189 193 178 182 194 199 205 168 182 153 136 125 106 102 126 186 198 142 150 172 134 150 89 149 120 146 174 173 106 186 163 120 97 93 129 94 157 83 90 146 131 61 55 99 113 144 103 141 177 129 163 108 94 87 130 97 95 125 74 90 83 121 129 122 121 66 100 82 85 103 86 99 140 82 107 91 128 61 107 155 113 96 104 171 111 181 155 138 64 181 188 170 171 130 149 136 97 79 72 116 94 83 108 166 103 169 138 106 193 174 200 178 100 111 130 93 106 207 149 204 182 181 197 212 155 184 189 125 105 114 192 84 172 141 151 130 113 147 96 176 172 73 176 85 61 131 149 157 199 132 175 115 148 93 121 168 83 182 169 86 183 88 170 84 76 123 86 87 187 133 179 150 138 197 201 140 210 135 211 167 140 222 149 138 127 133 169 130 200 203 143 218 175 158 134 190 105 161 165 187 214 221 117 106 151 164 168 169 91 160 186 195 199 170 203 182 145 92 152 103 194 177 134 150 109 181 113 157 171 112 102 105 188 85 103 123 78 117 143 89 74 105 127 124 104 184 113 170 73 172 106 76 126 119 170 109 153 91 183 185 86 116 183 182 115 145 144 154 194 174 111 112 87 32 108 74 108 83 193 111 121 139 124 120 98 136 74 110 168 173 140 151 105 83 92 111 111 159 131 215 114 114 123 131 59 49 102 51 74 179 185 186 184 99 194 176 200 199 91 115 174 100 131 172 162 181 134 145 209 98 149 160 103 176 152 159 133 172 86 78 172 166 126 146 73 85 138 170 58 59 140 124 82 86 124 144 110 97 99 134 152 69 138 49 47 102 143 122 66 113 86 85 80 116 40 55 137 60 97 128 87 129 219 211 151 155 162 163 153 91 145 101 158 79 62 116 159 79 93 192 106 161 64 76 137 62 168 141 146 181 179 85 165 158 163 141 71 51 60 160 130 112 96 140 144 72 132 108 84 178 106 191 110 92 96 190 111 148 162 63 67 160 96 147 71 59 58 119 82 153 187 146 75 144 66 101 67 138 178 83 148 107 97 106 137 180 79 85 164 146
132 142 154 158 157 148 138 125 132 141 163 168 179 180 177 178 179 188 180 161 138 139 140 161 167 161 174 186 192 191 185 171 174 179 180 192 189 195 192 189 196 194 191 181 182 180 181 179 209 164 138 133 120 83 128 111 116 142 193 179 151 151 155 105 143 97 85 96 145 104 172 126 165 152 136 163 162 150 160 173 122 142 76 132 50 130 76 121 145 111 115 110 110 109 101 80 83 116 83 83 67 81 101 109 137 99 78 99 96 255 113 128 74 104 79 130 113 74 77 88 103 156 163 105 150 109 183 117 155 103 96 167 95 121 170 131 100 157 53 104 154 106 142 86 178 169 174 88 188 201 114 159 135 190 96 160 82 101 204 140 231 218 154 200 139 190 216 152 174 186 178 92 103 171 156 144 168 138 170 172 176 72 153 170 113 175 125 61 146 167 181 177 134 91 181 188 90 84 77 151 128 141 148 181 94 145 140 94 163 166 82 172 68 155 128 130 162 115 138 204 180 122 227 130 120 130 103 145 56 174 180 133 219 115 135 193 122 200 189 88 126 195 101 109 104 101 180 80 161 89 90 83 82 94 198 189 140 127 158 137 170 185 105 172 179 198 133 114 130 127 130 196 96 180 155 132 97 111 136 150 132 127 137 143 142 88 183 179 129 164 120 70 113 166 117 122 154 121 180 121 155 108 101 74 172 93 160 84 89 178 98 165 153 78 111 97 46 68 55 161 100 161 143 169 170 129 137 115 108 174 176 146 55 45 41 153 172 108 133 127 218 131 201 104 169 161 46 36 125 49 133 110 87 122 146 173 188 138 185 105 88 125 118 110 166 121 181 155 201 119 186 167 158 154 191 90 184 94 131 152 128 132 154 155 53 152 92 171 105 115 163 96 101 89 147 151 54 134 165 83 184 171 88 159 60 51 40 147 98 75 85 153 86 73 103 61 95 145 102 125 69 61 65 100 132 148 158 179 105 182 94 109 175 100 142 90 83 67 68 85 148 192 109 140 146 103 73 155 64 143 177 179 164 187 113 160 148 96 159 102 167 116 68 155 161 143 89 145 77 88 183 185 109 198 170 94 163 201 154 179 154 154 93 107 78 66 116 73 122 145 149 95 163 167 154 89 73 55 77 176 169 78 91 129 104 96 188 183 115 180 83 126
155 157 157 150 144 131 128 120 134 152 171 172 171 166 166 162 169 188 194 185 170 169 166 176 189 188 193 195 194 178 168 151 150 153 167 180 185 188 189 183 193 193 183 185 179 161 199 176 209 162 139 135 100 106 158 127 155 103 155 168 148 207 134 186 179 163 155 131 104 167 159 120 110 163 116 102 122 118 120 185 168 99 116 144 71 123 88 118 108 105 110 94 86 81 81 103 116 102 89 96 70 100 140 120 155 125 96 90 111 154 100 96 134 88 140 97 101 105 132 81 121 122 117 116 140 178 94 100 154 63 105 86 193 94 167 138 160 66 65 55 116 63 101 183 177 133 76 185 144 200 114 196 120 172 168 175 179 123 190 226 232 224 219 155 194 216 203 202 125 131 175 133 124 117 180 119 147 172 116 80 173 146 155 128 107 176 180 120 64 64 158 142 94 72 176 152 173 155 160 73 157 76 121 89 176 122 144 161 103 174 94 124 130 136 66 73 153 88 186 132 195 170 108 146 127 124 89 133 141 79 185 208 135 110 161 103 161 175 95 133 91 186 191 102 94 117 93 71 155 166 165 71 84 118 183 150 183 123 166 89 115 109 144 199 159 148 154 196 99 185 184 129 98 157 93 168 106 178 96 52 48 65 162 90 176 181 104 69 144 68 75 131 121 174 128 106 187 98 138 164 96 82 100 65 75 82 90 172 71 96 78 87 160 73 65 46 57 137 88 120 57 89 96 184 119 169 207 116 94 118 166 155 74 115 45 64 183 115 175 213 224 197 131 139 89 155 133 68 139 84 62 70 90 96 98 123 137 137 207 194 195 169 83 174 172 150 124 173 184 184 185 98 177 101 112 186 183 144 192 101 157 124 171 157 120 150 101 162 162 65 169 79 153 94 126 71 93 158 163 72 161 144 94 161 113 80 48 106 78 126 150 180 185 89 86 48 143 124 89 162 166 121 164 199 188 212 200 196 89 96 120 204 107 194 175 86 68 83 174 170 140 190 103 134 49 136 136 142 62 152 90 112 189 149 180 193 192 185 164 115 162 140 86 90 188 104 157 111 165 173 171 89 145 140 174 97 175 193 180 149 148 182 167 137 149 57 99 158 72 79 168 161 89 111 70 77 70 156 123 174 154 96 152 79 144 92 98 118 93 168 132 97
157 158 153 145 137 121 114 119 134 152 173 177 177 156 139 153 160 191 207 207 203 194 200 189 196 204 207 207 199 178 151 134 133 136 151 161 175 187 190 187 168 186 180 193 185 186 199 193 203 192 156 129 105 166 143 154 140 113 161 196 180 203 201 185 180 154 157 154 78 112 113 94 72 157 96 130 180 95 115 152 135 115 96 101 102 152 121 103 108 162 110 74 73 65 101 71 99 63 63 70 113 104 137 169 122 104 107 97 105 133 121 92 104 111 255 155 111 111 157 147 183 101 129 186 128 145 72 139 60 147 72 90 193 203 199 173 85 175 162 118 133 81 173 171 142 152 174 84 184 194 122 205 171 178 164 177 255 185 195 174 227 216 169 213 121 204 164 206 180 164 151 186 141 165 169 193 122 148 165 85 119 128 151 89 174 164 111 132 153 93 123 135 129 154 167 114 179 178 163 86 130 164 118 106 85 132 197 111 165 140 57 66 113 128 123 170 156 84 83 143 86 165 146 155 133 119 63 60 144 113 88 197 198 99 150 159 129 65 161 182 167 146 158 101 162 65 74 108 156 156 85 90 151 158 138 175 126 121 124 97 160 184 132 167 169 204 189 184 157 126 173 170 184 154 156 165 144 118 80 68 107 49 157 103 112 143 105 65 127 92 94 88 90 151 103 90 82 92 81 123 66 119 61 77 127 91 97 76 113 72 122 87 86 146 154 104 142 51 33 55 88 116 133 103 113 164 114 160 103 145 178 102 99 106 150 67 102 103 115 147 186 108 160 179 109 169 118 135 148 116 142 103 155 111 153 153 169 190 155 202 103 159 99 136 107 172 164 175 198 176 127 85 94 179 162 137 106 112 165 140 132 167 167 106 66 126 138 61 68 135 108 167 111 169 116 113 161 72 79 120 90 160 139 169 148 159 113 73 80 188 189 142 140 94 101 58 151 137 95 163 138 125 110 192 171 140 202 183 170 157 205 207 195 209 161 128 94 148 86 97 196 177 182 70 153 111 68 93 160 177 184 85 162 104 179 154 122 152 191 155 128 188 97 199 163 137 89 80 112 169 175 177 120 199 164 98 160 120 139 210 201 179 73 60 130 54 67 148 176 148 182 161 178 71 135 143 143 70 127 129 115 63 99 120 126 131 126 140 109 81 107 70
138 143 145 142 132 118 109 118 137 160 178 174 170 154 139 139 175 190 219 229 210 217 199 201 203 210 212 215 205 181 157 137 134 132 139 148 167 183 189 188 177 178 192 198 189 179 177 171 181 183 187 134 176 145 128 174 165 128 150 153 179 202 194 150 111 133 94 139 138 140 109 153 83 71 110 93 108 79 157 100 130 108 94 153 157 107 161 111 108 152 85 77 69 73 98 96 73 83 85 79 99 117 147 126 111 108 146 90 129 102 130 127 170 105 104 147 103 170 107 108 108 157 94 142 143 64 99 66 135 144 92 104 137 204 115 116 132 193 94 182 97 154 175 86 161 150 121 183 183 173 180 190 211 160 159 175 144 152 255 215 157 193 123 173 119 203 192 206 177 177 144 102 151 204 200 187 140 255 96 166 77 125 103 170 159 180 181 90 141 41 115 108 32 137 62 87 119 140 158 61 255 107 144 159 186 194 157 106 146 113 146 69 130 50 143 104 98 99 179 125 109 148 167 107 163 109 162 71 153 153 163 98 118 110 69 154 82 135 161 149 144 131 149 172 146 72 114 93 80 169 63 66 48 161 111 153 159 127 138 175 158 113 147 180 142 206 163 195 125 177 184 161 175 164 154 90 145 79 123 156 136 51 164 119 150 163 110 101 108 61 87 120 102 105 100 92 135 104 158 69 157 86 67 55 76 161 168 126 175 78 77 163 127 113 193 176 146 75 52 65 124 91 114 141 178 122 165 117 103 180 85 65 72 138 157 82 172 158 181 211 114 128 110 168 92 130 83 169 167 157 168 178 98 63 118 97 63 159 184 186 108 181 160 162 107 145 198 100 106 137 73 169 160 166 76 172 190 160 169 105 107 159 164 161 153 82 166 169 124 106 134 207 214 121 210 106 190 167 170 105 153 131 82 95 87 97 171 155 113 90 161 128 166 138 88 119 151 95 146 67 156 104 177 171 216 110 98 146 64 177 138 155 187 202 157 99 170 85 97 126 185 131 88 170 143 116 156 163 102 145 104 149 176 99 76 171 108 115 209 120 113 104 163 146 201 131 136 159 151 171 87 175 185 172 137 111 131 119 156 124 194 164 150 122 92 113 85 154 88 191 131 84 83 142 72 104 114 52 51 120 119 70 103 134 119 63 137 116 80 77 57 135
121 133 146 145 135 112 107 116 134 156 164 168 160 133 134 143 163 194 211 216 225 219 211 191 203 205 219 218 201 177 163 143 138 140 146 162 169 186 182 182 174 185 183 196 186 156 172 162 186 180 200 161 147 164 140 132 175 145 157 153 159 161 122 106 165 159 101 98 109 109 141 154 152 96 142 142 68 139 136 97 119 139 94 88 134 84 109 110 132 144 99 95 111 74 82 75 71 70 86 90 130 135 127 118 144 86 98 92 93 108 140 128 134 105 105 117 104 100 122 108 167 176 157 91 90 110 58 149 54 74 72 89 134 106 202 133 198 204 114 148 201 104 105 84 148 162 77 94 83 188 202 179 128 140 189 129 152 141 193 211 187 158 171 147 186 140 135 142 142 102 111 121 172 107 184 147 172 133 106 119 136 153 79 101 173 106 79 91 69 88 65 72 102 113 71 148 53 144 113 74 86 116 165 187 193 183 185 105 96 121 255 114 140 71 97 93 96 94 197 136 162 80 70 105 161 115 162 141 58 82 91 173 111 88 155 105 111 149 169 94 137 110 204 159 165 181 177 87 189 171 77 150 90 164 153 193 159 146 174 142 136 170 89 187 88 143 142 105 129 118 135 198 126 183 128 255 90 141 87 77 78 104 72 148 167 184 193 145 113 110 87 182 108 114 118 194 90 76 165 164 67 93 55 107 66 65 160 74 75 76 118 177 201 162 111 112 118 70 78 45 66 65 108 101 81 133 142 159 172 88 108 159 156 67 137 128 153 107 103 135 203 106 182 186 141 182 185 166 143 107 165 132 141 110 68 125 157 86 144 159 85 82 145 58 104 72 87 81 165 174 113 130 147 85 150 90 177 192 124 108 81 156 103 182 191 100 93 106 97 166 199 212 138 215 136 138 203 171 177 71 105 125 63 57 122 85 76 113 75 148 141 172 214 110 129 116 95 73 148 158 83 168 94 187 130 94 124 54 97 76 176 111 183 190 199 196 181 120 93 162 121 194 196 147 115 101 122 93 97 191 172 176 164 105 75 192 210 134 114 197 189 87 187 96 143 192 84 77 106 166 74 70 79 181 152 83 168 103 107 94 185 78 111 138 151 60 76 128 126 155 148 119 147 92 86 163 160 83 50 139 58 51 57 111 118 62 161 91 153 85 115 70
113 129 147 146 139 120 117 126 148 162 162 158 142 140 138 147 169 190 213 205 197 188 192 197 200 201 217 214 196 185 172 163 154 157 165 182 188 198 190 172 170 176 186 191 183 173 136 171 149 196 201 191 199 177 183 187 119 130 176 179 129 178 137 135 141 146 108 145 131 75 113 158 153 125 121 78 138 113 137 83 97 94 158 122 86 102 144 111 106 108 141 87 97 83 92 111 83 117 74 116 141 131 128 131 90 83 106 79 76 134 121 93 104 131 135 176 158 92 116 109 156 184 151 100 88 129 55 47 144 67 83 111 125 164 90 197 158 202 139 133 202 130 199 191 92 177 135 167 98 179 98 176 130 155 182 173 81 157 98 107 195 197 138 127 175 130 144 158 114 92 173 182 190 112 102 169 100 120 94 173 115 156 132 88 176 79 162 123 143 71 64 62 160 66 80 84 126 78 115 158 171 143 118 179 106 183 148 166 128 161 102 89 114 123 177 191 157 177 136 116 155 183 68 157 127 70 53 68 151 62 149 101 86 87 157 166 148 154 79 182 198 155 122 209 166 194 181 190 175 178 136 65 149 119 86 86 127 173 179 121 184 99 148 182 144 81 133 92 104 184 161 196 173 110 108 89 183 144 131 122 115 114 72 168 156 102 88 90 131 87 88 145 118 184 210 151 127 83 171 98 102 109 49 60 85 71 130 81 93 149 143 123 165 130 209 98 136 87 107 87 92 145 99 154 172 170 82 90 137 182 130 171 135 88 75 81 93 188 194 195 91 106 185 103 199 204 121 135 117 165 90 142 189 116 158 56 127 137 123 91 152 97 142 151 144 140 156 118 77 172 114 79 84 128 174 183 190 113 140 176 86 93 175 168 149 152 190 109 98 159 162 162 121 176 112 181 201 109 139 110 64 50 61 62 66 174 172 68 54 143 189 207 116 201 92 121 115 177 148 185 143 106 151 102 105 105 122 154 52 160 130 98 137 167 144 194 153 165 163 192 147 192 191 134 201 151 190 94 175 103 180 153 154 165 151 195 159 109 146 175 190 124 146 187 92 101 78 156 95 140 66 163 84 89 176 160 111 188 186 114 164 81 124 139 89 71 95 86 126 98 119 161 84 88 126 133 84 95 127 116 65 160 156 154 101 70 79 153 85 61 159 158
117 133 151 155 148 134 128 146 154 168 162 141 142 125 130 146 182 204 203 201 187 185 174 184 198 201 211 201 182 183 180 174 168 167 182 202 213 212 193 172 151 167 177 181 184 170 157 159 174 189 185 147 180 147 146 181 130 132 157 169 133 160 100 75 112 135 64 68 136 140 151 133 125 85 147 145 70 148 133 86 127 137 85 85 102 118 118 89 169 165 107 119 88 76 116 103 73 71 119 114 90 98 124 102 109 102 97 107 136 99 84 99 102 109 164 162 99 96 88 150 117 89 79 60 147 134 118 45 101 64 69 78 165 176 179 160 189 185 96 174 109 208 179 89 172 155 179 86 85 194 99 111 154 116 129 165 116 137 186 201 143 187 104 129 117 98 184 186 102 139 129 161 138 190 196 130 169 159 172 105 107 107 146 179 85 101 149 83 187 134 96 190 178 187 141 73 60 126 77 118 98 98 170 170 148 134 86 177 85 162 117 141 205 175 101 152 90 165 188 115 180 97 144 158 76 148 46 139 47 59 159 131 164 255 166 174 165 79 158 71 135 180 222 216 165 202 197 169 178 85 115 90 108 82 177 154 85 170 162 178 187 189 97 93 175 153 105 98 107 111 177 201 175 110 124 86 113 100 174 182 191 182 69 158 80 173 80 163 185 196 170 161 122 203 165 151 199 104 91 177 87 54 54 165 160 88 100 185 105 182 94 163 201 138 111 91 89 148 150 103 171 143 89 100 145 95 94 141 163 84 129 97 72 72 170 115 180 79 81 178 179 167 165 160 189 204 181 117 95 87 94 151 101 153 165 160 80 110 98 97 151 137 141 67 92 51 88 71 179 86 152 76 160 96 169 91 161 177 181 194 189 171 133 209 138 187 115 164 174 109 109 160 129 169 188 160 185 142 114 122 164 63 110 115 70 159 148 93 139 133 95 179 98 153 176 183 92 195 153 185 130 122 72 124 138 66 68 161 151 165 94 110 185 172 193 108 95 181 197 112 189 101 180 194 195 128 195 189 85 88 105 82 71 101 125 192 104 192 182 149 163 183 89 101 117 126 93 146 128 153 116 136 118 171 83 184 167 181 151 77 155 166 155 110 181 112 90 108 126 105 83 159 135 167 95 93 77 118 143 105 113 116 189 94 87 89 115 73 73 125 160 166
115 128 145 150 152 150 155 155 162 160 149 136 133 139 152 170 190 194 209 196 179 154 149 172 188 202 194 184 171 174 176 177 174 175 187 204 209 211 183 176 164 166 161 181 175 188 172 177 153 172 140 137 166 151 156 166 97 135 140 166 170 119 103 116 66 142 134 116 120 72 121 104 101 105 88 75 61 81 142 83 80 141 81 79 104 92 98 164 111 119 150 103 82 125 78 68 66 66 114 72 85 96 106 127 108 111 88 106 101 100 93 98 101 119 105 111 123 181 130 75 85 74 132 136 40 31 48 75 155 126 172 171 105 88 115 184 186 100 175 178 124 189 191 186 165 86 78 178 98 196 195 200 185 113 164 109 76 96 151 154 175 138 157 166 181 120 170 128 133 140 84 175 108 145 160 141 162 182 110 180 178 183 85 89 96 190 89 116 103 154 112 101 109 123 182 168 94 143 149 154 185 172 77 166 65 151 73 84 168 185 156 168 155 209 167 73 102 101 182 193 178 139 73 72 101 140 143 140 109 145 125 104 175 175 81 181 173 61 52 148 182 106 159 212 204 103 170 165 96 133 158 68 106 79 74 153 152 155 83 75 114 149 194 132 176 123 154 160 76 136 104 167 152 187 185 158 86 106 84 183 182 99 152 114 52 122 78 112 148 112 142 208 151 210 171 204 127 181 172 171 134 80 84 77 139 99 110 115 119 101 96 191 137 201 165 187 107 94 146 166 86 119 94 107 118 85 149 162 120 77 77 80 75 82 116 126 179 93 78 111 159 153 75 186 168 208 154 114 186 122 179 85 118 187 101 160 66 69 162 177 175 128 73 110 176 150 136 149 181 162 123 116 163 166 92 174 152 155 188 192 138 203 193 201 117 166 97 118 169 121 97 106 184 176 132 169 180 155 105 144 159 67 62 138 102 133 79 134 91 105 118 101 172 170 179 117 173 167 174 177 155 100 70 145 56 148 133 87 165 153 186 109 190 124 181 181 130 194 197 131 185 192 115 93 123 95 106 173 171 132 86 98 77 163 172 151 166 154 184 162 161 93 165 144 131 118 88 98 160 153 104 97 194 100 188 139 82 152 127 155 158 119 139 203 110 103 155 75 55 124 155 66 99 148 156 75 153 64 132 87 72 126 114 191 99 84 74 60 77 81 97 108
105 117 133 143 153 156 162 168 154 147 152 139 138 152 161 175 197 194 199 176 163 134 141 162 181 196 184 169 155 159 171 174 170 172 182 192 199 191 193 186 177 157 173 180 191 192 155 164 181 151 181 134 136 170 144 119 100 146 136 120 127 109 110 151 152 80 147 160 66 141 104 159 166 108 117 255 78 143 104 94 86 74 66 72 104 109 104 93 96 161 91 89 84 90 100 61 57 60 75 70 74 76 106 123 112 81 129 62 86 70 150 112 100 105 120 155 169 111 164 77 55 140 40 30 26 68 50 153 93 81 188 103 174 127 181 164 183 186 174 170 119 169 171 177 79 178 117 79 187 193 182 202 176 180 143 66 147 128 165 136 178 167 145 173 190 141 153 108 114 123 179 173 172 122 193 207 152 132 174 90 117 116 199 192 195 93 196 170 127 152 144 184 133 163 157 144 155 116 96 151 96 92 78 138 70 110 134 101 115 97 130 176 99 188 182 112 153 117 71 176 157 151 105 151 149 166 51 77 142 155 115 186 95 104 190 95 168 99 61 72 156 99 156 205 134 190 186 171 181 177 91 83 75 172 165 149 98 136 165 175 127 149 141 202 183 166 155 176 110 151 107 96 76 103 139 76 148 142 129 175 161 82 120 64 100 77 166 172 135 187 116 106 157 106 136 104 150 125 90 174 95 84 91 90 102 198 139 201 98 122 193 146 110 100 119 107 88 168 159 95 104 174 177 165 73 69 102 96 92 161 68 87 104 162 99 70 110 111 178 161 72 168 117 190 177 127 222 116 202 89 161 67 147 153 176 86 82 77 104 123 179 177 90 160 145 114 97 163 184 182 186 183 111 179 177 183 96 187 157 85 171 103 115 222 125 129 181 105 86 137 187 149 80 147 90 142 163 147 200 149 110 106 83 134 108 101 77 136 82 173 106 111 162 80 88 94 106 187 123 92 109 169 158 102 119 60 179 165 196 124 120 89 153 131 119 181 82 184 149 201 179 153 187 136 98 117 100 72 103 170 84 72 164 156 181 84 93 181 171 98 98 94 127 83 180 169 177 143 64 65 173 110 116 137 124 173 102 140 68 103 170 134 136 131 123 96 175 82 108 125 85 55 112 123 85 128 170 139 76 88 103 154 171 121 92 99 68 59 79 118 154 185
89 100 117 133 142 152 160 159 144 138 134 142 156 165 164 171 187 186 190 172 149 144 140 167 186 193 185 180 162 162 164 170 177 173 175 169 177 181 194 192 186 180 182 191 200 186 168 169 174 175 151 132 170 121 163 162 139 135 117 177 164 181 171 95 141 155 126 86 111 147 158 113 147 152 90 91 105 122 99 94 111 70 61 65 88 126 134 90 116 83 101 84 106 87 56 58 85 83 83 102 88 69 73 100 81 103 74 80 65 102 113 111 130 97 132 151 105 171 77 102 141 98 74 46 66 32 135 137 109 118 119 114 148 200 166 195 145 191 168 164 83 82 145 78 162 165 168 93 107 177 186 193 194 113 104 127 65 71 85 145 175 197 136 139 151 123 87 158 153 156 153 179 103 189 163 190 137 114 72 159 191 108 255 125 195 185 120 107 155 106 81 139 90 174 171 119 161 122 168 172 129 163 139 56 61 95 158 117 88 143 182 108 99 83 151 132 47 120 134 117 128 83 185 102 197 177 124 119 46 100 84 135 182 187 213 195 181 110 93 41 134 144 151 149 122 143 120 113 187 178 90 114 179 173 137 72 145 126 100 102 187 98 183 141 195 130 97 107 49 125 69 162 168 88 151 172 173 116 157 138 87 107 109 73 74 145 127 103 176 182 157 138 123 145 191 166 82 110 194 124 139 191 100 104 121 110 201 167 155 183 112 197 119 186 176 141 92 178 103 79 126 95 101 102 157 142 120 169 139 78 142 51 152 150 147 176 153 170 151 85 98 174 107 95 169 203 193 114 115 74 163 89 163 83 157 131 179 91 80 176 102 189 196 109 163 101 169 126 78 170 150 148 188 116 114 118 153 184 175 75 176 152 107 171 213 111 122 182 186 114 174 154 163 172 91 163 148 142 178 207 178 107 95 123 196 161 175 85 105 162 165 192 93 69 76 88 196 102 205 96 190 143 106 62 141 77 90 150 193 108 191 175 185 179 181 154 172 136 140 163 116 91 163 130 128 55 141 84 137 161 140 146 179 180 147 151 91 156 109 105 165 181 255 117 99 126 102 184 102 138 88 178 108 82 71 125 120 255 68 129 84 182 99 171 153 120 117 75 104 89 90 130 56 78 157 134 150 164 155 182 158 125 207 206 140 138 142 154 83 95 88 97
80 92 108 119 132 139 149 142 145 143 148 155 162 161 163 172 181 188 181 156 148 152 154 182 205 213 206 195 183 177 174 176 183 177 173 162 167 175 194 200 184 184 171 197 205 194 175 144 130 180 183 178 175 129 172 171 138 140 157 147 151 170 126 123 111 156 116 154 107 128 108 142 183 110 158 73 40 67 55 76 70 82 85 67 71 93 84 89 93 75 119 83 110 78 112 77 93 68 86 65 60 81 69 117 84 68 61 121 82 88 112 82 79 115 162 161 113 133 170 119 64 64 55 49 49 151 74 157 98 199 171 193 198 136 221 221 161 96 150 163 145 130 155 124 165 168 89 80 104 178 137 197 107 97 121 150 163 127 126 132 75 150 186 200 123 194 187 118 123 184 102 120 167 174 157 100 100 75 128 86 146 172 127 156 113 149 128 176 97 126 107 134 95 121 80 106 170 76 163 173 92 152 132 164 83 57 112 81 79 84 145 54 54 54 164 63 155 148 74 172 100 154 107 125 177 186 135 79 142 147 173 161 167 223 225 126 109 179 151 120 99 84 169 184 176 174 149 118 172 110 128 87 141 76 68 160 109 81 78 183 182 197 204 108 186 159 123 96 123 64 55 115 172 161 185 129 154 171 74 100 98 94 94 105 175 92 177 105 175 177 84 112 198 100 188 100 121 102 130 152 188 207 255 110 168 193 106 90 130 138 128 159 92 89 146 123 157 101 85 113 185 176 105 186 108 159 148 130 151 109 124 91 70 58 142 83 86 94 179 78 80 179 164 173 109 103 179 94 184 137 75 111 117 185 133 84 185 114 196 126 134 90 115 130 150 138 161 127 156 163 76 149 192 191 195 156 114 140 110 79 172 106 192 186 175 143 192 159 183 135 142 99 151 164 86 189 174 142 197 114 195 139 100 199 184 154 155 159 179 117 126 171 166 164 122 125 87 146 191 209 202 178 163 129 87 84 181 160 126 180 181 204 190 168 99 177 88 172 70 159 86 176 107 127 148 78 59 85 120 135 139 80 146 186 120 129 127 117 182 94 165 96 204 110 114 116 134 99 84 96 156 143 164 170 157 51 102 78 101 120 194 157 191 174 146 195 147 107 67 156 131 123 77 173 123 125 172 140 186 110 120 135 131 140 163 168 77 152 79 120 188 104
78 91 106 116 123 131 141 136 141 148 154 161 157 164 171 162 164 182 189 168 153 157 179 186 208 223 218 197 195 191 184 180 183 187 180 168 165 181 193 196 189 168 191 183 202 188 163 151 158 173 191 198 155 142 176 163 164 168 177 149 134 138 139 163 130 169 176 165 114 85 154 199 185 157 94 71 51 114 104 147 135 68 98 122 77 83 136 95 93 105 90 88 72 91 47 101 87 80 86 72 64 104 67 92 79 75 83 114 93 87 99 99 91 81 85 149 100 111 133 84 136 59 107 123 134 70 83 113 118 196 96 193 202 191 129 144 107 120 170 169 159 79 59 113 123 146 57 160 159 195 195 103 81 145 83 147 127 184 92 69 110 168 165 150 160 119 205 189 199 144 182 104 189 174 142 182 164 119 76 188 129 195 194 156 105 118 180 102 183 73 58 159 75 86 81 144 142 137 172 83 123 182 107 85 77 99 104 136 109 161 57 115 88 56 152 138 90 94 166 148 186 186 154 115 153 189 86 67 100 162 171 99 122 149 172 217 155 200 125 106 114 121 199 181 202 189 173 187 167 178 190 94 129 163 130 126 104 141 85 93 184 160 198 181 86 102 66 54 133 138 255 127 136 107 110 193 160 121 156 136 147 187 185 116 148 170 156 149 173 84 81 76 185 130 99 138 162 115 93 128 190 102 196 108 199 116 154 111 107 132 113 193 180 129 88 148 100 126 150 178 178 143 204 161 130 180 196 206 104 148 140 105 73 72 146 181 120 145 83 176 125 177 80 73 70 82 78 112 105 179 164 145 189 149 136 92 160 194 215 148 194 150 93 109 101 95 100 135 108 74 158 171 115 87 94 91 91 151 187 105 166 103 100 118 125 124 169 145 175 200 94 168 157 78 88 91 191 157 106 127 98 93 150 171 152 124 184 159 98 173 150 102 140 65 59 63 86 203 127 223 201 165 130 146 140 160 84 144 128 195 218 138 108 156 95 193 159 130 156 95 175 138 185 88 137 146 162 66 162 159 75 88 164 166 102 188 203 189 92 100 178 187 126 208 205 201 118 120 180 176 78 133 114 181 90 51 64 128 129 192 197 89 115 91 126 138 148 146 103 99 115 140 136 87 96 185 193 192 191 99 210 229 208 141 83 155 92 131 78 153 104 167
88 100 112 119 124 125 133 144 145 139 157 154 171 163 178 162 171 173 192 189 181 176 176 189 214 229 227 223 212 201 180 183 182 189 182 175 174 182 190 192 172 175 182 197 172 159 139 133 110 144 180 203 192 166 178 126 161 177 170 183 162 110 158 127 170 157 154 96 147 86 159 167 132 178 107 103 113 102 66 142 139 73 94 150 172 129 97 155 99 145 103 97 71 64 117 119 94 100 91 74 73 105 98 84 98 139 113 80 100 107 134 115 124 90 104 87 144 85 77 69 55 64 60 155 110 129 92 98 97 97 86 98 196 190 148 168 128 143 75 134 144 79 104 158 71 142 44 63 150 82 177 97 178 120 129 110 132 172 143 145 57 89 141 111 131 119 189 163 143 121 122 167 110 173 143 77 157 169 160 158 102 186 190 154 105 206 108 136 94 133 64 93 95 89 95 92 96 190 189 114 183 138 185 180 178 150 61 155 67 86 64 138 48 77 82 62 157 166 94 156 177 188 156 111 183 118 65 136 60 114 166 177 186 153 197 213 219 214 202 110 108 116 207 184 209 113 196 195 99 132 124 197 152 104 176 75 182 99 104 155 189 122 184 186 123 159 161 133 130 127 34 59 124 145 173 131 126 155 97 67 76 130 100 168 153 179 160 83 97 149 72 174 147 126 92 94 95 186 101 75 110 140 110 143 85 72 91 82 172 110 186 97 151 164 86 78 140 100 112 75 184 158 167 176 115 136 195 140 186 192 77 152 60 124 95 90 113 157 109 177 172 122 160 89 66 134 143 186 169 138 83 144 197 104 194 194 140 120 127 131 124 149 170 148 109 166 145 61 99 145 94 137 85 127 99 169 94 180 201 210 188 177 121 173 185 195 128 188 208 135 125 187 177 82 139 182 142 109 88 75 129 172 174 81 179 126 119 190 184 185 150 78 174 75 122 66 134 176 114 118 92 167 72 50 127 72 148 153 125 214 155 196 120 143 165 201 116 103 135 168 74 101 91 108 83 174 182 142 179 148 63 57 77 175 98 108 202 125 138 183 82 178 97 146 156 187 144 195 166 117 110 126 149 154 84 150 169 75 153 192 140 102 164 93 136 83 110 177 84 104 67 173 100 147 92 133 191 149 90 195 113 167 111 154 79 71 129 100 89 89 118 139
104 114 128 134 138 136 134 140 144 141 143 158 167 182 185 176 175 177 186 192 187 171 169 194 202 220 231 234 224 208 187 174 175 178 176 172 177 180 186 184 180 181 158 187 189 172 139 148 151 125 152 169 165 159 164 147 158 130 184 151 148 141 163 151 110 89 148 112 108 148 175 177 126 193 116 133 97 65 121 84 126 106 117 167 140 158 160 136 150 154 129 100 133 104 79 79 138 114 147 107 88 103 122 96 89 104 83 83 104 83 91 103 132 135 109 127 114 88 65 57 50 72 108 82 160 74 179 167 127 157 153 104 156 101 131 93 77 67 171 178 155 193 185 65 150 140 76 119 155 165 165 86 162 159 182 143 174 177 178 150 128 120 120 151 98 159 154 209 169 153 185 104 187 121 137 85 170 120 176 188 119 184 143 179 146 173 112 178 105 75 67 169 130 155 115 94 122 146 137 191 172 96 103 186 172 78 117 71 165 169 75 154 107 39 118 130 61 74 94 108 109 148 164 199 182 154 98 48 144 45 98 156 80 77 144 201 218 163 157 219 192 124 191 120 224 228 133 202 94 138 105 173 193 168 139 161 183 198 255 140 145 169 162 132 175 135 93 119 83 112 42 125 88 125 151 153 91 157 99 75 149 180 153 191 86 171 72 151 73 96 88 85 105 86 97 161 168 85 86 61 152 59 73 163 90 105 114 130 192 185 95 117 101 189 173 72 81 65 124 84 112 143 100 104 121 129 112 110 157 145 89 142 77 68 117 181 88 121 174 73 147 140 81 68 141 159 140 124 196 169 151 171 113 104 93 113 96 106 211 206 196 125 124 158 106 159 166 138 93 163 111 80 110 124 67 80 93 97 138 193 159 175 154 137 106 177 191 160 163 158 195 90 186 183 181 194 89 160 79 161 130 108 81 117 73 90 173 150 66 128 77 156 140 87 95 78 123 159 158 167 94 73 127 66 97 113 163 103 203 207 113 113 204 173 170 205 141 154 94 180 119 111 158 124 139 148 140 195 144 180 66 147 131 150 88 94 170 150 199 180 86 183 198 110 118 121 152 186 189 145 201 196 205 158 205 102 146 169 140 171 88 78 153 54 56 62 66 168 94 80 103 116 175 100 163 86 93 118 95 94 107 107 196 89 161 137 84 107 184 148 176 149
129 137 147 151 148 147 137 136 144 134 141 141 159 164 181 175 174 171 174 179 160 164 149 171 194 216 236 231 232 213 185 174 168 171 182 186 190 190 185 165 173 169 171 175 172 173 145 129 170 162 202 202 175 156 166 143 170 160 133 126 112 98 124 149 104 66 114 70 110 126 147 191 195 112 98 131 97 147 84 95 93 92 102 183 137 158 140 129 122 159 144 85 78 75 99 111 129 106 116 146 122 90 121 114 106 82 83 64 106 135 255 129 147 104 142 90 104 100 67 133 141 149 142 150 119 127 141 181 150 87 80 171 89 188 90 142 165 149 117 147 181 123 107 143 108 48 139 72 52 86 173 148 174 114 195 228 224 162 152 96 159 176 150 164 94 209 222 202 166 185 147 203 116 210 167 94 136 119 177 192 205 103 127 159 115 91 160 147 111 108 137 72 109 104 164 139 105 197 187 158 159 192 156 117 81 147 63 171 95 153 87 118 51 144 119 125 63 122 136 110 204 207 218 189 184 71 144 81 143 140 141 115 64 86 155 136 115 195 199 230 130 212 130 206 121 223 216 188 102 129 135 191 105 127 162 169 172 104 203 131 174 163 164 134 85 181 169 82 89 114 66 51 112 165 106 173 96 106 169 140 80 110 92 100 184 124 128 106 178 89 114 178 180 142 98 139 119 87 61 52 80 62 84 53 43 89 61 135 93 138 113 115 110 190 157 102 55 53 138 151 90 86 180 122 154 137 193 184 158 122 79 108 179 122 96 82 141 77 72 154 166 143 157 172 79 179 139 194 192 171 153 170 169 156 80 77 117 114 175 183 197 133 101 153 146 133 170 70 108 76 75 136 142 83 139 161 145 189 118 206 154 102 183 181 182 178 138 99 202 109 195 88 179 192 191 194 114 167 167 62 127 89 111 162 163 84 63 68 40 138 102 58 68 176 75 139 70 132 114 121 77 139 50 101 65 94 102 95 124 189 104 101 166 98 121 204 170 207 126 194 187 166 87 115 181 151 95 189 139 188 155 73 118 104 151 90 94 187 115 189 127 174 204 201 112 170 178 197 177 184 201 195 171 175 118 144 193 86 152 181 184 177 79 64 74 69 158 136 127 163 151 142 87 150 100 78 141 80 172 83 111 156 141 78 150 96 163 143 135 86 77 120
149 156 167 173 173 158 145 146 140 139 137 123 137 149 162 170 153 156 175 170 150 123 136 156 178 206 215 236 236 218 199 182 171 178 192 200 207 201 178 172 165 154 163 151 155 174 183 153 152 197 166 201 188 121 159 162 137 127 173 154 141 91 155 146 85 119 70 89 99 90 104 150 157 92 74 131 71 150 76 127 162 95 152 157 206 155 149 152 170 121 138 118 69 82 73 107 101 103 145 94 120 115 113 132 115 120 90 55 57 63 143 95 129 147 122 93 96 82 71 83 75 84 77 88 76 139 82 186 89 159 88 85 156 182 91 68 161 151 141 174 186 191 185 76 95 92 109 59 128 67 151 159 90 176 201 182 173 169 88 130 163 102 169 141 102 210 153 165 153 148 113 130 224 192 216 176 147 68 168 100 175 146 179 86 90 155 102 71 169 152 122 148 136 149 98 100 180 210 163 172 189 189 110 92 165 61 114 132 204 139 116 128 62 68 123 161 83 172 113 170 152 174 217 191 106 173 120 133 135 108 75 59 117 98 94 195 145 215 230 144 220 169 130 192 213 192 191 130 186 110 105 152 158 164 155 133 171 168 171 178 191 137 195 166 154 98 196 97 103 149 134 89 97 165 82 149 112 121 80 163 110 101 184 98 179 177 176 112 173 84 102 90 100 181 127 146 68 87 44 107 88 61 71 74 90 59 103 158 196 109 140 135 181 99 128 164 49 80 95 59 110 85 91 197 93 92 90 84 70 85 114 116 184 126 112 96 94 169 137 64 67 154 97 169 158 83 82 105 92 101 158 114 104 162 131 171 141 166 165 177 136 102 127 186 176 126 144 144 140 140 178 102 161 75 99 125 75 187 198 127 153 173 116 114 180 150 93 176 169 144 109 98 101 139 151 102 120 136 81 61 163 70 75 141 132 163 81 36 93 109 134 85 113 82 140 174 90 164 73 83 149 134 93 177 110 185 189 119 187 182 171 171 91 136 191 195 128 199 177 155 192 115 168 92 130 194 105 127 177 189 83 114 92 103 102 60 165 124 203 177 183 138 211 204 180 106 151 96 128 119 198 189 101 149 99 177 84 155 101 91 98 169 86 166 59 58 157 77 107 171 155 88 86 134 128 175 177 179 142 160 74 109 88 152 72 69 157 134 192 117 178 109
161 168 177 181 174 166 153 144 156 152 138 130 120 140 147 163 157 154 166 144 140 123 127 131 169 185 209 215 223 214 191 190 186 195 207 214 221 205 187 173 160 159 163 170 159 177 179 160 206 206 218 205 181 165 157 120 127 150 176 181 153 167 97 140 69 106 116 114 145 151 142 172 95 90 114 132 145 68 80 99 114 90 94 105 172 118 126 121 115 104 99 89 81 117 119 76 101 113 102 105 121 131 91 108 106 123 72 54 66 71 65 79 82 93 119 93 111 140 134 173 101 164 155 81 100 123 88 107 96 86 184 139 91 186 182 143 154 58 169 131 90 181 82 174 93 168 96 117 82 175 99 93 182 145 86 150 175 68 138 178 121 194 197 130 185 205 206 196 163 180 165 196 200 229 219 115 150 125 85 139 131 110 80 92 136 113 91 86 117 145 113 125 175 153 108 133 205 119 206 170 139 129 214 174 102 172 143 109 174 106 86 142 107 178 85 89 99 181 148 160 180 195 156 155 210 158 156 156 97 94 61 161 164 78 187 187 150 227 187 123 147 116 151 145 156 141 104 153 96 165 173 165 118 163 160 108 114 110 104 126 139 185 124 134 94 106 118 200 114 93 93 158 150 104 172 80 149 80 103 87 170 156 138 125 104 97 88 177 170 155 121 186 184 166 107 85 64 50 144 154 117 92 123 138 107 81 149 124 96 125 140 190 143 185 87 60 43 37 50 45 128 158 104 151 162 83 64 75 65 168 103 189 114 120 183 174 94 136 129 65 156 73 154 141 75 123 166 86 145 80 141 95 141 88 84 99 153 158 146 165 88 112 180 200 177 94 154 93 94 104 169 111 177 80 136 101 86 108 194 166 182 149 184 152 153 95 120 96 135 144 173 255 98 105 198 150 89 99 163 150 115 102 71 130 168 172 156 146 86 81 137 136 153 82 181 159 82 157 143 71 146 87 135 144 196 97 156 82 176 76 172 142 185 198 190 172 175 179 190 106 95 95 81 174 145 192 188 89 161 82 99 145 139 65 49 164 174 173 137 114 123 217 202 210 131 198 196 134 195 118 106 118 143 170 169 111 81 118 132 81 191 183 193 109 61 46 138 181 135 112 193 117 131 106 177 117 197 154 156 148 86 65 86 171 68 61 66 104 81 96 77 92
157 164 172 181 178 164 150 148 158 165 151 137 119 131 145 161 161 174 178 154 136 130 130 156 155 168 182 208 212 210 197 192 192 201 204 217 219 218 202 181 168 157 171 147 150 173 182 188 201 194 181 180 183 180 155 146 149 172 174 169 179 103 143 141 134 106 136 124 114 77 94 148 182 255 159 146 77 156 142 119 100 93 162 91 96 128 142 111 104 109 153 95 82 65 94 108 83 117 111 93 101 109 125 90 108 113 76 99 93 53 86 92 72 112 115 94 115 104 167 127 112 133 120 103 149 86 168 88 176 159 181 165 184 89 124 170 149 66 72 131 89 115 81 75 175 138 108 188 173 117 188 107 151 132 76 81 105 152 147 166 140 90 190 123 160 180 96 140 103 108 176 131 192 148 209 188 168 100 163 172 163 129 162 154 147 144 69 133 96 149 78 82 142 172 177 163 191 139 179 123 168 147 219 131 98 81 90 184 181 85 126 127 148 180 165 163 182 91 169 170 95 87 197 185 195 111 196 133 119 97 116 86 95 91 185 198 131 225 199 155 189 139 162 94 160 92 163 106 119 166 112 163 85 174 75 179 81 85 119 176 172 97 173 175 144 157 165 193 105 156 133 126 122 166 72 165 88 129 129 98 142 184 218 122 147 146 189 92 149 196 159 182 91 86 79 116 79 92 68 76 146 106 109 136 144 157 70 77 117 101 93 100 89 193 142 169 69 91 55 82 145 103 150 164 170 124 119 75 122 99 91 176 173 143 181 80 153 70 159 66 125 70 166 117 128 71 53 150 56 136 61 87 86 137 80 166 161 79 137 172 170 103 154 196 183 89 183 155 187 152 176 92 132 110 143 111 135 125 180 85 88 80 172 170 93 165 119 84 81 59 88 121 142 134 116 127 163 103 177 86 132 95 170 104 123 193 190 91 54 132 158 106 82 79 113 146 124 160 185 154 134 169 105 216 115 193 186 113 109 86 84 126 168 190 190 92 80 123 172 141 166 132 91 106 98 108 181 185 90 109 87 93 97 60 111 80 174 94 145 185 138 179 205 139 201 102 192 190 103 131 177 168 73 63 163 90 134 106 175 170 194 206 111 120 68 123 150 162 101 195 178 121 119 159 172 128 176 105 126 65 76 72 146 70 102 160 90 91 88 111 107 172
152 156 162 166 162 144 145 147 163 160 158 154 142 150 155 175 183 200 198 172 161 162 172 181 160 154 173 182 186 184 175 176 180 192 195 200 201 200 198 188 166 175 177 162 163 150 169 174 193 210 220 210 207 169 145 193 182 204 168 171 143 162 147 124 89 154 143 153 123 120 100 91 118 159 105 136 99 104 157 159 104 113 83 88 103 68 80 133 105 98 98 111 109 129 80 55 61 81 89 103 106 101 96 135 136 132 87 73 115 88 87 112 78 108 170 128 105 93 96 177 143 198 118 189 91 87 127 182 147 93 147 159 133 71 142 114 152 156 79 150 89 84 181 172 169 145 170 92 113 104 123 172 89 98 161 152 113 142 115 167 133 153 158 156 169 141 148 174 181 186 187 120 188 188 177 173 161 92 176 146 178 82 163 97 92 156 137 68 58 107 152 181 144 67 156 73 170 131 107 169 215 206 132 123 101 100 121 174 173 141 147 121 177 140 103 82 72 172 110 156 163 149 130 133 188 113 220 160 200 217 102 87 132 87 97 208 197 210 204 105 168 167 105 79 90 59 136 110 100 72 107 103 126 198 173 185 182 129 144 76 129 131 154 166 71 161 125 123 124 88 155 96 118 78 124 133 92 136 156 114 234 211 144 153 111 105 112 197 91 135 102 193 87 185 148 80 80 78 82 171 155 159 190 179 124 82 95 132 183 179 110 108 103 146 109 169 170 106 75 55 143 97 120 91 179 171 77 101 85 160 168 168 181 160 99 93 68 73 97 164 73 166 130 58 137 102 81 145 112 124 98 110 142 153 151 91 142 159 69 136 96 139 160 135 171 82 150 176 161 203 198 255 162 88 95 57 102 137 100 80 96 177 123 168 186 156 126 158 141 86 160 80 184 162 183 131 98 188 80 171 112 71 134 135 104 186 196 161 94 70 116 102 171 122 119 111 165 160 190 194 193 111 148 211 133 177 91 119 110 114 117 141 93 88 151 169 144 170 107 198 183 147 120 153 185 168 90 138 185 170 174 162 74 115 55 161 78 124 86 130 194 151 187 202 200 207 147 165 125 149 163 73 129 118 157 140 156 91 91 131 102 139 109 141 98 52 140 145 114 155 124 126 117 106 192 105 108 143 87 54 81 93 131 123 63 159 56 144 66 76 94 115
143 149 155 157 151 140 133 142 157 157 165 156 153 161 168 172 192 203 201 193 180 184 197 187 186 167 150 161 176 177 172 168 167 171 169 175 182 185 189 177 172 180 184 171 141 133 124 145 168 197 174 192 202 162 173 162 214 212 195 179 148 189 169 114 163 106 167 163 172 117 108 115 117 163 119 115 100 158 96 90 101 166 85 79 67 65 140 131 110 100 92 146 142 109 132 73 59 88 109 120 129 146 94 114 75 95 84 134 142 90 128 97 77 77 85 89 92 137 157 87 78 80 169 93 95 141 136 93 127 92 94 155 145 160 92 166 170 79 150 98 117 83 115 99 59 147 73 192 201 177 198 195 93 174 125 90 56 162 144 187 156 142 131 157 152 89 118 150 149 146 192 108 188 143 134 84 106 135 184 105 184 180 96 178 87 163 75 143 60 53 117 75 124 167 59 107 145 122 98 99 157 208 163 163 139 157 183 141 125 148 135 75 100 94 163 169 152 75 126 165 91 186 112 96 171 198 223 153 138 159 115 139 167 182 205 142 199 201 101 141 120 118 88 153 145 61 70 134 125 110 154 181 194 143 180 197 85 82 176 175 160 94 70 151 103 132 147 87 158 67 86 68 55 64 60 174 173 180 179 153 169 161 208 131 115 158 191 197 193 124 185 130 161 109 191 99 112 93 144 156 111 212 160 184 177 135 116 78 166 81 89 119 204 172 206 151 125 85 87 77 62 66 113 78 96 85 137 105 118 151 123 123 92 186 102 87 163 119 80 60 74 166 155 117 45 90 135 77 136 69 65 141 75 68 177 123 64 156 147 169 185 202 114 144 185 109 119 73 92 112 113 128 167 146 116 130 116 157 164 172 175 143 125 169 153 118 132 71 68 44 104 66 136 126 91 139 110 123 82 66 151 117 58 101 106 200 141 90 124 86 130 123 139 75 108 90 92 110 113 183 195 194 187 143 108 111 188 183 123 125 91 117 91 85 134 149 155 94 137 134 111 140 173 109 188 196 168 188 186 117 103 66 156 60 63 145 157 70 162 177 151 104 133 127 190 202 178 114 203 163 140 69 51 151 137 66 120 109 180 173 103 103 145 132 91 57 166 169 182 118 122 136 224 124 108 119 132 87 73 168 63 52 116 143 123 121 90 89 68 39 43 49
142 149 154 155 147 141 133 133 145 145 148 159 163 180 174 165 177 186 189 183 200 193 205 213 194 159 157 160 164 170 167 167 165 159 159 159 164 171 178 182 182 198 189 173 159 129 129 148 171 152 194 190 170 185 181 174 154 180 183 154 194 152 96 144 96 169 143 109 181 106 107 124 144 167 97 98 145 99 93 93 91 92 86 78 71 79 78 126 107 156 94 119 109 112 92 67 74 88 109 111 95 106 83 79 80 120 81 92 107 106 84 129 105 119 90 102 169 85 90 87 127 58 158 82 170 119 160 94 93 142 81 161 106 92 50 98 70 102 79 79 82 85 74 136 149 108 158 87 93 176 140 96 93 135 140 127 149 81 131 201 197 175 140 153 182 107 130 117 161 152 183 124 166 111 158 86 155 139 109 117 152 105 161 203 190 123 63 115 54 97 107 73 143 141 137 101 48 128 158 81 104 186 117 195 105 179 179 153 146 50 36 122 91 75 170 157 123 165 85 106 155 135 100 110 193 187 124 124 212 200 184 110 175 181 194 170 202 121 111 177 161 150 163 105 62 60 102 42 132 75 78 198 133 115 197 155 168 88 94 182 79 106 77 166 111 171 171 130 108 144 79 114 35 60 57 169 178 185 156 135 201 116 113 141 148 133 175 143 166 76 73 156 89 200 155 101 174 184 80 184 120 152 194 117 131 149 146 148 119 168 125 163 208 129 226 209 121 199 101 151 85 54 74 102 144 103 131 112 212 126 207 192 146 175 90 118 69 130 74 137 70 166 64 54 104 40 47 58 122 164 142 61 105 109 136 165 76 116 62 69 171 109 181 165 87 162 64 121 130 134 98 185 183 157 98 165 170 88 118 72 177 86 190 113 117 148 133 132 161 52 109 153 147 148 60 126 178 121 117 64 147 103 147 115 156 190 95 91 136 122 73 95 172 121 148 140 86 97 91 121 137 98 117 83 136 93 104 97 106 138 93 194 157 169 171 82 49 158 179 103 218 195 106 118 175 131 153 175 111 180 101 166 101 105 163 162 167 93 171 177 185 185 127 207 119 165 147 121 189 155 73 157 131 125 114 95 151 182 187 186 147 112 183 154 74 136 146 97 143 160 120 155 158 110 171 127 100 173 119 169 136 157 146 157 101 181 196 182 156 51 65 31
137 148 160 166 163 147 137 130 137 140 153 172 174 180 172 159 150 159 163 177 175 187 201 200 172 162 154 153 165 177 176 180 169 169 163 167 163 161 168 186 200 208 203 184 168 155 151 158 129 149 146 149 176 170 194 201 206 202 206 207 124 124 137 151 101 139 110 121 132 122 156 132 136 84 86 99 100 161 161 131 95 84 149 76 156 97 138 168 125 103 93 150 98 102 148 94 75 102 133 116 100 125 100 109 87 97 90 79 78 108 106 117 150 112 114 151 160 162 94 103 90 41 47 93 78 165 140 95 92 168 85 77 93 143 60 153 133 81 179 80 120 104 174 114 165 164 173 147 155 179 78 79 152 109 106 108 170 124 102 117 190 138 186 185 146 125 90 96 81 158 143 58 52 145 160 180 190 125 117 200 183 128 158 187 141 173 169 112 116 72 107 169 168 169 71 154 129 66 52 109 100 193 103 144 172 193 107 70 68 84 53 50 65 93 89 80 131 164 88 157 194 196 151 201 211 166 194 158 180 84 84 112 94 161 149 113 190 175 185 103 137 163 107 152 61 60 123 30 28 124 92 172 196 133 154 154 95 144 186 129 128 127 112 161 134 162 114 132 136 89 134 68 48 87 52 113 179 136 148 150 82 85 197 104 115 227 129 112 148 91 94 178 194 109 120 172 140 177 106 102 105 104 200 98 98 89 197 198 103 96 204 255 143 136 157 235 208 131 147 127 103 50 81 156 84 153 104 127 132 220 215 105 91 145 92 123 144 42 147 143 96 72 164 150 43 92 135 141 107 97 93 81 82 98 153 157 159 126 163 81 73 86 100 113 96 129 64 140 155 151 172 187 96 147 119 103 193 117 81 87 102 154 187 183 124 143 167 151 156 142 54 98 69 44 151 118 84 179 177 65 96 111 105 89 107 167 83 104 75 73 107 165 75 76 170 104 170 131 73 73 166 164 95 172 103 87 186 108 150 189 92 196 103 133 136 129 84 163 77 141 196 198 134 203 160 193 186 110 168 83 138 91 143 129 89 147 135 94 179 117 152 89 110 133 212 189 116 131 113 193 166 93 73 165 118 177 134 101 114 90 186 131 121 164 144 161 71 68 148 112 95 201 170 211 178 113 143 142 129 134 170 63 121 145 79 103 183 133 127 72 38 34
127 144 164 176 173 154 136 125 132 139 149 178 190 180 172 152 132 145 145 144 153 165 172 179 166 156 148 157 176 184 194 191 182 184 181 182 176 159 175 189 195 211 210 202 179 163 154 151 150 141 158 130 177 149 170 180 193 189 163 155 179 167 102 166 144 174 128 134 174 156 124 68 140 113 87 156 115 124 116 135 171 141 63 65 144 86 122 103 97 89 73 93 83 127 96 83 86 127 116 85 90 82 97 82 52 87 63 68 82 98 98 88 125 174 175 164 123 103 112 92 50 121 109 48 78 101 117 110 89 155 165 160 161 149 150 162 156 83 102 95 82 181 163 156 69 92 75 143 171 167 131 94 88 177 188 187 158 199 196 133 121 187 134 178 176 170 106 79 179 178 137 73 147 75 176 150 94 197 120 125 176 91 124 173 134 93 171 165 180 164 163 154 108 140 136 118 58 112 106 108 79 158 118 183 151 93 91 183 117 124 59 162 167 130 161 115 79 104 98 177 113 179 103 121 196 209 194 179 172 88 173 122 94 76 128 160 184 197 193 90 93 140 93 98 103 58 140 93 39 95 149 105 201 203 190 174 96 118 186 158 175 172 183 99 150 111 94 170 91 101 37 83 30 32 104 129 148 84 106 59 132 159 196 204 218 161 160 107 99 72 69 182 157 117 216 111 202 178 82 149 164 116 124 152 156 97 128 105 117 180 175 121 191 161 224 132 217 190 195 129 65 51 44 55 124 153 164 186 198 181 208 139 156 165 67 91 53 42 128 80 74 114 79 54 147 115 126 129 67 78 173 80 165 159 70 161 80 145 168 125 172 182 179 139 69 58 107 109 179 193 189 161 115 105 118 109 115 195 189 88 156 178 103 184 168 193 114 118 187 74 88 78 130 137 151 70 83 186 186 115 151 162 76 102 124 187 79 102 138 87 175 84 126 184 183 174 133 145 176 164 63 118 156 88 182 130 98 136 154 103 188 121 115 118 106 166 147 174 100 152 199 180 182 103 103 135 169 90 63 106 172 164 163 113 204 118 125 197 93 156 154 82 86 177 170 149 163 186 104 96 129 97 110 168 167 148 141 185 75 181 108 101 137 162 85 109 85 65 96 129 91 99 106 138 193 255 84 65 144 168 99 122 103 146 102 94 200 97 132 133 83 123
115 133 158 176 174 155 127 119 121 150 157 181 183 169 152 137 128 144 148 150 155 145 157 142 137 140 151 165 186 199 199 192 187 193 202 200 194 183 180 186 181 192 191 209 195 147 154 148 143 144 144 150 142 167 179 141 163 165 146 109 177 104 128 104 110 199 184 133 102 107 151 73 128 147 145 109 149 153 159 147 110 135 76 80 65 74 90 151 101 152 79 124 125 75 93 105 98 104 122 99 106 87 105 89 80 55 92 53 104 115 71 101 170 113 109 128 124 168 79 94 63 50 138 137 76 138 102 94 95 141 100 151 148 96 167 176 82 89 186 189 121 135 132 74 124 74 79 145 166 135 138 69 100 154 87 121 193 111 99 109 179 162 139 150 141 157 127 162 136 141 112 140 154 122 180 126 99 199 214 208 125 185 193 202 198 88 73 97 106 110 114 68 119 61 146 105 146 109 163 61 165 145 88 176 136 181 123 99 179 171 153 176 82 99 102 177 156 159 197 208 111 163 101 100 110 208 111 178 167 80 78 184 96 77 169 165 183 98 157 202 111 107 112 185 127 68 161 60 61 127 114 196 203 198 89 161 91 138 105 72 67 173 102 86 143 145 149 103 97 168 136 129 27 135 135 96 112 144 102 79 167 179 116 151 151 159 126 130 116 162 179 91 156 203 115 118 128 108 118 103 124 97 169 121 120 121 119 130 179 184 103 207 213 130 109 155 165 138 106 189 99 78 116 77 103 170 89 154 134 165 191 191 87 86 82 160 128 100 88 132 123 155 170 65 84 156 60 167 130 171 79 169 133 170 166 90 160 147 108 191 180 149 142 157 67 55 138 128 179 199 182 149 186 201 154 146 188 104 194 181 97 157 177 177 159 108 168 120 118 180 72 59 44 101 120 151 119 103 102 115 175 79 124 100 165 142 82 80 83 176 153 188 87 184 188 177 89 78 138 167 161 76 142 184 159 178 142 90 113 186 105 191 148 99 178 190 183 154 186 194 197 108 204 192 77 163 117 65 77 75 92 131 173 130 156 171 198 161 174 140 133 165 109 184 136 155 199 200 140 115 167 109 98 126 165 108 195 183 92 89 105 126 148 117 138 104 165 120 161 171 143 174 135 176 129 122 74 74 85 69 164 66 112 150 69 176 88 136 82 87 70 73
109 125 145 160 156 146 125 124 125 145 169 174 183 171 157 134 148 136 141 154 148 135 142 148 139 157 160 168 183 195 186 180 183 194 202 210 199 183 183 187 180 199 205 206 198 177 137 137 123 113 127 131 161 180 176 192 170 120 88 95 169 111 186 127 124 142 112 146 109 174 122 161 129 60 71 134 194 127 168 118 126 131 83 55 98 85 79 100 97 86 120 62 63 68 132 131 92 103 122 87 92 103 67 98 115 66 65 48 70 86 115 150 118 149 183 165 126 137 89 80 64 109 71 160 183 115 128 87 73 73 81 98 149 156 175 116 188 192 163 169 147 96 74 80 168 163 152 160 138 152 149 112 137 73 179 152 151 187 126 131 173 162 135 195 176 154 197 207 196 143 142 88 106 96 145 187 191 198 156 115 113 67 156 135 185 180 72 177 132 99 162 152 150 73 129 122 111 126 177 155 176 165 79 72 109 80 121 193 94 173 118 103 162 171 96 197 135 190 137 168 115 199 177 196 206 188 117 103 174 99 182 107 124 93 160 146 182 156 130 209 208 113 155 192 142 86 155 83 81 171 192 125 114 198 157 180 176 188 81 99 128 112 162 125 77 67 155 72 107 171 109 82 121 130 74 116 112 173 81 102 118 148 154 100 102 198 198 170 160 121 99 106 110 104 102 169 117 119 175 204 103 203 136 113 197 138 154 100 96 133 91 120 157 110 122 94 150 146 118 109 133 95 68 66 157 133 69 111 96 125 162 177 174 158 148 170 147 58 67 52 130 77 174 72 162 94 104 168 94 148 143 166 76 86 95 73 173 131 174 138 128 134 156 69 51 95 98 133 166 200 203 208 184 197 191 157 106 154 178 95 127 163 168 170 72 172 112 144 189 193 84 138 121 153 133 196 198 203 160 203 198 193 188 77 174 165 171 110 105 134 108 84 113 174 183 161 167 123 68 79 159 185 98 189 184 176 176 180 112 194 152 187 182 161 135 151 182 171 189 100 176 137 186 95 120 169 94 105 84 83 129 186 160 171 166 147 77 168 122 150 131 89 170 139 113 103 172 186 168 115 169 188 184 128 126 184 154 124 175 86 150 117 122 131 147 96 75 77 171 142 72 166 177 169 78 134 84 79 157 114 108 130 60 156 156 80 107 153 115 77 75 73
117 125 135 144 140 132 123 122 128 143 157 157 158 146 137 130 148 143 150 161 139 142 127 138 151 160 176 183 191 187 172 172 179 191 204 206 197 188 186 181 180 196 199 185 191 175 152 126 137 104 159 152 176 162 193 199 146 116 153 160 129 177 165 140 189 163 139 188 174 126 101 116 159 152 86 97 150 122 117 122 196 132 89 68 71 60 113 97 163 93 70 70 127 115 104 92 108 116 107 109 80 73 79 109 72 115 65 113 79 89 105 106 95 94 138 113 125 116 121 170 75 90 73 102 154 116 150 73 130 174 174 103 127 86 96 201 197 93 159 169 134 143 163 65 65 74 81 154 75 159 95 151 76 102 152 146 135 138 103 176 163 175 207 182 212 182 191 129 164 148 168 163 98 124 182 108 176 183 109 172 119 150 146 98 96 117 96 100 93 121 82 66 113 58 79 179 186 172 192 157 159 111 97 89 71 110 255 187 179 163 164 176 182 165 104 136 165 213 211 162 143 168 94 89 148 121 167 197 156 171 178 162 178 157 104 165 101 130 117 207 211 212 202 195 172 172 89 144 74 189 116 144 197 187 145 91 123 92 149 146 166 171 118 108 162 62 94 141 179 187 166 69 135 152 77 123 194 138 125 87 95 186 153 133 151 118 135 84 130 184 112 201 131 122 92 115 166 206 166 169 196 120 171 212 208 114 148 128 150 91 99 187 146 169 94 119 202 150 176 162 181 117 75 66 155 64 167 134 100 101 86 148 165 109 166 88 162 107 119 44 53 103 84 185 174 131 125 144 78 174 77 126 81 71 173 171 174 82 135 203 102 181 71 66 148 152 159 99 151 162 163 185 206 136 170 133 161 186 113 184 104 155 159 172 181 182 124 197 167 160 176 181 125 193 177 118 190 120 108 136 178 168 176 100 103 140 94 159 160 167 154 172 87 186 79 88 117 152 123 58 127 181 132 109 137 162 133 71 174 177 96 110 174 170 155 92 86 82 101 99 199 114 194 129 184 189 184 160 82 164 84 165 182 90 122 147 149 135 76 173 82 143 128 98 84 82 158 112 194 118 164 80 180 89 120 173 164 88 161 192 174 125 203 115 92 109 99 123 181 160 138 114 158 83 144 102 164 176 125 182 117 168 153 255 95 141 153 158 171 94 95 143
119 121 121 121 122 123 124 121 132 132 138 149 143 138 135 141 140 148 158 159 150 137 136 139 170 185 196 195 185 175 173 169 177 185 196 193 187 182 186 191 196 186 177 194 182 167 127 115 151 122 177 172 184 184 169 136 127 166 100 128 143 164 155 162 140 176 111 179 130 188 102 91 106 136 90 131 179 188 116 187 162 119 110 123 148 78 94 116 108 91 134 78 78 84 121 88 81 100 76 100 99 72 86 73 89 110 73 93 102 75 124 87 95 113 120 119 137 207 128 107 158 162 95 88 191 92 91 88 63 73 123 177 183 158 191 116 154 164 174 131 173 120 113 68 151 71 76 150 160 90 60 66 154 57 165 78 104 169 169 177 185 161 139 153 183 194 173 111 120 119 153 120 175 162 84 119 128 98 69 135 116 46 52 129 74 70 104 67 78 166 82 84 72 69 135 184 104 121 170 152 105 109 158 92 129 108 85 102 179 104 126 126 153 137 127 115 130 127 121 144 179 125 88 161 91 198 116 114 195 166 133 130 120 111 115 57 74 154 187 133 171 213 146 104 195 149 80 78 152 78 167 200 177 124 185 255 114 118 165 135 70 127 110 82 75 122 73 148 189 113 150 169 91 135 76 176 188 135 108 96 171 131 188 119 102 76 104 124 125 111 111 208 110 116 126 126 97 88 180 109 81 83 119 158 174 140 103 118 209 110 145 158 95 120 169 184 190 176 184 103 173 187 121 73 65 155 131 149 139 182 150 72 160 87 83 108 74 135 52 138 58 80 169 102 144 88 89 169 185 101 91 78 146 164 157 172 174 82 159 176 164 195 159 170 100 141 158 115 132 187 194 183 108 143 195 191 191 165 122 130 118 139 119 122 158 142 182 95 125 184 186 107 102 193 139 186 203 179 188 88 91 178 184 93 88 73 110 65 140 57 124 95 162 146 120 70 70 78 99 68 160 155 105 78 72 125 142 82 73 173 83 116 166 97 185 192 89 99 135 121 108 102 110 195 166 203 159 90 121 68 108 159 137 166 148 160 135 69 68 159 145 180 88 116 65 79 97 198 171 107 157 83 170 75 140 181 194 125 99 182 155 175 175 166 160 127 182 120 168 90 125 147 99 137 137 132 149 73 160 85 117 185 101 181 153 70 168 143 99 148 142 84
110 111 111 107 108 108 117 113 114 114 125 146 147 147 137 142 152 170 172 166 174 153 142 163 173 189 199 200 188 171 164 173 181 186 192 186 176 176 185 196 204 209 183 180 179 170 146 168 165 178 190 157 179 170 184 181 150 111 162 137 127 90 143 82 113 172 128 153 161 140 132 121 125 87 159 139 195 180 185 99 183 127 185 99 95 125 104 105 99 111 81 75 85 87 85 136 68 64 65 71 100 88 108 121 74 137 84 81 122 60 77 90 150 132 115 164 170 144 205 128 181 124 182 93 141 182 122 80 130 66 127 179 99 92 189 149 188 78 68 53 57 63 152 150 112 159 112 119 180 166 166 167 156 157 130 144 186 119 167 180 133 166 194 103 182 153 188 170 166 181 136 96 167 172 139 136 121 151 156 144 143 120 76 81 162 126 148 62 70 93 131 146 169 173 121 109 214 113 178 150 152 203 136 190 120 181 146 90 171 115 112 178 188 95 198 116 177 140 159 104 112 155 81 70 165 193 196 181 140 135 67 103 128 117 150 99 176 114 191 198 209 139 222 135 162 192 138 168 64 162 94 79 103 133 105 112 140 176 86 146 82 96 152 120 81 112 113 157 154 107 111 109 81 167 123 168 145 119 179 176 190 142 93 172 178 78 88 75 142 138 118 135 136 114 66 62 159 112 147 120 60 76 77 164 179 163 196 107 162 115 184 88 124 107 103 137 116 109 155 89 120 129 137 80 165 69 69 164 118 83 165 82 155 96 180 86 100 65 108 54 158 187 164 174 85 125 150 127 196 165 85 169 123 177 179 185 158 85 136 110 197 140 185 154 133 119 68 80 142 181 154 150 177 182 107 131 136 121 137 124 94 113 196 168 92 82 153 104 163 161 82 95 188 170 198 154 189 82 89 146 175 105 114 187 137 136 82 81 65 47 138 168 176 75 144 66 45 131 69 112 105 109 70 116 44 48 123 97 175 181 140 87 67 168 74 178 90 190 90 117 97 196 160 126 204 169 181 186 165 57 89 156 156 141 97 77 156 166 125 181 152 191 83 148 82 149 122 161 108 126 175 172 146 172 111 115 150 195 140 196 178 195 95 129 111 97 81 136 147 191 130 116 194 174 97 76 171 166 71 164 183 198 191 180 174 89 135 89 164 164 183 131
89 91 91 94 98 103 111 113 112 118 135 149 154 153 160 160 170 166 183 175 168 169 160 156 171 197 200 205 191 178 170 171 179 182 190 181 177 172 176 199 212 212 202 193 180 178 159 152 165 188 198 158 169 136 151 115 130 162 112 112 140 89 106 137 158 170 185 134 174 169 160 150 86 167 162 132 130 192 174 134 90 133 120 106 101 143 98 103 95 105 115 118 141 92 91 68 105 65 74 69 120 115 83 84 80 93 102 138 82 57 62 97 75 103 103 108 122 197 148 210 207 145 174 91 84 106 85 122 127 116 126 87 110 91 185 150 88 169 131 145 148 157 161 169 174 119 167 76 135 168 78 134 115 184 171 114 183 196 96 152 187 136 114 135 108 93 166 150 95 157 179 175 171 112 98 156 136 94 61 146 114 87 82 169 183 104 97 81 136 153 162 70 138 160 180 201 180 187 206 110 208 102 191 177 168 93 187 162 128 166 164 162 84 172 102 197 115 192 161 194 186 74 160 88 161 148 129 88 178 104 75 27 84 128 146 125 87 153 139 108 120 193 222 223 147 145 121 142 154 131 153 104 125 60 49 60 113 107 168 80 75 165 86 155 173 167 160 155 106 109 140 135 182 85 78 95 124 169 100 178 158 143 92 122 170 95 94 51 145 91 199 151 122 163 65 63 131 61 48 109 73 64 55 77 73 86 114 148 132 113 154 111 121 130 136 158 119 86 171 84 85 115 80 145 168 77 87 146 184 168 162 157 142 89 125 196 176 83 127 140 91 177 124 190 128 191 204 119 120 203 185 144 160 94 192 95 184 102 130 162 177 209 125 192 87 85 177 133 162 193 166 190 111 178 181 129 182 164 158 92 171 167 109 185 79 133 59 120 148 91 110 196 115 201 101 186 159 162 122 157 171 107 158 203 139 75 118 154 51 123 98 70 83 99 74 46 112 150 102 129 180 164 88 60 46 103 149 99 104 93 143 129 157 60 69 133 168 135 159 161 106 96 101 180 179 204 206 138 169 136 96 161 139 175 178 108 140 194 88 88 185 188 80 104 69 110 153 104 102 89 167 127 151 64 121 101 195 149 171 158 182 199 98 189 107 135 81 150 102 143 181 134 117 194 178 81 179 181 74 149 152 183 195 113 157 157 180 102 176 95 164 113
79 80 83 94 104 110 113 116 114 123 141 164 179 169 174 192 174 183 177 168 159 159 160 174 181 180 188 195 183 178 161 168 175 192 192 188 183 174 185 185 212 206 212 192 162 169 162 190 174 157 152 185 160 139 135 166 153 152 89 147 154 112 143 103 100 96 111 122 133 156 148 137 98 142 201 142 138 110 135 93 113 96 104 167 136 146 110 87 90 97 129 112 108 129 104 101 68 71 85 96 123 85 123 103 86 94 103 139 96 74 83 70 68 82 93 183 144 136 173 140 121 142 80 149 82 92 186 89 124 80 73 78 178 84 88 184 92 89 158 90 146 119 165 80 182 186 81 89 150 175 122 80 135 181 185 204 195 132 193 211 106 124 142 152 174 107 122 166 153 145 164 170 133 61 118 99 163 89 134 123 166 92 134 112 92 77 88 161 87 62 168 169 139 197 121 186 102 132 97 173 132 121 160 129 146 172 131 87 170 87 138 173 174 97 114 126 184 165 106 171 117 160 157 145 163 133 172 181 133 134 67 112 123 85 154 81 198 204 219 213 168 217 221 184 136 107 127 145 146 164 135 134 62 116 123 131 67 131 169 171 164 149 175 80 152 183 101 88 102 208 214 199 104 79 134 89 94 120 127 189 127 162 180 179 104 174 122 156 159 138 159 127 139 109 112 57 51 58 121 60 99 60 55 90 68 106 74 144 198 117 164 100 106 135 95 134 118 80 143 179 114 89 182 179 147 172 153 187 124 102 160 155 100 142 134 180 198 171 171 162 167 207 200 184 185 187 196 255 198 117 159 168 86 190 183 192 176 188 88 92 102 156 156 114 176 172 132 189 194 136 127 98 163 199 187 111 116 113 129 102 96 187 153 96 127 99 141 78 170 168 171 132 169 168 92 173 119 66 122 138 160 187 108 187 186 91 85 95 132 151 165 86 77 161 74 35 106 88 76 167 148 199 95 86 74 135 140 112 143 185 164 171 82 120 46 149 61 165 167 160 163 100 98 202 202 153 136 187 76 148 63 95 66 177 138 205 189 160 96 135 79 119 80 132 109 143 123 127 171 122 181 139 129 80 140 77 162 127 209 213 200 132 98 203 170 120 101 160 87 101 119 180 197 194 169 106 185 92 83 169 124 132 89 127 114 172 171 184 170 92 103 213
79 78 81 99 117 133 135 121 129 144 166 181 184 196 185 190 192 166 155 152 147 146 166 185 183 182 188 203 196 178 164 165 172 194 199 200 186 181 190 202 215 202 209 185 169 171 170 187 158 189 183 194 187 140 136 154 156 157 145 137 173 166 100 152 163 87 83 84 121 139 174 145 142 128 147 135 124 179 156 116 113 117 111 116 99 144 132 79 83 135 100 117 109 147 110 133 81 74 82 117 102 112 90 96 114 114 132 101 91 108 59 50 74 118 140 127 187 144 143 136 113 188 79 80 97 196 134 131 89 180 113 106 97 76 86 166 192 82 111 145 146 152 119 185 109 184 192 83 73 79 134 154 131 89 107 201 153 145 158 146 205 167 126 104 169 177 157 111 108 115 102 101 159 60 78 148 105 134 125 126 117 183 157 167 164 73 147 62 73 120 154 176 173 196 163 144 153 181 90 151 113 205 183 138 58 159 177 190 183 178 133 144 96 133 146 161 141 154 145 95 166 174 71 90 162 169 179 160 149 96 123 120 118 122 155 99 129 122 146 184 157 175 207 142 211 209 108 95 174 162 133 70 150 52 103 77 87 181 99 73 124 89 93 95 194 195 195 98 152 143 141 174 182 106 136 119 175 179 124 171 114 99 158 150 191 176 76 62 134 137 164 155 143 192 90 152 50 127 104 52 35 128 74 74 74 93 128 60 135 145 112 141 129 107 130 88 77 100 184 91 113 83 143 158 92 178 107 103 198 159 83 164 206 158 115 133 203 155 188 195 119 180 103 91 117 110 133 222 162 209 173 79 84 195 175 177 83 140 178 86 163 166 180 83 162 74 109 96 147 138 148 137 159 99 90 158 176 177 120 82 84 190 169 120 141 80 131 78 87 181 158 130 82 111 80 62 106 96 39 51 138 183 184 104 166 170 77 167 152 139 112 68 136 116 100 85 106 156 157 127 196 106 192 129 109 93 143 149 103 88 156 162 73 83 41 139 102 133 79 186 136 120 100 209 214 209 199 155 162 169 77 65 169 165 179 174 192 166 153 130 168 173 77 158 132 161 164 137 111 115 129 176 84 57 148 57 69 119 186 203 194 104 158 191 153 103 189 79 152 94 118 136 102 86 82 113 126 106 85 75 82 162 164 184 184 135 122 134 141 146 187 95
79 79 84 105 131 146 146 139 138 140 171 173 192 198 200 190 188 169 151 149 137 163 169 195 195 203 204 203 194 177 166 161 182 200 209 205 197 197 197 199 218 222 210 174 179 164 182 148 166 173 175 189 188 179 181 126 121 111 99 154 183 131 131 163 85 145 124 108 159 95 96 170 180 146 116 188 171 163 116 84 135 90 90 93 104 119 82 83 87 107 122 107 108 142 109 127 111 99 138 101 136 116 82 82 85 76 82 90 115 113 78 80 74 99 145 112 130 138 129 115 148 109 80 95 95 130 202 159 98 180 86 180 114 83 255 84 123 110 85 63 149 54 111 91 157 192 174 171 72 145 86 49 68 131 196 153 119 202 180 135 162 126 168 133 98 178 116 131 123 183 115 125 133 161 152 160 90 136 97 148 95 124 88 144 168 127 164 162 117 128 151 128 159 208 201 165 158 190 177 172 166 210 100 152 146 90 89 143 87 79 103 146 141 71 98 87 66 154 107 177 147 166 150 150 97 81 77 132 151 141 133 42 151 134 187 146 124 173 155 225 168 124 135 153 124 106 191 97 161 134 126 123 163 159 109 61 164 165 179 152 141 164 153 178 111 110 122 113 151 175 195 206 180 178 149 141 126 171 166 88 182 118 177 103 163 114 147 107 99 173 160 125 173 114 97 170 72 46 39 34 60 108 131 89 73 93 74 87 78 176 137 173 116 106 153 125 177 95 86 99 141 87 97 156 116 122 215 199 184 190 179 108 116 197 119 150 128 151 192 166 196 100 187 143 163 159 145 160 206 148 189 78 123 143 133 145 146 164 83 162 158 136 132 75 169 160 87 119 172 106 144 168 142 87 83 153 104 141 148 84 86 185 142 162 109 40 71 72 122 102 147 87 152 136 58 60 78 43 95 41 57 154 98 112 93 81 161 102 72 77 93 113 58 129 146 52 82 75 107 122 92 166 92 176 164 124 163 160 177 191 193 130 76 117 46 97 43 70 175 178 95 105 131 143 119 114 103 123 111 161 157 143 127 105 129 201 163 156 121 81 111 141 92 163 127 170 129 88 80 114 154 100 69 77 39 130 50 98 89 112 143 99 198 204 152 202 101 150 151 84 175 121 144 172 179 189 182 131 139 82 72 49 57 112 93 117 142 142 158 84 73 160
76 76 85 106 137 156 153 136 137 138 160 179 186 184 195 193 187 162 157 161 158 177 188 206 209 209 202 198 190 182 170 172 189 203 211 201 197 201 206 221 226 224 199 182 161 179 166 141 171 146 131 189 165 151 170 159 165 98 135 175 189 177 135 149 81 81 107 135 169 107 129 119 127 158 119 175 156 102 156 138 140 160 75 84 81 99 87 95 116 139 96 105 108 109 161 107 116 92 131 112 114 107 111 113 86 84 80 82 112 103 137 108 59 66 151 125 146 129 118 97 90 79 85 161 187 123 115 173 136 72 85 131 176 68 131 168 91 93 147 108 72 141 56 88 179 90 173 98 162 62 87 142 71 130 149 173 197 110 199 93 139 142 118 137 166 167 185 143 121 193 187 175 131 105 138 156 151 154 127 90 174 171 168 140 126 135 61 98 156 114 116 125 109 150 125 112 118 109 177 102 141 154 121 171 167 111 82 91 179 73 56 74 151 94 85 64 97 112 144 167 167 147 153 76 120 80 93 74 97 55 88 159 97 171 145 201 211 117 213 207 97 80 175 144 194 131 188 195 107 141 100 117 148 147 149 142 91 166 77 78 69 153 134 152 202 127 131 218 198 174 155 108 180 184 72 78 127 156 197 92 179 127 164 107 97 82 159 128 61 74 84 136 209 206 105 116 64 157 68 55 59 133 88 95 84 160 110 55 113 191 190 79 72 142 112 96 184 91 132 98 172 89 99 111 211 132 215 207 128 167 192 159 146 75 86 178 192 198 164 105 163 89 96 191 166 126 188 180 204 193 116 90 124 124 148 150 153 86 139 90 86 86 149 180 168 80 102 72 71 115 70 131 146 157 111 155 168 161 84 101 180 164 133 119 144 72 101 102 74 172 87 63 153 60 121 67 134 57 91 75 84 170 76 179 121 178 73 110 75 85 106 122 82 64 102 139 92 96 111 103 97 147 153 87 159 157 102 105 92 137 181 166 159 163 101 152 88 67 95 169 198 102 176 187 216 193 201 93 75 162 107 145 160 99 178 201 95 178 142 121 109 148 119 82 129 113 151 133 103 111 180 93 80 74 127 136 108 157 169 107 184 97 150 135 171 191 90 134 171 163 160 117 81 72 116 93 103 192 151 59 122 40 67 150 123 132 209 188 173 114 133 104
73 77 88 112 134 150 155 147 137 134 143 149 169 173 193 198 193 182 165 164 172 178 203 202 202 212 207 196 195 174 176 180 186 207 208 195 190 185 206 203 212 215 212 201 169 177 182 170 167 164 176 170 201 204 157 172 159 139 175 184 147 112 132 139 160 143 155 135 144 177 146 137 169 151 206 159 145 128 155 134 72 143 57 70 115 80 124 150 102 90 94 94 160 116 117 106 153 89 95 78 87 103 104 124 76 126 85 125 90 100 102 91 80 95 166 121 153 130 119 113 106 140 86 133 120 168 114 96 92 66 155 82 73 164 131 117 107 104 183 64 67 131 57 64 151 141 162 73 124 144 147 109 75 93 106 103 171 130 151 114 143 129 70 164 147 87 111 106 180 196 136 117 201 158 172 87 117 112 102 136 85 165 109 85 95 144 155 139 112 140 84 172 162 88 110 120 123 157 166 141 187 111 176 118 106 178 163 101 159 61 115 95 161 82 95 151 77 109 136 68 146 126 89 77 152 161 92 151 77 115 171 123 156 99 84 163 197 207 195 179 100 88 73 182 94 151 203 103 120 152 59 68 60 72 44 65 150 167 164 173 89 163 91 138 122 115 156 162 117 129 171 128 110 123 110 114 158 155 90 117 88 142 193 172 203 118 145 112 54 87 178 155 205 121 95 132 72 81 66 163 74 172 83 152 121 96 66 71 82 179 87 71 116 84 188 108 149 99 191 144 116 189 97 167 114 211 143 152 184 176 91 184 176 93 111 163 180 109 178 85 82 80 147 103 156 94 94 90 125 178 77 100 178 176 136 177 160 97 148 168 144 123 92 88 91 75 152 54 149 122 152 163 70 148 110 159 104 174 148 180 177 95 142 126 181 152 157 151 67 93 56 135 153 156 88 88 131 131 130 99 160 61 64 121 144 170 123 81 159 74 169 85 108 131 134 102 186 161 157 187 89 162 172 131 180 181 165 144 77 91 95 192 95 73 118 139 159 77 123 158 120 198 188 198 193 128 94 87 133 66 123 62 83 167 107 108 175 192 100 214 222 202 198 174 107 81 179 197 194 125 188 106 101 109 101 145 146 189 189 182 159 159 177 161 185 160 103 73 163 89 152 171 113 87 170 94 149 90 123 136 103 66 77 112 154 178 91 92 255 135 44 3
84 90 102 123 143 156 161 153 138 133 132 143 156 156 188 196 200 196 188 186 190 190 195 187 196 196 202 198 191 186 182 177 191 200 193 182 173 171 189 196 202 195 185 198 166 173 183 181 141 165 141 164 187 167 135 181 126 156 184 165 189 184 114 90 148 90 111 181 172 177 187 158 195 162 196 143 136 163 146 137 57 112 62 56 84 136 87 113 137 141 81 91 96 118 124 96 100 101 78 74 103 79 77 99 80 116 71 63 105 59 57 71 110 141 140 146 209 201 186 81 146 74 81 94 110 115 206 110 74 58 159 66 97 140 156 154 164 113 181 70 145 121 140 130 145 59 75 106 63 158 60 131 96 86 168 144 151 130 83 69 145 148 136 112 123 180 100 110 202 200 171 201 158 189 180 177 150 89 68 125 157 91 144 128 137 46 96 111 68 86 101 70 163 78 164 150 112 106 162 96 148 154 186 96 160 185 86 69 79 107 96 169 77 154 110 170 165 62 137 137 97 142 173 97 84 146 183 92 115 108 133 109 161 157 177 94 143 145 179 178 83 171 79 185 191 202 176 169 99 93 132 147 59 129 123 147 160 111 144 91 131 161 78 101 172 205 210 160 155 179 107 109 109 111 76 120 81 107 178 146 83 192 193 136 129 184 68 131 147 75 80 170 143 92 73 158 144 87 88 163 104 84 111 166 101 159 116 93 80 111 76 92 161 97 100 185 109 104 106 111 210 114 106 107 199 151 162 185 169 104 115 131 93 143 113 59 126 182 130 161 69 129 187 127 151 126 117 172 74 85 71 148 105 199 117 188 174 127 115 185 179 164 196 195 93 76 85 83 167 79 143 64 117 61 159 103 119 74 161 82 120 104 131 159 188 190 136 69 161 54 109 149 79 99 203 202 128 154 162 137 132 155 100 132 68 135 95 169 81 134 129 96 155 98 162 168 185 207 202 187 138 180 96 90 132 168 161 117 82 84 86 110 173 169 130 148 77 181 186 110 144 139 133 168 184 99 140 142 178 105 126 140 133 116 179 115 179 97 213 223 225 192 141 150 76 157 189 158 167 188 117 106 209 191 169 158 156 165 164 171 179 134 175 120 80 170 71 71 67 106 116 132 187 93 187 97 191 178 99 148 168 167 133 78 68 90 135 83 65 38 15 4
101 108 122 143 164 173 165 156 151 136 136 143 141 164 183 204 199 207 200 203 194 192 194 172 171 166 183 181 197 192 180 180 181 177 175 162 157 170 175 169 181 191 188 197 189 173 182 176 164 187 179 180 186 140 143 120 179 166 190 190 145 181 129 106 119 173 189 121 203 130 186 96 121 155 192 106 166 110 156 71 85 119 79 101 86 86 88 80 144 104 98 84 92 113 121 112 112 84 84 94 52 62 89 84 126 90 67 63 123 103 57 132 88 112 104 123 115 158 163 72 75 134 138 94 148 104 193 103 86 114 66 85 72 169 123 123 58 150 79 166 127 54 146 136 124 151 67 65 93 100 89 186 183 86 182 147 141 164 162 109 110 147 108 168 166 178 180 141 107 195 125 134 127 131 158 96 104 73 138 161 88 75 134 136 140 55 67 144 74 170 71 145 71 172 176 182 147 168 193 186 140 137 136 83 177 130 170 89 89 72 156 122 174 189 189 101 173 91 52 158 72 112 180 87 105 169 122 155 153 164 148 137 104 77 124 149 147 110 79 156 184 169 188 105 110 205 199 92 173 158 158 72 152 170 133 142 84 142 166 128 137 111 174 124 116 134 172 191 104 152 113 207 185 114 99 125 95 154 73 80 104 135 212 138 96 84 101 54 140 158 169 162 129 104 105 55 76 136 91 120 146 113 128 112 164 126 116 157 94 68 66 91 151 125 194 104 117 129 128 178 138 146 115 197 100 186 152 178 76 157 90 149 202 120 81 136 73 133 180 146 176 139 168 166 174 166 72 146 70 143 168 84 175 111 203 100 94 105 83 143 164 118 115 146 189 116 83 92 113 74 133 148 73 147 157 77 94 87 158 192 190 133 150 131 97 149 175 142 136 118 142 151 82 96 135 213 106 112 69 140 62 98 156 153 72 103 90 147 123 167 255 162 122 182 119 133 164 173 158 115 162 115 151 166 138 111 102 147 98 103 119 68 125 61 78 126 187 190 98 116 168 98 118 176 176 180 188 86 165 178 182 128 191 119 132 108 126 160 204 165 197 99 163 163 121 103 84 112 100 96 141 200 130 134 112 183 144 132 147 183 107 164 172 102 119 82 125 137 178 103 180 97 134 113 121 101 148 129 170 142 183 159 99 88 78 69 113 67 122 36 22 42
121 128 141 158 173 174 171 157 148 144 139 143 150 170 184 200 199 207 216 196 189 182 186 171 162 145 162 179 190 189 183 171 172 168 168 163 168 170 172 171 170 175 181 179 156 144 166 154 153 188 153 187 180 138 157 175 192 179 200 142 175 166 146 157 133 165 172 204 137 126 117 95 82 150 101 176 83 87 74 67 79 128 92 96 114 88 86 149 136 97 71 108 68 94 77 102 91 92 84 83 45 42 97 98 87 90 119 109 83 76 63 74 255 160 121 108 115 151 98 64 63 105 121 111 195 157 83 151 113 157 134 92 76 119 160 142 142 56 90 169 64 138 64 150 144 144 122 125 194 127 221 203 217 165 109 146 91 144 147 149 130 99 148 83 123 100 177 125 203 159 181 120 123 208 176 100 115 180 90 167 107 151 143 139 117 59 106 98 108 74 172 171 105 114 70 141 160 89 146 177 102 70 90 77 77 156 151 129 165 75 174 146 95 110 169 156 93 65 143 137 80 139 170 175 161 176 85 74 137 167 165 152 160 112 74 176 176 110 122 96 90 104 182 197 177 155 99 147 156 82 144 156 187 200 178 127 93 102 206 97 143 168 106 192 135 132 108 185 195 204 109 129 158 92 159 136 75 67 151 89 111 143 175 104 184 82 65 138 167 104 147 82 74 82 79 148 69 91 88 109 176 138 191 102 139 96 86 80 162 102 78 109 96 140 138 107 105 109 119 144 209 126 97 174 110 120 74 166 72 78 114 167 102 171 87 93 143 85 98 146 84 112 129 167 110 145 55 74 164 141 144 90 128 135 108 123 166 90 80 163 107 188 183 193 173 184 104 96 97 163 52 75 77 142 93 125 150 144 190 117 178 101 91 180 79 136 67 145 108 125 113 133 141 175 200 176 193 147 144 111 95 162 123 182 128 184 137 95 103 95 126 127 174 119 173 107 191 126 145 77 100 61 166 72 90 179 154 186 190 108 147 99 159 77 78 175 97 187 113 142 149 211 130 102 186 115 93 89 112 132 146 147 120 160 145 77 130 188 130 95 190 118 141 111 164 110 178 123 143 160 149 160 102 155 86 85 171 189 114 107 102 104 147 161 134 173 137 139 210 211 107 116 202 146 103 100 197 100 137 117 111 183 201 135 156 141 70 131 146 49 115 57
128 136 148 160 169 168 160 156 154 152 145 150 159 182 190 186 191 201 198 200 177 187 181 161 161 148 159 172 175 184 176 168 166 166 169 172 181 179 168 169 152 157 170 163 164 148 155 147 176 189 184 195 159 182 165 128 137 192 156 167 188 168 161 127 125 155 143 165 167 164 168 160 93 116 81 139 77 119 78 79 108 138 130 76 68 64 110 75 125 84 79 103 64 73 94 91 94 88 84 99 44 53 56 109 94 101 130 88 100 83 99 138 84 102 101 105 93 106 86 60 77 144 176 95 95 116 133 71 177 114 87 124 173 76 65 86 104 56 92 108 148 57 150 148 76 53 124 180 108 163 244 192 133 205 203 153 100 142 120 127 144 131 170 96 169 156 102 197 206 151 208 207 200 173 194 89 163 91 195 122 86 153 131 152 155 107 132 93 182 152 157 178 128 172 161 125 175 96 80 171 163 131 164 161 81 158 169 133 91 77 89 161 79 163 105 65 131 88 90 78 182 124 91 90 90 113 84 163 161 89 66 62 148 162 87 74 95 176 182 109 203 109 192 121 187 165 154 169 169 118 148 194 133 129 210 195 175 184 189 185 110 77 81 178 136 88 148 158 149 105 156 130 131 86 103 86 83 144 153 149 114 156 85 115 70 117 159 69 83 183 85 128 65 38 143 77 162 155 166 75 90 153 83 97 121 81 70 111 69 152 79 134 125 164 192 198 155 91 93 107 193 108 119 151 97 143 73 68 64 64 163 83 94 191 189 86 155 177 173 82 112 98 144 48 120 48 147 151 90 80 187 119 157 122 160 108 102 174 133 66 106 156 130 131 197 184 143 207 142 144 148 82 70 99 128 111 102 105 153 109 125 199 182 98 165 90 153 48 50 78 57 138 141 79 190 121 107 197 108 167 134 96 98 122 116 173 184 143 120 84 108 157 112 75 82 83 97 145 115 141 132 153 68 157 93 162 137 121 183 185 181 112 101 69 80 95 106 160 151 142 136 201 166 104 171 107 123 102 158 183 153 159 153 75 69 149 150 83 100 100 148 165 87 103 164 135 172 73 120 178 125 116 154 96 156 82 107 95 111 109 124 155 126 122 79 108 164 142 167 227 175 161 101 104 106 120 206 163 199 107 207 102 99 185 86 125 84 160 112 133 69 130
129 137 145 152 152 155 154 150 154 147 147 145 139 168 174 174 196 195 194 188 187 178 182 176 172 160 159 168 186 184 174 160 154 161 172 183 190 183 185 170 164 163 153 164 161 170 168 174 168 180 176 199 168 187 163 142 131 190 201 206 125 130 181 140 160 120 146 160 129 106 173 162 71 105 132 97 75 112 105 89 121 94 116 154 124 75 63 68 74 96 74 69 65 116 115 118 120 82 79 79 79 62 115 123 108 148 124 104 111 107 146 165 120 141 83 64 67 120 67 66 130 96 108 110 72 151 159 255 90 255 129 114 111 86 155 141 131 124 146 139 144 135 112 167 156 157 134 126 165 135 235 242 170 196 186 185 159 84 145 144 159 169 144 178 112 84 167 113 153 209 183 158 161 180 141 180 183 194 205 173 131 165 117 107 69 103 190 128 130 133 177 89 91 85 89 160 92 173 177 157 81 116 164 174 122 151 93 157 85 136 142 81 97 68 77 120 104 130 74 171 187 90 152 100 183 177 147 168 92 58 53 146 72 159 80 67 73 141 96 143 125 209 115 105 97 101 118 76 153 74 85 198 210 161 181 201 134 189 191 178 165 71 152 158 192 82 155 163 86 115 190 182 185 118 162 146 161 86 124 134 126 46 87 159 163 155 98 100 122 86 90 95 86 147 62 128 123 108 91 65 56 69 140 84 88 169 159 150 161 83 188 138 129 110 133 103 182 181 97 121 197 104 156 128 143 144 114 133 141 58 74 156 88 149 188 129 147 116 83 157 96 76 77 68 122 64 142 119 166 79 102 124 182 121 131 101 175 75 161 121 110 107 85 187 127 166 202 169 93 103 150 91 111 157 142 163 136 92 186 99 114 197 87 130 88 94 130 138 81 70 110 160 169 123 182 106 104 152 157 70 76 192 124 119 167 77 103 105 126 154 152 145 111 158 135 173 191 183 185 166 117 155 156 151 120 57 130 188 182 106 102 109 69 169 177 106 183 113 129 219 226 216 148 113 177 105 102 181 195 104 134 114 105 156 168 163 134 78 98 117 173 167 149 133 72 161 68 135 156 85 153 89 113 142 134 124 109 156 110 164 198 167 180 150 98 173 103 203 134 133 116 142 95 97 116 176 113 160 111 116 85 83 169 96 78 90 198 141 188 89 87 131
130 135 138 136 136 132 137 143 148 156 140 131 135 149 151 169 170 182 203 197 183 178 193 180 179 176 169 186 192 187 173 158 152 155 172 192 200 197 185 166 174 175 177 167 188 255 191 171 190 181 166 190 191 168 141 174 142 171 182 142 198 167 193 188 193 142 109 184 185 152 151 80 132 155 137 171 76 126 111 83 88 111 105 155 141 77 79 114 81 130 90 88 135 86 81 143 129 94 97 104 120 128 114 94 98 159 131 159 159 147 132 129 89 93 102 53 65 85 83 99 131 91 180 101 109 68 98 77 193 117 225 146 162 165 53 67 161 70 161 143 106 82 56 69 163 171 164 124 206 145 213 205 114 201 190 125 178 73 150 150 126 105 98 173 89 177 194 123 208 204 190 111 151 160 100 172 184 201 175 145 163 181 123 168 73 154 137 122 142 151 182 114 97 133 194 106 113 211 191 168 153 146 148 80 124 121 109 160 148 97 56 141 91 107 108 46 43 133 144 126 108 93 147 115 94 96 171 76 67 109 58 63 153 125 163 73 105 194 145 129 141 215 99 110 155 100 121 109 151 97 165 103 205 194 196 168 124 183 93 136 161 119 167 190 107 167 136 89 70 92 98 85 100 119 175 188 134 124 62 34 46 66 153 118 160 93 72 140 81 178 112 129 60 88 134 111 122 150 177 83 52 115 135 176 102 105 86 101 82 85 88 194 153 103 119 169 75 165 118 94 137 118 190 101 92 108 155 69 120 59 41 64 70 137 117 197 101 94 186 172 84 149 91 116 68 100 115 58 73 156 183 171 173 136 163 74 110 174 132 107 78 117 172 186 199 137 183 167 167 98 155 150 72 160 128 159 108 90 171 156 137 177 110 150 101 66 139 108 63 66 95 156 170 113 175 169 206 130 80 103 169 190 145 143 178 177 99 91 81 78 102 142 125 56 119 99 124 175 79 104 141 150 148 148 70 90 148 183 148 106 148 101 152 68 157 126 196 195 198 205 118 159 185 158 69 67 174 178 102 97 95 121 150 175 168 154 141 121 84 108 169 91 157 65 84 114 64 97 140 158 149 143 124 82 128 118 159 97 127 107 100 192 175 85 178 95 108 183 225 169 215 192 108 87 159 151 162 193 183 117 74 149 57 117 105 147 120 144 125 139 181 107
133 138 135 129 118 119 136 145 157 163 141 138 127 127 135 145 175 179 191 200 197 183 185 195 187 184 176 190 193 182 175 159 149 157 173 188 204 197 182 173 181 185 180 209 199 208 197 206 209 165 165 181 178 189 158 123 171 177 163 133 136 147 209 172 149 165 171 80 83 94 163 92 105 99 112 170 111 85 61 80 92 97 148 119 127 165 128 99 118 100 88 107 90 134 100 98 152 127 133 106 105 106 101 132 131 131 155 156 97 125 132 114 121 104 117 56 62 117 137 83 121 96 151 113 47 53 83 120 94 205 184 104 82 146 39 47 69 152 122 102 55 83 63 177 166 184 176 190 144 185 205 126 159 189 149 175 174 176 130 125 171 101 67 151 165 119 107 196 143 198 102 167 179 114 96 104 160 155 209 140 125 90 121 74 64 116 193 208 187 199 97 76 85 83 120 208 125 122 203 133 158 79 84 94 158 99 51 136 83 85 154 86 145 97 127 67 40 91 133 65 91 185 124 154 166 181 94 130 120 88 63 48 88 126 152 117 172 89 105 161 149 117 180 84 141 166 122 75 54 102 106 170 184 153 99 104 80 84 183 168 90 90 144 129 104 161 77 61 147 144 102 121 177 104 149 195 163 154 69 88 126 45 147 91 113 118 99 130 87 98 168 166 58 120 110 83 117 97 167 94 99 59 68 107 168 94 119 178 100 183 88 164 101 127 173 186 156 56 59 156 132 180 112 174 132 97 139 167 50 34 67 135 93 135 153 108 160 200 90 108 125 145 115 77 102 134 54 57 167 121 80 169 67 111 170 147 172 97 125 155 120 162 122 90 98 108 111 111 206 100 164 73 170 158 168 126 171 141 167 255 189 139 99 150 91 169 54 41 142 143 139 148 178 87 185 194 153 154 178 99 172 80 117 85 81 152 99 159 175 63 45 43 140 43 108 61 107 131 70 113 71 89 145 142 93 86 152 91 156 190 150 139 157 60 64 114 96 88 184 186 174 183 94 93 168 160 87 118 159 129 103 188 188 162 126 54 139 153 195 165 114 135 117 59 128 153 63 129 95 106 149 181 184 174 177 170 112 182 189 180 125 187 94 165 171 97 137 198 128 139 207 126 102 156 115 158 198 120 171 82 89 57 115 146 109 206 126 200 115 196 166 89
142 144 137 128 116 120 135 149 162 167 153 144 131 128 136 163 172 192 186 190 195 187 192 186 178 178 181 187 195 190 177 165 158 166 181 196 202 194 180 172 184 198 206 227 226 230 226 215 182 215 198 178 139 177 154 160 118 105 162 122 188 209 206 206 111 108 123 64 147 98 125 104 164 141 132 103 154 138 81 67 119 113 125 107 131 129 195 140 135 161 103 115 102 106 142 113 139 139 118 113 156 141 138 109 109 95 118 98 110 149 91 144 89 75 93 80 127 123 150 130 108 171 78 128 136 133 140 95 91 162 186 97 89 56 135 68 147 119 156 61 148 161 74 116 95 104 168 155 192 114 153 203 155 96 160 201 193 197 159 181 104 141 168 121 89 77 188 166 179 151 181 156 90 145 93 122 166 200 206 133 177 183 174 115 156 111 143 159 209 154 88 75 110 69 88 183 166 119 205 177 149 171 163 116 61 78 121 154 162 110 165 97 75 180 77 118 73 134 59 164 121 186 98 160 141 194 191 197 177 135 149 143 112 163 145 152 167 173 87 186 128 201 211 127 88 168 133 116 152 143 152 74 98 136 75 77 173 176 122 141 172 96 197 178 97 102 68 83 150 86 122 103 196 172 202 149 141 127 128 77 138 124 132 151 140 154 83 181 129 94 75 146 148 56 63 134 88 89 121 85 161 79 79 104 156 195 88 79 255 164 186 130 134 203 128 92 140 132 57 116 87 124 109 184 118 109 93 86 40 30 70 135 70 88 157 97 129 165 154 86 76 94 156 81 185 174 74 61 160 106 117 149 76 126 103 171 142 170 136 111 145 172 95 90 121 156 150 134 154 138 112 162 116 182 101 117 102 198 134 90 160 182 130 97 196 187 113 68 142 153 110 151 117 176 136 200 104 158 77 63 159 116 165 72 84 68 87 172 73 98 66 131 84 33 49 122 117 103 145 142 52 53 63 153 157 81 163 149 89 143 73 122 157 135 145 132 145 184 110 98 102 153 117 179 152 152 89 148 88 166 179 183 133 95 78 119 63 145 196 201 196 154 175 82 65 120 130 89 126 91 136 119 115 164 145 137 150 81 116 148 190 186 199 98 128 202 192 159 213 213 206 95 122 152 180 204 106 188 192 146 72 77 67 167 182 110 140 201 205 180 96 117
144 146 143 137 127 134 153 169 174 180 173 164 153 153 158 154 171 177 189 186 191 175 164 168 167 172 180 186 190 187 179 172 165 162 177 194 195 188 175 177 176 193 206 221 204 218 205 211 200 225 183 184 186 160 153 158 153 145 153 175 185 179 169 175 109 149 110 65 57 157 144 180 159 151 106 105 103 109 151 70 136 157 111 104 135 125 158 190 130 113 108 133 112 129 122 178 163 171 255 112 112 108 109 101 128 102 112 123 123 117 125 92 103 127 70 94 77 164 92 91 122 164 85 89 90 54 145 145 57 78 96 76 64 52 132 129 134 161 99 172 64 156 82 183 194 119 163 184 185 182 184 119 111 192 153 160 103 97 158 189 141 130 77 161 75 72 137 198 147 134 175 100 107 180 124 137 181 163 119 212 114 91 171 149 93 87 99 199 164 184 68 60 57 95 89 200 169 130 194 145 164 67 66 96 145 56 72 116 59 78 129 155 186 182 95 84 171 121 152 117 137 172 187 121 88 186 188 101 163 172 167 176 148 147 132 141 86 56 119 132 127 208 204 137 131 103 158 78 107 70 125 149 81 89 74 115 151 90 175 180 149 197 193 170 129 116 152 146 79 83 147 133 196 189 112 188 99 169 159 157 163 145 118 85 161 147 74 101 124 172 175 75 54 70 79 122 114 97 96 80 166 85 81 99 116 97 141 168 82 103 188 91 102 183 178 153 89 114 137 131 185 183 196 131 178 255 123 70 133 33 79 131 116 179 156 127 205 97 145 138 89 160 118 184 201 125 136 158 133 77 179 80 149 64 90 141 180 165 79 174 184 142 174 84 90 195 162 186 159 147 139 98 98 155 205 200 126 174 104 184 138 148 182 148 193 190 172 75 78 150 157 90 111 115 166 131 189 137 84 92 168 158 99 110 144 158 124 156 114 58 133 101 24 51 40 60 93 66 58 110 95 107 134 112 183 122 79 92 129 125 82 103 65 68 134 110 134 132 90 130 82 160 87 89 184 125 185 96 137 194 96 161 170 106 96 168 77 180 145 208 129 192 169 162 160 155 168 94 90 126 139 163 170 178 97 96 175 173 91 159 96 154 112 150 109 160 105 118 110 103 144 184 98 170 174 202 99 93 121 152 186 180 130 171 165 116 211 104 191 159 159 148
139 146 152 151 153 152 166 179 191 187 181 182 182 170 166 163 164 255 187 172 164 159 161 158 156 152 181 176 190 184 177 171 168 165 178 186 191 190 182 168 171 172 168 194 206 197 218 216 231 200 205 211 188 166 169 169 103 112 146 169 132 152 123 144 138 143 75 134 109 130 150 116 123 166 126 108 95 110 143 106 106 81 133 156 117 135 133 124 118 104 105 113 110 133 146 126 134 124 113 118 97 103 127 144 160 111 127 115 119 84 88 75 74 108 90 78 99 145 109 112 122 114 144 157 68 157 63 159 127 61 80 101 134 166 65 78 171 180 132 83 115 182 194 208 103 184 153 173 178 171 95 98 192 171 153 98 152 98 162 189 157 117 183 130 146 166 97 183 181 110 127 191 96 100 113 134 114 132 190 202 196 180 109 174 96 142 147 159 192 180 163 125 143 158 166 126 127 149 185 162 130 78 63 54 63 83 154 141 65 76 80 147 143 195 176 192 187 177 74 168 65 112 75 141 98 141 101 164 93 117 139 88 118 154 138 57 136 148 127 155 172 109 141 190 178 73 75 61 69 137 158 84 82 146 107 113 77 154 78 116 108 156 107 179 156 54 53 148 49 99 129 187 188 100 84 171 154 109 93 147 103 147 170 171 175 99 125 82 167 197 88 68 74 137 82 171 120 73 63 72 68 103 117 102 92 176 157 94 76 80 183 86 187 212 146 224 140 122 173 99 182 102 199 109 112 173 172 78 137 88 48 60 95 128 107 151 189 140 142 162 165 73 99 107 206 190 156 77 163 128 108 90 165 153 118 164 81 165 162 166 185 190 165 186 135 173 210 232 123 169 173 176 119 81 147 180 145 118 150 98 169 124 156 186 120 133 102 77 119 49 150 127 113 175 151 184 176 100 191 176 163 67 163 161 100 152 101 149 147 125 34 34 19 75 64 128 53 152 73 97 104 177 154 166 172 140 180 72 147 108 176 104 128 171 137 101 169 206 173 86 181 179 171 188 188 190 97 97 89 140 196 106 132 106 111 196 194 192 126 188 193 164 179 161 81 62 167 72 94 183 114 164 126 175 88 181 90 162 152 134 173 92 133 113 174 181 197 164 130 205 198 181 162 107 94 179 142 194 189 110 192 115 173 150 101 179 173 95 128 105 147 91
128 140 153 155 156 158 172 181 187 179 171 180 174 171 167 182 179 185 178 171 159 155 159 151 157 167 180 190 185 171 169 158 163 160 162 170 179 183 178 170 157 145 147 138 169 195 196 181 214 217 219 195 152 162 133 134 149 94 110 107 151 166 146 85 69 120 74 69 68 77 181 123 190 134 177 102 118 120 64 105 69 95 100 176 172 152 178 148 93 84 84 110 111 122 183 179 155 127 120 116 96 98 121 125 164 125 116 100 93 134 86 146 106 148 73 71 92 129 115 114 162 140 113 107 133 82 133 85 129 65 161 70 176 131 90 125 179 197 98 117 176 156 106 208 208 98 124 86 170 171 174 99 185 180 190 171 125 172 170 142 211 130 197 187 137 149 95 152 146 161 178 142 175 186 158 117 175 168 190 102 189 108 179 161 104 185 163 156 184 182 162 69 129 98 176 139 120 95 181 149 124 84 76 62 80 126 112 135 108 32 117 151 167 167 138 199 179 129 84 85 149 57 143 66 146 100 167 149 173 96 190 134 196 91 149 114 161 163 71 100 92 134 144 96 108 157 49 158 85 181 156 94 116 181 173 120 144 134 105 149 151 84 187 124 140 75 84 119 79 167 164 139 114 138 92 165 77 112 184 170 115 100 116 133 168 130 73 90 99 139 159 130 71 163 78 136 143 158 123 148 70 76 135 93 176 155 148 125 78 91 151 162 95 117 167 135 132 222 120 124 187 126 196 156 193 189 161 138 53 129 40 159 187 101 113 125 148 83 141 168 140 100 161 194 107 189 104 167 66 144 171 113 88 167 135 79 102 187 90 120 189 189 95 112 210 213 155 157 197 121 107 174 164 172 179 172 145 171 216 183 120 97 102 101 164 110 97 69 53 149 178 138 191 212 212 159 205 136 192 128 156 173 179 78 153 137 154 52 90 47 55 87 136 131 146 100 151 80 106 125 86 192 194 111 183 160 177 143 83 74 82 188 120 161 150 200 222 218 111 121 175 95 96 183 100 108 101 87 142 190 188 156 139 175 162 184 203 136 185 124 185 163 140 164 69 123 65 174 187 192 107 168 184 173 160 175 135 113 138 71 163 78 121 108 94 104 107 130 115 128 154 147 113 176 129 189 109 134 107 208 169 169 200 103 137 107 167 120 88 128 72 145
126 138 150 153 144 136 145 157 175 170 167 161 154 160 175 177 186 176 174 168 164 174 171 172 172 169 181 188 186 174 163 159 162 164 162 163 159 167 166 154 143 125 108 116 127 156 157 199 201 218 174 199 155 141 178 144 151 180 133 157 130 95 156 130 148 139 114 140 94 84 184 118 160 178 136 177 101 111 67 65 55 105 111 100 113 120 117 104 72 71 61 103 115 138 177 124 162 154 99 94 91 132 133 136 140 112 112 110 101 140 86 125 78 87 119 69 70 164 99 174 136 139 87 147 90 88 106 85 166 184 87 112 185 153 100 199 206 211 202 184 94 188 112 211 210 99 143 168 151 111 83 179 92 178 170 172 103 151 96 190 203 155 217 196 114 108 163 105 79 138 132 116 165 154 171 164 100 180 149 96 172 101 127 96 154 183 146 76 186 186 128 169 178 171 119 186 127 153 133 126 130 77 159 66 112 121 123 124 53 91 71 122 89 102 200 159 165 95 153 96 100 60 61 134 107 154 128 153 159 174 121 163 191 186 78 99 70 130 182 182 94 156 112 67 58 90 73 158 96 180 150 188 141 104 177 90 45 39 47 123 167 80 82 80 147 81 160 123 176 128 182 191 181 143 104 174 109 184 166 190 190 182 103 173 108 58 67 99 91 117 114 129 122 114 112 179 255 118 75 76 145 159 169 111 124 69 137 52 87 131 83 145 179 104 134 136 133 176 203 119 132 99 158 86 150 192 134 135 91 130 138 55 162 137 191 93 92 92 122 67 60 63 89 175 189 150 172 120 128 146 160 90 159 165 168 159 180 138 160 160 85 175 192 178 182 228 182 112 100 74 85 84 111 171 87 91 122 210 212 102 177 174 77 123 155 50 46 101 130 163 137 102 154 110 155 124 166 142 189 236 132 123 119 147 91 78 64 122 113 123 57 87 68 77 89 175 104 72 138 151 142 193 98 194 127 137 111 175 175 157 135 131 180 180 113 128 137 216 200 96 181 107 174 94 173 173 176 97 188 197 162 158 99 121 201 151 112 118 190 162 164 179 95 153 83 141 72 166 185 172 163 198 125 175 137 161 177 184 102 118 135 84 99 103 178 152 123 200 203 109 163 200 141 154 178 190 200 110 111 163 216 107 106 167 199 173 168 201 108 132 145 91
138 144 148 135 122 105 109 135 143 156 145 139 138 158 165 175 175 178 176 172 194 185 193 182 178 172 179 177 175 168 157 156 158 166 165 155 153 149 138 150 140 120 108 107 117 138 171 187 157 158 176 164 164 125 143 164 143 170 112 138 163 134 177 166 141 128 160 124 113 99 149 187 147 219 162 195 106 77 72 59 78 70 95 157 137 139 103 89 72 43 62 72 97 115 130 122 151 132 110 78 112 115 108 117 106 132 111 70 103 121 88 80 80 140 108 73 81 110 180 107 137 122 70 75 150 94 178 98 197 206 199 156 193 191 196 171 204 116 103 154 185 102 206 218 158 184 162 52 125 131 75 115 167 159 150 163 68 144 139 145 188 220 188 200 185 160 114 170 181 104 114 134 156 164 100 74 82 140 197 121 90 115 147 159 88 167 163 181 177 211 217 207 102 98 194 106 210 157 113 171 201 153 150 170 131 66 155 149 154 138 148 140 194 108 205 195 85 177 116 144 168 62 127 70 43 74 73 144 155 162 109 93 162 79 166 115 70 160 185 95 192 163 180 76 165 159 63 168 108 102 128 101 175 104 189 117 89 142 101 63 63 110 83 177 86 154 175 164 97 89 188 179 215 185 157 201 190 196 157 85 180 80 79 142 94 73 97 120 178 180 130 128 188 143 174 202 188 199 97 61 150 137 67 85 62 70 47 62 63 128 89 109 90 123 116 144 131 149 178 218 96 126 157 102 87 187 107 73 75 140 142 143 160 107 143 73 98 114 183 140 138 153 98 88 139 100 57 95 71 158 165 99 153 167 77 73 117 101 116 145 156 142 171 139 159 157 133 190 174 130 160 102 144 87 169 92 108 148 171 131 105 114 136 157 157 57 108 126 101 96 168 143 99 199 194 213 137 183 159 185 162 129 212 189 112 85 71 114 155 148 144 88 166 194 207 113 108 156 128 168 178 87 186 99 191 101 255 112 100 143 174 171 85 71 187 176 147 201 87 97 97 96 187 102 198 96 88 92 183 195 107 159 174 193 110 135 194 169 193 184 180 119 163 134 139 145 75 64 123 161 119 124 110 106 82 123 96 94 119 160 119 150 105 131 138 183 193 111 104 120 147 135 88 104 159 176 151 186 139 165 162 106 158 131 208 160 222 191 145 176 139 133
153 153 147 129 110 88 94 113 128 146 137 135 143 152 157 163 155 165 181 193 199 202 205 192 172 177 169 172 173 164 155 157 164 172 165 160 144 142 140 146 145 127 128 123 110 130 135 255 181 177 138 126 172 178 168 137 202 181 176 109 150 151 176 184 127 176 109 102 128 95 188 181 213 193 177 120 113 94 107 63 63 92 61 122 109 111 143 81 61 81 105 65 127 102 137 144 129 127 107 74 76 111 149 143 135 104 66 98 94 84 101 81 102 123 102 126 124 111 93 104 169 90 141 159 155 179 126 100 178 220 123 126 198 125 148 101 144 196 148 91 176 170 185 109 125 127 142 120 127 56 161 157 152 65 59 142 158 68 162 105 190 213 144 189 133 134 202 185 192 142 88 152 161 119 126 141 163 151 195 201 89 165 93 79 157 169 108 169 197 196 169 113 131 124 189 200 208 197 228 222 116 178 115 112 180 86 89 180 164 93 161 113 172 196 195 157 157 67 88 165 187 255 133 62 122 143 66 160 63 114 130 155 112 147 142 93 103 142 188 193 136 103 99 187 86 87 81 178 184 160 177 183 182 121 163 183 92 110 90 147 119 102 158 99 117 171 99 183 151 164 85 123 171 205 189 111 118 99 161 134 89 110 67 60 143 143 119 156 81 96 193 179 189 93 98 181 131 209 154 97 54 54 157 55 67 46 110 64 62 80 112 83 82 111 111 127 165 162 205 191 167 85 136 127 118 178 82 111 66 72 83 59 110 79 106 85 135 137 152 139 169 118 112 110 82 74 56 137 45 67 80 154 161 164 150 170 82 121 137 78 99 179 157 109 100 96 106 81 170 82 96 179 121 105 122 139 137 124 110 192 189 107 155 157 101 64 112 138 111 131 170 109 181 143 164 182 188 176 221 228 178 205 157 135 103 134 78 159 161 76 121 90 124 107 165 155 216 181 161 97 92 184 182 169 92 133 113 103 112 117 134 66 160 163 170 196 151 196 153 74 103 146 194 137 122 138 119 114 192 111 255 120 115 165 96 120 173 181 94 94 157 153 139 66 145 98 255 135 72 157 98 170 154 142 71 109 144 164 140 83 73 109 99 193 165 130 102 149 83 104 179 187 187 119 156 174 111 133 212 143 195 108 118 108 151 210 198 113 174 184 138 183
161 157 145 129 102 92 89 105 122 137 143 148 146 148 156 151 148 157 176 191 206 212 207 182 180 161 166 166 158 161 157 161 168 173 177 167 149 144 145 149 152 148 132 126 139 126 155 154 161 187 153 151 173 155 179 169 194 175 178 169 116 160 140 157 177 143 161 112 185 124 107 135 164 165 173 124 188 172 80 64 68 93 100 88 131 84 70 59 114 49 83 116 78 97 117 134 144 124 104 102 107 83 112 118 113 99 81 92 77 87 93 131 81 143 80 57 125 54 123 154 73 57 125 74 57 69 77 106 202 221 130 174 175 186 193 134 109 154 82 169 98 94 183 204 182 189 65 119 149 88 160 164 162 157 137 47 88 155 80 171 186 128 198 181 115 121 200 133 104 159 161 123 101 145 152 150 112 189 138 148 149 163 148 76 190 188 123 110 169 205 184 109 154 80 174 160 195 168 166 137 219 140 204 134 162 100 95 200 174 96 112 123 110 129 120 168 167 143 75 86 155 149 136 139 59 153 172 161 165 90 147 101 45 80 52 150 130 130 193 164 118 189 116 202 187 116 89 87 189 88 81 170 187 153 117 104 112 110 169 88 115 180 122 157 62 172 152 132 93 131 116 161 148 108 107 98 103 187 105 120 141 79 148 62 110 80 85 150 82 157 198 149 166 175 86 105 209 113 101 168 81 80 53 58 51 134 63 54 157 118 104 150 81 97 148 163 131 117 201 110 81 124 146 65 93 92 80 82 71 93 80 67 65 65 161 189 195 121 168 112 76 65 158 69 67 81 111 75 97 128 66 145 85 103 74 69 114 90 72 106 95 104 171 182 147 146 112 136 66 141 108 103 144 143 209 200 101 121 127 175 104 90 100 140 150 134 143 158 152 93 101 165 175 175 184 107 204 207 127 131 143 114 170 107 154 177 79 114 100 154 140 147 70 195 161 189 219 195 120 114 93 164 122 121 149 119 160 105 115 179 180 85 162 70 91 102 206 196 93 113 174 81 184 202 112 217 192 198 104 93 188 128 178 84 178 180 84 101 106 166 137 152 75 168 158 100 150 133 74 57 120 168 77 142 163 151 48 88 166 96 156 116 84 102 133 103 104 94 91 124 82 157 87 146 182 189 110 208 109 115 170 193 116 100 130 102 139 178 176 94 151 104
159 154 140 128 112 107 105 110 130 142 255 159 157 156 143 130 137 160 166 178 182 196 186 171 162 157 149 150 152 155 161 169 175 178 175 172 163 156 158 163 156 156 148 136 128 167 161 176 192 194 146 151 174 168 181 150 175 177 124 161 106 131 120 176 178 170 204 192 162 174 180 186 159 127 182 161 100 86 100 70 95 56 82 109 89 118 117 79 121 56 65 57 84 82 143 160 102 112 85 77 97 104 148 108 105 102 94 145 117 87 86 104 91 151 91 122 64 116 132 138 88 48 49 95 131 63 160 85 156 203 155 105 108 91 109 200 131 117 182 148 128 78 81 100 120 109 169 103 113 139 163 163 148 145 131 41 77 59 104 129 137 179 143 197 188 183 112 184 177 169 175 89 73 134 149 119 174 199 157 161 98 122 103 161 176 171 136 151 158 179 181 186 130 166 109 87 186 190 120 157 140 152 101 96 174 192 185 146 174 92 151 115 173 153 164 136 107 153 61 139 86 173 170 84 146 187 174 93 106 163 51 87 29 51 47 56 156 114 198 207 196 255 198 110 202 189 188 189 115 182 91 178 114 166 123 195 89 185 180 99 145 182 174 115 88 101 177 118 183 172 125 67 90 104 107 188 141 185 82 187 193 173 107 173 113 169 115 74 145 101 139 210 97 134 87 133 195 167 143 120 156 89 122 140 140 76 53 85 79 109 102 160 116 104 110 152 121 138 156 88 80 169 153 114 82 170 181 139 111 113 187 137 102 105 117 107 138 192 182 106 104 148 64 57 144 132 43 124 72 51 142 113 121 79 155 142 159 64 155 155 155 140 164 129 124 91 64 53 140 100 139 77 134 203 168 132 137 152 167 103 161 141 89 130 92 160 98 164 84 79 120 80 166 91 73 75 168 97 163 176 213 208 183 113 94 179 167 70 82 144 98 50 58 151 133 182 208 194 162 197 182 185 103 139 190 133 170 181 151 197 154 131 160 190 105 121 255 177 179 84 177 83 176 95 109 136 209 169 118 101 191 186 79 156 165 92 159 119 90 200 175 204 99 180 100 72 119 98 62 135 165 161 123 123 131 91 127 156 173 123 178 85 170 174 138 143 188 169 129 138 168 184 181 170 90 205 113 214 125 141 98 145 141 155 191 170 150 102 91 189 153 190
155 149 136 124 111 116 117 125 136 156 160 168 150 150 143 126 133 144 147 158 163 181 179 161 155 154 157 150 152 152 165 170 179 180 177 171 167 170 167 170 164 158 162 148 170 172 155 172 183 194 193 190 197 155 170 152 177 157 177 125 161 156 155 154 136 121 121 96 98 109 83 112 129 130 165 179 139 103 102 69 52 45 47 69 127 72 66 73 68 90 84 82 136 95 95 122 92 90 93 120 113 141 141 146 118 107 105 124 91 82 86 255 79 133 121 64 84 109 97 74 95 135 140 56 63 60 71 89 83 164 95 103 184 88 163 176 126 118 145 165 76 161 177 98 138 150 180 172 99 117 59 152 81 163 64 137 117 108 140 165 188 161 164 198 196 109 129 176 167 96 131 170 86 153 132 167 188 134 190 210 99 88 168 61 150 80 179 76 159 143 150 103 67 103 146 66 71 82 89 99 130 195 192 194 133 109 195 167 193 81 167 142 153 140 157 62 87 104 133 79 172 162 158 105 122 143 130 191 182 152 52 137 43 78 145 163 141 199 111 111 101 186 132 203 197 193 175 117 79 138 176 177 156 91 188 169 165 144 147 142 192 110 76 144 116 86 116 181 156 98 74 162 74 120 94 143 110 162 106 154 124 206 96 85 80 184 79 182 106 197 118 181 111 193 104 202 110 115 101 136 83 98 171 160 132 63 89 66 66 125 65 161 139 88 94 73 65 70 170 132 124 167 75 101 171 138 120 196 97 111 113 149 105 95 117 145 205 234 157 115 103 71 61 51 75 107 82 125 49 155 113 178 179 193 180 66 60 76 150 149 75 161 164 133 116 154 149 53 121 131 73 159 161 155 183 175 106 147 174 103 144 81 144 147 77 103 167 163 96 170 115 158 148 63 89 155 75 95 87 103 204 121 109 198 189 82 127 148 73 77 83 56 143 153 114 155 203 169 119 174 152 165 117 116 175 173 136 150 104 181 115 150 173 118 214 199 122 172 98 186 93 194 95 155 201 211 166 107 200 203 191 148 86 77 93 172 166 111 151 201 225 129 174 161 161 128 175 161 75 95 103 85 117 109 115 153 168 172 117 119 92 160 93 166 133 163 183 189 189 97 80 121 168 156 112 205 151 127 127 81 83 163 192 138 99 155 152 81 170 139 91 157
143 141 131 123 113 111 120 131 150 170 168 175 161 141 131 130 130 133 134 137 144 255 158 169 165 162 165 167 162 160 176 181 180 170 167 167 173 175 185 173 176 172 162 157 177 182 175 180 175 150 147 195 187 192 173 167 107 163 175 169 99 140 130 111 166 189 178 88 167 104 143 181 109 112 117 115 174 92 95 121 58 83 94 100 141 80 158 86 83 100 124 69 116 84 78 72 94 86 133 132 107 117 119 100 112 104 87 120 119 77 130 91 71 103 152 75 68 50 129 56 91 66 56 72 171 79 83 65 85 73 100 180 121 185 83 183 127 204 91 75 64 131 175 193 127 122 147 112 168 144 72 61 117 149 137 141 132 159 169 139 185 125 200 202 141 195 181 117 145 142 90 135 66 85 96 134 123 214 162 160 129 176 155 161 101 122 144 98 67 136 111 157 158 143 114 255 149 73 112 195 179 99 127 104 190 140 112 127 143 144 159 113 163 161 139 131 62 65 77 124 124 151 119 196 206 117 184 93 127 79 152 156 159 76 101 179 153 94 201 152 196 188 148 201 118 208 90 169 136 171 157 83 176 88 158 164 160 178 151 213 176 143 189 143 161 82 118 82 92 146 173 122 169 102 205 216 180 179 188 196 117 197 165 97 166 119 86 131 156 147 146 184 128 162 111 124 117 111 113 94 156 98 110 174 115 69 153 161 74 73 66 165 160 85 77 100 100 164 114 149 139 108 106 102 164 127 169 97 151 99 140 113 182 198 167 109 147 122 122 138 192 83 64 113 104 71 144 44 153 85 94 122 118 178 117 72 168 153 119 160 180 176 172 74 156 155 70 53 92 72 122 100 147 146 154 107 202 156 76 57 137 144 46 53 63 108 171 94 133 103 163 150 151 72 71 143 51 148 137 176 118 97 102 133 96 84 100 144 143 156 61 64 167 81 95 169 176 86 150 165 175 152 176 154 136 173 182 111 105 117 175 205 186 129 126 177 208 108 171 171 194 200 200 191 99 193 191 120 185 95 189 195 116 81 173 183 122 138 173 105 223 230 234 165 107 148 98 144 133 171 84 142 130 174 145 199 155 171 150 180 188 148 171 96 78 164 144 191 172 190 185 102 121 194 101 204 142 102 126 168 82 135 93 164 118 101 94 80 93 126 153 122
130 133 130 125 112 103 109 128 152 167 172 170 167 145 144 139 139 135 137 128 134 140 157 175 175 166 166 184 181 190 185 187 185 174 168 169 170 184 188 186 164 175 173 180 157 182 154 156 167 162 176 188 185 179 148 134 136 122 151 174 165 159 158 187 137 127 140 94 162 112 171 123 104 168 153 116 112 143 150 67 83 48 116 70 140 140 99 102 92 147 133 85 104 131 78 71 96 94 110 112 128 135 151 91 77 102 108 77 101 99 67 53 85 73 139 80 58 113 47 145 139 82 114 79 83 177 175 90 95 127 191 103 103 197 186 180 90 160 80 67 144 90 146 133 200 156 208 201 166 82 155 153 143 134 72 123 127 129 143 113 132 147 90 154 185 184 175 173 166 108 141 170 160 86 70 158 121 195 131 205 108 72 165 60 105 160 155 98 109 133 148 165 158 47 123 134 50 106 82 161 104 143 137 187 141 193 205 175 142 80 148 75 79 124 70 117 134 122 255 66 60 68 88 115 150 186 111 95 52 79 68 128 180 195 97 167 106 177 122 202 194 120 114 199 108 128 148 69 143 94 168 171 64 73 159 68 137 103 220 143 182 162 123 100 142 88 149 173 171 139 162 191 110 136 228 129 141 114 150 171 100 133 120 153 186 174 138 111 138 101 189 192 179 125 185 159 208 208 184 114 107 141 106 92 135 104 103 88 104 58 136 72 129 89 96 118 134 85 114 107 84 100 137 193 102 200 196 183 96 167 100 140 124 94 106 88 189 115 216 117 184 157 76 74 124 65 85 67 166 153 201 171 128 218 121 142 183 157 200 179 148 97 189 99 179 170 64 87 67 53 56 128 124 116 181 103 116 115 116 138 45 68 143 135 65 101 181 187 149 148 136 158 147 142 45 132 82 96 146 158 89 177 190 196 177 189 92 172 166 121 137 97 163 90 180 75 146 150 102 149 71 80 153 142 146 178 167 202 196 213 120 161 189 111 112 182 136 112 106 182 141 101 104 102 182 180 71 80 111 138 111 184 179 86 184 122 124 184 188 118 157 201 224 126 197 133 185 176 113 84 145 116 159 192 155 143 213 117 192 131 99 181 125 138 104 171 105 209 177 150 136 193 102 148 128 186 89 172 160 159 88 78 86 139 106 120 109 118 191 96 125 119
116 125 130 128 109 99 105 119 136 162 166 160 158 155 158 162 167 153 156 135 135 134 157 171 173 178 181 183 199 203 204 192 190 172 172 173 178 173 171 172 173 165 167 169 151 173 178 184 140 125 169 168 154 133 160 97 136 134 143 96 164 173 183 145 187 182 108 165 103 188 108 129 124 177 132 132 110 168 150 128 72 57 44 89 66 116 115 113 106 88 94 72 96 99 145 83 73 114 117 104 155 255 151 136 108 80 72 107 129 109 63 79 66 68 65 54 49 55 61 118 54 139 102 86 131 152 184 90 114 255 182 114 215 135 182 160 140 70 93 155 48 150 104 130 206 114 141 99 190 176 110 85 54 133 143 156 150 170 161 99 49 54 120 158 105 126 174 145 119 193 204 169 184 95 174 147 112 192 151 171 168 98 158 159 82 166 209 196 187 92 173 81 167 117 32 50 97 73 132 182 108 101 143 177 161 109 160 90 181 155 68 108 115 176 164 67 139 107 160 70 64 135 169 199 105 86 65 121 133 90 184 143 205 215 215 143 192 136 142 189 122 133 186 103 182 185 138 56 149 76 163 120 127 151 82 111 185 206 160 218 191 201 152 99 182 83 135 84 168 176 85 186 114 219 134 222 140 133 177 140 168 207 165 194 107 170 102 91 50 95 93 181 190 193 107 205 99 95 186 177 105 154 94 188 113 115 105 65 64 111 99 70 67 164 84 89 161 168 110 126 160 117 126 163 101 112 113 88 166 126 114 180 186 138 73 121 74 154 166 148 100 149 86 93 160 74 163 106 122 116 174 221 127 196 96 153 184 203 180 190 112 138 132 150 167 163 168 87 118 67 102 39 141 126 120 150 130 110 99 153 91 83 58 132 64 75 156 187 158 99 116 73 159 100 106 136 116 81 136 67 113 172 121 112 177 159 184 164 142 98 140 154 106 102 89 119 155 93 74 66 170 154 90 87 121 174 85 101 105 203 217 213 143 173 188 116 149 182 102 157 182 130 138 99 182 86 71 54 79 160 156 85 79 130 181 195 104 99 144 182 182 166 101 96 167 176 135 113 116 157 116 138 83 96 98 110 155 104 120 111 190 94 85 98 130 194 172 110 106 125 99 190 196 195 103 93 146 80 79 152 84 75 160 99 190 92 138 91 96 202 138 190
114 124 129 125 111 104 103 113 128 145 147 161 146 151 155 178 181 189 174 171 142 147 151 159 171 179 181 189 186 204 207 203 197 188 186 180 183 179 176 154 153 154 158 157 156 182 196 171 161 132 152 148 145 163 142 124 127 104 85 94 140 117 192 142 156 135 128 150 123 184 187 186 131 143 133 207 173 115 175 90 130 122 58 47 106 131 105 123 119 148 81 70 133 83 100 124 87 68 81 105 135 117 105 106 92 122 106 104 86 118 82 114 103 50 48 55 53 98 98 67 110 98 110 108 100 109 108 199 115 180 108 160 171 119 120 171 64 140 50 138 47 142 157 135 199 181 102 149 157 144 169 143 121 108 141 157 176 129 148 101 127 147 91 159 120 172 112 181 142 213 154 200 154 153 193 162 188 191 117 143 158 143 147 69 83 142 140 212 120 205 112 151 84 143 119 62 41 147 177 113 145 121 148 132 113 128 139 179 110 128 111 90 141 155 101 168 112 119 143 178 151 112 178 102 171 159 151 118 61 142 91 133 149 148 140 211 97 166 136 105 170 98 203 184 194 106 157 137 89 138 163 119 151 68 116 167 182 113 213 176 121 166 190 179 138 120 128 174 109 75 121 139 146 189 121 138 204 101 90 98 141 212 132 173 106 73 92 124 60 68 171 80 81 114 189 190 99 82 153 99 126 151 107 86 120 177 144 59 60 95 47 94 103 143 103 117 168 144 167 69 110 132 126 123 122 191 116 142 125 67 148 79 153 170 67 161 166 162 139 192 174 172 95 87 125 156 168 160 143 189 193 174 197 135 126 105 152 205 209 172 119 151 117 157 160 189 176 108 85 68 81 78 127 94 110 161 103 152 145 108 114 168 132 154 118 141 177 104 95 104 159 161 182 171 84 169 188 88 138 76 164 110 161 133 217 186 134 149 74 80 172 151 214 198 93 174 84 89 71 167 187 108 177 115 167 151 110 91 107 185 127 209 209 136 180 126 108 115 178 164 148 142 173 116 172 105 99 75 138 48 133 79 84 152 71 155 181 164 96 175 172 167 166 79 162 167 145 82 158 131 140 79 157 127 169 91 107 129 185 139 139 125 101 117 160 105 204 133 98 161 137 127 181 146 81 169 170 80 105 169 140 130 120 154 183 96 123 77 116 123 197 92
118 126 129 127 116 110 113 113 130 138 151 156 148 147 144 181 179 205 185 187 164 156 152 159 170 183 255 180 186 198 202 199 196 185 184 186 176 178 165 168 162 150 144 130 132 163 187 187 156 155 132 163 147 155 123 139 130 121 148 106 152 140 177 132 135 110 176 165 163 161 156 187 150 174 151 194 173 150 168 76 74 57 76 87 106 84 112 114 106 97 73 110 89 86 101 80 66 61 71 125 114 138 120 109 130 103 91 91 115 77 114 102 73 54 124 47 62 44 78 49 56 163 153 95 162 183 183 212 199 179 199 153 221 215 105 139 81 138 67 137 81 58 103 98 85 195 187 84 173 170 68 57 107 134 53 172 150 164 112 74 129 133 101 80 106 137 112 107 128 209 180 163 193 129 165 136 131 86 104 100 70 122 39 136 158 153 176 220 138 119 153 179 146 144 133 110 129 86 122 132 85 81 181 149 123 88 171 79 116 77 144 159 96 188 90 75 95 173 76 87 132 101 180 167 135 77 55 148 90 145 153 115 214 214 156 191 164 188 164 110 104 210 128 255 112 172 165 114 157 72 135 170 123 150 141 163 182 180 207 143 155 187 145 179 133 62 159 183 184 145 149 74 64 108 83 99 116 191 94 166 109 113 124 131 148 117 93 167 87 136 170 81 79 186 90 110 168 75 141 80 94 118 94 177 178 143 157 82 58 90 64 54 92 102 161 174 88 86 85 69 63 85 122 99 197 88 97 110 123 170 173 106 71 167 171 90 133 75 86 110 80 163 180 83 117 146 158 86 116 163 103 134 87 171 175 178 199 204 117 102 198 206 108 163 157 93 120 141 142 73 130 121 153 170 186 150 204 164 112 148 139 146 152 200 155 145 129 131 142 113 174 173 116 178 195 129 153 178 203 121 144 85 99 201 162 221 210 142 173 172 116 144 195 183 157 174 106 65 156 93 182 183 182 192 187 147 164 179 187 139 108 201 186 106 123 154 154 115 87 153 99 194 190 80 155 85 152 142 99 60 111 72 154 136 73 139 82 170 186 97 88 139 154 174 136 163 80 117 111 114 130 156 154 122 110 101 161 112 106 143 179 178 119 142 114 196 182 197 157 187 153 151 91 148 136 110 126 89 71 130 90 110 124 147 182 162 79 181 180 135 80 139
131 131 128 126 125 124 128 124 133 147 156 172 159 144 146 179 188 189 191 183 174 174 166 179 186 189 179 189 190 197 201 194 181 173 178 179 179 175 176 173 154 163 153 125 141 152 169 164 138 147 142 125 151 184 157 114 142 152 159 158 93 153 110 88 92 101 142 160 133 168 175 105 108 137 255 167 152 162 117 155 78 108 66 82 129 81 149 170 97 107 71 95 110 69 76 58 95 86 78 88 57 98 69 90 88 100 90 104 106 94 145 91 117 73 55 81 58 88 46 56 135 67 83 112 143 123 123 138 202 145 158 119 159 222 119 205 138 199 117 101 49 95 110 151 176 118 169 141 94 162 157 156 136 148 58 175 165 174 181 112 124 72 106 102 187 186 180 168 161 154 199 197 166 187 203 122 184 143 172 140 60 150 134 144 143 172 144 129 204 214 134 223 123 159 44 100 136 61 163 96 62 113 122 70 114 79 148 164 114 81 176 105 90 86 76 74 65 170 155 176 92 171 158 73 151 156 86 74 132 154 185 117 120 131 133 213 175 103 188 166 106 180 132 222 119 141 171 97 113 157 98 161 80 95 149 118 76 95 209 106 202 130 106 72 70 68 103 95 146 104 90 114 126 114 86 79 165 166 172 156 150 120 163 193 117 152 117 103 218 226 157 99 191 110 188 79 86 59 138 176 122 118 97 99 109 161 141 107 84 71 94 124 74 71 74 161 114 145 173 148 102 63 85 91 103 84 175 154 168 99 158 76 131 148 164 164 143 170 87 167 69 150 169 183 93 174 179 166 90 121 111 61 96 164 169 172 137 111 136 164 195 154 192 196 145 109 181 140 87 94 104 98 180 167 121 223 154 153 144 87 95 194 211 164 140 110 174 120 113 137 93 111 161 178 194 213 172 209 194 105 152 127 158 194 182 125 205 101 152 135 89 189 188 90 91 108 128 71 142 209 119 197 213 116 187 165 90 136 171 98 100 165 132 98 135 146 91 154 126 150 94 193 84 84 173 127 74 121 65 115 155 255 177 77 152 145 164 174 151 148 144 86 189 100 103 107 74 160 161 91 102 82 74 50 139 139 84 123 216 221 223 161 153 150 107 211 162 174 88 149 184 123 116 107 159 94 148 68 104 88 114 165 111 111 86 160 89 184 125 78 69 99
142 138 133 130 134 143 147 146 153 157 166 179 174 161 159 165 180 182 179 167 161 159 162 178 187 187 182 177 185 198 197 188 173 163 162 164 168 165 177 177 172 175 162 148 147 151 151 159 151 129 144 164 179 164 173 160 134 172 129 165 139 87 132 85 106 111 122 159 104 122 97 154 159 186 106 108 112 147 149 151 80 157 164 150 151 74 97 107 116 90 135 85 111 123 89 86 102 59 97 42 68 44 62 67 76 101 85 101 141 114 96 115 94 88 74 68 67 79 59 59 112 150 77 174 97 206 135 114 195 145 143 132 174 124 128 140 126 198 198 83 134 155 70 157 73 80 159 154 77 141 149 115 148 151 137 173 133 145 88 173 110 159 120 188 131 163 205 150 227 165 182 122 130 179 198 192 102 80 133 100 67 120 81 51 154 173 88 187 208 148 225 125 168 176 155 124 160 73 167 118 63 119 163 71 147 103 84 85 85 92 102 105 202 150 154 163 60 74 105 172 91 178 78 145 118 100 80 113 181 145 183 121 101 195 208 166 112 110 143 166 181 178 131 200 215 186 184 115 87 191 126 191 152 76 103 134 166 168 165 185 172 158 100 79 114 149 136 105 197 111 155 76 55 112 51 112 80 120 113 104 109 193 193 191 185 114 200 214 234 206 140 218 113 140 124 114 86 80 141 109 129 101 149 193 93 77 67 63 96 74 119 103 72 109 61 76 153 139 81 139 140 159 166 127 173 173 124 152 93 95 111 92 179 84 173 148 74 69 102 69 172 81 139 106 176 181 129 79 74 169 63 144 92 171 172 105 162 210 116 205 200 154 160 203 189 178 170 88 111 91 178 136 141 112 164 216 217 197 184 100 111 110 217 182 162 209 156 164 183 200 195 128 69 177 194 166 222 217 216 196 137 96 206 138 182 130 113 106 119 201 90 115 159 167 173 125 170 84 188 188 195 115 110 206 162 165 105 70 168 167 156 186 188 170 129 121 140 111 80 103 128 189 116 133 125 120 147 84 153 67 167 144 108 83 102 66 70 97 174 97 192 137 196 175 101 107 159 134 174 97 168 158 52 100 64 110 107 190 121 228 162 130 203 187 200 171 158 96 156 123 90 142 118 181 89 133 76 157 172 164 169 120 184 125 165 151 127 102 140 178 59 73
146 143 139 135 137 148 152 155 156 158 173 184 173 172 167 182 162 153 156 148 164 168 160 180 169 171 182 179 193 194 191 178 165 149 151 148 155 165 169 182 187 187 177 154 168 162 156 144 122 152 154 131 167 149 195 138 136 173 154 174 104 111 110 72 113 109 70 97 116 139 115 100 119 183 112 111 135 103 122 102 98 151 141 105 117 111 89 115 112 104 95 121 104 82 102 78 74 118 51 68 32 57 71 63 79 101 93 112 119 154 107 158 118 101 91 85 94 118 84 77 80 75 77 141 112 105 192 208 147 101 196 197 201 126 114 112 209 204 96 118 173 152 110 72 163 181 177 162 61 139 146 51 122 111 161 126 188 148 111 116 181 102 114 190 126 183 198 214 175 140 127 189 161 136 182 127 117 147 166 121 52 133 103 56 160 171 175 138 178 206 136 201 196 166 180 76 132 255 167 102 48 55 151 116 84 113 129 169 177 163 113 118 115 146 106 169 85 142 174 158 166 105 172 125 132 102 170 161 186 185 173 86 158 194 155 127 189 215 211 115 159 210 211 187 217 156 173 82 182 125 92 150 137 166 73 176 111 170 190 177 118 204 137 163 68 163 115 194 155 162 149 72 125 134 147 84 133 129 177 82 167 113 135 203 147 97 135 160 143 225 206 123 114 93 142 70 138 102 183 159 129 123 94 94 191 129 90 110 173 129 122 127 107 109 80 98 148 95 101 162 63 64 60 63 67 165 116 108 158 202 96 131 164 187 97 182 75 165 164 94 90 169 157 110 101 85 169 147 152 147 119 150 131 162 188 108 202 203 202 202 176 204 205 198 170 188 168 96 193 187 109 116 122 93 144 91 123 138 101 178 190 100 180 127 156 112 205 201 189 131 117 143 81 121 93 168 197 167 186 206 184 105 105 112 147 214 199 137 113 138 91 80 168 111 98 187 188 147 118 198 110 116 136 169 129 63 100 70 173 163 147 152 183 81 144 61 97 136 51 129 103 121 146 152 170 173 185 89 132 122 162 114 99 168 89 110 148 112 186 184 162 147 159 141 191 179 153 95 169 179 73 255 100 81 49 37 64 169 148 127 212 170 115 110 127 192 140 178 112 135 161 126 195 129 146 58 102 154 90 104 207 130 151 163 92 137 195 204 103 88 98 131
130 134 135 137 137 141 144 152 156 168 170 185 183 184 173 176 153 137 140 128 147 168 255 175 166 159 163 176 185 188 180 177 162 148 139 142 143 159 176 183 200 202 186 191 178 181 137 142 154 171 175 177 183 194 177 191 155 158 159 172 155 157 125 96 103 53 122 152 118 184 99 97 168 169 166 134 152 158 125 159 153 83 86 84 106 77 76 75 94 105 126 124 103 128 126 99 86 75 66 81 56 76 74 74 72 107 145 150 101 175 128 135 147 98 109 82 89 92 158 168 77 105 101 100 120 116 204 203 159 104 190 184 105 135 106 103 177 165 91 82 150 173 167 118 188 167 180 177 65 155 147 98 111 157 164 72 176 147 188 194 173 129 217 145 164 108 163 172 220 192 115 181 194 132 127 101 97 187 255 79 90 67 117 98 78 169 80 184 88 163 100 185 121 181 168 161 147 83 170 151 147 56 172 140 180 130 173 82 151 117 113 215 179 105 86 83 76 147 110 83 84 159 86 157 162 123 87 187 137 185 177 135 145 110 185 195 183 212 200 188 199 186 175 197 148 133 182 116 167 115 153 98 87 79 130 81 112 107 100 112 166 98 194 182 118 175 104 152 195 133 112 115 113 96 57 147 86 124 145 103 189 151 115 211 172 121 172 133 141 126 183 145 95 169 165 92 178 115 156 232 181 201 92 103 175 255 85 69 155 134 102 114 103 171 115 86 115 145 164 88 50 67 54 109 73 138 107 115 130 103 117 131 184 98 207 112 136 73 93 72 172 138 160 175 176 174 103 55 46 63 93 150 145 97 178 121 172 152 116 172 177 157 101 154 132 133 142 195 95 115 84 84 82 174 126 153 88 101 71 73 142 255 81 138 172 199 114 101 93 110 214 107 135 177 73 175 149 167 143 136 111 165 174 110 107 200 197 100 149 116 130 157 166 93 110 113 195 130 180 177 104 185 172 78 139 76 142 86 147 128 169 112 173 165 75 157 146 97 72 122 78 179 173 145 169 174 184 191 100 143 106 171 72 152 134 140 181 102 162 173 180 169 188 138 150 172 181 187 188 188 78 116 62 118 45 143 110 139 99 192 136 182 84 88 98 93 108 172 199 124 90 189 186 94 91 153 119 63 170 128 102 142 196 117 175 161 105 104 134 89 94 55
109 118 125 129 132 141 140 145 155 151 164 174 182 170 158 152 140 134 117 125 132 164 164 157 153 158 166 174 177 185 184 182 166 152 142 135 143 160 184 198 207 205 206 207 201 192 166 180 179 190 190 177 176 132 127 165 150 185 189 156 170 98 103 116 96 136 126 101 186 113 161 168 96 86 105 81 127 140 145 69 73 68 106 91 98 70 133 86 153 117 138 161 138 149 74 71 97 102 92 87 118 75 112 98 115 110 147 140 109 132 177 128 153 90 86 117 67 99 100 156 100 87 105 156 166 118 159 170 98 119 138 131 193 170 133 110 177 178 74 72 73 124 84 166 175 190 192 186 166 62 142 107 173 114 173 134 160 137 186 181 212 221 186 168 202 140 185 169 191 121 190 135 157 167 185 162 188 128 76 144 116 81 94 142 102 148 167 183 168 169 164 149 120 172 179 149 165 181 76 112 142 105 176 131 112 120 182 95 124 138 122 214 206 182 117 94 174 106 94 122 168 152 142 69 151 82 158 190 185 129 79 84 155 166 92 180 140 171 204 158 176 186 147 117 94 195 176 173 115 183 163 168 170 140 184 181 145 90 175 160 96 182 124 167 150 154 203 107 98 87 111 122 71 160 109 102 160 172 183 156 200 206 211 133 114 184 105 110 185 151 117 145 115 79 161 148 119 206 192 143 182 131 115 105 119 83 70 61 131 178 171 103 121 109 175 158 109 153 74 57 120 105 113 135 134 118 124 146 196 99 82 145 146 178 198 144 109 121 68 148 84 102 184 182 108 138 123 44 142 111 74 149 134 159 178 97 96 106 165 212 174 147 191 92 255 201 133 152 135 96 154 107 164 177 92 97 49 150 130 80 167 168 166 112 165 181 185 81 90 92 191 188 172 174 66 110 163 66 178 152 177 166 109 170 82 185 179 174 108 92 124 128 147 82 188 104 203 102 168 115 200 143 157 86 71 143 53 57 84 113 81 118 177 145 84 139 77 136 94 72 114 87 154 134 101 116 194 120 145 101 92 70 156 70 144 157 101 146 164 136 85 83 122 128 171 75 180 95 122 98 117 127 66 151 108 136 79 93 179 131 92 64 102 134 105 124 110 187 123 196 142 166 124 166 154 133 84 90 78 153 94 131 186 149 173 169 184 168 115 182 75 95
99 106 114 122 133 143 147 147 152 155 164 176 193 182 157 142 136 127 128 121 142 151 163 164 152 159 163 177 178 198 201 194 177 157 144 135 144 158 186 202 207 201 184 187 197 161 179 172 195 182 201 192 136 179 148 124 154 116 130 117 190 144 155 108 106 134 80 99 187 136 189 171 95 151 65 101 76 141 73 134 145 96 64 66 105 143 151 95 111 180 189 196 137 156 98 92 110 143 116 95 100 98 93 102 88 78 104 138 114 129 108 124 110 113 74 92 80 69 78 172 148 190 177 147 140 168 203 91 93 194 125 135 179 103 79 180 78 73 99 172 88 130 167 82 165 138 212 159 180 171 69 169 165 152 146 70 151 125 192 182 209 144 216 161 200 134 159 152 156 95 91 141 106 164 115 157 122 169 187 115 58 127 53 65 156 108 119 168 75 150 78 78 72 159 62 156 148 129 128 71 163 175 176 151 134 196 143 67 158 128 93 165 108 204 109 100 170 176 176 193 119 127 158 71 157 93 139 192 87 108 121 175 73 150 96 100 137 122 194 101 101 115 163 176 166 193 89 91 85 160 99 91 86 174 145 177 164 179 177 68 131 70 83 175 194 201 199 143 104 183 173 73 123 163 161 130 91 169 98 193 123 207 223 160 152 192 98 154 200 103 153 55 91 68 77 119 117 221 141 128 117 194 125 192 189 151 78 128 160 89 190 101 115 175 134 188 152 76 103 47 45 76 117 81 98 87 120 113 193 105 77 84 157 189 201 117 103 83 69 135 158 115 152 178 84 156 107 148 111 59 122 159 78 154 157 78 176 97 100 165 160 181 164 141 171 167 169 201 213 146 112 196 159 90 173 163 55 84 76 106 184 147 100 154 178 97 155 70 94 164 179 194 191 103 158 96 155 78 96 174 181 146 83 84 157 179 116 210 144 188 83 255 147 84 185 179 140 199 207 213 204 166 128 163 83 162 144 132 112 87 80 149 96 86 121 125 168 113 127 145 131 255 152 164 93 104 113 116 209 199 90 126 166 102 175 169 179 160 146 81 88 146 188 179 93 71 162 155 139 94 103 120 81 72 70 166 149 95 78 161 100 110 83 103 102 114 147 135 146 137 123 80 184 92 178 78 86 187 181 147 76 68 136 77 105 160 109 150 126 149 138 182
106 108 112 120 136 150 154 154 159 168 174 191 181 178 159 140 130 121 114 137 154 150 159 173 169 171 175 190 203 214 213 198 182 166 147 143 153 165 184 202 205 190 181 178 165 157 152 167 196 164 156 188 166 161 166 111 167 161 154 180 134 176 120 112 142 117 132 171 171 133 109 102 125 72 100 138 153 97 80 156 76 94 92 73 109 81 128 99 174 129 137 172 130 113 147 136 104 92 146 96 152 139 104 89 77 95 84 94 100 146 99 112 113 92 133 151 77 78 77 80 92 179 120 139 157 157 112 96 90 94 195 145 173 108 149 95 104 74 156 73 173 92 142 70 189 198 195 204 96 77 166 179 151 167 167 175 107 109 163 190 140 202 178 153 158 186 138 121 97 157 117 156 165 96 170 174 88 120 192 179 155 57 130 65 170 169 167 73 88 157 148 188 134 80 85 59 119 122 111 160 154 153 102 88 171 153 171 119 160 152 126 89 161 184 106 152 101 174 107 129 165 163 130 146 88 193 154 99 86 177 175 168 85 165 104 165 164 75 171 149 114 88 105 173 182 102 162 97 153 207 197 200 191 148 90 137 168 193 126 116 61 164 87 192 157 147 133 181 98 81 107 117 124 135 159 114 87 167 175 188 145 218 179 159 183 106 171 122 109 173 131 118 44 59 81 201 137 130 138 120 109 104 163 103 92 173 117 63 144 73 91 169 114 135 104 123 114 84 63 126 88 125 100 89 114 146 199 195 98 135 175 71 73 86 121 167 172 176 153 131 173 156 196 95 83 173 128 151 63 97 166 69 154 60 62 92 168 151 173 160 68 161 134 150 175 132 209 135 130 119 193 114 201 184 151 172 73 175 147 201 179 93 184 80 73 92 152 134 100 77 93 123 172 108 75 167 76 106 81 179 85 101 130 166 171 183 162 174 213 113 171 53 68 136 171 91 191 124 209 186 214 162 182 117 127 164 144 70 70 145 142 153 148 101 164 88 85 132 164 119 163 138 95 155 141 176 94 202 191 126 87 156 153 129 178 93 112 161 90 195 103 131 89 112 160 146 80 178 181 165 196 147 179 163 87 108 174 192 149 148 127 96 127 203 193 185 194 91 96 96 77 178 88 189 84 101 135 113 130 141 112 168 65 63 161 94 125 135 119 107 103 94
124 120 119 125 140 152 153 151 158 168 183 199 197 185 173 157 137 130 121 136 148 163 167 171 172 182 193 199 201 222 222 211 192 166 154 141 156 166 191 192 198 183 178 174 151 172 171 184 196 189 191 144 164 170 142 133 162 140 144 162 133 188 134 135 159 154 141 127 135 105 132 124 103 99 62 123 108 85 147 150 181 157 155 123 79 105 153 98 111 158 168 133 145 161 141 89 75 83 117 119 129 102 111 122 126 122 136 83 99 82 125 81 97 124 106 103 128 135 96 87 79 168 119 169 182 212 104 118 95 111 95 124 99 157 79 145 72 76 113 144 123 68 155 60 70 161 164 192 85 177 80 182 88 174 175 146 126 255 132 180 85 124 173 89 100 101 103 185 127 175 118 153 77 85 77 123 168 195 204 100 163 151 157 114 138 148 149 154 59 176 167 118 101 123 50 47 50 136 92 153 118 64 106 72 136 123 255 61 88 83 61 156 175 102 139 161 156 97 115 163 161 163 117 185 185 135 203 187 162 130 255 67 104 126 64 139 136 123 75 147 128 134 160 180 182 198 195 190 113 198 207 114 112 187 125 177 98 133 178 159 139 96 109 125 193 111 198 150 91 154 116 64 164 122 95 114 108 176 88 193 110 150 178 175 85 128 90 179 183 178 131 48 52 106 173 124 112 209 137 176 166 151 118 203 131 115 76 72 82 112 137 156 111 193 132 108 114 93 142 82 121 158 179 88 136 107 161 184 126 110 104 115 87 192 112 207 98 103 84 87 158 196 161 189 86 88 181 147 79 142 173 94 139 65 130 67 117 141 131 52 51 150 161 72 87 205 132 111 189 108 176 168 190 203 97 189 100 103 128 128 152 168 177 138 162 79 112 87 77 47 73 169 178 81 160 194 185 106 118 181 111 145 166 179 100 198 111 192 109 153 69 135 131 143 111 164 109 114 197 220 146 211 161 173 133 117 128 61 126 61 101 114 180 90 125 129 92 74 103 79 87 150 143 129 160 84 146 164 184 176 180 177 121 187 200 153 185 89 198 210 164 198 255 175 79 152 121 116 136 144 156 123 202 190 171 205 153 185 112 143 115 79 107 201 155 101 175 156 136 74 144 86 177 143 138 196 133 155 110 136 111 114 71 165 106 180 115 134 160 161 192 98
138 133 127 131 135 140 143 141 159 168 193 194 203 194 175 157 146 135 136 127 147 163 173 187 185 196 204 203 218 222 220 211 190 173 160 159 167 173 192 199 200 190 165 159 170 153 150 191 197 196 181 133 134 175 186 164 198 151 146 176 122 147 149 150 111 108 157 142 159 163 148 85 155 87 112 138 97 119 94 144 132 146 101 87 102 81 89 97 102 103 119 102 108 149 82 84 82 125 86 102 102 118 100 97 90 90 121 89 101 75 99 112 95 117 182 132 110 184 153 100 83 97 96 179 115 157 177 149 92 100 179 157 161 154 154 90 155 136 126 166 75 176 111 45 142 136 95 131 160 177 142 104 157 156 187 180 142 97 90 122 164 169 156 89 77 150 126 139 167 89 108 129 77 172 94 101 173 148 97 185 168 198 205 186 157 95 121 66 54 76 169 160 179 179 60 147 143 71 154 74 57 109 149 125 112 80 59 68 85 86 65 103 116 78 126 188 157 63 113 65 70 153 151 171 124 125 198 182 102 66 135 77 163 163 140 69 159 87 61 107 169 173 89 160 189 92 188 125 197 207 194 198 181 191 90 155 172 186 101 84 58 157 160 172 93 185 173 103 128 104 135 68 152 182 94 113 164 80 130 124 149 138 101 153 119 103 118 130 194 139 79 107 144 86 159 168 105 143 107 113 162 167 123 184 146 132 183 107 170 87 80 148 152 166 118 118 100 160 97 120 128 126 93 80 129 81 90 82 82 88 170 142 150 99 197 93 185 146 86 109 90 187 171 170 115 87 155 167 195 190 178 177 93 69 164 165 81 92 151 100 138 140 75 94 105 171 179 190 167 99 178 132 139 190 189 255 198 193 99 94 88 177 168 180 141 110 78 132 130 50 156 138 161 120 148 177 157 110 158 147 195 129 106 111 196 188 184 171 176 174 99 81 138 121 153 162 117 110 160 120 140 179 219 154 143 116 177 143 98 32 113 57 113 106 173 103 161 124 168 163 169 175 138 62 171 137 149 169 168 156 80 88 112 127 151 127 196 195 105 118 128 138 184 138 156 141 169 129 74 134 174 166 99 120 174 158 155 150 108 183 139 132 107 190 108 105 63 49 86 148 174 159 109 111 123 176 105 179 214 118 93 161 96 115 170 123 199 103 202 154 113 188
152 146 136 133 131 131 130 140 148 167 188 191 194 194 175 160 146 155 153 143 150 170 185 192 188 199 197 204 212 209 217 202 191 175 167 166 171 166 186 193 187 184 167 156 165 159 187 173 177 176 157 153 160 159 185 177 216 214 192 126 149 162 141 187 187 106 155 131 102 81 147 145 154 138 148 102 136 70 90 147 117 112 122 89 119 132 137 167 97 96 92 91 91 137 131 62 63 71 117 255 112 158 104 108 123 128 96 98 121 81 255 133 97 133 119 135 128 132 200 166 94 133 83 105 150 199 106 86 180 128 84 174 79 81 68 81 167 84 78 112 183 184 70 47 77 128 101 63 170 186 193 190 89 144 98 101 184 108 185 168 79 78 137 158 143 104 182 186 183 120 109 162 97 177 143 152 163 176 153 128 104 180 212 212 118 168 146 127 44 161 92 193 191 96 73 132 79 83 144 157 119 148 129 104 171 91 134 83 104 160 154 112 146 181 178 129 159 153 49 88 110 77 88 182 171 96 175 178 167 62 87 82 99 154 101 147 155 156 55 60 167 155 84 187 178 185 128 204 207 197 168 164 165 127 160 185 174 162 143 160 139 90 52 58 138 171 86 163 82 118 91 110 172 202 121 105 99 121 69 173 80 122 116 183 186 166 222 194 216 108 161 104 89 138 177 105 113 164 201 105 118 109 163 196 204 143 132 166 79 134 72 85 192 129 92 135 117 138 131 144 159 182 186 176 68 159 107 155 88 73 121 187 100 163 119 181 163 89 112 106 187 73 68 152 77 88 113 98 144 196 183 120 87 174 149 140 85 92 92 43 140 157 157 99 182 197 126 167 155 106 159 155 127 158 110 98 164 150 113 163 84 129 185 90 149 129 59 75 100 144 171 97 70 74 169 109 177 139 161 182 183 105 206 148 99 196 159 180 102 123 82 79 142 62 98 162 151 193 103 210 139 196 114 206 186 101 153 137 141 38 120 122 173 180 127 63 58 68 78 98 94 184 179 170 179 181 166 76 67 153 171 164 138 168 187 116 108 115 163 200 174 131 181 119 81 87 106 99 116 168 153 163 183 162 175 199 172 203 182 208 203 180 119 123 85 153 134 74 91 82 189 213 171 223 146 169 101 203 177 99 105 132 114 103 71 177 179 88 85 92 89 164
158 150 135 127 120 124 124 133 150 168 177 181 187 188 162 150 148 164 160 166 168 175 183 194 185 202 201 201 188 197 193 198 192 184 179 175 175 172 176 182 192 188 174 161 156 171 163 193 166 180 173 135 163 193 143 187 174 194 174 185 124 166 126 149 119 107 165 156 128 75 158 77 113 133 80 99 90 120 94 108 99 101 139 156 91 101 104 255 106 99 86 112 87 76 73 72 124 81 111 108 110 116 142 106 104 98 90 82 103 88 90 156 103 98 169 133 162 98 99 161 89 159 64 89 127 157 181 150 75 174 136 186 100 81 136 95 102 189 88 98 104 104 125 55 46 137 105 96 170 181 190 202 160 156 153 157 200 108 183 93 75 77 81 166 162 186 172 182 183 83 100 122 159 152 96 177 155 164 120 142 175 166 193 201 187 126 150 95 120 55 170 182 96 186 86 122 82 99 193 84 134 127 144 178 168 174 113 70 177 114 177 175 98 90 90 255 143 92 145 151 158 183 122 179 134 155 90 147 110 144 117 132 157 160 161 74 97 142 92 145 81 91 188 156 187 94 151 127 196 124 95 129 183 187 88 180 84 136 63 52 128 90 139 103 102 70 72 134 103 137 80 124 197 180 145 164 94 56 142 101 144 157 81 142 177 217 175 184 140 152 177 201 204 152 156 193 102 107 157 95 178 100 180 198 147 144 80 100 101 63 169 93 99 100 117 153 117 105 123 189 115 195 185 99 117 70 52 144 77 161 86 97 91 188 186 121 89 87 197 172 83 60 140 121 60 94 172 197 203 124 109 112 182 144 97 123 71 122 126 130 58 140 138 97 147 214 205 152 112 132 91 111 106 112 164 181 83 171 82 187 111 131 123 194 103 183 133 55 158 180 123 169 155 98 85 99 120 195 95 154 136 180 196 99 134 174 177 118 124 89 106 91 38 87 87 71 122 112 193 194 121 184 182 182 175 146 156 72 87 56 137 61 176 101 80 69 106 91 125 175 88 178 178 129 134 78 77 116 164 75 83 182 167 186 211 145 205 198 102 136 120 173 171 158 83 179 162 178 96 177 181 177 122 141 165 88 134 120 232 146 126 185 93 163 125 90 115 49 57 76 102 208 194 194 106 195 135 113 93 97 159 98 59 147 142 84 163 97 152 67 137 103
159 147 130 119 118 116 124 136 143 152 155 166 179 163 160 153 150 179 184 195 183 177 186 174 180 187 198 190 178 187 187 196 192 188 181 177 178 170 160 169 178 174 163 148 159 165 147 170 158 157 152 176 175 189 180 155 213 213 218 167 202 166 143 134 105 131 152 84 108 157 92 96 155 96 91 101 124 84 85 92 123 103 132 136 89 132 153 123 109 131 94 96 137 103 87 80 85 114 108 105 101 146 111 120 132 127 119 112 84 97 114 139 92 104 94 75 75 80 92 143 118 93 56 74 96 86 162 168 158 186 103 197 107 179 190 100 172 172 117 121 114 139 105 130 144 57 153 138 67 76 152 162 205 195 203 172 107 151 83 166 68 76 120 195 98 167 104 106 133 119 164 142 127 93 147 165 180 169 156 95 110 133 202 106 97 118 48 103 65 84 67 79 141 190 147 167 95 194 145 102 126 115 119 187 151 162 149 84 91 86 168 170 104 189 187 136 130 124 144 169 179 111 155 157 89 141 133 149 73 91 75 130 59 106 160 98 146 115 81 64 75 183 167 120 185 180 112 111 174 195 87 98 88 76 82 159 153 145 143 74 46 89 67 152 85 154 65 149 123 58 71 160 179 176 118 118 145 100 161 116 83 153 90 77 143 119 231 129 210 137 203 149 181 115 113 141 112 113 122 92 181 176 160 111 162 66 102 99 61 143 154 184 99 176 101 102 121 151 95 96 185 123 128 123 129 115 61 53 90 255 255 75 96 115 182 181 170 187 104 157 145 123 136 125 137 105 169 118 207 171 146 204 204 186 194 77 110 47 19 71 65 69 165 155 223 127 196 170 190 167 124 189 183 125 167 177 160 95 123 127 117 173 167 161 92 71 111 151 91 142 148 122 101 73 83 167 185 104 120 157 91 93 188 103 115 190 174 186 178 71 88 49 113 135 113 104 165 81 163 161 93 134 117 207 179 145 116 55 76 55 125 154 92 167 134 104 155 153 114 136 147 121 67 160 107 138 142 141 65 160 83 106 159 183 191 171 138 186 85 167 172 154 132 71 101 152 170 162 193 107 179 156 178 109 165 79 100 112 215 185 198 116 171 146 66 61 58 143 156 179 99 140 127 117 172 114 85 64 124 111 155 157 86 74 127 151 148 90 117 57 90 94
149 135 117 106 105 116 132 146 141 152 149 162 170 162 150 142 161 174 194 197 192 182 172 174 171 188 187 179 184 179 187 192 194 185 180 179 171 162 164 158 147 160 163 144 160 155 163 134 160 146 158 146 150 140 123 156 200 212 152 170 131 176 131 167 116 89 155 149 79 149 130 153 93 94 109 117 108 107 79 127 87 91 131 90 153 184 177 183 114 129 104 104 138 143 79 83 135 96 130 113 104 116 154 147 126 99 109 75 94 99 146 119 81 133 59 112 93 133 140 52 51 71 68 60 107 157 175 76 127 107 115 206 160 159 153 200 134 176 104 209 215 196 127 68 101 50 153 154 152 164 181 185 109 129 103 175 189 94 80 169 160 143 186 139 182 185 119 140 183 175 129 169 118 130 176 117 166 96 113 159 123 109 93 201 191 122 52 41 113 58 112 120 182 152 89 100 177 125 99 102 91 101 99 133 172 165 128 119 72 70 85 194 111 165 186 87 186 113 190 110 96 193 107 124 113 107 39 162 90 80 165 133 56 94 96 149 86 82 142 164 113 205 177 201 133 200 121 182 177 154 91 67 161 134 98 166 83 93 140 62 113 147 119 136 168 83 167 141 70 59 86 124 144 116 183 119 154 123 73 88 160 97 60 110 180 201 134 114 102 190 167 99 101 170 110 96 91 86 67 68 61 68 134 77 56 135 129 52 123 113 177 146 199 97 183 171 145 83 77 90 212 143 98 91 169 165 61 57 121 160 65 116 139 106 179 181 94 88 95 160 100 50 37 104 137 116 108 98 193 126 177 202 195 197 186 84 156 97 120 94 50 162 190 187 235 233 167 120 98 165 182 98 156 136 97 74 161 154 145 110 189 210 147 113 152 52 103 93 145 63 158 133 156 137 131 128 125 92 96 178 101 145 82 168 168 162 189 181 185 181 78 47 51 128 113 65 69 142 65 155 169 124 146 203 96 165 131 142 85 85 164 101 82 119 81 73 137 125 75 109 124 88 63 148 150 56 124 146 99 144 157 176 115 140 127 174 184 187 137 171 87 74 106 127 169 156 134 124 104 95 193 104 126 144 141 122 92 176 135 114 102 162 69 95 76 131 85 117 143 96 182 194 102 178 93 67 71 80 89 149 152 102 160 88 153 171 96 72 84 94 64 84
138 125 108 103 109 121 137 141 137 138 132 138 151 152 154 148 156 175 201 198 185 175 155 170 255 173 185 190 192 193 200 195 192 178 172 165 161 168 165 159 142 156 139 162 150 146 161 153 148 150 113 149 160 125 167 145 159 195 176 135 173 189 127 91 131 133 69 140 127 112 165 165 109 133 202 194 178 134 151 94 58 52 68 109 100 135 134 171 112 116 90 106 123 80 72 84 110 87 90 76 118 101 111 113 156 127 131 95 110 131 122 106 110 58 47 125 80 119 101 56 149 67 149 123 142 113 66 100 154 151 188 198 139 188 194 135 117 196 104 195 200 195 130 122 159 136 55 159 162 167 107 86 110 178 174 132 168 168 152 131 159 174 198 116 89 143 118 178 189 172 174 176 95 105 148 108 184 126 93 149 162 142 97 110 111 97 149 64 80 141 126 93 174 88 146 138 130 166 101 163 94 175 105 213 112 104 174 143 151 65 100 103 106 151 171 170 98 188 180 133 139 101 173 88 160 142 149 101 176 154 172 133 77 164 198 207 166 87 106 180 194 130 177 115 197 199 194 196 167 131 89 37 122 99 174 157 149 74 102 142 114 104 170 129 78 118 89 118 161 71 107 168 117 206 161 187 88 79 162 147 154 142 138 78 151 117 131 169 80 77 151 133 118 154 84 72 79 112 91 40 48 51 128 95 145 36 64 40 41 59 76 162 145 97 97 92 97 162 157 89 149 138 110 143 68 81 83 58 74 82 157 102 148 70 76 166 121 82 148 174 69 134 109 81 68 88 117 205 195 201 184 152 118 206 199 192 76 97 72 115 69 151 177 220 226 217 202 177 171 171 136 104 160 96 90 98 168 95 201 220 172 207 132 151 54 100 33 52 148 53 123 62 168 82 99 98 147 131 80 82 56 69 47 154 152 104 111 109 102 191 113 153 91 38 142 114 151 114 104 97 55 140 109 172 170 133 128 48 118 60 154 99 130 178 77 115 109 176 90 168 147 74 58 76 133 146 125 129 157 152 126 95 68 146 94 133 169 127 138 112 92 99 56 123 71 152 94 200 105 128 175 181 102 162 160 65 155 71 70 102 103 137 67 85 143 91 157 153 140 64 162 172 77 121 133 157 69 158 118 119 153 72 142 92 94 148 80 68 151 57 58 71
126 116 106 105 114 128 131 140 129 122 122 136 136 161 164 171 170 191 198 195 185 174 168 161 179 185 182 188 185 195 200 192 182 168 164 162 165 162 169 165 162 145 150 163 176 167 171 144 255 149 150 129 125 158 160 147 173 169 140 140 193 159 168 125 86 55 54 90 75 143 112 107 81 105 139 110 142 167 105 68 113 46 79 88 148 130 126 116 95 82 75 76 87 87 63 85 87 99 84 88 97 115 109 120 157 118 134 109 116 118 78 107 76 100 61 53 55 62 255 98 85 104 143 56 49 143 158 76 97 138 102 97 97 84 173 182 117 84 146 182 126 168 177 138 71 67 149 70 88 178 159 115 175 153 138 148 143 155 123 79 174 127 93 118 155 130 128 124 134 179 171 132 94 159 68 161 177 177 145 86 146 170 125 134 131 152 138 134 69 101 118 139 69 138 111 160 98 129 167 94 178 194 190 173 184 205 183 74 155 118 83 89 108 99 161 179 125 99 173 193 189 88 188 101 80 84 79 176 195 155 98 73 179 192 144 211 202 191 86 167 98 184 199 166 176 129 180 85 88 138 141 143 156 153 196 110 109 178 162 105 58 108 102 135 177 167 76 134 112 184 131 137 142 127 205 164 185 152 153 70 56 51 49 133 166 121 159 89 80 150 140 62 79 155 62 77 60 134 26 19 80 139 158 87 71 145 78 95 53 58 99 135 91 89 120 127 100 140 55 177 192 130 188 67 102 156 75 109 61 69 73 59 165 82 116 77 116 135 80 87 85 138 164 125 85 181 198 158 107 147 207 203 202 121 173 183 90 169 73 172 114 138 255 197 115 101 82 67 101 95 91 125 177 128 106 155 110 158 210 143 199 152 184 148 142 59 134 146 107 138 126 86 73 113 93 137 111 124 174 161 85 25 28 129 151 132 197 107 171 130 92 76 152 131 145 143 153 67 131 126 128 151 93 177 98 129 92 139 134 85 63 129 75 178 85 135 131 104 187 152 186 75 83 151 51 59 67 150 64 168 114 171 76 137 115 105 119 165 160 128 144 99 68 81 150 88 96 202 193 163 149 107 176 159 167 109 57 46 131 136 147 57 165 145 158 168 144 54 153 134 65 84 141 57 82 83 88 150 116 120 162 81 174 127 179 127 69 102 142 67 159 93
122 116 113 115 129 135 136 138 124 115 113 124 141 164 166 187 184 198 204 187 181 160 172 171 176 180 184 174 183 186 193 188 172 168 161 166 165 167 170 181 175 152 163 179 172 189 172 169 178 146 136 133 135 152 163 116 156 121 159 195 133 164 138 116 91 97 65 71 137 155 70 129 77 127 91 97 142 106 101 74 82 86 91 135 159 141 103 98 87 133 71 74 133 132 65 65 93 79 95 123 133 130 105 97 147 135 121 119 104 106 128 90 73 46 48 88 37 69 99 153 158 108 147 127 136 120 73 78 131 174 183 174 85 83 79 106 89 162 80 83 155 72 67 94 174 157 173 174 174 110 147 149 153 169 156 165 131 97 172 104 198 176 98 148 174 132 133 116 186 133 134 90 148 140 144 81 104 160 143 93 91 175 81 186 176 97 120 162 96 183 178 125 163 65 102 72 135 120 185 173 108 146 131 206 194 182 140 159 80 65 101 184 166 130 147 152 171 169 181 155 112 85 179 169 188 182 172 95 168 139 130 173 150 191 205 205 138 166 75 180 189 125 104 108 169 94 146 156 156 157 136 126 72 190 158 136 190 130 85 107 142 171 185 84 255 171 189 90 88 187 189 119 124 144 100 122 113 114 130 76 90 101 106 153 130 81 73 120 140 130 108 86 48 146 61 48 130 37 39 25 134 50 92 120 94 128 79 48 111 159 77 110 115 189 178 140 166 68 56 102 114 107 102 105 56 47 130 55 122 102 146 156 82 80 163 177 156 65 169 92 123 133 177 125 169 141 190 99 127 97 189 175 119 195 207 190 172 102 94 132 87 180 192 129 146 147 82 107 153 67 99 176 112 168 192 102 91 203 125 199 191 182 163 74 143 125 67 132 151 165 107 142 98 155 191 137 97 121 114 124 35 115 91 120 159 87 120 194 200 130 203 178 179 171 79 154 116 136 116 27 28 124 135 68 95 102 37 81 119 82 94 77 132 194 132 200 185 142 103 102 198 120 169 156 154 94 169 75 173 120 116 137 183 94 169 75 135 130 140 107 147 187 158 80 93 96 158 200 179 124 192 206 209 215 202 155 87 142 53 34 63 135 66 157 179 108 153 135 72 135 136 59 54 77 121 172 131 173 76 74 159 127 136 158 74 137 70 81 85 85 190 164
121 117 117 125 136 139 140 140 134 119 110 117 136 161 179 178 177 177 195 192 178 159 170 170 187 179 182 169 176 178 176 180 176 167 162 165 160 172 180 190 183 183 185 188 192 175 182 171 197 180 166 152 157 123 145 167 127 166 201 161 169 129 172 84 138 95 127 138 123 129 89 66 140 62 122 107 107 104 77 104 74 59 81 140 148 145 160 86 87 64 97 75 92 79 89 73 78 104 127 173 132 144 141 91 127 104 106 139 128 75 101 99 71 53 95 99 48 69 105 177 134 213 120 91 99 143 166 177 105 108 167 156 81 168 156 70 73 91 113 79 57 125 68 167 122 184 191 179 114 184 160 168 165 88 158 197 182 167 195 140 171 191 118 148 165 148 177 173 147 141 132 139 78 131 72 129 157 172 70 162 96 99 113 88 113 173 175 163 155 176 178 166 132 164 154 106 90 132 193 184 123 103 170 197 177 155 150 153 151 79 78 130 189 89 95 140 189 179 187 170 76 136 149 158 172 87 172 142 162 126 166 120 191 196 172 187 93 60 84 55 164 111 78 178 115 72 62 68 92 129 146 191 116 106 206 106 169 75 94 93 108 178 133 95 192 199 115 91 89 107 110 128 149 175 190 93 93 164 117 101 154 161 130 178 122 173 70 83 49 84 83 128 90 56 50 93 107 118 55 136 56 127 79 104 154 47 68 47 87 159 83 82 158 147 125 151 79 149 56 83 186 210 103 77 57 147 104 100 161 128 79 142 169 180 181 84 160 160 178 180 159 157 90 102 163 86 87 96 142 191 170 183 101 183 190 103 183 107 163 178 171 158 190 178 71 42 93 113 111 104 95 110 194 190 148 204 128 170 155 137 206 146 150 188 160 98 82 162 90 138 149 77 155 69 95 128 191 180 137 128 46 22 18 115 173 194 134 157 213 119 192 193 166 136 81 89 84 61 95 72 130 38 108 69 124 40 45 55 136 155 88 147 98 142 109 182 185 180 110 142 159 108 73 79 164 149 160 70 141 77 165 177 111 177 113 178 122 114 145 67 87 180 88 95 66 78 146 126 135 106 114 168 147 214 143 153 87 128 49 34 83 71 117 100 137 106 66 129 145 162 93 86 65 166 114 178 126 161 122 120 77 138 40 35 96 57 104 179 94 187 110 160
122 116 116 125 140 146 151 155 143 139 124 126 150 163 159 165 169 162 172 164 164 171 166 173 174 181 178 164 165 165 163 169 173 174 174 170 164 161 180 183 197 194 195 191 194 193 185 201 195 178 138 131 159 121 162 154 164 181 152 178 190 134 127 123 117 137 109 107 126 117 148 123 69 68 111 71 116 80 145 81 127 82 114 137 117 151 98 159 108 83 92 124 114 136 78 85 71 89 127 130 155 120 89 98 76 85 123 116 164 83 107 143 83 135 66 67 39 95 85 110 137 126 194 110 93 151 187 175 116 108 195 86 170 140 76 77 84 198 177 148 151 134 39 95 161 152 130 100 203 101 141 75 167 176 195 102 164 186 197 200 134 117 100 153 158 167 114 177 171 111 78 84 161 161 162 157 83 165 86 121 147 137 132 80 145 187 150 115 151 119 96 158 166 161 187 176 77 187 202 109 129 167 186 188 87 139 66 160 63 139 180 84 154 154 183 144 95 190 172 77 82 121 123 157 75 157 87 79 153 159 149 157 166 111 93 100 160 59 74 107 139 153 86 152 105 119 64 72 182 106 177 171 169 115 161 97 170 154 82 60 147 81 188 164 173 208 212 146 91 94 141 169 106 102 163 128 152 86 158 84 162 95 182 159 137 144 135 119 49 126 128 152 139 85 147 127 107 147 143 162 110 149 65 49 43 139 48 58 167 171 196 97 107 97 94 85 83 90 97 119 137 143 112 109 151 75 149 65 93 175 156 95 129 94 104 153 179 93 80 92 177 192 161 169 81 102 118 186 114 133 105 158 174 108 74 67 142 133 162 128 170 157 177 134 122 68 41 81 173 186 194 195 100 202 200 196 159 194 137 129 183 206 166 176 193 104 161 190 108 91 154 159 161 139 86 113 182 122 90 81 32 108 124 155 99 128 194 128 116 207 138 144 209 185 103 158 163 99 93 55 153 63 153 54 136 148 121 67 107 167 172 160 157 141 193 173 153 181 173 93 143 97 69 158 167 89 161 167 143 81 148 161 61 71 151 130 187 168 96 157 179 96 67 143 158 129 110 166 187 152 203 163 123 156 161 94 95 127 113 144 78 153 121 163 177 105 66 98 108 76 79 78 168 104 118 178 201 162 140 135 156 40 30 50 39 64 149 193 127 117 115 170
124 119 117 123 140 150 163 168 160 155 149 143 146 153 145 148 145 147 150 140 158 163 157 155 166 173 169 169 165 166 161 154 168 175 176 163 156 157 168 175 188 183 196 193 179 178 194 171 182 196 145 151 156 154 136 153 139 190 168 193 207 165 161 162 176 124 181 129 182 157 148 99 77 65 151 105 57 108 67 148 72 69 114 91 143 140 95 91 142 121 139 100 170 141 97 103 86 109 153 118 132 115 76 76 100 126 141 132 121 111 83 76 85 94 67 56 50 92 86 125 113 136 125 126 105 104 94 132 184 158 103 85 83 82 191 102 162 116 125 85 131 46 48 39 103 69 170 194 104 200 182 183 152 178 95 192 189 189 143 129 117 77 155 149 154 114 89 125 121 131 132 168 146 178 125 178 165 184 152 175 106 172 167 109 163 132 140 184 124 183 193 101 129 162 102 102 79 96 113 183 136 102 147 175 119 145 98 74 162 70 177 144 167 170 101 192 199 171 139 158 117 96 122 154 133 83 78 59 65 154 140 111 90 179 167 133 135 84 125 34 34 79 129 144 161 90 80 89 181 165 202 186 195 101 194 91 255 171 88 148 178 82 173 97 210 178 167 159 191 188 102 149 76 73 139 85 138 97 194 192 113 87 112 80 67 135 76 98 75 99 93 167 71 112 146 86 174 108 94 138 77 52 44 136 74 38 95 59 90 131 152 126 98 94 175 70 91 61 66 99 157 199 125 90 94 150 90 115 168 74 78 143 120 98 192 146 98 112 154 73 175 164 178 164 65 139 104 111 182 119 81 70 59 148 51 83 160 72 165 68 118 96 97 112 163 65 82 158 124 178 99 94 169 158 165 193 203 226 209 210 107 212 136 198 110 130 188 119 179 101 164 68 168 100 154 108 103 100 109 130 106 82 65 79 99 176 210 115 116 217 121 204 139 109 165 121 166 144 76 179 76 159 94 138 140 167 176 179 90 81 168 182 110 167 96 97 129 114 142 153 129 164 151 165 156 92 159 81 109 170 97 132 73 64 107 102 186 177 183 96 89 79 169 116 114 136 200 100 99 185 135 121 193 202 205 189 168 169 70 165 101 155 154 93 105 150 79 63 177 105 146 115 121 139 165 142 184 147 126 142 88 126 85 119 135 91 94 189 116 115 149 120
131 125 122 128 141 151 168 171 171 169 165 160 170 153 142 140 126 130 126 140 135 144 157 165 171 165 177 181 183 171 154 149 158 165 172 158 148 151 161 174 183 188 179 195 195 178 180 190 184 190 162 146 132 129 135 142 150 158 182 219 198 196 132 179 124 140 149 100 97 91 122 92 139 141 143 112 44 60 103 57 72 106 98 74 108 81 85 91 126 144 128 137 121 114 97 120 96 136 159 104 93 104 82 72 92 135 113 150 107 129 111 79 83 90 137 98 114 101 116 147 121 212 207 124 142 111 178 95 88 185 96 82 175 123 218 229 225 152 94 102 142 82 146 116 149 63 169 140 134 111 183 170 150 89 91 75 167 129 175 187 122 175 157 95 160 94 104 80 159 156 126 75 169 173 106 167 198 207 107 137 143 165 107 159 134 91 99 93 178 179 170 192 133 105 188 100 102 90 112 208 130 156 97 118 87 105 78 114 117 80 117 175 185 181 87 137 198 116 90 91 74 85 126 145 86 168 129 124 97 123 156 181 150 93 189 132 91 147 50 67 132 124 173 102 73 80 163 152 87 165 112 115 118 84 188 166 81 90 81 144 178 186 129 170 196 140 215 117 147 92 176 84 156 162 133 153 111 155 196 94 104 143 165 122 161 156 115 142 64 128 187 186 103 159 67 180 102 209 199 120 64 57 43 80 26 35 90 90 108 109 150 156 87 82 153 130 112 124 65 179 190 176 162 86 68 123 57 61 67 126 99 81 92 100 176 191 87 112 164 73 89 170 101 64 143 134 67 80 88 183 70 145 53 146 157 157 136 79 133 161 78 102 176 182 173 145 122 95 125 210 147 86 86 90 191 209 184 216 201 195 182 127 112 129 99 122 123 98 82 150 165 85 101 156 153 225 180 118 177 141 154 144 181 91 102 198 191 188 210 196 142 224 205 97 100 119 109 83 138 183 84 171 158 144 166 115 75 121 71 167 76 142 157 179 174 117 78 94 105 111 192 78 148 101 61 111 90 89 179 153 105 52 142 168 85 147 109 174 121 213 113 84 72 163 78 171 131 139 193 188 94 159 113 117 176 160 136 90 137 183 95 165 122 203 185 157 95 97 82 114 193 128 126 84 127 202 163 142 158 99 85 117 103 68 91 83 82 92 138 103 168 145
152 145 139 134 142 155 163 160 163 172 177 176 172 161 154 132 130 132 115 134 141 152 155 179 177 183 188 199 198 190 162 147 157 172 178 170 153 152 152 162 162 172 163 179 182 175 179 181 185 152 148 179 134 148 133 183 170 202 185 151 147 189 132 137 150 138 135 139 96 107 88 135 155 161 65 128 87 61 41 72 110 68 135 138 109 94 82 89 90 169 159 180 113 125 158 96 134 139 152 98 91 72 76 93 102 120 165 145 128 148 113 101 138 118 146 103 106 109 95 101 176 119 190 196 211 155 102 180 88 77 76 116 89 120 202 137 182 170 150 147 145 141 58 60 68 164 96 85 189 90 170 90 107 122 141 144 127 138 75 184 119 161 161 126 150 166 93 116 78 153 68 139 124 125 90 145 201 213 155 184 157 156 73 171 178 198 133 199 188 89 144 199 104 141 150 78 143 127 199 151 152 78 168 163 67 99 150 145 125 136 182 189 192 124 157 184 184 165 172 87 102 110 142 63 144 133 59 119 93 77 156 100 191 164 130 102 181 134 158 68 88 98 89 101 105 175 168 172 117 76 167 155 173 134 177 104 164 145 112 159 138 80 163 138 193 103 171 134 103 187 82 84 155 148 95 110 86 139 195 150 159 88 139 58 149 166 79 106 182 198 110 116 102 124 65 90 140 91 178 82 101 46 30 116 26 86 150 180 184 108 111 94 77 101 76 71 135 92 138 98 172 118 69 164 154 145 135 61 133 71 65 66 71 170 171 86 112 177 74 94 161 136 93 69 65 159 141 96 167 159 163 60 120 165 147 171 159 163 105 178 127 182 97 120 137 184 195 184 162 212 177 122 159 80 94 100 129 104 186 113 166 192 140 187 153 108 106 82 94 61 158 157 146 98 220 143 247 146 214 143 143 161 94 106 183 122 135 185 207 211 160 199 150 123 162 144 134 93 161 166 76 106 97 142 116 103 57 58 66 67 120 160 73 175 77 93 69 121 151 154 179 121 114 51 60 76 101 158 141 84 151 160 129 148 144 171 113 173 228 197 139 87 89 173 141 176 173 114 119 121 107 183 115 108 197 147 146 111 156 202 212 128 195 106 195 135 86 178 94 146 166 149 81 69 166 190 119 194 157 177 82 103 65 131 80 165 97 94 106 85 161 70
176 166 153 144 150 160 167 166 164 161 168 177 193 187 173 162 147 137 139 135 149 164 166 186 196 186 190 205 209 201 178 163 165 176 181 177 169 157 153 152 158 255 169 175 159 188 190 184 185 184 167 174 125 161 117 181 199 207 212 162 173 179 167 85 97 54 105 68 155 91 176 107 100 101 140 132 48 85 39 72 92 129 103 63 57 69 76 121 91 144 170 143 114 106 146 114 139 140 117 112 97 96 96 92 114 137 126 142 119 122 144 98 152 110 115 128 105 92 123 188 146 188 107 114 130 119 144 179 77 114 70 74 177 111 147 155 108 111 136 48 41 145 62 67 86 112 164 128 92 187 152 82 77 135 51 133 144 115 94 123 116 151 128 157 73 169 174 162 89 73 146 131 132 75 166 102 174 198 111 114 88 98 69 104 142 169 172 114 141 161 180 177 162 191 145 83 178 142 109 91 178 72 133 85 74 164 92 100 114 209 116 202 130 117 107 175 126 74 171 170 105 127 77 101 83 82 148 150 145 56 68 180 195 163 198 200 185 105 107 151 154 98 178 140 121 170 135 149 83 119 90 65 159 69 69 69 96 83 183 179 109 95 166 105 96 166 148 159 185 182 89 114 168 124 176 124 87 125 80 81 96 58 143 160 71 177 107 158 99 174 110 188 97 84 78 154 98 98 70 66 73 42 47 20 104 54 136 185 192 109 112 102 86 72 99 55 95 129 87 80 81 77 135 58 130 39 45 121 68 169 149 57 154 162 76 175 165 122 90 179 134 74 150 73 164 180 179 114 108 97 71 172 78 179 117 132 90 152 104 192 173 106 155 188 158 132 94 103 207 136 179 109 162 170 179 131 83 81 100 73 102 141 145 119 69 166 166 64 55 87 81 127 104 184 195 240 214 232 153 191 92 97 178 89 92 159 166 144 190 184 125 163 180 110 80 76 127 145 130 167 157 161 138 52 146 101 46 46 115 151 150 143 93 82 77 140 154 165 168 165 186 181 163 62 147 152 126 147 90 184 88 68 148 190 189 166 189 143 171 179 170 170 74 70 81 175 183 155 218 194 200 206 142 157 198 202 195 118 116 123 130 184 102 179 102 96 192 83 80 104 94 94 130 66 137 180 102 104 193 93 81 77 71 110 79 172 91 93 192 126 156 76
193 181 167 159 162 169 181 171 165 153 164 170 180 180 166 165 153 150 147 151 151 168 176 199 197 196 196 208 215 206 186 173 162 177 187 185 175 154 150 142 143 155 150 164 171 149 167 190 162 167 185 171 139 126 172 190 166 215 217 209 139 142 118 144 57 90 68 53 71 158 120 203 155 147 130 70 71 55 62 65 68 96 134 61 58 118 69 114 84 113 95 137 140 103 100 90 131 73 101 117 76 66 82 86 117 133 114 169 114 149 122 179 135 168 127 96 164 136 107 190 109 104 97 99 138 118 139 129 141 163 161 65 89 180 104 107 120 75 56 49 121 73 59 146 171 97 187 180 165 92 176 89 118 150 112 135 136 133 167 180 168 164 151 98 114 91 183 189 176 92 81 148 162 159 176 181 121 107 103 140 79 151 135 180 177 212 206 200 100 131 158 115 92 188 183 94 88 142 173 92 95 164 82 118 85 90 158 185 206 163 184 114 151 149 93 172 150 122 166 160 164 142 120 68 93 93 110 151 150 84 162 96 150 120 171 168 132 114 148 186 157 181 182 127 120 57 95 147 123 124 87 63 86 162 72 172 156 111 108 207 196 139 73 103 71 174 85 155 92 151 111 142 152 69 166 146 61 151 153 158 127 140 149 76 78 187 193 158 108 201 188 104 102 136 166 115 84 56 162 133 96 53 105 66 129 69 108 157 102 110 104 94 134 73 111 82 148 83 154 102 74 157 62 35 70 114 55 55 66 77 104 132 56 61 89 75 160 179 110 185 128 91 100 164 87 179 189 120 187 85 89 99 187 110 173 127 123 158 99 166 116 103 192 193 157 103 177 182 151 159 162 178 176 93 177 117 98 94 119 68 145 171 127 151 129 153 165 57 136 136 57 110 83 81 111 119 220 159 190 198 140 173 165 71 67 71 137 95 174 149 154 101 90 152 161 100 74 66 152 102 101 58 153 47 73 73 67 52 77 102 84 144 117 125 75 96 173 154 186 115 168 198 171 105 53 146 170 103 165 182 74 106 182 132 91 159 132 113 144 120 174 127 100 87 134 184 183 121 169 216 214 191 198 119 110 133 195 96 108 145 186 103 81 164 187 152 184 111 120 91 149 161 145 156 89 76 91 169 101 107 178 149 95 100 69 108 183 105 192 86 88 143
189 178 167 159 170 181 184 173 155 146 152 164 180 178 160 144 147 137 154 163 164 180 191 187 182 189 181 198 206 204 189 170 161 168 178 180 181 165 153 153 151 166 168 162 139 169 162 190 191 189 174 153 155 127 161 179 199 201 208 190 158 143 148 92 94 126 43 73 146 153 183 124 184 164 156 70 119 49 48 91 126 104 99 72 49 47 79 102 96 136 88 101 92 141 93 84 83 70 83 94 107 100 81 87 88 113 104 112 114 119 178 141 140 163 124 92 115 100 92 92 94 107 95 114 116 129 151 77 127 121 108 80 76 111 129 157 175 88 71 46 141 128 150 65 156 108 173 191 111 85 78 178 84 136 162 158 146 64 169 146 133 188 90 80 177 176 159 173 128 91 150 171 98 91 81 102 175 155 84 159 177 130 90 176 173 190 145 205 119 186 134 94 124 142 92 150 97 164 118 87 89 100 185 182 91 174 122 195 145 150 215 165 165 127 100 127 149 167 76 91 94 71 150 151 102 105 166 77 114 80 168 74 129 92 138 180 84 177 104 80 171 132 154 59 68 52 61 110 45 79 153 73 172 140 116 162 180 206 190 213 191 145 117 120 62 63 107 144 132 134 165 63 62 98 65 124 81 61 157 93 136 155 73 97 166 193 115 165 113 147 96 110 143 85 69 70 96 128 83 92 171 100 110 29 141 80 109 110 112 109 146 99 149 141 170 148 171 86 169 87 132 69 107 89 35 83 152 80 81 171 73 101 145 61 118 71 177 172 104 86 180 116 182 117 148 94 177 184 171 104 102 105 198 138 89 174 188 144 180 186 157 108 199 94 171 145 151 89 113 186 182 115 166 179 183 180 177 82 159 145 107 181 90 192 191 153 114 145 95 68 98 93 83 145 103 130 177 160 184 92 168 160 120 58 137 167 144 86 122 93 95 108 170 96 158 172 149 72 111 168 91 97 142 66 86 119 168 106 132 93 162 114 173 171 91 129 167 104 153 127 104 99 88 107 123 101 180 189 145 181 74 112 160 139 171 87 97 120 164 171 82 162 153 176 108 82 90 166 186 201 112 105 107 124 126 128 190 113 209 118 95 167 162 164 165 176 103 124 180 192 154 121 84 77 75 83 120 150 194 88 127 120 188 133 178 137 144 116 98 87 157 148
180 172 159 154 168 175 184 173 154 138 137 153 159 160 145 128 124 144 142 166 170 173 191 190 189 181 185 186 194 197 182 169 161 163 175 183 180 169 157 156 164 160 170 154 149 165 148 175 194 184 174 169 133 140 180 191 187 193 193 172 201 141 119 151 137 90 136 110 122 147 129 136 134 93 118 125 49 96 52 64 85 130 90 70 79 50 59 138 87 126 98 142 77 118 94 72 73 75 81 91 81 103 83 99 72 126 75 84 99 115 135 168 94 103 74 72 81 78 90 113 122 87 105 197 199 115 121 83 107 190 93 107 184 83 77 71 168 65 120 149 97 72 71 65 146 87 173 162 119 103 157 122 181 90 97 93 164 110 112 170 111 143 181 138 126 156 159 152 83 96 146 102 122 182 171 169 94 178 184 88 138 154 122 112 166 201 119 183 160 164 80 131 255 120 175 183 115 64 88 175 102 202 186 178 178 126 134 159 222 133 195 110 205 166 103 167 84 118 143 136 116 161 154 159 102 155 140 92 95 176 161 159 164 71 98 165 174 121 119 162 156 117 104 51 132 68 131 47 142 148 127 161 97 123 121 152 118 188 150 149 159 124 132 108 154 55 91 79 90 87 67 147 77 124 84 130 135 110 78 74 77 170 169 144 103 139 131 167 90 164 89 159 102 173 126 84 71 169 127 176 184 144 64 55 69 124 98 185 137 120 126 117 141 165 93 113 151 149 107 177 175 68 140 76 127 56 80 84 159 72 63 132 84 143 65 132 113 144 126 183 172 182 88 136 195 192 183 111 165 112 99 199 187 108 142 186 177 188 170 208 133 115 203 186 152 92 73 174 109 99 184 189 119 85 92 177 110 171 134 115 166 111 152 107 118 201 133 175 178 91 164 119 171 131 89 136 183 185 196 191 85 135 85 151 88 182 176 197 108 99 95 72 89 60 64 165 161 85 73 84 85 100 151 83 62 137 142 89 176 62 150 105 74 163 126 185 163 177 178 124 103 160 183 128 76 79 91 120 96 83 124 96 171 69 175 159 99 105 116 83 169 158 108 112 175 185 169 139 99 93 138 111 183 117 139 167 120 186 187 146 105 72 111 56 81 75 85 105 154 151 120 91 181 180 169 187 167 96 97 184 88 98 103 164 156 115 174 184 149 78 109 96
176 166 152 148 156 170 176 160 142 129 116 135 140 144 131 121 125 126 146 149 182 184 188 171 185 177 192 191 178 188 182 169 158 161 173 183 187 177 173 164 166 156 157 146 153 164 173 163 166 185 149 152 121 177 169 185 191 166 163 130 175 191 189 110 174 143 154 85 157 149 186 166 128 107 79 70 120 79 63 89 91 167 138 119 64 91 115 143 123 106 119 89 83 67 90 78 121 143 90 121 88 111 82 85 92 63 112 88 84 126 92 107 75 144 94 94 80 118 82 106 82 84 176 125 124 123 104 125 176 137 185 169 138 85 167 62 162 147 163 165 137 170 72 171 146 165 138 176 147 205 192 166 106 158 166 119 123 108 140 144 134 141 178 138 69 152 138 138 130 131 140 190 163 145 151 91 160 145 88 145 175 151 125 150 117 94 119 151 212 130 179 91 166 85 182 168 158 128 64 150 198 115 106 161 103 130 164 134 218 131 200 194 110 144 142 134 187 171 146 143 60 157 126 104 92 191 203 130 93 102 78 65 122 162 65 71 168 109 160 79 170 173 165 64 97 63 136 76 137 130 71 97 188 166 166 137 194 198 195 176 105 194 188 114 153 78 169 101 157 142 54 132 142 65 106 56 149 68 52 132 91 161 96 140 107 199 158 121 88 119 139 120 90 71 81 151 129 172 85 188 160 93 104 80 129 116 122 137 112 116 119 194 187 95 169 108 127 120 121 162 112 152 63 43 44 63 85 109 182 167 104 166 78 77 69 176 102 185 100 113 173 179 116 174 180 109 179 165 82 172 194 182 168 196 120 170 172 196 128 213 185 110 107 128 172 153 150 155 159 166 148 171 112 141 79 145 128 91 116 156 124 109 94 148 179 190 152 192 166 80 88 177 201 210 149 118 148 151 126 111 103 111 112 167 143 95 102 135 129 97 150 132 97 125 73 140 116 168 168 173 85 107 66 101 102 125 149 173 81 73 59 81 83 98 124 109 150 132 168 126 82 188 123 168 94 130 148 165 182 120 85 178 130 148 155 184 103 192 167 108 111 165 124 115 200 171 184 172 75 74 81 144 109 96 163 102 93 185 119 133 157 108 154 72 149 114 92 78 172 181 138 89 175 177 77 86 148 171 169 167 171 96 127 114 160 158 90 117 168 108 175 165
183 173 155 147 146 159 153 143 125 118 116 109 130 131 123 137 121 134 141 161 181 181 184 179 169 185 188 181 179 170 174 174 166 164 173 188 194 190 188 173 168 172 172 179 156 178 180 169 149 176 161 148 157 153 166 192 168 200 192 163 152 192 163 187 126 146 128 121 161 108 135 169 150 72 126 76 99 56 139 144 166 85 140 63 103 139 88 103 110 107 117 72 101 73 140 92 118 108 98 96 100 86 78 115 67 120 67 68 67 75 79 91 65 96 98 101 153 113 89 114 86 86 104 123 158 179 159 102 137 132 161 190 99 129 134 139 158 161 72 169 83 139 165 171 170 140 172 96 130 155 118 160 155 204 116 177 166 140 170 175 144 149 89 88 90 92 120 88 138 140 126 106 198 163 188 169 97 106 132 173 140 163 179 176 72 163 118 176 195 96 167 170 141 163 150 75 142 119 114 88 188 97 143 122 172 139 148 114 122 165 161 176 132 120 89 92 122 140 97 106 88 79 124 86 104 162 176 184 189 82 68 138 73 145 114 164 66 132 109 94 188 181 162 82 57 68 150 158 143 175 90 116 98 140 155 146 183 165 91 133 164 142 80 80 120 161 85 94 188 173 68 142 57 64 142 148 144 79 94 78 162 171 92 180 179 164 106 99 100 96 188 99 182 158 113 158 77 81 85 191 154 153 100 138 87 91 164 131 136 134 124 125 150 96 95 120 98 150 130 156 95 106 52 126 139 164 91 167 89 108 178 180 154 150 158 116 99 204 107 90 148 148 82 143 174 91 127 163 176 95 161 169 181 169 87 180 167 107 156 121 193 186 101 142 167 163 134 105 184 102 96 101 108 156 135 126 176 172 179 85 84 106 153 91 175 123 181 127 81 123 139 98 114 220 196 146 161 138 181 114 153 212 169 179 154 95 104 81 118 172 61 58 46 40 47 81 65 117 117 147 122 162 66 158 112 66 147 65 151 153 59 67 82 171 111 194 186 138 92 107 188 100 148 94 72 119 162 86 191 197 127 163 173 122 85 186 173 103 175 88 138 77 159 200 156 106 161 74 70 78 180 87 171 103 144 155 70 174 153 172 73 111 121 120 173 163 82 157 91 172 83 110 140 69 68 127 80 98 190 179 124 88 107 155 121 139 87 67 105 84 98 131
189 178 158 149 144 154 143 137 120 103 108 112 118 130 131 140 144 143 144 151 174 194 182 169 162 162 166 172 167 161 170 173 172 164 167 184 196 203 198 194 188 170 180 184 195 195 205 182 155 142 169 189 176 184 123 171 184 158 130 162 176 147 140 196 178 124 128 167 92 92 170 95 99 85 64 110 56 141 86 166 93 136 115 133 105 77 102 152 114 99 97 85 85 93 95 112 89 87 93 73 78 83 98 88 80 74 128 67 128 64 111 62 83 67 95 94 121 179 155 106 108 85 101 148 119 126 155 123 198 130 189 103 107 153 149 46 56 68 155 166 140 179 83 180 171 64 154 171 168 210 215 209 136 181 90 187 180 117 146 157 127 153 177 108 122 189 125 116 109 88 83 98 175 144 166 99 115 172 101 112 134 121 185 175 166 65 123 101 103 84 85 176 155 112 75 72 143 82 162 133 84 91 159 139 105 101 184 87 75 76 180 163 150 92 149 98 140 129 53 44 31 62 103 153 165 108 101 93 145 153 102 92 69 54 127 124 166 94 135 180 193 201 168 161 101 59 139 72 76 173 188 140 176 198 153 185 136 137 171 147 74 91 95 163 104 64 138 168 102 143 145 156 133 133 57 90 65 110 144 67 74 89 105 163 146 93 135 97 100 130 94 131 96 187 89 96 88 131 109 116 155 226 130 108 89 107 173 205 187 118 85 174 73 103 82 87 118 180 160 81 64 50 135 138 155 155 109 179 120 131 89 144 155 82 134 109 105 139 127 148 140 163 160 159 156 122 177 165 153 173 84 172 76 163 93 185 141 92 197 207 212 168 179 134 131 88 180 160 192 148 122 123 184 77 160 66 101 108 136 123 124 164 162 172 163 73 87 111 101 149 86 195 205 199 152 138 148 137 107 218 190 213 191 146 144 131 55 57 105 72 125 53 32 109 76 129 121 90 75 107 55 123 158 98 87 104 80 63 135 68 77 70 121 93 91 100 111 84 161 90 91 83 180 80 77 168 111 95 185 127 99 94 91 74 83 95 161 152 180 177 127 95 194 133 118 120 93 152 177 181 87 161 130 103 149 79 173 70 165 167 98 91 100 168 195 124 93 139 122 95 121 157 141 132 104 96 85 91 155 105 93 164 140 129 193 123 152 133 147 193 196 185
183 175 159 147 140 144 138 120 104 99 103 124 134 139 151 163 166 146 154 167 172 185 181 169 171 170 154 147 148 153 173 176 172 161 160 172 182 199 207 210 207 197 177 167 207 210 220 209 181 175 179 182 185 175 126 153 135 139 186 169 125 139 129 197 182 147 147 106 166 108 170 76 130 122 75 104 98 75 99 164 141 110 162 147 124 111 140 156 114 150 109 101 91 148 98 97 131 77 88 98 83 103 81 115 84 136 110 97 106 89 94 95 98 73 88 123 100 186 104 113 156 166 150 83 76 155 165 154 107 177 102 94 149 146 55 133 88 90 76 128 170 93 174 138 169 111 151 68 101 100 182 187 151 125 174 79 176 93 181 168 114 168 179 125 162 144 188 167 173 128 107 93 146 184 127 130 204 132 196 182 195 173 115 78 170 65 159 111 174 83 102 107 145 182 128 172 79 145 77 102 143 115 134 92 125 123 190 83 159 88 90 80 96 117 70 255 120 139 134 50 78 79 78 135 189 185 198 114 89 173 159 60 101 125 150 168 97 180 184 136 191 114 187 99 160 162 171 156 121 111 86 152 126 192 166 139 185 152 87 82 74 171 87 125 133 57 125 135 182 92 195 181 141 58 140 100 166 120 161 90 161 171 110 116 103 63 111 83 179 89 121 182 119 134 112 142 150 152 115 203 211 150 217 128 143 98 112 174 173 91 93 63 61 158 161 184 102 97 90 99 58 130 48 58 98 104 109 141 89 94 171 157 63 140 155 149 86 116 188 125 192 112 90 95 136 196 148 79 87 83 117 86 152 144 179 146 102 85 187 165 163 110 154 123 80 177 155 104 108 174 186 188 118 76 164 175 86 181 181 167 94 164 152 116 139 85 125 58 69 98 182 191 183 100 196 83 177 181 108 228 155 174 181 156 138 146 98 41 139 83 43 118 96 53 47 133 141 146 117 53 53 124 117 182 93 172 120 171 164 150 109 133 87 105 181 168 126 114 154 101 96 118 163 127 75 165 75 179 129 116 255 195 174 181 86 126 127 146 183 119 196 110 119 173 209 95 148 142 183 149 177 180 159 175 185 129 132 64 55 75 80 124 113 110 96 182 93 170 78 177 129 82 79 63 54 89 51 126 104 150 66 140 119 97 169 171 151 74 85 180 192 156
167 163 153 148 145 146 132 121 111 111 114 131 139 147 152 164 167 167 166 166 168 179 170 170 182 169 167 152 152 149 173 179 168 154 140 153 167 186 207 219 202 203 177 184 203 224 221 204 204 183 163 185 173 145 158 158 161 153 174 136 134 105 148 133 185 132 117 126 119 130 166 92 64 27 45 107 75 148 133 149 100 101 131 145 163 94 139 121 163 151 92 135 97 127 91 88 92 87 92 67 77 106 85 106 91 95 100 119 122 98 129 107 98 89 122 82 108 118 149 105 178 91 86 91 73 142 63 99 109 77 176 117 68 154 117 45 54 161 91 117 191 188 171 173 152 71 143 161 76 167 114 155 112 152 143 173 172 84 172 152 189 81 129 103 130 217 134 222 172 107 179 151 98 106 176 197 198 164 161 180 203 100 116 155 138 100 114 135 160 97 181 209 206 177 102 131 92 177 105 75 145 103 154 129 144 100 182 111 69 123 121 117 151 97 129 104 53 57 126 119 66 101 80 111 183 179 199 97 179 166 136 153 140 152 78 72 164 137 138 152 182 169 151 129 144 174 93 119 85 180 177 181 159 106 146 123 180 93 91 168 148 68 104 70 126 89 111 133 141 201 188 206 163 72 141 74 87 183 117 130 125 81 90 64 76 75 139 133 79 80 170 108 87 103 107 111 92 89 86 114 132 137 226 132 158 132 102 111 91 139 92 84 87 120 79 186 93 94 158 166 162 110 151 60 72 103 83 99 81 68 159 72 61 150 126 125 69 165 124 136 206 99 193 108 203 208 197 87 163 157 132 172 156 177 98 130 187 161 129 199 199 115 169 152 85 168 111 157 108 161 201 93 166 111 173 126 146 167 155 110 104 158 151 106 135 148 114 86 144 80 95 143 88 143 169 110 85 178 155 163 220 211 181 71 149 144 101 149 72 33 130 136 103 60 153 116 55 115 76 73 57 84 181 185 106 116 188 98 105 140 63 151 148 94 178 73 58 57 81 103 170 159 94 153 104 172 173 176 177 183 161 198 129 85 77 159 119 83 96 113 222 192 114 196 184 74 171 165 155 150 92 124 180 107 191 168 155 157 131 123 128 102 122 95 154 117 148 123 89 166 177 96 88 121 165 63 66 82 81 75 63 72 174 81 120 164 159 129 77 98 190 101
148 145 138 134 136 140 133 255 120 129 128 144 154 150 169 177 181 177 173 147 147 147 168 170 175 181 179 165 154 163 176 183 174 159 148 146 156 176 199 217 213 200 179 171 173 218 237 234 205 193 153 148 172 171 139 142 95 125 104 146 114 119 123 139 185 147 206 172 196 120 176 162 116 77 93 103 140 90 162 115 165 148 98 96 131 100 184 121 114 106 144 113 83 98 85 104 92 93 83 69 81 255 125 140 124 127 111 86 86 108 163 162 102 110 103 110 76 79 97 135 135 97 90 55 94 103 73 114 44 89 152 118 63 157 58 161 142 195 154 211 133 113 145 80 176 172 66 164 98 126 143 120 142 126 127 163 118 92 114 139 110 182 131 192 213 144 211 160 140 155 117 140 119 185 115 195 222 178 202 153 170 121 195 186 176 72 65 87 73 146 151 129 219 179 205 213 201 177 131 143 141 174 146 199 194 188 149 147 84 100 83 69 67 109 142 141 107 67 161 149 99 49 67 141 96 150 112 184 188 80 114 58 110 148 175 147 177 177 184 85 71 122 149 149 175 180 107 118 198 172 166 163 153 183 178 115 169 141 85 91 76 135 161 65 62 142 94 120 144 133 130 221 199 76 66 118 84 84 171 171 174 157 99 59 66 110 64 74 83 176 159 90 174 105 126 160 172 89 102 82 101 121 155 143 164 203 126 148 72 151 95 130 87 120 94 128 99 195 147 172 78 71 71 112 87 109 79 144 74 110 53 151 133 63 63 154 114 179 177 130 206 163 175 167 124 140 193 134 184 80 109 174 118 177 194 97 193 118 191 162 161 190 119 113 103 114 164 124 191 192 181 159 94 144 143 165 105 163 102 190 170 79 73 93 61 168 117 90 153 85 178 126 72 152 73 73 138 183 109 219 198 199 169 136 48 107 148 72 62 122 144 52 161 164 84 149 111 83 98 178 139 174 191 167 203 100 145 176 66 49 45 66 110 194 121 69 130 86 108 171 81 61 102 96 161 129 174 102 176 178 148 154 175 110 95 87 169 182 188 121 183 197 161 150 67 119 154 120 174 171 141 170 84 85 117 96 104 132 112 255 115 184 174 172 140 108 96 72 159 95 99 96 177 97 92 160 143 60 152 65 147 110 113 85 101 100 124 107 79 177 85 89
138 136 130 123 127 135 143 136 139 136 142 149 160 156 169 175 187 182 176 157 137 129 145 152 184 184 194 181 167 169 178 180 183 173 160 151 150 159 190 208 202 189 165 160 162 205 230 218 190 159 165 143 183 151 135 152 116 162 104 135 169 136 180 135 148 177 162 192 145 188 186 85 120 121 68 129 104 81 139 105 124 134 99 92 171 141 111 189 117 96 65 56 108 109 73 119 94 67 63 49 68 88 111 126 92 86 123 82 97 117 79 157 111 114 184 102 79 76 78 95 154 91 140 136 93 130 45 84 34 45 112 132 60 66 174 138 108 219 131 145 104 191 103 152 80 81 102 96 178 135 98 119 140 105 130 114 128 83 120 210 214 151 116 208 165 187 255 158 129 197 144 118 142 201 162 184 211 120 157 100 148 118 169 116 171 68 142 149 75 81 190 189 126 217 221 186 178 145 51 56 104 70 255 197 185 167 144 69 87 106 71 63 142 151 77 77 101 89 106 188 92 133 80 62 135 92 187 154 95 184 64 102 89 63 115 177 150 76 128 100 142 102 84 174 92 97 99 196 127 101 160 84 134 144 142 125 125 182 139 144 122 164 67 48 84 94 117 129 167 103 218 210 112 182 148 123 167 76 144 83 136 90 80 80 90 64 66 105 97 190 200 211 116 153 208 193 74 64 118 78 125 103 105 131 111 97 90 108 118 157 100 85 95 102 192 153 151 212 165 107 79 84 85 86 87 156 84 137 87 99 135 147 84 139 149 80 177 85 190 210 135 191 112 109 207 173 137 134 188 100 155 169 80 133 145 204 177 153 187 136 204 178 178 116 91 113 161 87 156 201 211 129 85 159 94 154 96 118 191 112 167 89 124 90 120 153 85 176 183 117 88 133 85 69 72 77 103 178 171 136 112 111 111 59 131 144 111 178 97 62 154 123 137 115 97 107 92 123 136 145 146 159 158 148 107 203 127 180 109 130 35 140 105 103 148 87 67 76 145 77 72 60 151 97 133 159 167 176 90 100 162 173 143 75 163 162 79 126 107 207 194 168 153 153 71 82 98 255 84 140 149 66 139 161 155 132 148 50 147 63 165 170 160 70 160 83 73 138 135 88 180 114 149 152 101 180 108 79 68 79 80 90 96 95 81 111 67 65 101 67 161 85
137 134 125 119 123 128 134 139 128 133 132 151 159 164 165 181 177 187 174 164 144 122 129 155 180 194 209 201 181 170 182 190 193 185 170 159 157 161 170 198 195 185 160 164 174 199 198 233 213 207 173 197 199 193 145 142 156 136 166 155 109 166 150 118 144 165 184 152 164 145 145 121 136 73 48 48 49 108 71 158 134 96 93 84 135 97 150 144 118 64 43 67 108 75 70 80 76 75 72 54 47 68 62 97 104 108 100 86 74 76 123 119 92 107 123 159 86 72 69 141 140 97 84 90 167 86 137 50 45 43 120 124 117 96 78 146 130 136 213 194 202 105 201 173 96 81 179 180 167 115 166 151 118 144 93 73 66 123 143 157 167 177 195 180 197 170 118 181 116 140 147 167 176 152 139 113 125 124 103 91 67 143 129 74 97 62 88 144 57 114 136 183 104 168 217 200 131 88 115 131 50 159 107 96 189 92 182 167 102 73 160 150 145 45 67 109 92 174 154 164 84 127 165 140 170 185 161 150 142 157 83 144 146 69 178 143 86 174 147 167 68 118 85 84 137 135 202 123 176 182 206 104 175 146 105 196 160 84 77 162 163 87 68 135 56 149 77 185 167 134 146 109 197 137 75 127 101 100 83 92 95 111 108 88 67 100 176 150 181 149 129 142 167 143 206 172 92 162 157 102 74 178 189 111 97 124 184 179 178 96 99 141 96 203 164 118 125 154 202 98 113 90 145 100 95 89 156 75 62 70 78 86 93 177 117 146 86 122 157 181 204 158 133 111 106 132 123 217 134 95 64 89 166 88 196 101 198 191 95 180 99 111 104 112 107 96 165 153 144 200 106 147 155 56 147 156 181 139 97 151 155 188 134 201 127 99 126 157 109 111 159 161 148 172 255 76 145 133 126 184 84 182 176 134 155 145 83 76 73 64 125 155 160 104 104 143 97 100 107 165 125 182 186 90 143 194 197 157 166 87 119 57 168 127 88 175 68 100 105 180 129 91 153 153 158 171 76 175 164 146 166 141 171 65 144 73 96 103 158 191 205 104 186 62 97 110 70 42 161 110 167 168 142 130 160 69 56 153 155 92 172 81 82 66 71 121 164 76 171 132 113 199 203 145 158 111 72 161 80 71 116 85 121 182 88 73 67 151 91 65 167 90
146 144 135 129 130 133 143 136 140 135 141 141 155 150 161 159 165 176 177 174 153 129 129 150 188 208 219 220 199 182 184 189 190 187 173 164 162 166 179 192 194 188 179 156 182 194 214 186 197 164 199 190 200 147 175 153 89 140 99 177 255 140 182 189 117 117 108 161 166 154 151 102 152 130 137 122 48 70 65 130 162 82 149 74 145 86 91 88 81 56 86 74 92 82 64 74 133 91 83 104 65 67 65 71 73 81 80 87 100 62 61 57 106 97 141 135 160 65 101 82 170 119 175 85 83 87 151 70 93 153 134 39 40 133 123 147 212 238 126 190 128 192 178 178 202 186 185 165 141 201 199 83 144 146 163 131 157 158 158 170 201 210 197 167 151 102 129 177 98 149 124 136 184 116 123 196 191 165 68 133 71 89 85 39 68 153 59 136 122 120 167 81 120 138 182 183 86 136 135 124 51 165 153 103 110 105 187 183 85 180 133 71 149 74 156 94 96 203 111 114 195 155 180 83 167 190 152 192 105 112 144 78 98 102 184 97 98 137 166 134 163 176 151 180 122 193 181 208 215 177 176 108 97 167 147 158 194 170 81 163 124 124 181 176 87 138 186 124 184 185 134 172 120 137 174 61 108 45 54 67 114 155 100 82 127 104 180 110 134 145 240 143 239 137 138 158 84 76 173 111 96 170 81 125 192 86 141 80 87 106 173 100 123 199 199 145 137 212 140 98 107 103 151 98 103 130 159 131 83 176 81 83 177 149 193 104 170 171 176 176 105 101 180 116 99 195 106 198 200 179 159 61 121 185 94 118 151 160 185 189 106 145 150 145 84 158 181 163 188 163 100 149 124 104 114 172 147 195 131 112 104 198 196 160 197 101 81 70 141 166 96 97 130 166 96 78 83 155 86 150 91 97 158 84 171 91 133 71 110 159 55 141 159 78 109 81 101 178 102 101 113 159 165 110 149 181 175 170 152 122 44 55 146 122 143 153 69 70 181 134 175 115 156 164 94 92 87 151 174 165 93 138 74 163 72 139 75 118 174 139 206 124 83 162 149 137 101 55 127 78 136 119 148 86 161 148 140 75 72 83 184 150 176 166 168 94 95 176 92 120 100 194 177 101 76 67 55 156 133 159 94 109 114 146 136 94 162 78 170 149 77 160
153 150 146 144 146 149 153 149 135 132 130 141 157 158 145 159 165 183 178 174 157 144 153 167 189 221 227 226 216 199 192 189 189 180 179 172 175 180 180 187 196 198 194 180 197 201 168 196 182 186 187 171 167 141 168 160 113 116 116 171 104 135 112 181 112 156 142 59 116 163 171 110 175 129 64 136 62 92 61 122 85 140 124 81 76 148 91 93 126 120 67 86 46 82 94 149 96 99 127 88 87 75 84 120 105 95 98 130 96 94 99 54 96 88 154 122 155 73 135 81 77 77 97 90 84 143 89 154 118 60 137 50 108 86 110 189 221 229 123 113 117 216 213 216 155 105 105 198 119 216 170 201 167 158 92 138 145 127 132 177 175 157 192 136 171 160 169 94 169 85 70 145 171 173 207 103 155 103 143 142 124 91 86 126 42 159 123 107 72 71 167 125 152 189 108 103 147 79 94 136 60 88 134 201 140 203 195 191 114 183 145 102 178 93 171 180 184 172 117 107 194 193 188 160 135 98 138 202 210 146 174 106 149 167 179 181 135 165 157 107 185 111 105 104 159 170 158 197 151 167 109 203 103 176 174 118 98 131 171 91 169 174 115 130 107 93 160 198 176 104 151 125 205 105 194 87 97 90 161 77 75 91 116 83 100 93 102 199 211 185 160 178 203 119 108 162 116 103 93 165 110 95 106 93 100 100 174 167 164 104 83 112 159 132 191 155 185 200 175 151 181 70 118 93 198 207 173 127 112 185 147 181 132 188 137 190 118 87 185 99 153 95 138 184 178 124 191 94 87 74 159 61 81 127 167 156 150 111 172 145 191 115 103 172 159 170 181 160 183 91 186 136 142 85 175 156 151 112 124 195 99 99 137 169 90 75 153 94 55 143 104 163 161 108 113 61 102 143 115 107 106 93 125 99 194 88 84 85 96 107 86 84 101 105 135 174 176 127 154 204 210 167 109 163 168 111 152 88 73 161 52 125 81 81 81 120 121 113 152 94 87 89 151 114 121 95 121 130 156 134 71 80 185 84 99 170 116 108 120 173 188 82 145 69 163 148 88 123 62 99 72 76 77 74 162 126 63 157 129 116 99 111 123 124 109 92 91 175 162 148 173 119 151 141 87 124 125 62 139 152 158 142 64 59 103 168 76 96 175 98 121 105
158 156 154 155 154 159 158 153 148 145 143 152 145 151 147 166 165 185 179 162 162 155 160 183 211 223 236 237 228 215 192 192 182 181 181 184 187 188 186 177 196 180 183 188 176 172 187 174 164 180 182 175 123 121 105 128 157 162 129 161 173 136 176 154 107 159 124 63 109 141 160 168 194 163 132 136 125 55 91 145 138 157 104 93 138 106 92 163 87 87 94 90 65 90 123 112 127 129 123 85 112 91 110 124 79 112 124 99 103 68 52 52 84 165 99 120 81 146 86 134 159 64 90 94 160 165 143 150 138 63 86 87 156 83 183 204 114 124 195 204 146 203 178 125 223 157 204 185 137 123 122 205 164 189 181 180 187 189 118 189 203 141 179 83 111 165 169 181 168 115 77 80 75 127 193 171 157 128 144 150 78 54 118 96 64 74 190 167 155 161 99 189 184 133 94 133 80 101 43 40 125 157 154 159 166 185 178 204 196 169 116 90 109 173 208 205 199 200 112 208 199 145 91 110 94 89 94 113 137 190 121 167 80 83 113 177 91 100 136 199 92 143 165 120 65 151 164 82 167 191 160 106 208 114 165 207 188 141 78 94 81 136 85 168 117 104 120 93 186 156 92 103 205 155 199 154 103 120 141 79 69 122 85 109 114 79 85 120 184 105 119 183 194 122 203 108 124 154 181 118 147 96 97 103 158 102 86 175 87 69 168 83 77 180 138 90 143 92 165 146 135 72 147 152 188 156 170 127 115 126 178 113 175 87 99 200 108 102 147 101 112 137 198 98 154 116 140 83 172 157 128 74 189 93 174 186 107 152 183 146 135 84 165 93 135 86 139 168 121 113 175 163 172 100 191 197 178 180 127 100 132 142 89 72 123 162 147 139 61 146 80 48 138 138 102 91 160 188 134 175 101 101 156 123 197 148 86 166 97 76 72 99 167 154 162 96 113 103 134 163 192 218 129 200 138 163 141 59 167 153 80 118 160 113 158 110 59 62 112 83 114 121 67 104 120 96 255 154 76 166 108 158 140 112 105 180 90 96 141 195 173 143 94 98 76 97 79 88 122 130 165 84 126 174 95 79 139 72 134 95 134 108 194 101 170 186 193 83 69 112 111 151 213 90 77 69 78 144 152 62 82 144 154 128 65 75 161 141 170 166 95 148
155 151 144 147 148 154 159 160 145 142 153 160 162 163 154 171 163 182 163 156 164 146 168 186 198 208 226 219 231 220 209 186 183 178 180 183 194 192 184 186 193 182 182 172 163 155 187 192 165 182 145 154 147 141 148 160 133 107 121 140 151 95 163 131 165 136 140 85 95 120 104 111 197 160 168 99 130 69 80 96 96 159 74 127 77 75 161 171 109 108 83 80 101 107 131 120 132 150 92 92 88 80 93 107 120 141 145 104 112 79 58 125 106 149 94 89 114 153 90 74 155 91 70 157 169 139 79 157 66 66 112 75 162 189 134 195 203 196 104 180 88 194 197 110 114 184 184 146 158 226 218 111 187 166 105 92 163 140 172 198 109 143 160 65 92 164 84 181 169 103 72 156 164 152 95 82 133 119 175 180 141 57 141 92 155 80 126 156 207 126 199 104 205 152 164 65 52 65 60 100 52 59 121 97 203 206 194 139 112 105 165 170 114 207 125 196 158 116 118 211 167 101 120 85 79 165 164 143 103 163 173 79 117 91 75 169 80 174 170 199 101 146 169 128 144 140 144 95 138 138 195 185 161 206 184 129 105 178 90 148 66 47 123 126 91 129 130 161 97 157 143 93 158 187 191 100 126 188 180 159 92 164 86 83 157 109 102 83 162 171 92 73 79 87 150 112 114 113 210 188 142 106 165 198 197 202 102 160 78 56 78 79 150 160 166 70 152 125 195 96 132 166 79 92 115 195 194 213 156 183 160 98 74 89 165 91 107 158 153 142 121 193 157 143 131 188 101 160 88 128 84 176 104 102 189 179 165 128 130 107 178 117 169 166 73 71 114 173 88 119 171 123 133 173 176 197 128 208 138 172 185 185 175 137 152 60 83 84 121 99 75 49 48 84 32 126 115 96 171 153 121 113 119 152 111 161 94 152 147 81 172 98 176 100 174 184 120 171 129 190 143 177 185 173 101 89 149 139 118 173 146 84 85 148 168 78 126 79 158 163 157 95 83 160 166 86 97 170 132 165 97 137 135 129 135 171 116 93 161 150 132 64 121 127 93 88 93 123 179 163 73 74 144 85 152 160 166 93 178 185 159 143 102 178 200 170 121 100 173 152 169 145 121 164 159 67 134 127 100 97 140 74 109 94 71 143 90 102 138 116 170 95
149 144 138 132 136 143 147 153 150 149 151 160 255 164 157 175 168 158 158 154 169 174 174 185 194 194 214 221 223 219 214 196 179 178 185 190 191 194 185 189 195 180 181 167 152 147 187 193 168 170 155 137 111 148 155 159 144 171 164 125 152 168 145 173 155 127 152 132 97 165 157 186 137 117 183 98 102 168 122 130 157 79 138 65 79 116 102 166 104 97 146 103 98 138 143 136 114 118 88 93 113 78 79 99 92 130 126 102 117 118 128 98 157 109 104 114 159 117 72 70 67 97 82 76 131 64 61 106 126 63 141 107 86 169 138 84 187 165 103 97 94 78 114 111 167 190 189 151 205 198 141 200 152 146 91 103 147 184 151 124 125 189 82 97 108 66 132 96 167 162 79 169 162 158 83 132 106 172 139 165 192 180 130 94 165 113 155 215 217 179 123 208 149 184 119 137 51 46 51 131 116 107 109 174 191 116 199 184 115 97 89 180 128 194 129 182 109 103 186 118 141 133 95 171 155 163 178 194 135 170 134 181 179 151 169 157 169 174 156 116 143 91 185 169 161 103 139 83 125 147 193 157 183 192 175 181 137 90 83 117 151 95 41 46 145 142 193 93 188 165 180 152 192 116 174 128 84 98 169 146 143 160 80 150 79 154 158 62 90 120 130 117 74 90 172 139 134 160 168 110 120 171 154 106 178 168 99 75 91 39 151 67 72 87 81 73 88 182 162 173 89 110 143 114 196 130 133 150 186 119 117 91 165 81 81 89 196 158 223 187 201 96 93 135 157 197 144 189 174 88 178 116 198 178 155 86 152 81 157 103 99 155 166 174 83 168 155 180 127 174 89 160 89 167 107 141 131 173 190 104 112 141 105 79 122 111 171 178 144 131 114 81 136 101 120 87 136 138 182 135 179 92 188 94 87 180 157 95 89 164 138 170 149 89 140 100 104 190 111 107 114 198 98 194 169 101 158 87 87 85 108 135 160 75 177 100 174 189 172 102 60 72 31 138 153 71 98 137 159 129 134 163 133 144 158 148 192 137 118 95 91 133 107 172 161 181 122 137 170 87 180 100 175 166 88 112 179 167 82 83 77 173 191 105 141 134 146 106 189 140 92 202 200 89 116 132 67 72 140 84 103 141 68 124 179 92 111 199 162 118 68 117
142 138 134 129 125 136 139 142 136 127 130 140 150 167 180 174 164 161 155 166 181 188 188 181 178 194 196 209 220 219 210 196 187 183 184 182 190 196 189 199 203 201 188 175 165 156 154 189 187 166 154 140 141 142 96 137 146 130 180 159 137 156 189 167 110 170 111 107 94 119 99 107 156 120 190 142 95 137 153 101 118 123 58 40 48 91 94 92 86 89 158 103 112 116 183 135 95 128 94 108 92 119 87 90 86 103 114 120 136 119 157 131 89 158 127 77 83 155 94 79 168 117 86 95 81 98 76 67 119 128 132 151 108 186 101 158 68 74 73 124 92 96 168 78 129 88 158 166 116 202 138 101 156 91 174 157 95 89 166 92 160 121 109 113 134 116 144 102 104 158 165 175 103 128 120 106 88 133 172 127 204 198 102 145 172 186 103 194 201 201 121 209 171 179 160 102 101 124 153 173 75 145 75 178 102 110 109 128 202 195 117 182 184 117 117 119 131 85 108 208 156 199 125 166 127 63 177 94 208 152 193 180 180 181 182 94 107 87 161 175 198 176 132 130 81 67 145 132 70 162 171 125 190 79 100 166 174 108 157 101 105 136 34 120 165 150 165 133 107 110 188 207 130 193 97 154 111 68 151 176 166 126 192 175 138 109 66 67 115 88 121 67 70 142 85 188 108 147 141 105 100 184 121 147 113 170 158 87 42 38 128 72 87 145 110 180 89 103 199 181 124 93 108 164 91 151 143 181 195 209 122 74 137 155 173 160 255 133 118 127 189 184 174 182 138 208 118 159 105 133 97 193 155 88 149 156 141 94 153 165 120 139 90 102 171 136 159 81 88 120 91 115 157 191 165 193 135 143 172 70 134 118 167 184 131 92 95 138 156 150 133 72 143 137 117 76 98 178 83 109 183 127 77 94 139 162 87 89 133 126 113 147 141 149 180 133 214 135 138 185 123 150 89 165 108 149 110 154 169 115 155 173 141 89 156 115 113 192 115 179 149 35 60 118 134 157 73 167 87 161 82 180 109 226 183 175 143 153 131 131 46 57 103 76 115 194 144 114 172 179 147 103 176 116 140 156 190 186 131 107 159 127 120 131 109 175 190 111 198 100 124 94 139 120 76 142 66 255 99 125 191 114 111 99 82 164 145 142 202 141 106 124
139 140 139 133 134 139 138 140 132 118 117 130 137 159 177 176 161 150 149 155 179 197 183 194 190 196 214 218 219 207 209 194 188 185 182 179 190 199 208 208 207 193 210 190 165 179 184 165 181 125 119 137 99 141 128 135 166 140 136 187 147 132 191 191 185 143 121 140 131 75 87 165 106 107 133 97 186 174 153 126 85 64 61 78 54 61 74 137 109 71 79 87 122 113 150 134 97 82 83 87 98 126 93 81 86 103 118 166 162 135 107 102 94 91 76 88 120 144 87 95 170 97 105 176 105 115 83 63 69 56 81 68 178 78 66 118 52 60 105 173 86 129 174 175 66 160 69 85 203 153 195 182 161 70 163 166 107 103 85 88 136 182 172 68 61 87 136 80 168 169 134 181 87 163 103 126 70 131 148 176 176 92 173 96 78 81 131 143 196 205 129 199 173 79 179 170 126 155 151 110 155 146 126 165 206 176 208 188 164 187 109 173 148 53 141 88 149 124 143 130 181 189 170 141 155 164 174 102 193 194 184 76 155 110 199 123 125 190 128 102 196 208 205 119 202 85 86 73 79 82 143 110 128 154 106 51 57 158 148 96 53 43 93 67 147 108 197 142 175 152 167 205 109 195 182 119 142 125 89 159 139 155 138 160 132 86 141 81 90 188 98 153 107 114 67 163 103 88 148 94 170 85 185 155 121 121 190 85 69 67 48 96 148 102 108 135 151 112 176 184 190 84 106 104 103 141 86 141 192 187 146 174 131 96 96 185 158 150 187 185 171 79 79 136 183 201 131 196 216 213 189 114 123 90 173 149 147 129 54 133 130 168 122 94 202 192 86 166 82 167 139 124 199 169 196 103 172 78 75 105 63 77 135 90 127 192 193 87 132 91 115 95 166 159 82 92 176 173 163 81 107 69 143 115 56 150 171 183 118 78 131 117 157 166 154 199 140 176 213 181 76 88 128 131 161 189 97 133 139 138 103 70 57 124 153 125 150 160 145 87 67 90 30 77 48 141 63 67 130 68 131 167 186 148 125 195 106 122 127 136 65 38 121 86 99 122 194 200 124 139 170 111 168 71 104 114 162 210 100 140 61 146 79 90 192 172 163 111 146 183 167 95 87 151 135 68 99 158 151 156 165 112 96 193 99 98 196 101 131 131 62 58
143 144 144 143 145 148 151 144 124 114 100 115 133 148 160 162 155 157 151 155 170 192 188 195 196 207 226 224 209 210 209 204 191 178 168 164 178 196 210 206 216 224 208 217 192 186 186 192 158 167 131 149 135 109 141 161 125 181 171 169 193 196 167 190 128 154 68 78 130 116 76 78 80 90 130 134 187 168 142 126 97 50 56 118 129 124 155 136 111 97 99 121 142 107 130 137 102 90 70 85 110 97 110 94 103 141 117 136 143 125 106 89 78 59 108 112 98 102 146 111 102 92 86 84 94 130 160 75 70 49 50 62 80 175 168 156 54 154 164 88 98 100 146 97 171 114 76 181 202 202 196 156 112 117 97 177 71 106 77 142 130 193 185 67 55 42 57 91 146 130 181 173 120 136 155 160 151 147 113 145 118 149 165 126 159 174 107 200 121 150 182 186 118 154 186 103 176 92 112 137 90 128 192 210 181 122 174 155 145 217 125 176 78 118 118 67 115 172 155 206 197 136 82 151 161 146 77 125 96 136 89 138 143 175 143 181 199 192 127 153 133 151 116 199 188 110 174 162 175 165 119 177 143 147 136 49 97 121 167 166 159 150 119 94 140 207 127 192 157 211 195 117 165 81 157 107 119 130 171 96 183 191 191 95 92 83 160 170 200 129 155 155 73 148 56 70 136 168 137 160 191 178 103 103 116 121 174 78 141 142 85 159 175 126 159 121 175 103 193 200 183 129 94 53 95 56 67 130 92 122 154 98 86 169 162 137 174 167 63 139 90 125 79 156 183 202 184 138 224 132 101 124 96 173 85 146 141 117 90 90 128 99 98 193 198 146 122 157 173 163 157 188 146 214 183 175 76 157 130 82 152 75 105 174 118 137 207 175 166 92 79 89 89 99 164 70 127 183 92 159 76 152 80 77 96 61 170 105 139 165 97 154 82 86 134 136 147 126 137 95 147 114 111 164 121 145 98 141 86 64 73 120 30 51 177 206 132 219 141 109 148 69 103 132 54 41 144 141 100 92 119 86 133 117 94 169 150 37 114 133 37 142 158 80 148 190 145 193 123 105 139 154 78 115 131 91 173 203 141 153 154 107 136 144 159 89 183 112 170 85 124 191 112 149 164 151 82 139 179 112 188 118 121 197 99 117 176 150 163 55 50 90
150 148 143 137 142 147 158 151 128 110 99 116 123 151 159 168 168 152 147 151 159 175 193 193 206 215 233 226 218 214 212 204 196 175 160 156 173 192 209 224 214 219 212 225 196 200 206 182 176 172 147 150 145 157 112 122 125 137 161 160 161 171 138 174 103 130 80 127 75 67 93 92 100 82 158 93 134 151 121 94 115 93 84 118 85 154 108 93 142 60 96 55 102 98 113 100 83 71 116 92 92 87 86 96 143 126 123 126 116 155 107 88 65 109 57 73 140 109 126 96 132 96 164 91 103 128 148 116 60 46 51 143 79 178 152 149 104 163 169 108 196 103 151 171 164 83 161 133 193 202 186 176 92 94 101 83 127 175 141 179 104 192 166 171 152 144 117 88 149 201 155 141 93 84 101 121 181 125 120 182 184 90 131 155 76 160 167 146 201 170 191 191 122 173 111 209 119 131 184 162 141 193 114 220 137 223 195 122 225 170 134 167 117 133 112 60 164 171 158 105 92 86 161 138 58 88 82 179 100 179 75 155 167 140 102 202 101 115 96 116 162 159 99 88 173 163 162 159 124 130 164 83 69 137 99 112 90 164 168 90 102 68 143 92 82 197 131 145 237 226 115 103 181 87 153 103 147 151 173 158 139 103 157 108 99 115 203 192 200 142 150 154 182 68 86 70 127 76 80 91 121 205 123 103 107 121 169 81 50 154 160 77 124 108 198 142 158 147 103 107 112 146 68 87 98 51 72 124 66 100 127 173 178 198 117 148 175 102 146 58 73 134 130 157 108 108 164 210 123 131 113 126 173 170 162 107 144 98 144 63 71 136 174 87 193 173 111 181 164 144 105 179 208 176 108 187 150 64 79 97 133 144 136 187 216 187 137 149 115 164 156 78 147 68 91 119 96 88 96 95 155 114 141 164 168 172 178 99 167 172 155 92 176 95 183 192 204 199 179 165 175 80 124 103 117 199 106 191 133 103 130 45 92 118 69 85 197 155 141 126 196 202 119 136 133 54 136 150 166 94 129 87 178 106 147 141 127 112 30 36 112 90 133 140 162 128 97 190 163 164 97 82 70 130 151 147 131 112 133 188 93 81 107 86 70 81 136 168 81 162 158 101 159 162 174 129 173 97 200 106 119 103 116 134 92 110 152 65 51 84 122 137
156 147 135 126 129 147 153 154 136 115 119 129 141 165 171 171 165 161 139 136 147 158 187 211 220 234 226 208 209 207 202 200 187 169 161 153 171 186 206 222 215 221 230 227 209 200 205 164 156 143 174 153 153 171 189 164 179 180 148 179 154 124 115 159 93 139 65 109 75 150 162 80 80 90 81 99 107 101 106 129 108 83 73 96 129 157 135 100 85 91 96 86 63 78 95 91 70 51 45 49 73 72 106 136 148 156 164 170 131 121 102 133 67 79 135 88 169 112 106 142 180 121 173 88 146 125 125 175 82 60 148 60 70 82 189 91 96 94 128 167 117 177 97 85 177 173 102 110 201 196 191 173 139 179 172 128 115 180 187 148 110 171 122 158 124 152 76 165 168 110 138 193 141 155 133 93 156 189 196 99 117 133 145 76 142 139 118 116 130 113 210 151 123 101 196 197 141 111 96 194 157 104 195 131 143 219 141 218 190 155 109 201 95 137 100 139 173 174 172 110 150 91 66 63 125 119 130 90 136 174 132 167 123 174 92 188 180 84 139 107 110 165 157 159 120 97 161 64 124 112 146 140 162 123 93 173 174 170 145 100 162 120 149 162 164 204 143 225 134 129 143 132 115 100 44 129 55 113 91 86 76 132 130 138 142 120 133 168 125 176 168 86 255 126 66 71 90 74 86 146 105 115 102 134 167 179 72 101 73 84 85 117 86 111 100 104 106 196 113 198 93 116 112 139 60 76 67 130 56 139 103 188 111 140 111 140 86 161 58 145 106 100 125 97 159 183 189 195 145 155 162 169 103 162 78 133 65 158 142 64 69 78 126 150 108 184 174 151 150 187 163 210 208 205 167 129 176 90 171 140 184 190 170 130 118 203 181 162 132 79 164 67 158 55 77 151 76 89 185 93 170 139 146 101 178 183 186 92 161 167 106 181 179 163 143 160 135 165 92 87 76 86 108 145 151 124 126 80 69 151 67 95 129 119 135 69 81 112 101 203 208 155 112 190 80 169 155 100 255 75 88 174 130 71 104 51 62 136 115 48 143 69 72 81 101 155 94 85 186 103 175 152 105 66 40 139 76 149 140 100 143 148 55 73 96 116 169 71 80 74 76 175 105 176 197 175 79 94 163 191 126 149 131 101 178 99 75 64 73 45 51 81
157 144 125 115 118 136 155 157 138 132 133 140 170 179 177 176 186 166 146 152 148 180 187 215 225 228 219 199 189 193 194 188 175 169 171 169 180 184 198 214 224 221 223 215 209 208 201 192 175 176 182 162 157 162 206 188 156 201 199 181 134 145 109 148 155 62 68 72 166 141 124 155 90 64 85 129 134 160 147 86 152 112 161 97 104 166 151 151 88 72 72 118 69 77 84 75 111 77 60 47 82 55 57 69 89 114 143 126 134 122 104 93 83 65 72 83 158 105 141 150 110 103 98 112 114 179 136 105 93 180 82 139 74 90 89 105 178 87 104 75 179 75 177 83 159 157 81 174 191 170 152 85 170 85 104 150 142 153 86 162 181 188 123 149 81 138 71 153 91 167 147 114 87 110 105 139 158 179 202 134 199 184 185 102 140 142 118 114 134 110 203 95 173 165 114 116 171 208 112 98 165 123 184 141 196 140 110 187 171 106 90 106 190 112 164 182 87 133 106 171 159 92 141 108 129 160 124 136 94 94 86 83 160 180 160 182 87 169 76 61 80 66 155 144 124 150 91 86 170 146 90 84 83 104 90 126 155 192 179 166 118 161 159 110 174 100 192 159 132 232 180 160 93 142 72 124 115 52 107 159 133 79 124 201 114 119 158 209 106 186 168 129 107 139 169 72 140 86 87 171 102 142 129 180 94 75 61 101 135 84 89 79 66 163 87 81 118 131 155 131 97 168 109 82 179 155 68 61 255 131 56 147 134 140 183 206 191 171 112 106 101 122 180 89 167 169 118 93 92 108 90 171 167 159 126 134 181 135 158 102 99 129 135 185 122 103 158 131 169 111 105 200 174 124 121 111 151 100 69 82 197 199 197 197 195 195 93 177 121 144 143 158 158 59 49 59 164 170 113 148 146 149 158 165 164 136 161 108 97 70 166 91 172 208 152 125 52 66 143 110 136 160 149 164 151 82 134 117 148 76 136 165 130 76 58 63 88 82 92 196 188 162 172 202 100 131 87 82 90 88 126 150 163 159 74 162 57 136 48 139 101 149 107 67 86 77 167 74 157 110 122 73 56 145 103 139 143 165 175 169 177 123 131 126 75 165 178 148 150 69 74 187 174 153 215 165 129 124 90 184 121 90 89 192 109 158 148 161 129 120 86 71
160 144 124 111 115 138 144 142 129 130 130 153 180 177 192 183 186 182 154 150 164 177 201 211 214 221 212 191 178 180 183 183 184 182 189 184 185 190 176 182 199 188 206 192 175 195 198 186 165 152 146 188 187 156 161 214 169 194 182 167 106 99 137 159 255 108 84 111 181 191 111 100 154 125 92 115 166 168 158 147 73 96 153 112 103 105 161 84 144 84 137 87 79 83 84 72 66 52 61 59 90 46 63 80 90 95 99 98 94 110 132 139 153 112 91 110 101 116 124 145 96 92 98 171 111 214 147 111 189 106 139 90 88 76 124 170 105 101 95 104 121 147 174 114 177 93 134 169 77 182 89 85 137 166 147 95 160 112 171 175 119 111 182 124 124 145 71 89 149 95 161 159 89 102 77 145 66 84 188 196 194 191 146 94 72 93 71 173 182 156 133 88 179 176 137 200 127 202 193 198 190 195 99 185 82 99 121 85 107 167 94 132 75 93 80 86 99 183 78 148 87 166 107 126 255 132 146 192 171 90 104 142 145 156 92 95 141 70 157 45 135 143 58 143 157 162 178 121 178 80 102 75 99 182 88 182 134 202 122 208 148 96 147 155 165 181 194 182 147 213 123 214 110 128 59 127 47 55 111 117 98 157 122 200 149 141 128 177 208 123 183 145 121 136 77 91 153 187 173 141 57 66 174 111 83 170 73 149 71 71 92 82 86 150 94 62 95 122 126 116 76 95 160 121 95 98 69 87 136 34 82 83 152 194 145 143 106 105 160 163 126 201 107 123 73 113 95 74 158 153 162 175 159 86 97 188 96 185 153 137 176 148 111 161 127 113 101 99 105 152 162 143 120 165 100 166 143 156 127 182 116 179 193 203 184 181 180 140 79 119 103 71 139 149 89 65 92 193 125 190 162 174 102 180 88 96 80 117 167 169 90 124 112 110 96 152 46 47 113 111 44 121 122 169 121 168 163 165 81 137 135 172 111 159 60 80 163 168 137 111 136 139 107 123 89 123 184 165 179 165 167 160 99 166 148 77 149 129 151 84 96 56 141 144 118 85 107 95 153 181 146 132 79 153 55 138 154 122 144 150 110 82 180 164 79 87 88 177 174 82 134 109 193 127 195 124 112 87 119 162 88 132 116 183 101 179 127 81 157 57 54 52
155 141 120 107 116 130 142 135 123 124 134 153 162 179 181 184 176 180 163 145 163 164 178 200 210 197 197 189 175 172 180 188 196 201 204 207 194 186 167 161 169 185 186 183 162 169 187 165 159 134 130 170 159 156 203 205 157 132 135 161 154 116 103 178 139 174 142 173 165 192 122 168 116 95 162 152 143 152 89 76 65 128 158 102 150 106 111 87 151 109 80 119 139 255 136 82 76 88 76 67 66 50 67 88 60 80 101 107 86 86 101 100 110 86 111 90 151 115 127 164 96 154 158 201 126 115 203 190 206 114 220 150 94 88 103 93 120 202 190 183 79 161 110 90 69 163 87 160 109 65 170 107 152 162 85 186 181 146 80 147 134 162 186 156 182 132 162 151 94 92 85 134 153 108 119 57 118 154 129 180 138 195 124 165 64 126 154 135 166 123 180 103 82 172 114 190 191 97 98 191 187 144 98 179 68 112 94 127 168 137 51 67 123 61 81 127 148 176 86 179 135 177 176 161 157 181 187 185 132 172 174 97 108 163 92 173 178 120 158 93 137 66 101 45 118 175 93 125 172 144 148 148 136 93 88 177 113 172 198 203 114 138 164 129 99 86 94 136 171 127 184 129 173 136 132 151 61 162 156 145 90 145 85 91 192 92 112 154 131 114 182 99 134 98 80 116 161 93 87 112 144 49 68 77 124 66 66 111 76 122 156 114 123 88 116 140 77 143 198 94 78 126 51 121 82 101 169 156 145 138 75 187 177 169 123 125 119 119 204 182 124 155 86 82 121 91 62 70 180 160 190 90 107 164 132 101 125 195 186 100 179 84 100 177 190 148 137 127 182 190 101 203 202 127 142 155 92 73 88 94 173 104 179 137 167 177 121 130 175 165 140 161 156 51 72 164 154 117 125 102 132 146 175 81 109 97 178 172 172 141 78 176 177 211 88 78 131 39 118 24 24 100 104 113 64 135 163 136 110 165 190 193 128 90 139 99 96 191 164 183 94 150 164 149 127 114 176 161 121 74 126 51 151 169 151 124 84 177 172 167 109 53 69 107 54 148 175 168 138 81 171 122 75 69 74 125 128 129 152 153 90 105 124 140 175 110 96 133 79 66 69 125 107 201 224 125 101 85 88 181 163 183 88 161 85 144 162 153 96 155 77 46
151 141 124 112 112 125 129 121 126 132 141 154 149 153 154 150 167 169 152 142 150 158 169 172 190 195 189 193 177 183 186 187 203 211 213 213 206 186 159 161 152 167 172 177 188 186 203 180 165 157 137 137 186 172 165 189 183 160 110 139 158 134 186 131 132 174 174 175 189 192 125 110 94 94 111 126 177 174 105 76 60 108 94 130 109 189 112 116 90 125 107 95 110 148 99 141 126 116 86 107 102 83 46 61 73 109 68 111 73 126 104 113 100 145 85 90 97 114 164 144 152 94 133 161 158 115 84 176 114 170 222 160 90 85 67 112 81 87 136 140 113 51 100 83 110 147 135 107 77 60 75 164 173 170 140 140 91 85 142 137 89 152 112 150 199 123 142 120 88 153 185 191 131 158 60 110 161 113 72 142 255 159 189 163 126 116 45 134 88 185 110 148 159 127 78 179 87 92 145 92 98 101 102 85 68 138 114 94 136 42 62 93 74 153 110 165 165 199 174 113 96 106 139 111 188 150 206 128 151 78 75 84 87 189 177 186 84 159 104 136 105 138 138 101 145 111 108 103 125 110 108 158 146 127 63 138 153 149 203 213 201 102 106 71 64 103 181 163 201 183 175 133 185 79 158 60 169 123 153 105 177 136 152 89 118 83 178 115 133 91 92 168 156 79 84 152 93 103 120 68 50 146 68 73 182 161 98 63 101 79 92 81 164 63 127 77 87 188 205 141 76 66 46 71 172 80 95 67 135 141 82 195 134 106 178 163 115 216 137 207 195 156 73 142 47 41 137 72 178 103 181 193 173 96 162 142 191 179 115 151 116 84 172 110 100 139 168 89 151 132 102 154 163 194 182 96 171 148 164 188 124 156 124 97 120 143 63 83 62 125 107 134 66 119 161 161 93 94 104 97 177 158 101 85 186 142 107 91 154 135 130 176 145 209 185 155 136 31 130 30 79 123 88 146 127 55 69 75 175 177 176 110 112 255 166 187 140 103 159 113 136 66 86 146 166 180 154 171 126 147 51 48 52 152 81 181 101 185 92 184 136 161 151 82 138 69 162 109 113 100 168 160 95 152 85 172 117 98 166 83 114 184 118 140 153 175 192 165 125 71 60 71 92 109 198 128 126 180 138 91 122 195 181 163 171 81 67 123 65 47 89 80
137 136 128 126 123 121 117 115 120 133 148 159 151 145 142 139 158 161 153 156 150 154 147 149 161 190 187 195 184 187 190 195 201 200 209 209 203 186 160 159 154 148 159 171 188 187 192 185 145 150 122 115 175 166 143 160 130 168 145 176 186 171 120 172 134 165 159 171 192 128 152 83 157 130 130 135 130 140 181 81 77 61 81 89 111 127 113 102 142 87 86 81 96 113 112 101 135 124 156 102 133 76 82 57 96 90 85 65 123 114 167 139 99 92 80 131 81 76 96 177 100 127 193 197 152 167 120 78 180 181 199 104 183 70 138 70 149 77 167 161 56 137 58 117 52 68 141 155 132 148 112 156 66 142 176 89 87 190 144 160 172 81 118 111 164 142 131 136 185 127 127 110 190 111 61 158 107 80 76 74 84 122 177 156 112 96 79 67 184 188 193 189 130 129 90 107 154 93 127 118 173 193 143 196 91 155 121 66 60 86 96 125 107 57 146 163 195 124 104 122 161 97 94 137 125 166 210 146 177 171 166 152 180 95 110 146 84 176 81 167 76 147 48 150 64 123 148 175 218 156 213 85 99 76 93 175 183 141 168 127 203 130 97 171 93 76 134 100 191 150 187 139 97 107 167 89 79 134 106 80 129 120 163 72 65 63 149 107 158 186 191 191 93 86 74 93 143 122 184 163 151 127 159 81 183 117 156 106 58 97 65 78 66 72 167 75 86 154 109 104 72 47 53 59 83 83 80 76 76 184 99 109 205 160 90 192 200 179 188 173 156 198 125 140 77 70 81 117 103 110 147 133 85 107 143 161 131 142 124 80 158 181 112 190 162 92 173 153 135 104 159 205 141 140 92 154 81 155 191 255 137 108 192 188 104 137 120 57 116 72 136 148 124 149 130 174 173 78 165 163 106 156 147 82 94 183 155 173 183 123 108 169 116 125 165 72 88 92 119 121 44 140 116 148 146 148 147 94 87 161 115 188 114 114 203 188 180 85 113 174 81 93 183 188 99 95 96 106 94 92 46 147 157 170 148 166 98 171 130 109 191 84 125 81 91 120 127 98 92 84 170 117 67 157 78 161 174 98 79 112 167 76 153 145 69 125 131 136 127 80 111 99 159 196 179 116 112 76 79 88 93 102 151 109 72 162 60 78 131 129 51 54
130 138 142 146 139 127 123 120 121 143 157 174 169 153 143 148 159 160 173 165 153 150 159 145 164 171 189 198 191 189 190 190 190 184 193 198 197 189 176 152 154 149 157 170 169 175 194 183 144 146 102 150 165 172 155 189 185 194 170 195 131 176 117 171 184 138 128 185 200 127 183 111 119 130 92 171 127 193 176 121 76 78 120 157 161 168 138 89 72 61 84 76 121 79 82 121 90 104 100 126 117 106 86 107 102 69 127 67 67 110 103 113 135 92 82 102 68 73 141 83 137 100 159 143 110 75 119 149 67 87 90 81 158 97 79 115 169 156 160 88 50 68 33 66 101 161 120 81 66 76 73 58 157 139 86 185 95 166 103 142 181 160 145 127 202 130 140 184 149 165 151 150 193 177 133 71 157 145 101 168 166 107 105 136 123 95 146 69 98 109 154 147 185 144 170 116 176 178 186 179 131 156 185 183 85 158 113 54 70 30 77 35 65 71 152 123 131 183 205 207 183 137 175 170 101 165 198 118 93 154 168 89 117 91 125 165 115 85 166 99 171 130 154 155 123 101 78 188 128 143 214 163 181 168 131 157 148 184 100 169 209 181 200 94 192 179 186 176 113 84 153 165 159 91 113 96 103 91 94 79 158 66 143 122 58 80 73 114 182 87 130 112 90 80 145 167 107 175 83 82 67 58 57 163 138 118 134 147 65 104 93 80 167 171 153 81 99 192 107 144 74 53 59 154 86 84 87 142 187 105 114 208 204 189 113 171 194 201 110 132 111 147 163 82 39 33 72 147 130 142 182 175 168 166 156 166 87 174 80 163 169 180 170 173 79 72 141 87 111 157 139 159 205 126 99 188 187 114 106 139 98 135 166 114 173 62 140 57 130 112 164 135 180 81 181 170 164 154 111 137 145 66 165 165 164 152 90 193 144 118 163 98 89 138 68 98 49 136 123 60 158 156 139 142 67 83 95 172 146 100 197 141 194 148 100 183 114 106 167 164 149 114 191 127 119 131 194 194 173 147 103 108 131 145 176 129 177 168 123 210 192 169 90 101 180 122 182 145 113 137 161 101 164 90 82 151 164 89 145 140 164 106 64 96 93 180 160 185 159 68 99 65 147 192 125 185 91 70 117 91 177 93 111 97 72 159 155 163 114 65 77 133
128 141 155 161 153 145 129 120 120 144 165 168 185 176 159 151 160 168 186 184 179 166 165 162 159 171 185 192 192 198 190 183 174 165 170 178 190 185 181 173 162 158 160 154 182 172 153 146 156 126 137 104 142 144 147 155 161 209 211 139 173 137 116 124 92 128 126 255 184 132 154 148 128 154 155 167 167 116 174 147 99 96 139 98 104 102 94 70 63 53 104 59 80 102 90 82 92 103 93 85 78 104 77 67 85 67 120 105 80 116 72 88 164 131 132 148 133 112 147 88 86 134 88 100 87 113 37 57 63 74 155 73 69 72 126 172 90 182 89 106 102 73 114 140 69 185 175 158 148 60 141 164 77 170 167 150 172 173 148 199 188 101 103 181 165 170 208 179 188 184 190 144 103 183 92 172 187 120 178 190 148 131 86 156 150 129 154 136 96 187 212 106 111 114 148 122 174 87 112 98 169 201 135 204 187 115 119 140 45 49 115 135 114 134 188 180 152 185 220 150 163 148 150 144 90 159 192 143 108 119 149 181 177 123 168 72 163 177 93 115 154 93 73 59 109 110 125 189 117 135 178 101 116 108 117 133 207 196 198 140 188 102 183 102 124 122 99 108 87 156 82 101 144 147 154 89 113 132 142 114 170 109 120 66 75 155 94 141 137 185 154 86 100 71 60 125 100 125 116 111 103 56 82 76 71 78 137 188 179 70 96 142 175 102 75 79 169 119 109 199 82 69 113 74 92 126 166 119 152 191 114 187 187 77 76 174 169 101 102 102 180 129 102 70 55 122 139 131 156 55 66 80 94 175 65 118 72 79 90 98 107 168 66 139 79 157 76 158 129 178 151 179 124 206 140 102 98 131 156 103 124 100 118 183 70 61 53 154 95 176 120 96 149 173 189 137 85 138 125 54 165 137 86 101 134 144 157 116 194 123 144 189 180 176 167 45 132 79 49 148 85 79 73 108 92 255 135 91 159 81 173 109 207 196 139 185 171 86 151 171 175 99 214 125 184 190 210 192 78 73 153 173 170 180 176 108 195 156 215 112 200 154 167 199 188 132 96 131 154 176 165 128 113 72 70 54 70 161 116 130 76 140 132 80 92 152 96 98 133 185 145 157 146 169 159 117 135 155 124 90 96 165 157 76 136 74 162 162 75 95 93 79
138 150 163 169 161 149 132 123 130 150 165 174 185 187 178 157 158 169 187 193 193 176 161 157 156 159 182 189 195 197 199 189 169 162 165 172 181 183 177 178 171 158 166 171 167 152 176 129 114 108 115 153 156 159 150 191 209 159 189 167 156 115 116 90 145 88 119 98 108 152 109 154 133 111 154 143 114 109 120 144 184 129 141 166 95 86 143 67 114 64 112 107 74 120 67 81 130 108 89 100 72 69 64 61 90 106 89 78 94 113 83 147 121 111 125 85 84 157 68 148 107 88 97 128 107 38 27 40 62 149 72 70 69 112 84 101 192 98 137 82 67 40 141 80 166 118 172 195 255 92 77 154 82 168 179 143 88 124 203 201 190 161 119 173 186 196 195 173 145 93 99 179 152 95 102 176 188 211 213 110 90 170 175 167 91 47 55 173 96 134 198 191 149 91 112 168 136 106 169 205 109 205 117 188 180 132 139 123 114 112 123 71 74 132 92 132 201 123 181 200 182 114 87 82 112 189 190 131 175 188 202 162 193 102 95 78 124 83 91 120 88 162 75 156 152 110 168 194 207 118 139 163 159 137 139 129 111 109 179 172 176 175 153 99 134 116 163 117 173 88 88 156 72 162 67 90 161 78 171 110 94 105 177 83 78 64 73 163 104 142 181 86 157 137 56 100 62 66 79 66 130 148 47 81 51 77 90 132 166 79 98 93 82 106 151 94 120 159 156 202 104 109 87 142 129 120 140 103 103 145 185 155 143 174 82 114 153 175 172 91 85 144 182 78 152 64 68 70 70 51 145 96 87 142 169 156 148 76 128 75 81 59 47 125 137 64 160 91 120 153 124 143 190 124 191 86 88 78 167 171 83 171 182 110 74 93 64 83 160 190 203 213 188 214 121 141 85 41 45 142 176 151 196 187 188 176 174 144 168 215 161 107 121 177 103 145 131 87 47 168 92 127 117 141 126 106 99 78 55 151 141 115 132 189 166 78 88 182 192 141 87 170 208 215 223 227 217 200 179 137 102 196 187 126 83 165 183 160 201 112 163 165 161 165 204 193 167 190 116 183 198 107 102 165 160 84 66 98 108 173 60 95 99 143 143 154 95 92 158 164 157 102 175 136 94 136 78 66 177 95 104 178 166 84 118 73 163 83 141 74 116 178
144 151 158 166 157 148 132 132 134 144 163 163 172 170 161 152 157 174 186 202 192 193 171 161 161 165 170 162 180 188 194 188 173 160 158 168 165 175 167 174 179 161 158 169 175 179 169 165 131 159 165 127 158 175 137 158 156 210 197 135 140 84 118 56 113 101 96 121 185 175 146 111 133 93 137 135 72 107 155 124 157 128 122 138 142 96 136 150 71 122 70 98 114 64 77 95 92 116 113 115 101 75 65 60 51 94 59 83 112 129 117 134 109 102 142 151 91 143 80 124 182 113 146 122 66 59 117 35 150 75 87 101 76 86 118 121 101 95 169 154 135 93 53 157 133 126 222 202 170 158 185 168 179 117 170 73 168 97 156 203 149 150 128 175 167 186 113 149 98 140 130 172 119 177 161 110 199 204 226 207 126 167 185 69 149 65 57 67 79 145 166 171 73 168 86 93 141 173 199 185 208 175 197 168 144 73 157 128 101 128 94 62 163 137 185 110 119 196 107 188 171 141 59 162 179 185 173 143 195 203 195 132 142 159 127 75 82 152 157 98 179 144 163 161 145 79 157 195 103 121 193 167 120 208 123 210 166 114 132 186 81 162 95 86 124 115 144 94 138 119 130 55 63 106 123 103 162 175 89 171 164 162 184 102 61 81 103 88 165 155 175 74 66 68 127 141 165 148 84 125 110 90 107 118 46 58 81 82 84 161 99 91 163 143 81 86 101 209 184 188 123 105 173 120 179 121 166 93 180 107 130 137 117 128 156 173 158 118 92 131 80 160 129 160 166 101 181 82 120 56 59 163 120 176 124 157 138 133 145 89 155 144 118 94 126 143 179 131 186 160 94 157 111 175 103 123 111 107 77 175 116 86 150 182 140 166 157 97 125 126 141 202 203 130 101 139 50 42 105 139 152 180 197 149 87 171 99 141 109 208 141 133 134 116 141 105 140 67 72 157 91 108 195 107 97 75 126 37 120 81 139 174 155 109 143 80 113 179 83 90 165 119 192 198 208 166 147 192 183 93 93 201 149 188 135 175 179 86 123 124 88 167 173 121 165 173 99 177 185 98 202 150 195 109 169 72 170 116 80 79 80 130 44 118 86 119 85 168 188 109 154 211 105 179 144 100 173 133 143 106 167 110 156 195 98 181 89 80 79 107 98 84
142 146 151 159 155 143 131 128 144 151 163 165 163 155 146 147 159 162 174 187 179 190 173 170 151 155 157 255 162 172 190 181 177 168 167 170 164 167 165 181 173 181 170 164 169 179 183 183 151 180 148 181 181 191 200 191 186 204 175 158 138 140 88 121 128 128 122 102 117 106 155 143 141 122 120 87 75 147 92 120 156 169 131 152 124 95 96 162 79 108 86 105 102 59 70 108 107 105 87 82 83 109 77 74 101 56 76 84 105 145 123 156 128 148 108 100 141 157 114 159 167 99 142 76 43 114 27 58 156 118 108 116 84 105 114 190 137 165 139 82 42 143 100 102 207 139 224 198 165 202 106 154 87 78 136 136 172 113 146 135 157 120 161 156 84 172 71 120 120 166 145 176 176 187 139 145 147 126 216 209 169 200 174 80 142 77 52 163 119 113 109 65 112 109 96 143 186 151 105 116 216 140 116 192 92 157 167 90 68 110 128 120 66 108 111 112 114 115 197 80 167 107 63 164 142 123 108 99 160 139 116 111 199 146 135 135 176 131 175 179 168 148 85 76 145 190 98 194 93 111 176 168 133 182 176 187 186 202 105 104 134 66 145 162 163 159 176 165 177 145 167 62 158 81 87 149 112 173 185 166 133 177 119 168 120 164 114 110 113 70 69 117 67 102 122 80 130 153 143 76 111 70 72 146 51 53 108 110 137 82 85 179 187 132 162 160 208 221 128 121 158 184 148 211 174 158 112 197 92 97 177 127 141 194 147 132 175 165 131 149 172 93 126 170 174 113 121 182 73 164 163 122 93 94 150 124 74 140 189 161 121 71 76 137 66 146 94 98 165 100 182 171 85 71 85 102 72 105 178 115 79 179 178 123 177 158 174 175 184 126 128 150 131 175 114 121 136 128 59 135 165 168 146 173 180 167 85 151 131 126 119 219 179 184 135 180 161 163 150 105 181 83 142 153 92 148 154 87 119 141 145 155 175 96 174 174 80 171 100 98 161 175 162 174 160 114 161 201 178 92 93 175 153 86 94 77 93 184 96 110 76 69 170 169 70 62 125 163 127 186 190 197 93 116 148 173 103 180 79 123 119 87 40 90 53 104 89 86 176 134 194 171 128 190 102 189 191 132 180 138 118 112 139 115 201 105 181 80 144 182 84 95
129 135 144 150 156 144 129 125 151 167 174 166 156 148 126 137 152 165 181 181 181 185 171 158 158 148 147 150 160 177 189 195 183 180 174 170 169 168 171 182 183 172 157 161 168 156 183 181 167 200 173 190 151 203 202 207 216 176 165 163 130 161 112 95 95 133 157 105 175 97 73 117 145 110 146 63 139 86 77 138 124 129 132 118 100 95 99 98 90 99 54 56 64 70 69 105 99 86 89 102 79 82 115 68 85 52 72 134 131 118 120 129 117 114 178 156 116 102 103 193 102 156 101 64 113 39 115 132 91 188 185 122 170 93 133 95 169 65 152 47 98 145 120 193 132 116 114 185 106 99 190 171 139 99 149 163 152 94 138 155 165 164 131 162 131 152 95 149 72 88 144 163 143 161 180 154 189 147 191 159 120 162 204 82 116 78 55 170 187 89 85 171 179 130 91 85 187 151 96 172 117 187 222 144 151 120 63 160 105 154 126 63 154 141 124 140 108 184 187 117 144 76 173 102 124 94 171 100 187 170 137 207 115 101 154 194 88 138 146 103 190 190 108 154 154 122 105 200 116 186 172 89 162 88 173 204 125 197 152 94 147 141 129 65 68 95 116 143 117 171 159 68 142 140 169 149 167 136 206 166 100 92 83 154 143 119 68 150 84 160 73 80 171 180 137 191 108 155 85 168 172 81 116 157 60 57 67 74 147 93 116 180 125 113 201 111 134 123 184 134 160 114 193 226 172 128 167 101 145 171 148 122 129 192 161 183 93 80 99 83 144 112 104 161 181 89 123 163 82 64 158 89 100 128 134 67 77 177 197 173 100 105 145 110 142 113 164 165 136 178 167 89 139 124 136 77 80 68 115 125 170 140 103 165 158 157 141 91 178 99 100 136 155 171 156 51 106 84 53 60 168 128 110 161 106 180 155 107 90 191 128 126 120 106 136 136 96 179 150 161 149 72 159 163 119 83 139 122 111 135 74 65 94 141 82 113 158 152 75 113 64 117 193 177 106 97 175 120 96 84 121 88 127 110 73 69 174 160 166 181 141 157 128 61 43 126 72 91 83 137 183 98 94 190 183 91 185 113 114 124 140 133 122 115 63 155 164 170 191 139 142 113 95 172 188 90 146 199 213 169 138 109 181 116 116 135 184 83 129 84 131 94
117 124 138 149 153 148 139 136 153 177 191 184 162 138 140 139 163 174 190 176 180 169 166 165 152 149 145 145 164 172 188 203 200 192 187 183 180 183 182 184 166 172 153 161 177 200 214 218 216 200 161 188 185 177 201 221 185 149 180 157 128 142 116 102 126 147 135 164 81 150 117 61 140 56 82 56 90 55 98 115 94 111 171 109 106 92 95 94 139 63 62 67 70 77 113 96 73 99 128 70 102 81 87 80 47 49 119 95 95 118 101 108 107 102 131 128 145 193 111 183 175 172 121 160 130 56 155 159 119 201 198 90 161 182 107 158 176 163 52 67 46 62 164 177 197 171 133 200 119 91 173 62 135 68 62 162 87 108 142 177 80 78 169 159 105 115 159 74 162 80 166 193 193 202 210 169 145 133 103 132 212 144 201 193 66 110 145 179 194 136 149 184 131 168 110 125 137 100 114 98 106 120 191 133 99 134 153 122 117 71 142 145 126 71 185 189 184 127 106 116 165 148 184 128 142 121 95 149 139 129 197 122 104 108 202 179 200 107 177 89 123 187 108 184 183 126 98 98 184 178 141 128 76 158 120 204 218 171 115 124 106 141 127 167 71 138 166 141 113 99 77 154 116 117 90 92 116 141 107 164 188 101 174 79 96 159 125 80 134 142 106 71 78 175 115 132 130 180 101 101 79 182 95 86 169 150 87 57 154 116 179 92 187 177 201 131 135 136 155 102 88 190 145 214 192 125 132 108 195 90 161 168 220 112 158 184 193 131 152 134 192 164 144 128 153 156 131 73 150 72 129 143 167 165 81 157 175 194 145 149 141 146 98 58 116 131 166 172 88 187 117 97 75 158 49 117 95 128 126 159 108 86 148 177 180 89 150 165 168 158 109 167 175 153 159 110 58 49 69 148 152 115 176 93 163 91 103 181 121 178 85 96 179 132 145 87 97 138 97 95 139 69 120 183 97 180 66 96 39 136 53 136 66 164 182 95 155 135 81 128 166 91 161 197 165 134 209 209 107 150 110 151 166 125 78 159 98 157 191 165 97 172 154 115 122 67 138 59 68 175 100 86 91 184 167 185 84 89 119 165 61 105 100 100 62 56 168 170 122 198 125 150 92 94 91 128 126 162 159 216 112 146 104 182 94 91 76 153 75 103 74 150
117 123 133 139 147 149 147 144 171 186 196 177 171 146 153 155 169 169 190 182 159 160 151 160 147 155 154 158 160 177 190 202 198 199 190 194 186 191 193 187 177 165 155 164 185 207 226 214 189 180 170 172 133 173 147 172 152 153 205 154 146 124 120 149 141 78 126 167 124 116 159 64 95 137 120 142 133 57 134 99 95 143 117 89 87 86 88 153 79 59 90 81 66 87 75 107 76 135 71 100 82 104 104 77 64 81 86 109 85 74 82 80 132 92 92 90 102 182 169 105 82 80 86 156 124 58 59 71 112 194 163 92 77 113 140 91 129 65 63 63 59 114 73 174 99 88 163 179 90 171 156 152 139 144 150 155 147 184 183 123 117 121 80 139 81 94 95 69 145 111 139 100 183 188 180 127 187 128 199 184 171 128 156 163 98 150 151 158 206 210 219 111 90 151 65 72 172 99 83 87 175 191 184 101 91 164 119 91 94 103 107 60 99 111 185 117 154 92 178 114 163 172 170 174 178 108 201 195 164 204 189 121 156 135 191 220 177 159 94 108 113 155 116 75 171 171 181 126 98 80 126 65 83 177 174 219 223 156 136 201 160 184 186 95 118 165 164 173 144 157 64 97 142 156 159 130 159 99 123 202 191 160 171 114 79 166 65 118 116 160 189 106 93 140 169 128 147 186 92 180 104 155 113 192 181 89 150 62 113 181 94 199 135 137 113 128 162 187 155 167 78 87 93 200 172 177 217 201 100 103 134 157 154 168 145 198 183 135 147 134 114 99 162 123 170 168 155 130 157 81 185 123 167 115 53 128 171 163 140 87 84 160 152 102 141 82 157 171 182 86 92 125 88 164 142 98 98 64 127 128 93 105 77 153 144 118 162 115 127 119 139 137 167 85 81 120 82 64 93 75 79 108 181 109 117 104 169 181 170 133 114 146 107 117 156 183 107 118 73 157 102 107 168 147 145 89 170 63 56 88 147 90 79 178 87 99 64 140 68 142 100 192 209 137 150 128 160 191 105 88 169 167 121 147 157 136 109 188 105 201 96 124 140 50 103 37 129 136 156 115 110 85 174 156 160 160 139 75 165 163 93 51 100 149 99 87 74 73 76 145 181 163 100 187 189 128 123 216 134 208 124 119 83 60 82 67 162 81 169 67 56 255
128 129 133 140 144 141 144 153 171 178 173 174 171 167 157 176 183 187 172 180 175 160 160 158 164 159 163 165 168 171 182 194 205 201 203 196 198 196 187 184 164 150 150 169 175 196 230 226 197 185 157 163 163 142 176 125 137 144 189 140 132 148 86 137 146 86 129 150 80 150 106 157 82 66 109 65 95 81 47 119 80 59 71 79 135 86 80 102 63 70 66 105 65 123 68 77 78 113 106 112 115 100 71 64 100 48 82 56 81 68 80 80 104 98 82 89 151 176 174 194 90 74 71 78 148 55 77 84 112 139 144 180 152 139 153 160 165 77 106 80 177 157 172 177 114 161 180 95 117 152 128 134 96 166 147 177 88 188 140 189 85 103 57 151 67 105 146 143 162 124 111 95 120 181 131 160 173 181 181 133 130 200 195 102 107 108 75 186 142 139 135 208 151 113 63 74 66 141 77 92 126 78 90 118 95 77 96 171 149 83 136 129 156 89 82 93 197 150 141 102 175 106 213 205 151 107 198 207 200 212 128 198 122 152 194 220 176 176 88 85 124 179 120 66 62 148 128 171 79 149 91 133 152 189 121 225 246 156 205 120 201 132 145 88 155 163 80 138 139 158 65 144 166 99 77 115 135 118 185 172 115 158 76 124 130 106 76 140 156 99 163 191 172 208 161 84 169 96 103 142 79 94 178 112 99 76 109 158 76 122 189 146 156 107 79 81 118 191 158 93 75 102 158 130 117 169 114 216 166 106 125 104 195 95 106 110 183 188 143 95 155 192 93 88 71 96 165 107 112 183 87 130 178 61 143 114 67 183 173 178 103 82 147 130 142 89 122 120 155 178 84 116 121 175 99 78 171 107 125 170 163 95 80 148 109 143 161 165 97 127 137 76 180 151 96 176 93 141 85 136 128 154 158 175 124 115 162 153 124 85 133 169 112 173 84 162 112 172 103 78 87 84 176 80 128 184 169 90 127 80 174 104 81 163 96 178 113 141 162 181 194 191 202 131 191 202 214 219 110 130 172 108 153 91 74 91 90 148 162 114 183 82 136 58 108 141 151 105 127 126 63 147 72 156 156 66 122 149 92 76 151 150 86 67 124 170 113 177 83 179 96 190 189 181 104 150 135 132 114 107 188 87 162 93 51 152 68 97 163 52 59 134
141 141 142 136 135 134 132 136 152 163 170 152 159 168 171 176 185 176 173 168 184 181 189 173 171 155 164 163 163 159 172 191 201 204 202 196 190 171 180 175 166 177 178 168 194 201 216 227 207 213 182 170 255 175 133 161 156 167 110 117 166 156 163 114 144 110 153 91 81 113 118 110 99 145 143 75 96 85 65 55 68 87 64 101 255 133 119 73 69 84 80 120 68 61 78 115 80 79 112 78 81 101 71 95 51 75 108 100 65 71 81 130 72 113 132 109 126 210 144 195 135 84 87 83 65 141 75 92 81 85 92 88 65 47 56 82 112 160 85 187 90 120 183 75 98 152 99 173 197 148 105 107 173 137 110 88 178 181 156 185 152 177 134 164 126 124 186 180 127 157 101 100 110 162 158 146 91 141 114 159 178 216 187 131 187 182 158 159 135 118 204 214 137 128 154 70 105 169 89 118 158 138 94 197 169 131 147 168 110 168 82 83 134 102 82 161 85 112 72 139 95 179 207 189 118 110 209 118 179 137 126 149 190 196 131 117 110 133 65 152 173 170 77 73 69 135 62 79 96 95 81 66 156 176 198 195 186 150 214 141 190 88 118 89 130 174 117 171 125 97 154 164 142 134 157 86 90 119 131 101 80 163 146 104 81 168 95 127 192 108 179 163 208 158 201 119 131 167 100 123 94 91 185 119 143 169 112 72 78 94 149 206 169 174 98 130 98 112 152 85 95 165 147 162 87 182 111 193 212 102 90 147 174 90 176 189 196 188 103 161 183 85 127 172 163 98 78 168 179 113 106 87 142 69 49 88 88 80 124 90 124 153 150 76 78 68 69 162 170 112 154 133 168 147 112 98 185 128 181 79 172 169 99 103 170 114 172 170 116 89 73 110 94 108 133 101 75 120 94 161 176 167 129 105 101 103 130 104 97 72 164 82 103 182 99 109 88 104 92 127 174 77 69 133 91 187 201 146 141 197 128 112 181 118 90 82 78 165 179 88 201 147 93 130 80 109 208 121 100 87 163 70 180 92 179 170 172 180 196 136 98 147 69 155 148 70 128 111 65 151 107 161 130 137 128 153 97 136 121 167 142 72 96 98 104 156 121 165 104 117 87 153 96 139 123 152 120 113 198 107 165 106 72 112 152 160 74 92 175 56 46 71
148 152 154 148 138 122 115 127 129 138 153 141 154 154 173 182 183 194 196 187 187 199 201 195 171 165 166 166 167 168 177 188 190 191 186 181 176 170 162 166 177 188 185 170 175 211 188 195 213 204 184 153 132 119 123 151 95 101 156 167 150 91 152 88 113 92 132 147 138 91 78 116 148 75 86 142 73 85 45 58 85 93 47 137 143 78 77 80 96 84 95 119 76 60 57 77 82 119 108 117 84 81 81 61 65 105 66 128 141 92 130 80 123 76 90 90 110 118 153 134 149 93 85 140 118 95 55 152 166 137 179 84 74 150 143 92 167 84 139 189 206 196 134 108 163 184 135 116 196 160 151 161 164 178 172 152 147 172 195 171 199 171 92 126 169 255 129 186 124 166 119 89 123 95 81 152 125 111 170 96 197 173 188 116 100 130 152 125 193 110 215 202 180 117 69 136 106 166 102 161 170 92 95 110 160 193 151 96 176 187 111 132 169 78 89 95 88 172 118 143 94 102 113 166 151 180 255 209 116 132 137 185 161 98 148 88 157 167 56 146 159 92 85 148 63 146 144 148 170 169 169 136 173 106 124 202 211 203 187 87 74 75 167 100 129 136 164 69 80 112 54 113 96 118 142 153 157 167 151 135 87 96 76 175 161 85 86 92 99 106 126 176 150 198 180 136 80 74 157 71 76 97 95 160 130 112 185 126 191 122 135 159 202 97 140 76 126 99 92 164 67 156 130 168 152 145 173 120 104 172 129 66 82 75 156 80 154 202 106 129 148 164 71 70 133 101 157 79 86 173 173 184 92 105 58 80 174 174 173 128 152 108 132 141 94 182 170 135 139 146 55 110 160 150 192 139 150 100 165 85 130 161 118 112 124 108 177 98 159 67 64 111 167 172 154 164 105 105 110 56 123 184 125 92 179 198 121 159 171 126 167 132 162 204 140 199 93 155 169 145 178 74 129 135 168 185 117 117 135 127 160 193 169 108 161 137 95 177 112 109 195 147 182 91 163 84 191 152 176 65 78 173 87 196 90 115 187 195 183 190 107 155 168 103 97 57 66 170 164 76 135 128 81 122 75 107 87 98 131 185 139 165 164 78 123 102 139 186 141 135 145 199 177 192 185 133 105 200 95 88 77 99 151 77 74 126 79 92 125 152 101 75
152 160 164 155 135 112 104 103 115 128 144 142 136 146 158 174 186 198 191 195 207 208 207 184 161 162 163 173 173 182 184 184 185 182 178 175 169 166 166 172 171 183 191 171 192 193 208 204 196 205 181 201 179 146 137 148 145 148 121 143 151 123 83 97 99 127 156 155 87 90 63 72 62 101 108 155 157 134 62 51 118 101 56 65 59 71 86 94 154 98 97 82 61 90 69 106 80 77 111 90 134 128 105 116 92 101 138 98 89 90 78 75 120 103 104 84 94 149 123 97 92 67 156 100 81 74 125 150 101 146 167 94 91 74 93 76 113 88 199 212 208 191 127 88 107 82 165 128 178 185 177 171 145 128 154 94 146 165 186 106 197 176 196 189 183 182 157 203 182 104 133 142 76 91 116 126 179 90 174 109 162 186 180 156 92 186 157 181 185 190 93 181 70 82 111 104 75 85 153 163 255 105 147 173 149 112 141 180 137 117 213 172 144 188 104 124 105 162 69 68 97 135 156 94 119 101 124 116 168 172 189 96 121 91 131 74 173 159 99 147 126 161 83 139 94 130 104 147 159 72 169 69 154 163 175 77 142 178 114 179 127 137 170 181 82 180 174 100 134 136 74 101 97 85 127 89 156 98 102 146 159 116 78 162 129 186 188 161 140 121 118 193 188 207 214 115 76 119 69 87 121 182 127 115 93 73 95 121 112 192 156 115 135 202 90 181 142 109 105 89 88 100 69 82 171 169 161 167 92 73 130 112 71 142 88 170 106 156 175 173 56 112 49 145 150 154 79 80 173 177 92 130 122 106 177 149 176 153 138 78 173 191 113 212 165 156 68 61 89 81 137 151 150 180 202 213 150 189 126 181 159 84 63 133 163 79 174 181 104 160 162 88 83 147 105 191 126 148 97 108 83 117 144 113 147 186 166 186 95 168 195 125 181 136 172 172 101 84 66 169 161 167 155 169 85 132 122 199 227 139 199 197 168 171 94 87 115 196 198 128 158 140 119 138 181 148 178 174 152 157 158 81 145 187 155 129 91 157 100 171 114 255 160 62 104 102 170 82 83 75 68 148 142 171 140 163 196 199 102 99 170 121 121 89 116 104 181 129 209 222 118 127 179 111 129 113 198 194 128 136 81 117 86 117 132 103 170 138 188 123 134 118
155 165 172 162 142 110 102 99 104 119 142 141 132 133 151 152 177 187 183 195 212 216 194 166 152 153 159 183 180 188 184 179 172 169 171 173 172 179 176 172 179 183 174 184 173 185 167 194 193 206 171 200 157 142 109 97 131 136 155 160 160 149 82 81 82 165 99 83 66 50 88 97 149 72 117 84 152 65 72 82 121 51 105 118 76 80 93 103 105 103 132 88 65 56 55 69 76 105 111 107 148 122 142 109 113 107 83 89 103 131 125 110 102 82 107 105 106 149 144 75 53 66 102 91 87 186 178 161 151 73 174 83 182 172 150 171 181 90 205 134 185 163 127 167 163 171 96 203 188 75 121 162 104 137 169 173 108 160 135 177 186 166 103 114 130 148 149 191 184 134 163 85 137 164 88 102 119 174 183 173 189 105 168 95 163 155 124 166 82 104 65 69 158 143 132 107 110 82 74 71 81 149 112 147 118 214 198 170 181 109 124 144 117 102 142 93 158 177 104 75 127 72 167 181 139 199 113 205 155 97 130 190 105 96 111 153 175 183 139 137 158 60 71 122 127 166 62 59 165 144 168 103 167 165 163 116 136 76 176 187 96 158 186 152 193 116 159 120 121 109 37 54 133 111 115 70 95 83 168 83 95 126 100 169 148 85 136 106 181 111 111 103 108 130 110 190 179 145 137 88 123 130 136 68 61 91 109 176 94 146 199 108 106 104 121 95 120 180 131 87 167 110 164 174 90 124 185 144 115 99 112 100 148 69 163 168 89 124 103 84 143 54 144 119 58 97 177 87 77 175 151 185 195 98 139 187 97 150 116 170 179 141 193 136 123 102 104 65 66 141 150 80 116 117 111 223 192 196 126 255 106 118 131 135 142 165 106 150 144 123 118 147 172 177 195 159 172 78 51 62 117 124 175 123 95 190 179 171 91 139 146 128 150 152 224 206 189 143 85 95 91 77 166 113 128 133 135 145 207 213 120 145 191 121 78 80 194 112 135 210 167 104 196 188 146 178 172 172 82 167 77 144 105 194 193 185 92 194 132 145 173 69 88 155 58 167 143 129 124 82 65 61 134 141 97 163 107 145 145 105 187 165 100 139 143 104 201 169 175 194 118 136 199 183 131 110 185 112 149 178 92 132 182 158 121 87 89 112 170 137 188 124
159 166 170 163 142 119 104 105 103 123 132 143 139 137 140 148 152 169 175 191 195 190 170 153 129 134 161 181 186 191 182 170 170 173 176 187 187 186 178 170 155 168 177 176 182 173 150 155 191 176 210 215 155 169 153 168 134 176 145 174 139 130 134 133 160 109 161 150 124 77 55 62 89 89 87 156 160 68 60 100 59 130 58 114 58 79 171 153 110 106 128 90 75 62 74 68 83 99 80 109 123 120 129 112 75 62 121 79 96 101 101 116 83 107 76 85 135 93 76 125 130 99 85 173 91 110 111 118 68 62 167 95 107 166 170 76 98 161 159 98 95 176 124 148 103 163 196 164 93 171 110 161 133 180 176 85 133 138 152 129 115 183 175 203 215 200 184 173 127 158 121 154 68 68 138 128 140 98 128 118 108 109 96 125 165 178 90 81 72 142 51 99 50 158 166 138 91 122 122 146 70 155 100 179 179 105 128 125 185 117 149 150 205 167 132 86 130 78 181 179 74 85 134 176 118 204 193 94 185 117 105 104 188 193 123 121 98 202 197 186 90 91 158 104 123 163 143 142 109 117 162 145 97 139 137 117 135 172 195 145 203 143 199 120 255 102 125 78 128 80 99 157 63 145 95 63 144 172 80 99 98 96 155 84 70 110 117 155 137 153 105 97 85 189 91 88 84 119 79 105 144 178 103 171 163 74 72 95 176 82 87 102 105 169 180 135 155 206 111 111 120 130 91 121 175 88 112 72 66 124 111 54 86 157 164 179 94 110 160 62 132 85 58 140 150 141 118 127 107 106 151 194 123 202 98 150 122 157 186 90 110 109 122 222 211 196 179 150 65 57 150 63 118 118 93 210 210 105 147 178 161 132 137 121 76 142 98 142 161 168 136 137 128 115 190 172 75 139 73 81 147 190 164 141 166 123 171 169 154 93 138 146 136 213 131 202 175 172 139 130 93 143 116 100 170 192 158 202 189 209 131 205 195 124 88 164 197 214 126 116 202 181 143 206 112 196 186 178 173 91 168 175 203 198 121 147 157 188 184 165 112 141 104 110 114 74 98 140 165 128 155 84 118 82 186 144 167 162 153 143 107 95 119 149 156 106 121 112 203 145 196 93 163 180 140 178 132 101 147 88 93 99 158 129 177 164 62 70 111 144 225 161
156 160 163 157 145 131 120 120 122 118 131 140 137 129 131 140 138 139 150 165 174 178 170 151 137 138 160 173 183 173 172 166 171 182 189 202 205 203 179 175 154 162 176 181 160 161 162 141 179 192 189 207 170 150 124 163 187 136 185 180 179 180 105 102 149 156 166 80 82 100 63 130 153 127 155 84 103 139 101 59 68 108 129 58 73 127 112 143 109 106 123 106 118 134 111 118 76 107 88 124 112 157 135 91 84 54 71 65 132 109 100 96 80 150 100 102 87 89 149 74 64 47 83 154 87 183 90 131 74 130 52 149 142 115 134 78 128 186 170 185 183 79 70 118 113 126 90 97 189 167 150 107 175 164 145 126 85 141 123 157 126 172 189 164 220 233 154 169 163 184 142 156 75 150 88 171 179 195 139 120 139 208 193 120 95 88 108 131 154 68 146 155 108 137 118 119 162 65 255 100 140 71 130 86 123 170 106 140 83 145 207 208 113 156 168 164 166 119 188 122 191 172 152 194 162 182 91 172 67 160 169 121 189 153 141 206 174 215 142 110 146 86 147 171 169 113 172 161 169 145 123 100 87 137 162 111 126 178 106 201 187 137 198 169 182 198 159 123 179 109 174 121 113 171 70 162 103 162 90 105 108 143 159 126 119 85 182 119 185 180 82 57 163 89 120 77 57 111 66 82 149 166 98 84 176 113 82 171 84 84 95 175 119 78 89 174 117 192 118 98 83 76 49 101 138 79 151 85 84 157 67 113 157 140 99 174 193 173 70 165 62 141 119 93 130 70 76 134 176 90 109 188 191 152 199 165 191 126 93 90 119 146 175 134 204 211 169 182 179 161 103 176 86 150 165 187 146 153 148 172 174 171 101 148 57 122 72 105 70 129 87 175 193 107 136 118 137 140 110 67 104 92 97 166 147 116 99 92 186 115 97 139 185 206 203 162 165 125 137 96 192 145 137 109 129 126 206 101 114 136 214 205 139 168 160 198 205 195 117 173 203 188 166 208 132 110 126 176 99 113 160 160 102 186 86 149 159 89 158 187 132 63 128 145 90 163 165 109 150 67 53 156 84 122 119 153 69 54 143 53 84 128 92 90 127 85 93 187 124 104 93 157 105 182 101 203 116 183 100 180 194 102 191 132 80 67 79 102 121 117 235 151
150 151 151 145 141 135 135 136 128 128 141 151 160 149 148 147 136 131 135 151 152 158 158 147 132 145 161 172 165 167 166 171 180 189 205 215 207 201 188 183 178 165 177 167 181 175 156 169 177 190 169 171 176 142 187 147 173 166 145 175 187 141 136 167 93 134 77 96 81 131 116 75 120 124 78 133 133 81 66 62 114 85 63 77 255 148 104 112 106 103 93 87 87 78 109 71 80 97 105 106 116 143 122 93 77 55 45 79 85 147 139 91 121 82 74 92 150 139 70 102 113 132 83 64 69 160 169 99 104 89 152 50 114 156 85 123 160 94 186 186 180 134 90 172 132 175 132 155 184 144 103 183 172 201 155 175 140 116 148 135 59 118 182 206 221 212 235 179 133 197 160 133 160 76 98 142 170 104 220 144 191 167 110 125 161 99 76 81 167 86 141 165 103 125 114 62 121 137 55 85 81 85 106 168 74 157 59 132 149 171 124 104 135 187 143 158 141 180 125 165 93 140 174 99 92 104 147 105 81 149 111 87 89 106 164 203 141 123 211 200 190 178 86 184 201 202 192 178 77 167 122 201 184 170 134 122 68 166 178 211 125 222 123 123 122 208 98 181 150 116 168 187 101 105 94 181 128 97 164 110 167 195 163 175 134 134 143 102 144 132 139 105 114 74 125 109 108 137 110 58 111 121 97 163 140 162 186 175 109 97 100 184 167 149 68 61 172 113 174 96 94 64 146 58 145 115 104 85 72 72 70 66 87 75 85 126 163 158 139 133 150 71 161 76 110 99 87 175 200 101 199 95 101 106 192 163 97 174 137 97 139 109 127 201 199 165 133 95 113 123 101 108 160 162 93 138 148 171 109 64 162 176 165 62 104 100 164 92 163 151 85 175 125 203 195 161 180 152 109 175 99 170 197 195 166 144 166 79 168 89 120 159 140 138 104 166 174 176 180 198 179 195 198 206 195 118 97 178 141 140 150 123 154 123 112 207 203 180 160 87 187 135 103 208 156 148 176 185 148 172 194 110 192 114 164 167 111 175 176 193 103 117 55 76 66 119 165 93 42 93 51 160 86 152 71 111 117 59 64 61 156 120 104 185 89 172 115 133 158 85 167 166 174 109 148 180 168 133 173 107 93 138 155 128 85 51 78 98 112 192 203 196
141 143 145 138 141 142 148 145 144 138 140 153 172 166 169 165 155 146 136 127 150 157 153 161 154 156 162 165 157 154 153 166 182 199 211 220 208 202 191 189 180 185 182 179 155 146 139 164 159 153 170 166 158 146 185 175 195 182 157 178 152 143 132 156 156 145 101 69 70 130 85 78 86 115 109 78 71 131 91 58 65 52 61 84 105 119 140 173 130 103 85 111 74 73 93 74 83 93 115 122 141 110 122 105 56 55 87 81 95 124 117 111 146 77 73 86 86 145 85 76 74 67 63 71 123 54 85 164 124 122 157 130 162 99 145 118 102 198 187 94 85 159 139 177 115 168 100 131 82 154 194 147 199 196 90 174 122 157 123 89 54 57 102 190 173 171 224 130 157 195 154 84 163 127 155 153 154 120 221 213 222 116 101 163 79 118 98 113 179 181 134 169 83 59 66 50 110 255 117 153 125 155 132 58 56 58 51 102 126 156 85 175 187 186 142 158 71 175 143 150 188 150 154 123 84 86 160 84 97 110 155 130 133 192 148 113 189 136 206 208 198 190 86 173 141 205 145 152 180 186 160 169 120 92 154 162 123 163 191 189 183 116 156 122 194 127 197 171 116 112 96 89 89 181 123 138 187 170 99 149 193 197 156 169 143 83 178 166 108 108 100 131 120 112 92 112 109 51 64 89 60 168 113 183 134 135 157 119 155 141 185 174 132 91 68 99 87 148 87 174 133 64 59 133 178 90 144 163 109 103 176 76 153 94 129 176 99 162 181 124 71 84 65 151 91 87 163 113 192 131 99 88 192 138 104 167 89 140 190 192 117 97 206 179 184 120 99 163 113 170 112 192 153 174 146 85 110 137 151 91 169 174 81 153 116 154 74 147 79 92 129 130 152 186 191 164 189 169 181 127 83 184 167 93 77 100 68 83 110 186 115 192 197 89 168 105 148 175 188 105 200 135 94 175 207 141 138 81 95 188 172 223 162 165 224 114 94 98 63 167 145 185 166 103 116 145 161 166 181 212 214 135 122 192 85 154 144 96 129 111 139 101 81 108 138 127 96 65 128 101 68 172 175 92 114 62 49 29 104 120 151 69 119 134 183 71 92 46 41 52 170 151 134 147 152 196 202 201 104 137 89 83 81 73 62 46 103 169 141 219 169 189
135 139 145 142 141 142 144 142 148 135 142 163 174 184 193 196 183 152 150 154 150 161 163 167 164 172 164 160 147 138 138 157 176 206 220 225 212 193 193 188 184 180 179 165 171 183 186 176 162 180 133 123 115 173 199 150 203 181 171 159 176 108 172 157 87 76 115 124 91 143 153 79 155 148 96 78 64 80 90 90 55 73 97 70 91 83 91 96 155 143 84 63 65 59 74 73 114 114 107 98 109 97 121 101 82 85 83 118 157 103 133 104 138 127 72 141 99 106 88 90 119 165 71 91 132 129 50 77 139 61 92 68 110 82 92 99 202 100 176 78 73 74 172 89 190 133 115 82 176 108 146 147 207 203 88 111 154 158 147 137 83 82 161 163 196 153 213 183 181 162 157 158 168 138 95 139 104 132 123 208 108 121 196 100 173 103 176 159 101 117 136 121 125 61 126 65 130 109 106 146 166 91 152 132 115 88 150 59 130 74 81 95 129 183 93 92 170 166 148 173 164 112 63 79 94 99 162 63 62 153 152 176 158 197 190 88 194 124 205 186 136 197 107 198 206 118 150 137 183 184 158 95 95 88 153 158 105 115 77 108 143 124 152 213 200 187 105 81 129 174 104 118 135 184 193 191 110 134 147 85 188 140 90 100 135 180 96 141 122 117 145 195 109 158 142 71 81 135 133 60 86 79 78 194 131 135 141 232 179 138 187 186 75 162 119 83 129 106 95 83 78 66 96 88 202 149 107 159 142 85 167 83 86 99 112 112 103 90 101 160 167 165 63 72 161 72 145 99 141 161 66 173 119 100 158 119 106 186 140 188 168 129 200 105 146 112 109 89 150 116 152 179 142 182 141 121 101 83 149 80 154 100 142 147 63 155 75 79 138 83 86 159 185 96 176 177 112 154 186 112 150 181 169 99 120 117 123 119 165 101 192 168 133 97 103 80 158 100 154 183 120 191 136 90 189 187 92 88 150 188 109 173 202 136 218 154 170 126 113 148 77 106 177 133 183 185 206 149 173 131 127 143 132 92 88 165 109 181 193 158 184 83 72 156 70 106 51 94 107 127 57 182 102 108 151 33 45 41 133 128 99 135 87 190 152 144 45 121 135 130 76 88 82 177 174 167 147 97 99 93 112 91 179 149 113 101 126 95 120 209 154 153
127 135 141 141 141 137 148 146 146 141 140 161 176 199 211 209 198 174 167 171 167 168 170 159 158 167 170 165 150 140 137 149 170 199 212 221 215 197 190 181 160 156 160 166 185 181 199 196 186 181 162 145 113 169 141 206 146 192 128 154 126 154 127 80 92 140 109 111 167 148 88 91 119 94 158 79 62 64 58 90 59 100 69 97 23 40 64 102 134 119 75 67 63 51 78 76 118 79 122 78 81 97 92 94 109 103 113 116 118 146 92 113 132 65 137 84 113 185 94 102 148 83 101 38 52 71 144 148 138 136 92 159 131 133 95 118 139 177 182 154 120 68 122 179 199 160 86 176 77 76 155 197 199 182 160 119 116 107 114 127 100 73 142 92 204 201 168 141 177 154 130 149 172 137 143 101 189 177 102 184 185 190 144 200 183 107 122 188 104 175 193 189 83 67 140 139 136 153 161 255 83 87 166 154 145 67 122 116 83 71 103 72 181 100 175 158 183 170 98 88 109 109 84 145 69 105 120 85 135 115 172 90 182 193 180 188 113 153 205 185 202 114 199 97 105 108 185 161 106 179 116 178 135 112 163 61 143 73 134 80 98 130 124 153 113 200 107 158 91 136 171 101 88 84 166 112 96 173 68 147 83 91 78 124 86 101 81 187 203 114 120 183 139 84 85 142 167 90 155 155 115 115 92 114 118 218 136 189 243 160 147 110 102 85 78 168 104 70 82 110 144 108 157 122 183 224 132 112 173 117 174 183 137 150 108 206 201 190 127 70 69 150 63 148 152 107 145 158 131 128 136 127 93 147 201 160 182 95 150 170 162 115 180 113 122 121 127 140 163 87 111 70 101 125 113 111 174 116 152 137 73 71 78 150 73 86 135 74 125 76 129 107 189 184 94 116 112 206 150 186 182 199 171 99 69 82 70 153 131 130 134 152 177 119 128 86 93 137 203 177 101 84 76 138 97 138 106 103 182 142 129 165 126 128 140 189 175 87 68 155 61 166 146 124 133 207 124 203 156 140 205 97 188 93 154 180 176 113 120 195 128 142 91 154 168 62 122 45 106 124 92 146 164 93 125 136 102 31 47 132 131 116 107 97 162 95 52 123 138 87 158 107 189 181 95 79 115 122 184 187 151 199 117 124 93 144 152 64 175 169 206 177
121 130 136 136 128 132 139 153 153 149 152 153 176 190 212 199 194 174 182 188 194 179 178 159 169 175 171 177 168 150 141 154 170 188 203 215 210 188 179 172 167 160 166 175 170 187 205 199 165 184 144 108 138 161 169 155 168 154 141 170 101 122 149 122 85 131 95 176 148 111 103 143 116 161 133 83 68 126 56 125 140 124 32 15 72 31 54 152 96 99 74 67 98 63 60 69 97 81 84 52 73 105 112 114 141 141 139 151 108 93 94 84 107 70 72 86 167 119 96 86 85 166 94 55 46 105 145 50 135 118 120 129 177 142 104 163 88 151 145 61 150 154 81 136 161 188 89 79 104 169 135 196 144 204 182 109 85 176 77 159 96 88 111 134 157 146 210 180 192 170 175 195 131 159 121 126 175 99 114 128 148 151 114 134 98 104 96 165 100 139 169 135 142 173 170 74 159 107 132 88 105 151 108 115 163 99 170 167 167 128 165 142 136 99 145 174 93 123 104 176 166 156 110 139 102 112 141 53 153 146 151 198 136 186 156 173 90 191 90 112 110 100 189 115 110 102 188 120 79 75 100 143 80 145 128 60 118 134 143 122 149 209 162 185 143 190 175 61 149 73 74 89 96 88 179 159 101 136 167 150 115 111 46 60 90 177 83 125 154 99 87 172 125 147 77 68 76 68 90 109 144 168 83 95 172 152 142 146 155 246 134 199 167 124 150 100 79 75 93 89 152 115 123 101 114 128 231 128 104 163 168 119 198 206 208 185 94 128 79 131 139 74 73 117 132 146 90 75 93 92 110 87 114 122 204 197 115 89 85 97 115 158 176 188 169 149 152 115 142 81 124 129 159 167 107 179 90 85 130 46 134 150 127 70 64 126 149 82 148 92 109 67 86 132 158 101 173 187 224 126 118 201 189 168 152 135 155 69 150 121 87 111 174 170 124 114 100 119 159 180 159 91 112 118 106 114 117 187 180 93 90 187 148 191 113 148 180 158 73 166 155 162 86 83 125 199 203 141 218 110 184 158 175 155 107 160 121 96 142 171 147 82 114 75 151 89 140 17 38 56 116 124 116 162 171 115 147 49 49 44 93 83 164 166 167 90 96 62 123 74 173 98 184 121 160 166 165 149 72 166 162 182 186 80 92 130 116 145 130 111 89 189
114 122 129 125 124 122 141 150 162 147 145 160 166 189 186 178 172 175 174 190 193 187 166 162 159 160 177 178 184 177 166 160 162 176 194 203 200 195 181 172 167 147 156 169 172 195 194 207 214 171 161 162 175 183 174 196 170 165 126 157 162 79 131 129 175 115 145 128 128 172 145 160 123 117 78 66 114 72 64 102 127 128 50 54 57 62 107 100 108 108 87 75 69 85 67 57 111 79 55 69 52 104 114 170 168 169 151 118 105 124 130 101 72 106 81 84 111 133 177 90 98 90 72 74 51 58 136 73 57 153 158 69 143 144 137 86 113 123 56 150 149 57 76 180 115 92 72 131 71 163 162 195 195 198 171 195 99 115 170 130 95 86 92 187 192 201 120 186 118 176 173 189 146 94 160 127 141 188 181 111 95 177 128 184 183 178 93 176 158 118 89 88 157 89 125 78 75 68 68 149 160 112 86 75 149 162 142 135 165 127 130 164 93 114 150 157 168 132 110 105 92 172 99 98 78 75 119 148 97 172 181 191 188 87 170 80 174 154 179 82 137 102 127 198 104 107 173 93 136 161 57 64 128 100 147 148 160 124 70 160 175 140 141 170 135 163 158 108 152 80 169 137 189 170 105 126 101 118 108 129 79 150 146 143 95 96 105 98 112 112 151 98 140 164 82 145 137 105 88 72 159 163 131 87 92 196 152 222 137 178 164 132 115 85 81 104 87 115 75 117 65 150 66 90 105 161 134 147 93 188 122 132 183 212 102 131 89 111 174 100 151 127 54 50 34 46 61 160 142 53 68 132 200 170 191 157 111 198 117 143 192 98 188 76 62 76 55 140 133 147 85 125 81 149 94 116 161 146 108 48 132 133 116 109 165 155 185 183 142 75 135 155 72 178 90 193 109 214 121 116 109 192 182 140 138 63 105 166 124 98 177 159 110 104 95 104 120 107 88 124 192 92 175 138 102 201 187 94 156 113 95 145 208 154 165 149 192 187 170 166 136 156 88 61 155 180 101 183 144 197 119 142 204 124 203 108 183 205 199 147 167 152 123 96 73 173 67 30 59 26 121 99 181 154 103 167 114 117 165 60 85 45 91 66 137 135 168 158 77 132 187 169 125 164 155 78 155 61 78 74 128 90 148 180 163 147 46 65 89 170 81 145
111 120 128 128 124 125 133 152 160 166 160 152 173 172 160 162 144 150 166 168 175 186 180 166 152 163 176 186 186 182 178 170 167 174 182 197 202 198 189 170 175 166 151 162 165 183 196 198 188 202 166 174 187 191 197 196 162 182 189 153 106 133 141 185 149 160 187 193 117 117 142 94 93 88 97 68 98 95 68 85 94 75 108 41 49 81 79 95 117 150 107 94 93 123 76 68 62 90 89 94 92 87 156 163 148 136 137 102 99 107 113 77 81 84 84 93 93 108 130 161 105 90 122 68 112 72 166 78 153 154 77 156 92 161 68 92 140 156 129 50 87 65 76 163 192 149 113 106 165 107 118 199 123 196 142 105 203 135 169 69 54 80 136 142 166 218 211 171 146 93 131 148 178 161 177 159 180 98 196 135 189 91 104 85 155 132 183 150 144 120 137 88 104 98 167 158 95 163 124 125 145 83 125 157 79 67 63 107 88 128 159 80 131 135 87 133 176 151 196 194 191 79 157 66 160 157 65 94 155 174 86 84 145 91 166 138 81 72 167 133 166 166 116 107 184 90 96 101 81 105 146 114 121 144 178 104 132 150 150 103 162 180 195 181 183 193 105 119 171 172 84 183 209 122 121 114 179 187 142 109 96 89 63 69 63 152 177 140 67 72 140 75 123 89 104 117 92 79 142 80 178 109 188 81 183 171 196 156 241 205 184 187 166 136 131 134 177 170 156 135 110 62 106 78 185 118 187 91 86 177 151 185 144 106 119 187 86 145 112 147 124 182 65 101 77 88 80 87 185 108 185 166 190 163 213 198 125 187 165 99 185 121 181 86 51 45 84 129 95 150 64 139 51 55 151 78 150 136 164 123 162 165 157 90 129 112 124 97 123 71 168 73 66 121 77 99 141 174 151 133 100 120 111 159 151 77 58 74 154 176 150 180 87 192 121 114 89 146 160 83 142 93 140 110 187 98 144 139 75 66 119 185 178 181 130 124 152 99 153 170 123 118 138 128 137 65 136 115 183 204 192 184 199 133 194 216 135 141 119 176 137 52 140 167 128 182 107 97 101 19 38 66 162 100 154 178 119 146 157 119 161 103 54 117 163 117 96 157 169 177 124 86 175 174 115 55 82 50 124 72 168 98 158 120 66 147 44 63 141 174 146 170
108 118 129 135 129 126 126 145 153 166 163 165 181 178 159 144 135 145 148 169 172 187 178 173 163 162 169 175 186 186 174 166 161 159 175 190 202 206 203 194 181 166 159 157 161 173 191 208 215 188 199 157 198 186 166 195 139 164 187 115 103 96 133 173 168 176 175 147 190 155 152 89 136 168 82 148 87 130 146 170 91 108 69 118 64 140 90 168 159 255 146 100 113 93 94 79 98 113 101 67 103 139 158 144 154 133 117 121 155 122 77 85 101 92 132 163 102 92 166 119 148 144 96 74 79 158 90 79 92 167 117 149 151 49 148 48 147 50 110 96 89 139 173 186 99 176 158 154 169 148 119 189 184 151 175 117 177 255 147 140 97 143 111 170 134 145 204 94 84 151 116 158 149 137 166 155 96 139 204 201 194 144 133 149 71 155 107 137 110 76 78 168 92 183 86 138 84 183 81 168 54 57 104 137 114 141 162 148 162 173 100 122 151 115 72 168 133 90 91 145 178 176 158 91 76 145 170 179 104 84 146 169 132 177 115 76 163 61 84 108 178 175 104 193 105 194 177 176 60 124 55 52 67 165 109 147 153 141 58 132 160 137 140 127 164 113 116 127 163 99 93 122 120 203 214 133 168 224 214 151 187 122 88 161 110 92 96 76 69 121 151 92 95 166 110 114 133 104 141 146 192 183 127 171 78 183 139 155 162 212 190 131 119 91 166 112 140 77 59 116 30 139 134 165 93 79 177 98 177 116 117 137 200 197 91 125 166 172 135 80 153 181 167 150 68 152 134 106 204 214 180 152 197 139 174 132 176 112 179 189 162 148 74 137 96 118 94 158 155 55 140 120 68 58 155 145 117 169 103 160 145 128 186 193 150 86 142 172 137 182 83 176 138 122 171 179 178 167 111 89 84 168 182 88 115 103 71 123 171 113 129 141 85 98 144 120 165 163 179 81 166 93 100 126 119 196 99 160 87 80 184 177 171 200 220 181 159 208 105 190 156 96 77 63 57 155 77 108 131 111 129 177 185 124 144 112 211 102 112 148 154 80 143 79 174 189 101 154 124 45 100 106 169 192 148 181 100 120 100 151 77 132 66 146 173 146 93 116 88 112 92 97 78 62 56 44 140 49 154 97 75 113 100 187 180 94 75 66 60 114 193 106
115 122 129 137 133 128 136 147 159 165 172 174 179 181 166 151 148 153 163 167 176 182 181 171 164 159 167 175 169 169 159 157 151 157 167 188 193 196 196 196 188 171 163 143 150 158 177 184 206 176 197 192 148 205 165 167 192 171 176 155 117 114 153 122 150 94 180 120 134 147 85 89 107 135 137 115 129 64 151 149 164 161 96 81 83 84 98 104 165 123 114 92 93 103 88 107 100 75 85 83 83 101 112 139 131 121 140 106 94 95 125 156 80 108 79 149 104 133 108 98 173 104 163 165 75 67 71 77 111 72 161 61 57 124 134 47 148 79 70 70 163 71 171 180 182 166 155 63 163 153 77 177 170 176 196 197 123 163 143 120 104 163 142 164 178 202 159 142 141 80 124 133 90 165 116 163 118 193 143 152 154 109 160 72 119 182 109 188 89 143 111 117 162 96 168 173 165 87 92 71 145 119 47 70 108 71 159 111 69 148 90 145 180 77 101 173 146 173 151 79 76 179 145 180 170 87 115 172 89 185 104 87 194 121 93 169 138 120 123 153 82 88 101 159 171 178 95 134 88 154 101 142 98 99 108 134 75 158 79 152 79 134 140 182 160 121 167 160 172 146 158 193 202 187 146 249 155 145 205 151 150 108 166 83 92 160 96 123 157 136 108 118 105 148 120 103 199 194 195 143 149 142 150 74 120 171 148 135 247 242 247 131 111 111 76 164 74 64 151 43 128 35 45 156 117 81 120 82 130 103 174 221 190 106 165 190 188 176 70 145 106 165 68 63 62 148 145 199 155 225 177 149 201 164 193 156 138 123 100 122 123 158 170 64 155 161 68 110 158 104 122 99 109 65 164 165 84 99 172 160 183 88 184 182 178 114 158 121 185 143 194 146 178 101 106 154 177 74 69 172 175 151 174 65 101 66 122 73 122 132 102 78 83 198 202 189 125 168 185 102 186 157 167 167 152 159 255 96 119 122 92 148 195 137 125 153 213 163 180 146 171 160 101 87 128 167 180 153 212 171 168 140 69 78 189 189 184 109 190 173 164 142 111 76 92 86 190 181 67 150 56 82 90 196 114 106 109 90 179 116 181 140 74 177 171 106 183 99 89 173 89 81 99 86 103 47 55 77 102 143 172 157 116 154 162 163 96 61 109 157 195 147
120 121 123 129 132 138 140 153 157 172 179 186 195 191 200 182 177 180 165 168 160 169 173 159 171 172 162 161 169 168 162 149 145 150 167 174 184 185 190 193 178 173 169 163 162 166 172 174 190 180 165 168 169 178 160 188 155 169 180 122 107 167 168 154 131 166 100 147 124 135 86 168 94 158 164 135 70 81 125 100 164 131 133 118 84 147 128 99 107 151 149 103 117 92 78 100 126 70 75 88 73 114 124 99 138 107 160 132 104 101 88 89 157 113 104 81 144 108 168 93 120 99 97 89 74 112 69 61 165 69 88 60 131 81 80 141 142 161 74 72 99 85 148 131 194 189 163 67 52 69 133 73 139 134 187 90 103 177 122 129 101 131 186 142 156 113 170 155 81 124 128 136 66 91 183 186 123 211 173 195 192 134 181 145 192 166 156 192 109 177 152 60 121 96 157 63 94 156 89 158 159 50 43 128 89 77 107 63 162 86 188 131 90 134 176 81 174 177 168 106 175 156 180 122 81 178 99 170 98 107 181 176 173 99 194 182 167 83 177 87 151 166 140 180 92 196 188 178 187 170 112 154 108 115 131 136 181 123 159 154 158 95 137 96 192 179 143 104 100 150 104 94 176 166 224 211 151 219 201 151 153 147 167 96 154 188 87 110 126 111 115 118 110 126 89 186 206 123 185 196 133 169 74 95 76 94 117 231 244 188 140 125 117 156 112 158 133 143 117 83 105 136 82 76 106 103 177 124 168 198 210 152 201 194 189 174 121 180 255 124 113 101 133 166 164 159 164 123 110 199 220 217 112 126 171 182 173 87 85 181 111 139 89 165 111 113 158 74 66 98 137 128 139 161 157 187 100 169 179 94 188 112 183 119 136 111 158 129 83 107 194 136 110 165 184 169 91 172 141 167 98 79 149 102 155 141 77 66 81 162 69 73 178 190 151 177 182 197 190 184 185 134 181 87 72 69 170 156 170 131 151 195 104 107 205 121 211 181 131 198 166 136 146 91 181 101 139 111 155 210 176 160 144 148 77 178 89 188 178 195 135 161 136 150 167 120 132 188 176 139 67 72 142 164 109 199 186 174 158 184 90 122 159 96 141 115 86 140 138 118 159 92 71 48 53 148 164 109 80 82 88 111 134 202 119 206 140 103 84 106 104 113
126 122 115 122 130 140 154 163 165 171 168 172 188 194 206 209 211 201 182 155 154 161 163 168 180 173 181 172 176 174 165 155 148 148 160 166 167 173 165 179 166 162 151 159 179 172 180 183 186 181 182 177 159 209 222 203 186 144 139 152 130 148 163 174 164 154 140 177 144 144 126 92 181 160 153 92 105 82 103 110 125 148 159 170 98 78 80 93 103 144 118 78 109 73 96 98 124 60 49 77 69 62 84 98 102 103 134 135 150 93 122 121 120 150 106 77 84 85 83 134 181 104 90 89 107 73 78 149 55 164 90 53 73 134 122 160 83 106 93 134 112 169 131 129 202 205 174 71 44 34 131 71 133 81 83 177 89 162 75 156 176 124 176 181 173 153 106 109 114 70 155 74 87 133 165 116 137 202 182 142 97 169 184 185 182 171 198 179 101 130 136 81 55 60 57 155 71 88 102 129 174 146 147 168 102 76 132 74 86 184 92 97 147 169 167 113 162 153 167 96 124 70 166 91 105 185 119 86 130 158 93 149 92 124 99 183 152 84 148 179 113 195 111 99 97 193 147 172 205 130 104 94 191 117 168 178 182 76 112 150 156 117 152 198 193 190 183 142 173 73 122 176 189 151 175 168 210 150 128 172 92 189 191 91 101 94 163 90 162 166 130 162 116 165 97 174 100 116 129 161 80 135 125 168 134 108 133 179 177 235 137 212 147 132 131 102 160 99 100 131 135 65 96 95 124 94 159 89 94 133 106 210 104 116 121 107 101 167 173 143 161 158 72 156 170 118 118 193 194 214 160 146 181 69 139 143 79 154 92 92 79 100 169 151 163 109 137 161 111 138 104 56 104 161 119 191 172 107 88 122 178 106 111 191 205 134 170 82 157 183 114 199 151 131 209 182 147 93 136 85 167 176 156 165 120 163 152 81 138 174 155 176 90 132 188 143 112 154 141 96 97 123 142 93 124 106 69 180 91 139 137 165 128 100 112 102 209 127 211 156 169 144 179 94 148 182 95 120 255 218 123 112 93 153 94 153 172 93 105 132 117 158 180 107 125 83 87 195 191 128 130 172 158 161 177 194 128 77 140 133 173 118 128 195 188 163 122 83 170 197 140 136 125 57 79 170 187 200 111 126 119 129 109 209 223 163 200 80 162 136 109 202
121 114 108 115 129 146 165 169 166 157 167 165 184 190 205 226 228 203 180 160 152 152 162 170 190 197 182 191 186 172 170 158 152 156 164 175 173 158 166 161 166 150 163 180 180 197 166 189 179 182 143 124 171 178 220 186 202 187 135 208 183 141 196 124 135 145 114 178 121 101 149 158 99 98 113 159 88 105 93 108 129 147 96 91 102 143 86 107 147 116 124 100 118 78 95 72 67 51 40 38 95 85 105 68 82 142 156 114 118 109 124 135 93 109 94 72 116 99 176 105 172 85 172 68 72 66 90 50 145 67 123 52 135 53 46 66 121 68 104 121 144 107 147 189 120 173 172 145 139 124 141 161 106 106 121 154 150 145 165 117 94 113 196 131 86 161 141 76 121 135 164 176 100 151 182 198 187 168 212 131 196 84 183 99 141 107 97 149 98 133 165 58 100 138 141 88 118 147 79 97 75 129 179 184 83 91 185 174 135 160 178 102 193 179 158 82 111 82 140 130 79 82 176 98 136 160 85 77 104 159 166 113 75 94 85 176 183 92 112 147 197 197 134 154 180 196 196 191 141 199 106 186 99 183 103 177 147 153 167 155 141 191 143 106 184 162 105 129 76 90 69 151 178 145 110 186 187 99 127 144 160 101 154 101 110 114 92 90 142 158 175 143 171 163 142 117 116 177 161 140 74 60 64 131 181 146 147 114 160 255 124 211 196 87 87 90 204 123 132 197 194 130 152 119 104 118 102 154 180 89 137 208 146 188 207 139 208 96 119 148 141 162 142 126 110 153 153 181 194 119 103 97 162 90 70 165 166 65 53 68 74 125 137 164 104 153 75 58 126 41 128 62 68 135 88 103 103 176 179 77 155 171 94 192 144 133 96 97 171 169 159 107 138 153 182 225 217 108 124 168 105 194 86 85 103 100 156 141 107 189 184 115 157 136 89 180 184 159 182 104 132 138 155 167 90 144 74 94 94 189 104 131 112 171 161 157 199 213 121 210 152 94 97 151 159 139 199 134 212 191 191 156 80 113 87 92 131 155 163 183 92 161 140 171 66 116 163 115 183 162 127 87 108 165 110 120 159 116 84 146 164 176 108 110 155 171 114 156 84 101 150 175 182 122 82 193 164 121 125 196 110 175 189 153 207 111 102 76 157 86 185 139
120 115 113 124 141 158 162 167 149 143 154 163 179 188 199 210 210 206 172 152 143 165 182 192 199 201 202 188 190 177 255 161 157 163 178 181 178 164 166 165 162 167 174 186 201 208 193 181 201 188 166 158 150 151 214 211 186 196 149 161 207 170 199 191 110 169 139 106 107 116 126 80 126 172 119 142 133 116 187 199 172 141 140 121 67 86 123 174 173 95 78 126 116 138 136 81 72 71 100 58 94 97 79 63 87 159 144 119 110 105 151 135 115 152 79 57 82 102 155 113 125 174 121 75 122 69 71 82 84 120 87 154 42 143 96 69 73 143 145 63 90 151 75 120 177 184 172 57 140 34 126 79 95 78 148 180 181 139 85 168 175 150 177 171 100 128 168 148 95 99 100 168 96 161 132 141 184 187 109 103 104 182 107 175 176 176 164 162 147 112 100 153 149 85 121 76 67 151 156 90 73 110 136 169 147 105 209 160 107 130 171 95 115 186 176 85 159 186 120 165 152 81 92 93 182 156 79 134 143 157 78 123 147 65 168 133 88 175 170 147 127 195 151 102 197 180 118 141 193 172 103 187 188 180 153 172 75 169 147 103 97 194 164 171 124 73 154 108 139 101 112 168 91 165 143 124 102 89 111 125 160 161 112 94 193 193 90 85 82 183 154 114 116 127 204 92 82 76 70 87 144 106 82 120 137 117 149 116 193 113 113 207 141 129 100 161 199 221 216 144 139 122 125 103 143 207 137 101 103 136 115 104 143 132 127 123 174 111 86 68 62 172 185 102 167 127 175 117 201 125 170 88 83 137 82 177 82 104 93 84 152 76 183 132 125 138 152 151 81 106 132 85 153 180 189 137 103 70 72 136 179 191 197 102 203 165 167 163 142 172 191 116 177 211 130 164 219 224 170 132 132 185 124 156 102 134 105 183 141 109 92 161 181 192 98 108 110 146 176 116 208 192 114 97 119 119 92 110 171 123 192 191 197 181 122 188 106 175 201 121 175 106 162 194 152 194 196 203 193 167 95 178 124 60 71 128 163 82 181 185 153 130 172 166 180 178 80 174 138 60 99 145 53 140 127 180 183 193 182 196 151 107 187 200 97 85 95 142 157 204 199 152 86 87 110 163 131 227 111 90 113 73 81 175 111 183 167 154 117 158 104 169
115 115 122 138 158 168 163 158 142 135 141 147 168 185 197 219 220 206 175 163 150 182 195 193 204 197 197 192 177 176 163 163 164 174 186 189 178 173 168 171 161 175 167 191 207 212 205 203 165 179 169 123 157 166 187 183 177 168 159 133 183 157 171 145 147 174 133 122 95 82 89 80 140 137 165 134 90 154 128 120 155 169 102 120 90 77 115 108 170 148 140 75 77 87 97 97 104 105 66 65 91 82 61 73 126 130 134 135 120 102 102 144 106 95 143 146 88 179 103 123 95 78 73 107 100 67 115 71 168 104 78 171 106 107 63 149 170 113 55 109 63 148 72 178 182 151 59 150 47 132 109 154 131 135 124 184 182 165 175 68 160 81 91 175 170 139 165 111 144 75 52 157 134 134 90 159 137 178 139 192 126 174 140 146 209 166 118 172 128 144 69 157 59 74 148 133 71 142 91 61 81 137 154 98 178 106 216 196 205 118 182 152 87 176 134 168 186 168 153 118 157 170 97 189 184 180 71 152 67 71 143 67 48 84 98 168 99 177 118 112 105 201 129 199 180 100 84 179 106 195 185 158 129 161 83 171 78 165 87 157 85 180 194 106 74 62 139 138 73 132 141 78 134 89 84 132 78 141 108 154 175 150 179 174 107 196 108 173 157 82 193 136 127 132 121 129 127 74 143 53 108 164 84 147 119 160 219 175 152 125 123 194 128 204 204 166 135 124 220 202 161 163 128 102 163 168 187 170 100 76 255 143 146 100 196 171 204 150 162 160 176 134 188 190 134 129 104 110 109 255 175 164 115 164 165 75 75 152 140 135 122 74 93 162 64 66 154 151 53 40 143 68 149 196 203 125 89 98 58 124 79 96 178 137 175 150 76 91 164 156 91 109 100 150 218 225 143 144 185 212 233 206 207 178 203 146 171 213 175 175 192 141 102 179 196 87 75 126 95 159 192 181 184 192 143 129 167 123 81 190 101 185 225 127 123 198 194 107 174 183 205 217 204 170 169 141 154 163 135 188 177 68 79 67 161 96 98 180 178 93 91 148 92 116 142 192 164 153 113 141 104 102 127 255 125 112 90 157 120 185 191 196 115 170 94 146 152 185 202 124 181 180 91 86 111 205 121 117 153 93 57 138 96 74 170 75 125 117 103 159 76 149
114 122 137 156 179 186 169 147 132 120 124 139 163 183 199 204 207 197 171 167 166 182 189 194 204 182 175 179 167 171 160 159 170 174 185 182 171 171 171 175 178 174 192 200 214 211 168 180 152 141 138 160 139 168 168 212 198 131 128 184 173 96 115 96 117 126 82 157 96 124 92 100 72 91 146 94 118 141 184 177 184 102 81 79 67 112 78 165 172 138 86 80 102 117 94 95 129 123 82 93 74 73 71 119 140 137 145 127 137 149 124 112 115 112 94 81 86 107 94 138 135 83 83 92 77 152 88 144 172 118 157 88 187 184 105 81 72 122 156 67 152 132 155 98 139 159 160 79 145 137 115 148 75 182 150 126 134 178 108 97 132 94 161 121 157 132 134 160 123 91 127 130 79 96 139 126 83 106 190 154 159 134 157 207 124 156 78 59 56 166 95 88 82 164 71 147 85 141 140 64 154 161 169 138 84 127 203 120 103 93 127 168 163 184 156 100 187 102 130 165 123 151 182 129 86 77 167 157 103 158 90 150 113 103 58 165 155 177 120 190 166 189 188 112 181 119 83 188 200 184 173 159 119 94 104 184 167 191 184 183 169 89 82 74 77 135 132 48 110 57 77 126 85 135 144 145 59 54 139 124 108 115 209 172 115 104 78 91 152 90 124 178 153 141 122 114 142 104 90 105 142 91 115 112 143 149 229 150 141 87 91 109 126 115 126 169 168 169 143 199 206 161 159 139 74 172 180 153 175 100 114 144 83 78 174 189 152 202 199 196 188 185 179 75 150 78 182 202 176 206 103 87 134 104 169 81 75 98 94 138 94 50 72 74 78 131 151 85 151 125 149 174 204 138 210 137 89 41 133 52 77 190 200 186 103 182 144 185 149 185 191 89 169 127 202 198 183 240 240 191 239 225 184 151 158 208 128 134 191 98 184 80 92 107 194 123 79 149 84 187 123 209 175 112 107 164 83 82 177 148 152 193 135 214 107 189 121 105 105 159 175 208 129 94 111 104 186 102 188 113 174 65 66 59 101 150 170 138 255 94 140 150 172 119 224 133 156 131 107 54 119 55 57 85 129 62 77 155 182 178 181 134 109 111 104 146 166 181 199 210 143 142 82 115 78 184 184 104 175 60 153 53 149 63 109 102 61 54 103 86 96 146
107 120 144 166 189 189 176 148 134 119 121 125 138 171 192 201 203 198 178 180 176 183 199 211 198 190 185 170 168 170 169 164 171 172 178 176 172 174 179 179 188 188 181 202 214 255 192 172 170 163 166 136 176 198 165 178 179 180 135 158 175 99 89 150 155 132 155 156 174 125 84 107 117 100 66 73 148 153 145 148 126 123 90 82 87 55 62 118 95 157 106 112 105 103 144 76 69 73 90 92 84 127 84 143 128 142 148 255 118 123 83 123 109 97 153 104 117 100 101 83 159 104 102 102 91 81 176 77 127 132 180 168 132 160 85 138 110 87 162 116 89 62 72 165 108 125 164 156 155 63 144 140 157 191 198 143 143 123 126 140 43 148 157 127 124 162 168 144 126 98 144 154 122 104 105 173 176 172 190 174 149 125 114 208 195 82 128 108 129 144 149 117 130 191 125 176 115 158 121 142 65 149 159 160 153 93 105 122 175 110 79 110 134 150 191 157 192 171 164 99 156 120 133 154 144 119 144 144 164 68 166 58 137 154 108 78 169 153 116 93 152 188 185 182 99 171 153 195 139 199 94 151 41 95 150 147 124 202 92 145 176 169 168 114 135 87 70 86 119 170 155 199 178 134 132 54 72 73 64 160 172 182 193 120 119 200 172 55 110 139 200 110 124 165 124 191 88 141 153 81 113 86 174 147 136 144 126 125 95 69 85 122 102 114 139 99 169 185 126 129 143 115 133 138 67 76 161 176 80 175 74 119 64 100 100 165 182 138 207 161 99 167 134 135 86 72 179 151 193 164 192 103 168 177 61 83 81 130 49 86 111 92 133 82 154 171 104 131 98 75 130 132 170 213 158 122 156 82 109 142 130 77 153 143 103 101 119 102 121 139 194 116 186 175 102 115 161 230 141 200 198 165 183 212 203 157 107 138 97 143 118 93 135 197 98 165 156 94 165 139 188 125 126 146 82 158 161 87 187 109 194 117 103 129 155 145 103 126 127 129 231 227 197 184 175 172 80 104 189 161 82 160 59 159 151 70 162 152 184 182 202 137 220 156 218 187 156 98 175 154 94 160 140 136 62 66 172 169 145 176 125 81 121 161 188 188 116 179 174 154 137 162 74 69 74 160 144 116 168 126 62 157 62 65 106 150 82 56 55 149 47 150
106 120 143 162 175 179 169 156 146 127 127 122 133 151 176 182 192 193 176 184 182 190 189 197 204 184 184 173 168 171 164 166 174 178 176 172 172 182 186 188 186 194 182 201 191 200 188 141 165 145 159 172 183 192 228 187 183 174 132 186 141 127 147 100 171 144 112 157 124 105 124 103 76 50 121 148 102 181 179 158 117 158 133 116 102 120 53 68 94 106 108 149 105 91 84 77 85 70 100 98 103 114 133 105 117 134 191 115 90 136 141 82 97 170 121 116 98 115 116 73 167 92 189 150 91 91 103 82 63 67 155 127 187 124 113 124 120 132 66 159 126 126 90 106 164 157 151 160 172 88 126 130 155 150 104 196 175 62 66 119 145 96 168 160 166 166 102 106 94 143 132 144 154 136 182 119 122 101 157 139 194 146 195 204 93 109 78 55 100 146 175 101 193 169 196 172 88 132 149 148 150 96 75 94 149 75 68 77 78 161 86 48 154 110 142 148 180 107 138 86 165 104 92 113 138 63 89 168 170 162 164 173 158 255 166 166 176 160 196 193 167 129 169 128 76 166 162 132 201 211 104 164 54 101 100 99 208 155 188 185 160 96 92 171 88 135 168 81 123 130 176 194 125 160 160 66 118 116 137 112 134 121 107 196 183 138 128 71 93 89 121 145 140 148 211 203 109 80 84 96 132 96 92 141 216 172 122 196 118 59 134 147 88 90 191 150 185 94 185 119 100 96 174 82 141 89 127 139 95 102 120 107 143 144 155 74 122 207 157 135 197 85 77 125 113 65 67 146 139 92 96 165 100 81 63 118 102 102 81 152 159 152 134 83 124 180 187 92 154 186 195 138 163 204 120 168 86 75 123 72 76 122 135 86 105 184 145 214 214 114 196 188 148 181 98 125 123 215 165 233 137 127 124 188 109 189 188 86 159 127 177 86 99 201 116 73 126 121 129 97 187 102 207 150 192 78 88 160 166 166 185 92 93 106 110 72 84 154 156 167 203 141 210 151 124 162 148 140 105 101 101 156 158 76 81 80 89 187 156 199 210 114 122 127 131 138 194 171 160 158 84 87 87 173 161 67 98 80 100 177 169 73 175 159 154 167 73 164 79 167 196 89 78 130 63 143 70 78 139 80 60 64 94 87 70 96 145 120 85 74 64 66
108 121 136 152 159 160 158 150 146 143 141 122 127 136 150 166 169 171 163 171 178 189 200 216 213 197 186 172 177 165 171 173 178 179 176 177 180 175 177 189 195 195 191 185 196 175 158 180 134 174 178 164 171 194 206 197 178 153 156 129 184 109 174 124 137 161 143 192 167 125 70 69 123 76 96 127 92 93 95 145 255 95 132 114 123 126 91 67 110 136 102 132 105 153 75 77 86 77 99 100 97 83 92 130 114 141 151 99 88 68 78 70 96 111 110 93 74 75 67 77 90 96 110 105 81 81 96 77 126 133 69 162 170 127 85 185 159 132 70 150 160 58 58 118 76 85 95 185 150 73 54 97 158 108 185 164 153 133 48 69 86 125 149 160 92 165 137 151 78 150 65 158 129 120 126 84 175 132 114 172 80 157 127 181 186 91 49 128 73 112 115 89 196 130 178 113 130 158 152 154 81 163 69 91 143 88 68 100 167 72 159 136 70 158 136 169 137 151 130 85 125 167 91 51 132 66 108 84 97 183 87 189 83 169 123 172 147 96 192 190 170 94 146 132 177 103 133 202 156 219 131 87 133 177 139 99 166 108 125 189 180 112 98 175 177 81 75 136 139 87 191 210 120 144 151 158 79 167 144 93 147 174 172 153 123 192 90 160 89 107 111 148 135 111 121 137 105 121 92 68 120 176 144 110 105 165 190 162 139 67 143 64 118 82 115 115 120 138 170 124 106 138 147 71 93 164 88 89 67 158 124 112 58 110 139 135 194 112 217 108 100 103 75 170 142 142 71 75 109 93 117 173 121 83 157 118 21 64 153 137 156 159 60 167 174 182 183 197 193 99 177 184 135 173 171 110 86 136 152 135 162 121 153 72 149 205 161 181 212 157 147 218 113 182 112 105 179 168 109 222 193 128 213 101 179 73 152 99 134 101 184 121 109 200 121 132 51 109 69 159 130 185 120 100 99 165 97 100 183 113 116 180 92 151 102 161 146 97 61 100 201 208 167 200 197 89 108 154 176 157 142 183 107 89 195 185 176 98 174 130 202 136 202 144 169 127 147 200 206 136 120 173 189 176 69 157 144 74 162 129 117 109 87 70 157 58 73 121 100 109 152 98 95 117 54 146 135 157 69 114 76 72 113 160 93 84 56 95 65 153 84 88
115 125 134 140 142 137 142 145 159 159 155 133 122 129 130 159 150 144 162 177 175 180 202 210 216 209 194 185 169 166 163 173 174 181 181 174 169 166 179 184 193 194 177 187 168 169 176 181 178 174 153 182 166 177 203 200 147 148 178 139 148 171 146 155 181 113 125 118 151 136 86 57 80 135 67 151 132 158 87 119 93 120 127 107 141 112 130 70 83 85 91 94 93 139 81 75 89 91 153 100 115 78 100 106 153 107 128 80 106 43 52 109 72 75 69 71 113 135 77 72 94 192 138 169 75 134 176 176 75 158 173 126 150 172 88 189 159 150 74 82 99 160 154 157 78 96 164 166 61 52 56 150 142 175 111 194 98 178 146 124 172 185 93 178 137 156 141 161 124 94 78 157 75 133 146 166 129 148 145 138 131 98 158 104 156 173 115 111 118 67 146 155 168 188 119 201 160 133 61 150 106 115 162 140 160 150 106 127 115 113 143 60 84 121 150 127 137 140 180 150 120 149 140 103 54 92 79 163 132 112 145 97 137 100 164 181 80 87 125 177 168 155 118 106 174 102 186 189 183 121 178 107 96 193 182 171 171 114 141 192 137 123 195 165 151 80 129 153 178 133 105 202 114 93 120 179 163 86 142 131 136 120 141 184 169 107 132 128 113 93 142 123 177 130 205 108 134 123 103 178 79 178 110 168 112 126 135 207 121 85 99 48 140 78 86 119 113 91 153 151 77 167 91 140 150 168 173 167 128 48 143 123 142 61 169 187 161 125 112 188 91 156 179 91 156 175 178 77 169 182 136 100 182 186 59 68 36 37 71 69 96 123 124 82 105 137 106 185 155 173 143 128 122 160 103 63 115 99 74 87 94 71 165 164 176 191 199 150 204 133 208 166 198 146 182 151 119 125 195 127 137 129 188 179 79 164 65 133 89 99 184 119 119 92 163 70 44 85 89 151 102 73 81 106 166 113 90 97 180 132 199 198 139 106 134 119 47 97 94 153 94 192 144 105 148 101 154 88 180 184 177 180 189 187 131 114 110 188 139 192 100 127 134 175 123 110 210 161 144 204 125 171 187 92 74 104 71 174 103 84 134 138 138 150 152 129 109 133 125 202 155 113 65 145 112 101 157 81 152 137 164 88 136 112 60 54 54 55 99 90 100 185
126 132 137 138 135 128 137 142 154 157 160 147 130 131 135 153 150 142 154 163 173 183 179 196 190 204 187 174 172 164 166 167 180 182 175 170 162 161 172 169 185 189 169 169 179 156 175 150 165 177 188 204 195 213 158 198 166 182 185 203 152 195 147 138 120 178 185 184 156 109 110 157 105 103 122 138 74 148 105 113 135 147 104 175 165 109 163 84 71 75 81 106 81 80 125 77 92 160 134 97 73 83 93 104 86 102 102 73 42 102 50 76 75 120 67 56 52 55 38 90 78 95 102 87 111 84 151 80 76 83 165 76 82 170 158 134 138 164 122 169 169 71 156 177 80 92 79 114 138 64 85 126 93 172 179 167 101 117 132 186 183 91 180 170 178 129 84 159 144 118 110 96 90 176 111 130 138 88 142 142 123 80 101 112 121 78 71 129 42 142 102 163 87 106 165 203 90 133 61 67 126 93 160 90 183 168 205 114 204 191 80 158 80 131 108 186 124 92 78 163 74 111 153 49 74 136 110 134 198 164 142 100 197 194 108 179 82 166 109 133 116 134 73 165 157 131 194 198 185 135 191 117 199 103 92 189 167 177 117 132 171 172 97 178 78 125 145 82 194 176 190 189 198 134 128 108 206 111 93 132 103 153 176 204 156 106 177 101 170 81 158 185 114 124 209 168 100 97 85 135 144 86 82 94 96 96 109 209 145 125 128 51 151 58 132 96 185 135 149 109 139 133 118 129 140 78 78 72 130 104 142 100 154 169 88 199 198 203 96 162 109 97 111 142 143 105 97 106 187 91 169 111 138 192 115 52 140 49 62 107 135 158 131 134 158 183 134 117 80 184 109 87 154 148 93 72 78 173 182 165 162 186 175 140 68 134 185 93 113 182 93 107 181 200 194 90 153 184 101 196 196 147 165 152 71 164 66 167 73 84 99 158 84 109 114 142 133 95 103 79 66 146 136 149 70 133 155 167 120 140 160 130 120 162 79 128 84 57 164 174 192 110 101 133 114 100 182 89 166 136 176 175 99 169 148 160 182 102 154 135 94 89 173 157 153 122 192 106 147 90 168 147 106 170 62 111 67 160 181 97 148 183 116 140 146 68 90 155 96 135 200 85 138 102 146 77 67 83 156 94 178 103 108 85 64 156 95 57 88 110 166 98
131 135 139 137 131 133 136 151 162 155 153 142 147 147 146 150 156 155 155 175 177 184 175 174 182 182 189 178 166 158 162 171 180 179 168 164 165 167 173 181 184 180 182 185 191 187 170 154 152 162 164 177 198 195 156 189 187 124 180 161 173 159 159 99 149 178 118 97 129 119 122 114 139 79 117 149 139 168 98 90 90 119 116 127 180 166 143 118 80 105 110 79 87 108 91 92 147 132 127 122 73 57 72 99 84 79 107 62 62 76 60 73 76 109 59 115 94 60 65 55 165 102 187 158 154 62 48 70 108 174 84 136 72 127 94 100 133 185 112 132 152 74 185 106 181 102 94 81 129 62 58 56 109 137 183 94 132 255 124 128 172 183 151 113 183 158 151 154 110 98 139 160 155 180 115 137 143 90 157 152 80 113 125 129 115 133 187 173 104 156 165 118 89 128 136 191 182 71 79 141 144 100 156 181 186 137 207 198 145 147 71 87 107 171 163 109 96 147 57 49 104 138 104 149 141 188 102 200 96 194 192 94 198 202 139 149 64 76 129 125 118 117 78 86 121 113 204 189 174 91 167 115 99 182 177 146 83 87 135 136 137 185 167 91 168 159 174 142 149 189 114 166 148 112 124 143 179 124 154 115 93 149 127 124 149 152 102 108 176 72 76 173 164 109 172 101 129 136 103 88 197 96 175 87 175 181 194 149 146 198 131 85 78 73 129 94 127 119 140 94 64 151 138 48 145 165 102 88 152 97 57 66 126 87 182 211 118 115 117 135 87 96 112 200 115 113 106 195 185 91 188 172 111 165 81 159 88 148 71 90 184 188 114 181 140 173 161 98 160 89 119 164 69 154 137 65 80 183 128 200 207 152 97 148 147 140 137 84 173 115 148 187 164 161 137 140 92 174 176 111 220 119 187 193 86 83 65 60 122 100 74 77 95 85 153 51 126 110 72 159 88 98 42 135 65 81 58 130 155 91 139 156 95 118 181 167 91 71 78 101 164 200 180 150 194 166 100 118 155 161 170 155 96 115 121 114 183 114 137 101 140 83 168 170 179 171 202 126 163 82 159 78 110 83 160 153 102 142 191 99 198 195 162 120 174 119 154 90 89 91 103 194 141 138 68 80 187 114 150 199 131 190 183 177 166 59 75 62 96 96 109 153
134 136 137 135 133 142 143 156 167 162 156 149 143 156 178 175 178 164 176 171 169 172 173 169 171 175 191 179 166 157 159 166 171 163 164 166 173 180 184 188 185 179 180 180 191 159 136 122 131 124 168 173 201 199 200 179 192 114 161 164 172 102 131 123 120 163 185 181 93 131 171 81 116 151 77 104 74 165 95 166 100 101 151 125 151 123 120 109 123 93 129 88 80 70 62 68 87 109 141 96 90 68 70 100 102 89 86 46 65 110 79 103 111 139 70 93 70 65 68 80 97 92 171 189 147 57 43 141 60 92 95 92 170 116 185 154 198 187 174 65 115 133 95 191 170 102 89 170 152 64 154 134 87 139 132 98 149 169 190 185 81 142 170 177 164 179 167 79 154 178 149 106 179 120 125 117 110 185 169 169 147 163 84 96 192 173 203 194 145 102 113 164 178 120 165 92 160 159 167 177 115 166 190 186 181 183 203 219 154 149 169 148 155 177 95 101 166 60 43 45 127 130 44 144 173 129 196 131 188 180 153 157 193 146 124 77 55 156 68 160 85 125 164 112 138 108 208 100 187 142 171 122 183 138 144 86 63 156 63 99 124 97 168 95 127 113 118 97 138 130 209 164 114 150 197 198 143 151 105 58 107 83 100 112 129 201 119 98 181 143 87 105 91 106 171 126 196 93 83 118 105 155 108 94 142 102 142 211 133 136 106 112 84 182 97 121 102 133 120 101 83 65 55 60 107 151 128 141 167 162 82 173 105 119 126 229 160 109 95 146 177 153 173 198 117 143 117 197 193 175 181 168 104 185 167 160 70 106 124 181 195 208 140 137 201 85 141 75 158 134 110 129 68 92 168 155 137 89 181 207 113 110 190 134 168 119 98 91 129 83 67 170 139 105 193 195 181 174 88 96 169 112 100 114 101 118 138 64 159 155 134 143 160 146 66 66 61 169 118 110 174 54 136 70 79 127 133 151 74 104 91 192 122 163 197 97 174 171 190 136 142 167 196 116 181 166 63 87 54 82 79 182 139 156 120 198 99 158 101 163 176 130 91 163 183 173 101 176 102 73 154 162 169 162 93 66 109 97 164 184 142 220 155 130 187 119 162 92 163 87 90 94 181 129 93 149 113 114 145 120 174 124 145 178 87 82 68 173 83 181 160 89
134 136 134 132 135 143 153 162 171 161 147 150 158 177 194 200 188 196 186 174 177 174 173 157 168 192 190 190 172 148 153 156 162 153 158 167 176 187 192 194 189 181 177 167 164 183 161 154 145 153 146 173 181 168 174 150 162 176 95 147 123 144 154 202 181 142 180 115 183 157 171 104 148 78 147 126 105 99 91 123 108 118 112 168 125 173 114 112 112 125 125 88 124 68 87 81 84 82 145 96 112 100 89 89 97 118 73 62 75 87 86 87 79 128 74 96 100 145 128 105 98 100 119 122 88 81 48 43 72 184 162 172 156 100 134 127 156 75 58 53 67 64 76 83 124 96 166 167 180 167 152 49 129 137 157 111 170 176 176 72 116 166 178 182 193 108 134 95 167 108 103 166 177 97 111 200 202 112 178 179 122 146 195 201 196 129 213 134 165 187 173 113 202 118 203 139 83 144 139 134 97 111 107 187 146 191 178 121 179 106 77 134 148 131 144 148 175 151 105 108 32 46 87 145 165 102 189 154 145 127 80 154 185 132 154 95 152 74 168 192 129 106 199 191 161 145 144 117 85 145 151 118 85 169 162 55 59 145 160 158 168 75 60 114 78 107 77 206 194 220 158 163 167 119 132 131 107 96 133 98 93 142 143 121 141 198 186 151 82 99 59 140 131 103 216 180 111 179 129 114 178 83 170 139 68 111 111 192 96 89 164 146 105 116 196 129 200 110 134 198 198 176 67 153 117 93 175 121 93 82 180 175 186 200 218 234 134 147 110 188 122 98 165 197 101 163 198 189 84 94 90 143 108 154 152 65 160 118 194 185 114 210 198 149 159 109 177 149 148 183 163 72 107 93 168 166 156 98 150 206 160 103 113 123 159 104 158 174 99 129 69 167 171 142 130 115 120 142 111 88 88 144 89 191 163 166 90 147 146 106 85 105 81 79 171 70 140 183 120 157 114 53 103 62 139 104 76 167 154 65 153 92 194 99 89 116 187 111 198 184 111 198 128 75 164 153 62 131 58 144 129 176 128 202 203 102 104 135 176 184 176 188 121 116 147 116 133 172 170 101 158 165 97 93 156 163 73 111 102 212 131 218 158 114 147 170 127 51 56 108 109 86 99 203 203 113 192 194 210 93 144 99 166 82 96 106 85 188 101 152 130 144
141 140 136 133 132 141 147 161 163 152 145 147 147 164 181 192 196 200 185 177 179 168 169 168 184 199 208 255 176 163 164 167 166 161 169 177 181 183 187 189 195 181 182 179 185 171 181 134 167 167 154 161 164 186 200 175 185 169 97 162 172 136 204 195 139 168 133 118 113 135 114 96 120 158 93 160 87 171 117 133 157 113 112 121 99 156 149 116 120 119 108 129 84 127 64 110 88 132 94 86 103 115 92 138 144 119 82 74 82 114 114 96 125 104 135 103 81 86 86 190 198 192 148 109 114 94 166 97 157 105 118 216 191 181 160 190 173 69 92 91 94 136 98 73 152 187 192 99 111 148 159 152 151 57 76 110 186 185 94 167 171 87 187 104 182 117 104 179 182 174 154 70 139 144 156 111 183 107 120 98 113 192 204 122 162 210 126 112 185 164 183 171 211 112 204 192 108 93 124 138 110 114 199 99 184 206 208 137 208 139 74 61 85 163 196 183 137 146 32 97 82 144 143 127 170 148 188 102 186 163 167 178 114 168 143 152 143 150 123 109 153 198 118 142 179 200 152 160 150 122 139 137 56 63 85 88 151 154 149 70 124 112 153 131 147 113 83 207 163 135 216 169 184 99 83 85 122 146 89 50 151 145 91 101 188 183 99 123 74 81 50 101 79 99 210 151 113 149 111 72 72 146 55 56 30 140 56 88 70 73 173 108 185 118 134 171 139 180 203 126 119 90 86 116 98 167 96 192 101 97 88 98 202 182 224 167 115 179 195 152 92 89 190 196 196 108 193 130 90 185 106 93 185 164 154 161 163 146 101 104 204 108 103 95 153 165 73 180 126 103 140 129 85 113 83 115 89 182 90 120 198 151 166 93 127 150 102 178 181 180 81 115 168 94 180 125 188 132 171 148 146 177 180 145 87 83 122 90 46 58 102 171 169 175 142 182 86 113 91 123 159 148 43 70 78 95 187 168 144 126 178 188 103 83 178 77 165 122 126 118 121 144 88 140 69 161 163 121 167 143 85 89 178 183 165 110 191 191 194 158 93 201 201 114 174 115 181 122 131 88 152 79 144 83 117 170 148 187 161 106 117 164 154 137 86 148 117 54 145 128 70 106 83 187 103 111 209 208 102 89 168 132 104 176 187 199 151 105 148 179 64 55
150 149 145 140 144 148 149 145 150 147 145 149 148 158 177 194 195 195 182 181 183 172 174 174 175 201 199 206 187 177 179 183 176 178 178 177 174 174 166 183 177 190 182 175 166 184 168 182 186 161 155 174 140 177 196 199 176 189 124 149 177 134 199 211 222 171 201 156 144 102 146 157 131 188 154 153 164 164 160 111 117 115 185 107 161 119 124 159 114 122 172 108 112 77 71 70 65 68 69 111 78 78 83 84 85 83 126 82 98 99 103 91 120 82 68 146 163 160 128 118 208 139 188 116 121 134 144 81 174 117 174 204 156 194 89 144 132 124 151 164 163 64 163 85 93 172 138 189 95 171 70 145 139 106 182 189 154 95 183 184 153 150 185 206 147 204 176 175 196 176 117 84 131 142 126 202 196 198 192 170 129 130 207 190 209 143 217 114 133 139 108 180 174 189 201 136 170 85 174 182 97 144 173 103 116 193 210 241 225 134 88 64 68 173 156 143 105 106 83 33 53 149 69 109 168 103 178 148 190 111 125 111 133 180 149 74 151 125 161 102 165 190 204 192 135 120 160 183 154 58 128 125 37 38 145 110 148 152 155 164 143 172 164 110 155 104 116 176 139 143 206 194 177 77 105 152 177 155 170 67 110 108 151 133 144 126 86 126 69 79 120 139 128 141 115 135 143 110 160 86 95 66 20 47 91 31 43 57 160 153 81 129 125 173 104 128 100 194 101 95 165 89 131 84 169 173 184 194 171 185 186 131 201 139 111 157 99 161 106 186 159 95 95 101 125 187 101 209 204 178 155 89 168 170 167 90 81 75 148 165 189 163 86 103 106 150 158 168 190 142 103 136 160 100 86 144 90 170 85 172 92 100 74 118 106 53 138 86 93 194 191 183 124 96 192 109 135 144 76 134 178 88 106 113 188 177 80 100 149 67 141 72 167 90 145 96 100 94 124 168 122 90 116 87 176 196 140 108 90 122 82 183 119 148 82 73 173 131 191 146 122 106 176 163 118 172 129 144 180 156 158 192 112 110 178 163 187 184 131 98 101 103 191 113 109 172 91 142 143 83 118 83 142 85 161 159 184 121 203 202 102 124 170 156 72 141 60 103 150 153 85 58 158 76 96 133 169 142 134 172 155 130 63 113 115 119 123 148 132 145 124 58
149 152 155 154 157 157 154 135 129 126 130 131 146 140 159 189 186 189 179 182 172 185 167 172 178 185 208 203 186 183 190 200 193 193 187 178 172 164 166 177 174 190 169 172 175 183 189 164 164 161 157 179 186 186 139 155 186 146 134 173 133 119 166 152 141 191 169 94 158 85 117 112 204 200 152 122 93 140 148 119 180 141 119 100 95 112 163 111 110 160 94 81 132 93 86 139 83 85 73 83 129 122 112 90 88 107 95 146 122 147 141 106 77 80 115 99 158 112 119 119 122 171 190 183 131 189 113 105 205 144 118 141 175 188 178 167 64 127 119 103 175 70 141 67 161 169 99 173 176 151 187 184 177 111 185 192 148 108 157 196 206 204 142 204 191 212 211 223 127 157 94 101 102 100 162 94 186 88 189 125 153 123 190 135 201 204 204 192 188 160 211 118 180 96 153 78 101 179 144 167 185 150 196 144 172 154 195 153 189 199 116 101 129 101 130 84 154 81 64 113 65 128 88 87 190 173 202 205 161 126 169 83 118 180 114 114 122 62 158 81 128 168 181 187 191 111 189 182 169 52 129 61 45 70 118 119 138 82 171 73 130 111 166 127 155 68 75 119 153 123 147 153 158 88 73 154 90 117 176 140 82 119 219 197 194 91 101 100 109 60 54 154 74 78 85 255 145 109 184 86 152 35 74 106 10 22 123 83 72 68 103 181 183 153 155 142 120 86 148 75 89 138 172 133 75 75 96 80 82 91 77 80 86 189 93 92 79 76 71 172 165 184 98 192 87 98 183 205 162 195 188 166 88 185 161 173 166 166 89 255 150 117 115 145 123 86 117 165 160 183 179 171 167 91 107 101 106 122 74 84 124 168 127 99 145 78 77 143 164 207 145 183 95 193 189 189 128 167 147 181 144 188 150 115 92 135 172 134 76 110 177 97 149 141 81 102 176 90 157 64 90 129 62 124 126 166 192 147 139 118 90 189 79 158 72 148 176 202 127 126 203 196 90 96 112 189 115 92 93 166 187 108 204 148 119 179 184 212 111 99 98 135 133 107 103 130 151 91 111 122 35 127 155 169 174 90 110 205 172 196 108 133 89 179 123 97 68 161 66 107 93 60 63 108 164 106 164 189 91 68 58 126 155 83 111 159 124 118 101 178 75 130
133 143 153 165 163 163 148 135 129 124 130 140 126 148 157 188 195 194 191 188 179 185 170 170 176 195 205 202 187 186 190 193 200 194 186 177 167 150 161 168 178 181 175 147 175 179 184 195 189 186 179 168 179 158 153 146 183 203 172 177 153 165 181 175 198 130 84 90 90 131 131 187 199 115 186 140 105 104 139 119 172 122 129 135 103 115 120 119 174 85 104 69 71 85 78 105 103 96 79 132 118 115 79 84 131 85 108 96 107 118 145 140 132 134 118 114 124 129 169 129 170 213 133 187 176 124 185 111 106 108 127 146 183 160 170 75 89 77 77 75 74 73 130 170 159 154 124 127 163 98 181 102 191 133 210 155 163 142 137 215 207 212 202 164 183 149 173 236 169 202 186 195 128 184 163 90 171 181 184 255 167 227 120 202 189 118 168 185 183 104 158 151 164 142 117 168 128 109 168 183 92 121 134 146 208 138 196 143 199 124 92 119 71 127 152 154 141 63 108 134 148 145 125 85 112 113 206 141 202 186 153 174 179 94 85 90 97 155 162 54 149 141 100 136 139 84 154 105 175 161 139 62 97 20 35 60 180 166 76 158 120 142 165 160 170 163 159 164 133 142 156 126 159 103 92 121 91 163 108 172 134 103 215 192 190 181 81 86 139 73 102 141 101 79 174 70 174 140 103 102 78 81 99 124 99 87 45 56 156 138 117 128 64 88 137 174 165 87 71 92 144 156 95 156 97 88 122 134 83 89 179 85 70 98 69 78 69 67 132 103 161 160 179 84 178 102 98 111 200 111 101 160 97 154 190 85 117 118 85 133 82 122 88 107 122 157 86 169 162 107 157 63 158 152 172 129 176 76 69 155 66 95 152 99 97 81 125 82 103 183 186 200 113 90 86 96 185 102 189 108 184 120 158 105 153 118 117 83 152 191 195 87 162 56 132 177 90 79 74 81 157 168 95 192 168 107 209 189 196 170 122 156 178 151 135 101 161 107 222 215 209 135 102 101 108 165 192 104 88 144 80 156 172 201 174 192 171 136 136 111 179 105 79 165 147 182 163 124 122 29 132 72 53 92 124 149 107 190 177 140 133 184 100 110 109 142 120 137 172 138 138 107 103 114 183 134 94 195 173 137 112 57 67 82 108 153 114 114 105 90 49 35
105 122 141 161 160 157 145 135 130 136 136 127 133 144 158 180 192 191 186 178 183 179 172 166 183 188 199 192 184 185 182 195 193 186 179 172 172 166 164 166 165 174 175 151 168 186 184 191 167 156 144 176 146 127 132 132 151 166 192 124 138 167 159 180 178 136 146 125 129 138 88 82 178 166 113 75 114 91 122 153 152 155 112 107 184 153 168 117 109 80 68 64 102 53 114 77 119 101 101 104 90 122 255 82 87 123 102 107 108 142 152 155 122 125 255 139 182 161 128 123 119 197 163 191 199 122 104 109 93 196 194 97 137 124 163 176 182 169 89 68 94 171 179 184 156 108 172 182 153 177 190 175 170 207 185 202 114 127 204 222 207 218 169 121 166 211 175 226 211 129 182 140 126 100 84 94 170 188 132 210 226 228 129 197 136 159 115 165 166 179 132 158 131 118 147 58 84 84 81 86 156 114 203 143 195 229 148 172 111 146 92 89 154 138 88 133 75 99 56 99 100 79 174 147 75 108 200 207 131 185 85 177 144 183 124 190 211 109 111 124 109 134 71 157 184 163 164 173 75 167 54 29 67 42 56 90 184 180 73 157 84 55 67 74 180 138 179 169 172 85 175 101 186 171 173 174 167 85 70 112 172 97 170 104 171 143 141 87 125 95 161 205 102 99 72 62 133 115 155 121 91 69 116 71 104 77 62 87 155 155 152 67 46 148 122 157 81 178 97 167 84 161 81 55 139 66 155 175 145 102 122 176 169 96 120 72 135 59 73 160 71 105 167 80 142 79 97 194 88 126 122 120 167 187 116 194 171 194 89 174 138 73 97 112 100 92 191 176 190 82 93 97 132 88 161 102 87 87 163 90 143 172 76 137 155 71 140 179 185 152 186 109 146 141 90 97 142 100 99 172 164 105 127 87 82 139 80 176 176 183 152 193 137 157 152 137 113 123 171 95 181 156 178 193 133 153 210 170 123 107 158 187 178 148 151 55 160 195 196 151 135 166 148 128 212 116 97 95 181 81 150 79 93 202 121 203 124 174 127 186 161 161 126 169 176 68 58 53 118 130 37 57 101 68 94 189 199 139 205 110 162 189 128 163 167 89 169 139 103 87 75 180 183 94 175 145 153 124 160 157 162 156 123 85 184 173 100 148 102 68 41 33
83 102 128 150 152 146 138 144 138 140 139 129 119 136 152 174 191 197 179 182 163 158 170 179 191 191 190 196 190 187 188 184 183 177 170 168 171 177 161 170 162 150 171 177 165 177 173 188 184 170 146 167 150 144 119 255 177 201 199 185 164 164 181 157 177 177 126 133 108 92 107 74 112 102 58 127 142 96 104 132 122 135 120 142 119 120 168 113 96 88 65 53 53 50 60 76 141 136 116 129 100 115 72 81 89 124 96 108 169 191 147 152 175 148 145 90 158 156 114 204 208 168 128 125 174 116 161 91 81 86 89 83 138 60 130 113 187 172 175 71 149 171 142 92 160 153 148 140 173 179 160 114 202 114 139 120 153 167 159 197 232 222 166 114 153 167 207 168 174 199 202 157 196 106 174 79 176 175 206 188 211 229 188 177 200 101 144 91 122 178 131 84 155 74 71 60 74 157 142 136 166 90 191 196 115 110 143 146 85 130 90 162 107 145 149 171 77 67 161 61 87 156 84 149 104 155 114 107 188 187 180 177 123 187 94 113 177 199 136 116 86 173 183 104 146 178 171 65 66 160 162 135 109 71 89 162 123 136 182 143 156 166 159 90 169 182 83 107 113 89 175 186 165 93 123 94 154 88 150 100 105 153 143 160 90 88 85 93 255 113 125 118 122 112 131 65 74 135 157 96 98 134 91 68 80 69 157 124 70 73 100 64 42 116 129 75 123 112 123 121 80 81 155 85 156 69 157 167 91 113 100 93 134 150 56 56 127 85 118 136 139 160 93 139 155 67 71 171 160 164 72 86 183 171 89 194 188 201 191 112 161 157 155 149 115 177 158 139 148 181 76 108 78 181 124 178 153 174 174 75 120 82 168 161 79 77 144 170 176 193 175 209 197 102 172 180 195 134 125 142 123 156 79 83 107 152 140 169 193 200 171 191 175 73 132 69 151 146 158 131 207 219 148 170 179 125 106 195 209 201 134 168 155 169 118 81 136 86 200 128 196 182 120 193 202 198 166 183 102 73 96 164 166 126 115 225 154 151 149 165 164 104 197 139 184 168 94 144 104 72 129 61 146 108 87 99 161 161 101 94 116 183 143 106 170 165 87 96 171 163 148 158 183 92 89 96 114 92 106 144 75 155 136 84 95 91 133 115 81 94 60 27
85 101 122 138 146 142 141 144 147 144 145 130 126 131 142 172 172 178 162 150 157 151 156 178 189 197 198 184 183 191 196 193 185 173 167 167 181 183 179 171 170 164 172 179 174 189 183 179 141 159 166 125 117 150 105 121 168 146 143 134 148 167 141 149 162 118 106 81 76 90 112 51 52 73 78 131 93 123 154 170 120 128 124 139 90 89 97 95 102 99 77 73 53 52 65 68 87 103 134 99 117 92 89 85 114 82 135 84 110 135 220 181 129 108 85 75 157 95 184 170 119 163 95 118 142 183 91 81 177 103 177 96 72 148 84 128 168 198 171 99 84 174 120 91 101 166 158 126 149 155 117 176 127 174 171 176 124 185 155 215 184 212 107 110 98 168 130 203 109 154 185 181 188 141 134 166 181 191 190 140 148 163 133 162 130 128 164 159 129 136 170 150 129 129 73 147 134 171 145 78 142 168 137 139 81 112 117 75 81 153 109 155 164 115 107 98 99 63 86 69 149 155 121 142 112 159 163 148 169 110 103 93 98 93 195 105 198 129 92 124 185 94 209 161 193 91 91 58 153 133 129 147 98 99 176 121 192 192 105 182 120 178 170 147 192 106 255 83 101 103 162 172 113 159 200 116 112 118 116 83 110 145 159 112 70 111 138 194 102 120 175 136 211 192 107 75 131 81 82 79 80 95 93 69 68 161 75 78 124 112 64 104 142 117 155 92 89 97 150 84 139 141 65 123 78 87 88 165 171 91 96 161 167 133 61 60 71 67 79 70 153 164 52 106 77 161 145 62 156 118 78 112 88 164 104 176 117 180 88 183 125 151 170 152 147 191 127 194 143 140 133 130 183 184 162 167 157 168 141 97 144 83 89 51 105 84 181 174 118 91 188 206 158 170 72 97 88 193 124 204 176 83 170 75 85 161 145 106 83 149 180 98 162 116 121 137 135 171 192 127 132 215 222 118 188 135 90 89 119 108 102 148 128 96 168 61 105 165 198 167 160 132 211 157 123 194 144 175 67 122 98 154 52 67 165 207 193 189 144 164 92 199 123 202 122 174 103 158 148 80 53 121 82 134 82 148 168 165 161 95 149 103 150 103 77 157 121 72 156 178 120 148 150 101 127 121 87 100 161 178 174 169 174 97 84 75 87 119 97 102 157 49
117 127 135 140 140 145 143 153 159 155 154 142 126 120 129 157 160 166 152 138 139 145 159 174 206 209 201 180 193 192 202 205 193 177 167 167 177 179 178 156 168 158 171 177 176 178 162 175 156 128 156 144 153 104 155 166 173 135 141 177 169 127 171 138 138 124 172 118 132 90 69 43 120 119 110 65 119 84 97 119 185 183 90 117 65 97 111 146 113 122 121 76 99 84 77 65 105 105 122 116 90 108 78 108 105 78 78 103 120 135 152 143 201 99 98 142 78 76 117 121 101 169 168 72 145 107 99 96 192 97 102 143 108 174 100 180 197 129 208 124 97 171 179 170 157 61 123 144 113 129 122 120 198 199 205 158 161 185 195 210 180 115 132 150 158 169 163 154 111 186 182 163 97 179 214 170 127 158 91 135 192 212 140 130 190 107 78 164 156 89 130 100 144 152 94 162 127 72 174 138 135 65 119 69 152 109 135 79 163 178 85 181 102 118 148 178 142 143 96 141 153 150 42 118 142 150 94 101 131 113 100 160 103 178 111 181 121 86 113 190 96 154 218 143 225 199 163 150 138 147 142 88 100 96 104 103 164 204 185 200 192 114 119 199 139 192 169 145 150 154 88 165 191 151 105 201 198 115 98 140 123 83 141 91 63 58 148 103 107 101 192 121 204 175 89 175 76 132 166 162 91 99 74 69 142 140 72 96 78 131 73 114 131 77 102 183 126 142 149 132 121 68 140 166 178 166 95 160 133 82 117 153 173 133 156 166 73 170 121 88 113 61 151 118 148 121 80 164 158 170 93 180 180 126 152 84 128 173 142 150 158 117 79 137 159 92 203 147 175 86 107 174 172 142 112 58 157 116 126 182 129 66 100 59 131 94 126 131 90 167 138 97 183 178 77 141 182 124 168 149 94 174 141 157 88 95 169 172 100 136 76 103 131 133 131 77 71 74 83 180 105 114 133 200 191 108 131 83 89 84 142 206 151 127 175 168 118 139 174 211 157 146 182 201 181 93 184 123 118 119 154 62 46 86 92 178 132 102 163 158 133 160 203 197 137 120 171 91 160 148 149 57 166 89 157 128 66 61 148 69 146 92 100 98 98 153 82 116 132 77 163 125 168 83 179 87 190 100 132 102 139 88 73 70 77 139 85 105 89 146 171 77
165 166 163 154 145 139 149 159 163 160 158 139 136 116 132 135 147 155 143 126 138 151 162 175 208 206 195 190 194 202 215 212 200 177 178 178 179 175 171 166 164 163 153 184 180 177 184 176 139 153 159 168 142 170 144 171 156 187 128 135 177 104 170 134 197 184 162 91 103 49 121 101 90 138 128 147 111 134 118 86 89 109 79 74 81 51 68 65 83 95 78 71 113 50 57 58 96 88 113 116 80 108 88 107 108 100 83 108 168 140 154 170 125 110 95 155 90 83 128 110 121 137 80 60 73 148 126 156 113 158 106 201 122 101 163 124 102 160 214 161 205 122 170 150 38 96 134 141 144 114 135 169 125 171 212 98 96 162 124 161 110 199 165 137 146 139 130 122 135 180 191 183 112 124 134 210 96 156 150 96 92 176 147 139 182 164 140 89 138 54 94 92 159 165 170 132 172 176 83 161 88 137 79 104 40 55 95 101 167 156 150 178 105 111 108 171 160 162 139 94 133 56 102 62 150 155 59 150 164 153 130 155 95 184 97 130 103 94 142 180 187 167 210 221 178 110 136 119 148 153 76 172 196 193 139 176 108 103 188 111 195 113 212 137 106 179 176 73 141 163 117 134 107 124 133 151 140 115 148 180 180 183 170 144 135 103 137 97 88 81 87 110 145 102 81 104 114 122 156 107 131 107 99 140 160 149 146 170 109 115 64 137 107 88 182 121 196 210 127 125 88 158 62 141 79 83 167 161 59 99 101 169 95 79 84 103 182 84 85 72 162 58 154 93 128 61 164 157 90 173 176 190 150 95 114 161 148 88 155 81 180 174 123 119 142 157 196 142 179 147 97 138 101 168 155 83 57 157 114 115 147 144 132 150 83 73 108 127 112 107 147 76 171 126 71 69 114 119 209 210 116 144 174 140 158 115 102 101 141 164 81 71 136 78 110 87 176 78 169 183 192 104 187 143 74 69 147 137 158 168 196 201 126 195 203 150 176 175 95 201 127 184 199 134 104 96 164 165 76 162 72 56 139 151 154 125 107 72 106 140 190 184 124 184 82 65 67 156 105 121 127 71 88 142 158 140 99 157 134 154 65 90 94 163 157 64 58 153 66 88 88 153 127 131 82 111 104 135 170 105 60 49 77 165 76 117 98 102 203 176 104 125
199 196 188 172 151 144 144 159 167 167 167 150 137 133 128 154 158 147 152 143 151 158 170 187 190 211 200 200 192 202 211 201 195 186 178 182 185 183 176 154 158 160 151 161 177 186 186 170 162 147 177 177 159 177 184 188 189 191 158 191 173 167 132 192 157 143 155 76 71 72 116 135 108 139 77 78 91 103 140 70 80 75 113 53 37 33 57 132 93 75 120 113 44 85 67 72 78 99 74 101 128 99 92 108 110 95 155 110 156 140 167 160 115 95 113 101 126 72 149 169 108 78 65 140 141 121 115 213 122 118 153 208 178 152 94 86 94 104 113 206 107 147 149 74 127 34 55 58 160 166 107 102 203 202 206 182 185 133 186 178 141 186 160 123 177 148 124 132 88 97 183 185 104 120 117 105 105 64 157 95 111 121 120 142 120 155 175 169 163 135 124 68 148 162 132 80 155 83 164 85 170 113 141 98 47 61 149 137 92 109 169 163 212 183 106 192 82 136 98 62 150 66 71 93 118 116 144 91 125 80 173 161 149 105 177 81 165 171 147 141 87 145 186 105 192 174 121 76 108 127 176 189 135 185 193 198 176 205 141 157 151 120 183 199 188 113 186 136 170 98 81 115 174 167 135 75 166 85 112 116 103 86 149 66 94 98 123 111 153 88 126 83 83 72 120 123 129 172 159 151 141 121 89 172 97 73 79 169 81 73 71 159 93 82 134 110 146 205 93 73 65 57 74 64 134 124 99 74 82 57 156 132 153 83 133 138 82 177 84 124 138 157 58 139 144 105 165 64 101 74 130 136 139 185 111 126 109 135 83 140 87 168 127 146 90 179 128 173 112 114 125 103 122 106 126 93 128 170 168 100 88 119 118 93 89 180 121 145 123 112 148 150 55 54 160 116 127 183 157 111 150 82 113 163 113 197 114 182 85 168 125 77 141 145 162 90 112 169 163 72 83 173 181 157 155 72 43 112 76 120 183 103 130 188 203 144 137 114 112 186 169 108 171 104 111 105 176 156 161 61 76 126 164 174 126 180 169 165 67 138 134 160 93 149 152 56 151 132 84 132 82 138 114 114 87 81 90 95 125 65 84 96 172 165 78 168 173 70 109 154 153 79 152 153 148 192 162 101 78 66 75 60 65 149 133 99 98 204 207 175 152 89
200 202 198 183 165 153 144 151 158 164 163 149 132 134 135 143 165 154 167 167 158 170 173 174 188 189 213 211 203 199 196 201 195 182 179 181 188 185 184 173 168 150 167 178 187 173 169 167 163 164 165 175 184 169 203 205 201 203 188 169 198 122 131 178 179 175 91 133 123 117 147 99 107 110 80 87 94 74 128 80 120 108 88 51 43 39 70 133 84 77 65 76 95 46 43 62 70 58 77 94 104 109 92 106 136 107 166 127 125 131 138 114 84 94 120 66 116 65 98 149 97 80 70 153 89 71 85 136 188 111 206 104 110 208 100 114 162 147 125 177 83 148 61 125 48 45 56 158 161 122 167 195 164 168 189 118 113 158 91 112 186 189 159 110 153 98 155 77 137 71 107 149 139 136 107 136 116 140 134 169 174 143 123 160 76 121 144 132 128 148 151 81 110 169 86 179 183 172 188 187 94 85 150 101 112 140 113 178 143 204 128 122 155 145 111 173 99 97 124 155 147 108 139 134 138 85 89 96 101 156 116 195 205 100 181 154 91 172 176 181 185 99 174 89 190 204 149 180 177 153 89 182 204 106 174 161 96 191 207 211 122 97 174 162 132 103 153 160 181 177 128 138 84 67 150 140 128 100 85 184 94 143 62 112 107 64 115 161 92 77 164 99 163 66 149 71 156 138 202 127 108 110 100 193 131 104 155 67 105 84 56 119 116 102 178 105 116 99 109 65 137 83 160 137 132 95 102 178 88 100 147 77 158 99 119 126 81 92 165 161 107 77 73 65 142 159 81 153 97 82 185 212 208 158 143 69 87 178 163 114 146 133 169 164 82 161 101 159 160 159 79 90 86 153 67 151 58 147 141 92 84 88 161 162 93 149 130 137 151 146 143 125 41 75 138 91 96 101 182 81 74 99 136 164 92 195 196 149 149 135 89 70 86 136 183 101 79 132 118 81 99 89 114 128 81 125 72 101 92 189 187 176 161 143 137 124 154 86 146 104 176 128 255 205 110 146 121 159 59 99 67 82 146 126 91 172 81 166 61 126 157 63 76 156 91 161 101 182 158 170 122 183 172 82 110 156 94 172 122 115 166 77 116 157 87 189 85 151 137 94 120 90 101 128 170 139 164 176 120 106 46 142 60 90 166 137 181 122 179 204 164 163
177 184 191 190 178 160 150 149 145 156 152 134 127 127 141 156 159 161 184 190 184 180 153 146 166 182 196 202 190 186 184 195 200 185 179 176 185 186 194 189 183 168 174 185 187 171 191 164 173 152 162 189 202 178 197 178 215 165 160 207 154 149 176 181 161 94 157 139 132 103 129 110 146 93 147 101 62 93 57 91 90 81 57 79 59 105 123 85 135 87 74 103 69 90 63 42 102 57 57 69 109 124 129 102 114 137 121 155 113 105 97 142 70 48 105 58 57 91 134 96 108 75 74 131 48 61 83 74 96 140 108 181 138 111 129 83 129 160 133 166 174 61 148 41 155 154 146 162 80 174 114 158 168 168 184 133 179 136 184 160 163 171 182 173 89 153 135 99 126 48 141 156 141 157 153 104 113 88 163 169 173 125 172 61 58 67 112 134 53 135 142 158 74 171 181 129 160 168 91 160 102 182 163 163 83 168 152 182 141 196 124 110 210 121 151 152 171 164 175 72 75 165 133 193 148 172 175 177 131 133 90 195 137 185 120 162 124 173 142 143 149 136 141 129 189 118 113 176 107 81 102 109 107 139 173 196 103 155 152 190 129 109 120 170 89 152 121 165 173 119 92 91 174 102 157 63 166 77 112 86 160 61 113 89 113 99 191 171 92 175 69 99 89 110 112 100 143 167 163 119 120 137 200 139 212 153 95 158 152 57 63 80 179 175 191 178 115 107 129 86 138 142 75 75 77 75 175 171 127 124 78 77 89 90 180 84 141 148 170 71 162 154 103 153 105 83 86 59 115 68 116 158 109 149 70 143 81 174 125 163 106 85 139 122 193 108 152 166 141 82 169 81 136 57 78 130 47 100 64 140 109 178 129 167 171 189 75 167 157 108 95 125 139 77 87 93 86 176 78 139 66 48 56 158 135 103 169 105 147 104 124 138 78 152 81 164 75 109 129 165 165 150 180 70 77 85 59 83 109 98 167 76 91 119 201 130 189 177 98 94 124 154 186 191 125 187 105 161 58 163 166 172 93 119 115 163 165 164 152 85 116 134 98 57 114 120 156 154 164 127 157 87 84 157 126 122 166 184 99 102 90 135 163 171 118 160 166 172 64 75 111 95 114 190 146 108 99 89 74 139 86 55 169 143 179 95 151 181 107 165 100 95
149 159 169 179 174 165 152 146 138 144 147 146 145 142 148 143 168 169 191 206 195 171 148 141 157 181 193 188 172 169 179 200 199 192 177 172 176 188 198 204 191 197 175 200 201 181 194 185 173 169 148 171 191 200 213 172 156 163 209 167 158 177 193 136 194 176 137 108 122 141 170 151 177 145 68 136 105 89 66 100 94 127 81 73 69 107 69 138 72 96 89 130 104 77 92 45 49 76 56 68 86 113 98 107 118 104 106 103 105 99 105 112 88 70 30 13 54 143 75 74 155 82 162 99 56 135 142 100 83 97 85 87 192 102 187 118 160 159 64 74 175 167 159 63 173 83 186 181 93 130 136 57 149 72 150 103 158 131 166 183 144 129 117 100 64 144 69 58 119 135 145 102 102 164 78 169 97 168 90 121 102 99 161 147 148 106 38 45 120 58 62 132 76 165 131 122 83 73 182 168 147 131 106 128 110 80 93 98 116 81 73 108 184 255 158 166 102 155 161 143 78 128 102 109 194 178 188 156 149 169 105 120 88 79 166 159 105 76 132 172 91 190 185 122 105 192 106 205 109 182 153 192 208 107 105 192 162 189 197 100 101 133 154 161 158 138 194 145 132 110 188 152 104 135 170 113 153 166 144 144 95 48 74 43 77 147 100 100 155 100 160 85 50 54 64 155 104 120 176 172 101 167 110 201 219 175 140 176 119 161 81 179 157 102 110 167 104 79 85 80 148 78 175 125 96 100 100 91 124 67 74 163 77 161 91 70 92 171 149 172 95 105 178 94 172 94 160 157 150 163 175 131 140 105 85 162 125 162 204 186 255 85 187 95 105 163 133 150 143 162 139 111 92 152 71 134 110 111 134 122 143 163 123 96 147 114 167 100 135 163 110 62 62 153 152 83 75 91 153 153 133 132 30 43 108 51 147 60 54 59 112 54 125 102 169 96 91 164 147 107 94 148 132 130 149 66 159 138 154 179 170 98 100 98 112 162 176 126 147 184 193 222 137 135 94 138 77 164 55 62 84 159 206 192 113 117 157 52 56 106 103 44 145 79 133 151 100 179 195 104 185 123 107 95 135 108 165 170 191 204 188 88 163 132 89 96 135 78 102 69 152 103 126 144 127 193 151 113 159 136 168 146 167 143 80 72 100 143 173 188 107 135
131 138 145 159 165 158 152 143 147 146 150 153 156 151 147 156 165 167 184 206 194 183 161 152 155 179 179 175 159 155 169 194 200 202 187 182 178 188 198 215 223 211 214 201 211 207 202 186 159 156 161 175 151 213 165 214 210 196 152 190 181 190 199 177 158 184 143 158 169 83 116 143 109 163 132 130 68 143 100 109 71 82 132 91 148 75 76 114 117 80 122 137 152 127 64 49 97 50 69 78 108 79 96 77 109 104 140 95 82 75 93 65 51 27 73 26 118 55 115 158 78 99 75 148 53 47 65 164 70 164 109 122 165 72 144 106 130 127 163 127 178 173 171 73 86 170 128 186 86 143 151 112 145 129 116 143 87 177 150 180 183 152 153 184 111 121 56 136 105 130 123 107 127 184 173 183 189 187 88 118 129 133 124 79 99 135 103 100 68 72 81 65 66 169 74 163 147 75 111 141 77 152 69 140 158 141 121 156 184 161 141 133 125 172 79 154 143 102 57 153 141 165 112 205 118 125 159 194 105 148 103 83 159 61 141 154 164 76 157 133 92 174 185 87 191 136 196 161 102 183 176 196 202 210 116 98 178 84 184 97 99 152 144 164 168 135 171 154 138 180 134 189 143 142 190 164 114 72 94 72 163 59 85 141 157 173 104 171 142 117 145 125 51 129 141 116 133 108 100 169 162 193 104 148 198 135 126 138 78 162 153 125 153 108 115 145 75 75 152 110 147 77 164 175 144 123 90 175 118 153 123 94 84 75 105 72 80 137 129 163 70 84 137 156 128 112 161 128 113 104 83 107 135 146 68 67 80 201 140 208 208 164 187 182 175 179 102 167 184 171 166 102 177 140 87 97 84 119 130 124 134 164 98 191 85 95 88 149 131 190 159 114 141 118 174 121 65 159 136 47 126 92 80 31 27 54 50 64 39 143 142 113 131 125 112 119 173 147 93 106 155 179 191 175 77 152 76 150 185 203 196 101 81 90 104 138 117 158 134 169 127 181 156 203 186 151 147 143 143 82 116 198 109 160 185 66 153 67 38 127 131 148 153 105 192 156 196 200 170 142 185 106 196 178 161 173 120 184 127 167 165 79 163 154 134 187 157 84 141 118 99 153 87 139 179 102 122 83 158 110 116 159 103 114 179 69 88 68 149 97 115 127
120 123 129 143 151 156 154 150 153 157 168 170 166 169 162 158 163 255 197 190 202 187 174 155 172 185 188 169 158 154 158 179 195 198 191 185 181 184 198 215 228 221 218 211 191 195 179 170 130 141 142 144 195 208 212 169 170 199 178 147 167 161 132 216 206 128 149 136 127 150 78 97 88 124 164 171 164 78 59 55 60 71 115 148 152 141 70 129 76 68 96 153 99 93 110 59 81 79 103 118 78 84 78 97 97 107 111 93 90 73 142 134 90 37 84 36 58 52 148 151 93 95 183 134 77 72 102 182 87 61 50 94 60 93 108 117 37 120 115 95 108 185 163 183 98 197 195 154 177 95 154 135 101 74 144 96 65 140 101 172 158 156 103 168 159 100 141 113 67 165 109 94 202 145 132 131 210 181 92 181 157 111 99 90 103 49 37 47 155 98 80 162 72 135 134 126 165 131 125 146 160 130 128 98 52 90 172 161 87 154 49 126 68 147 136 44 35 45 142 130 79 77 197 170 145 120 188 114 200 196 187 162 154 149 150 148 114 155 130 112 101 174 91 180 128 101 191 158 95 193 176 204 182 117 206 197 111 145 166 115 175 77 148 161 172 188 171 223 173 119 170 125 159 174 103 94 149 95 70 156 135 131 159 137 96 111 154 124 125 60 157 80 53 100 32 117 65 79 88 142 191 94 128 93 106 105 210 127 124 147 115 160 144 109 113 87 150 102 81 189 121 95 131 80 93 177 90 111 81 73 78 108 151 151 116 67 167 154 94 101 168 100 200 113 116 139 153 176 168 156 119 179 87 155 154 61 167 146 210 221 160 214 156 159 128 107 180 90 94 83 178 174 174 166 163 59 120 83 137 96 110 118 177 197 192 180 142 145 152 160 128 86 91 112 162 74 109 142 63 62 89 80 92 11 50 116 21 131 140 97 118 91 84 186 136 149 116 128 171 189 186 114 182 100 137 76 171 115 114 201 125 200 178 144 208 169 119 64 99 83 207 220 151 197 150 154 133 106 58 78 171 192 187 184 102 64 91 126 36 126 115 170 96 108 151 111 193 203 174 129 195 209 108 136 165 124 115 110 148 88 106 76 75 145 171 187 163 125 179 127 177 148 188 86 107 185 106 147 169 79 138 213 209 159 185 160 149 148 119 167 115 195
110 117 125 137 149 160 162 162 167 174 174 164 171 176 171 167 166 178 192 186 192 184 171 167 175 189 182 174 168 160 164 183 196 195 190 188 180 186 184 191 215 194 204 198 193 205 168 184 147 158 162 129 173 163 141 172 158 204 197 176 181 139 196 182 167 166 161 150 112 116 95 133 144 121 118 167 150 132 69 54 135 66 80 120 139 68 90 90 105 66 62 82 94 104 108 115 63 70 87 77 91 86 107 70 98 84 135 126 102 69 79 85 136 70 100 39 63 77 43 55 75 103 109 179 105 170 193 119 163 163 43 128 137 37 60 30 95 151 143 190 150 136 194 133 147 121 190 77 168 171 155 105 90 152 153 115 106 48 68 126 78 151 193 188 153 132 84 99 151 93 182 154 126 129 227 160 222 171 105 120 171 90 175 159 168 136 139 103 143 78 71 111 103 62 64 134 74 154 136 158 156 99 85 116 45 92 84 91 77 91 93 47 77 114 84 118 134 35 142 71 59 73 87 178 176 103 188 190 120 119 71 79 70 124 85 127 147 141 133 139 62 101 122 159 151 130 170 165 172 120 191 179 207 141 167 105 83 136 142 141 72 160 60 152 177 119 223 205 170 201 181 175 129 153 177 166 170 66 104 86 162 168 173 85 119 163 122 102 77 162 115 54 113 56 35 37 59 162 84 94 171 101 126 87 87 163 188 129 169 130 103 101 113 190 116 77 74 80 89 164 191 112 124 125 174 125 164 189 96 90 157 124 173 122 171 68 66 70 63 72 115 156 157 204 177 146 106 80 172 65 91 72 100 175 147 144 168 120 106 205 162 108 184 80 154 57 166 76 174 148 176 102 116 137 117 167 128 68 138 148 112 114 213 201 151 169 159 166 77 109 126 125 158 169 172 109 50 91 78 144 111 130 40 111 43 23 127 114 138 153 62 133 162 117 195 116 200 197 185 166 119 91 118 100 155 79 163 184 180 197 222 155 185 112 172 91 162 67 162 140 113 215 201 161 171 68 149 47 45 140 72 141 108 181 169 92 147 135 77 104 105 79 193 155 194 198 144 152 136 95 136 107 101 189 186 154 109 192 122 89 113 65 90 124 96 91 136 108 122 114 255 107 137 112 123 136 175 75 112 82 199 176 202 147 119 155 51 48 154 90 126 82
102 115 130 146 153 157 158 162 159 167 155 165 152 171 164 175 181 190 195 185 191 185 175 176 174 179 185 177 171 167 177 187 191 189 183 181 179 175 170 183 184 188 189 160 168 185 181 182 168 164 135 161 168 182 184 178 180 136 168 138 188 163 138 166 115 157 155 154 100 106 76 106 144 87 108 124 111 128 69 88 63 72 114 144 110 142 98 95 100 55 52 94 87 124 126 100 78 95 65 64 70 84 74 89 90 76 116 108 116 127 76 101 82 86 107 73 129 49 37 61 148 92 111 107 113 192 134 134 109 126 113 52 67 46 134 33 142 162 127 193 174 97 172 97 206 101 179 144 136 113 150 95 105 139 125 161 106 107 106 155 93 191 178 140 170 178 106 164 157 96 187 113 213 211 162 142 131 153 122 138 138 166 158 153 138 143 148 82 66 106 135 95 84 71 86 96 79 83 66 142 113 170 155 87 65 87 113 101 173 82 130 136 158 96 146 48 109 50 149 105 91 121 100 134 81 135 90 112 178 93 132 55 42 55 63 151 43 137 99 82 122 182 161 99 166 132 70 94 73 161 185 197 185 193 191 160 153 173 86 149 153 145 71 122 118 149 181 186 145 153 173 135 148 142 145 165 126 157 136 87 87 88 94 84 177 122 103 90 77 128 154 114 41 37 57 44 113 111 188 96 113 100 146 119 188 156 215 207 108 95 131 107 166 84 120 80 100 76 158 114 106 100 141 178 97 85 178 79 75 100 155 173 117 129 101 172 80 180 101 183 119 189 193 125 167 143 144 175 175 160 151 168 95 172 154 72 103 150 190 137 179 127 89 140 127 109 127 144 78 169 172 125 92 141 92 84 125 174 181 191 103 181 142 184 182 93 168 86 64 59 65 80 164 175 90 110 99 75 67 154 57 57 255 123 119 81 121 56 153 73 158 142 169 158 187 194 176 186 186 88 188 179 117 102 177 154 182 167 147 133 142 144 154 199 95 116 97 79 66 186 201 163 203 151 166 92 134 76 97 54 169 188 179 147 173 124 172 91 85 159 148 171 186 135 205 185 121 142 184 96 106 110 134 126 162 198 114 133 78 151 116 109 52 62 87 119 190 108 125 143 101 157 175 192 144 123 153 74 173 126 193 162 161 182 92 157 56 66 95 95 66 68
103 119 135 146 149 145 152 150 157 148 141 151 142 162 166 180 190 203 191 188 186 182 162 161 162 170 171 173 169 166 183 188 189 181 172 175 175 168 169 170 173 179 179 174 166 172 185 164 149 146 143 176 170 174 122 133 148 156 188 172 147 170 193 136 138 89 105 113 96 84 139 84 155 151 152 100 102 106 129 76 103 111 81 74 75 118 78 78 80 71 57 51 64 98 109 95 84 77 78 72 57 75 63 111 88 66 89 97 68 85 86 70 82 90 99 86 73 51 61 51 71 148 149 102 120 124 153 245 171 112 176 133 54 62 94 132 149 99 180 163 155 94 86 84 190 88 102 145 154 81 183 151 190 192 173 167 151 137 110 134 160 183 179 127 73 167 141 141 160 155 171 198 191 217 193 180 136 191 139 134 164 159 182 152 93 165 118 162 112 72 125 120 67 68 145 158 106 139 181 147 91 81 166 46 60 137 97 68 154 88 157 100 109 163 130 97 110 126 117 156 82 176 75 145 90 103 168 187 153 95 138 135 63 141 91 69 79 48 55 114 159 104 192 106 173 82 146 153 167 94 183 186 115 170 121 148 180 93 90 183 78 163 109 169 162 113 99 126 123 174 106 175 97 113 105 136 114 65 61 56 159 148 162 181 158 138 139 186 176 78 158 53 83 45 51 39 91 59 177 100 99 106 103 141 154 105 158 210 125 117 107 78 120 82 121 66 69 71 92 117 183 113 133 86 175 137 93 89 160 162 183 80 154 128 146 98 164 164 170 141 202 189 190 173 98 173 106 109 71 137 54 94 143 95 171 182 82 95 139 116 91 95 147 73 78 58 90 147 85 71 153 88 96 111 103 80 96 124 104 153 179 133 255 158 158 123 109 144 61 152 59 68 123 92 79 118 134 134 127 72 74 126 166 59 52 67 152 111 140 48 137 92 157 159 150 91 75 72 89 101 174 141 144 166 75 92 90 144 191 114 204 164 155 189 133 148 64 164 89 93 100 200 131 175 104 68 145 52 60 135 78 90 149 195 97 154 192 132 109 106 94 139 127 177 156 116 126 97 146 155 52 160 127 144 148 197 186 82 166 142 66 33 146 164 155 163 104 123 163 145 168 175 93 124 84 80 74 139 90 91 104 162 171 112 72 165 67 134 70 165 149 40
113 125 138 143 136 132 129 137 132 135 140 144 138 159 170 188 193 210 196 184 171 182 161 165 157 167 162 173 172 167 179 181 173 168 165 168 167 169 169 168 172 175 164 170 146 172 183 160 186 211 202 177 194 136 151 145 149 164 129 185 186 199 193 142 167 136 155 79 161 74 117 69 158 88 168 164 143 111 160 84 80 150 150 111 84 134 80 79 124 75 58 57 118 100 132 119 117 78 62 91 68 77 74 78 92 101 66 98 71 141 77 113 87 91 122 97 100 72 87 150 83 116 84 126 123 171 168 237 158 189 159 177 90 55 133 69 97 166 103 189 172 156 51 162 71 73 62 124 165 107 190 119 161 100 193 170 144 158 111 175 194 140 123 125 106 134 168 111 152 135 191 178 106 162 115 178 166 155 174 113 106 173 188 83 73 106 174 95 174 137 156 129 77 67 113 159 97 145 198 106 145 100 87 57 83 66 125 91 74 172 167 190 188 108 52 139 89 133 62 79 170 82 82 148 107 118 107 92 164 140 163 152 63 98 70 65 138 149 139 85 163 191 104 186 96 161 151 55 154 176 179 163 151 164 178 97 132 129 181 118 176 114 164 145 106 159 92 98 164 175 165 108 172 84 61 156 83 82 59 159 127 61 137 127 188 195 173 174 94 80 128 71 118 139 59 255 44 63 148 71 74 83 85 91 100 139 117 115 116 160 86 103 121 92 175 135 124 142 144 190 194 189 165 154 118 157 138 65 88 146 95 185 180 100 152 96 136 172 199 141 129 98 188 86 138 135 159 158 61 155 149 150 174 107 103 159 183 169 109 172 140 159 115 85 153 59 163 121 98 72 119 121 109 159 85 105 108 97 78 118 161 142 200 108 123 172 182 104 73 73 91 118 84 117 92 82 149 141 101 163 136 179 81 105 172 81 148 59 69 147 138 142 53 96 167 95 156 145 64 142 153 152 94 99 90 157 141 171 154 91 102 198 168 156 143 78 138 162 178 100 173 178 192 111 154 59 74 84 60 52 73 117 197 125 121 96 176 113 158 106 107 145 176 128 181 133 110 95 133 91 52 133 147 134 108 196 189 110 89 69 128 82 68 156 112 113 144 70 125 167 146 103 133 63 131 169 152 75 148 154 87 76 89 161 133 93 99 85 180 116 143 25
125 130 133 129 119 113 110 124 128 138 146 142 153 164 188 202 196 209 198 179 170 171 159 156 155 162 177 174 177 184 183 179 174 168 171 179 187 176 181 174 178 178 162 177 171 170 186 173 220 194 230 176 182 167 157 171 137 118 189 194 167 154 167 173 150 108 88 119 113 80 74 124 72 76 136 80 93 109 100 170 93 74 78 112 117 128 130 123 76 67 131 95 98 137 119 94 89 74 95 63 57 113 77 109 92 82 63 83 146 135 108 127 106 95 148 83 86 154 74 107 129 140 157 133 89 117 206 156 168 204 108 120 71 64 64 68 68 141 107 134 78 77 144 155 142 168 132 92 113 162 199 196 205 118 116 158 182 82 164 141 197 106 145 160 160 70 157 160 99 147 94 96 84 180 171 103 105 145 159 98 164 173 103 112 179 173 153 83 255 172 106 164 86 165 123 110 148 199 215 209 139 189 116 135 63 62 94 90 177 97 106 180 135 102 77 128 87 154 155 109 92 171 92 181 186 197 109 197 154 85 175 141 123 137 130 167 127 168 81 147 59 180 153 181 70 81 151 138 157 167 123 144 101 171 192 200 160 102 122 171 94 82 124 131 173 72 118 160 255 153 132 124 184 147 128 72 89 174 96 139 69 67 167 194 198 115 106 189 190 161 98 57 58 55 57 142 50 55 41 63 50 69 154 168 144 110 108 106 96 81 123 124 103 175 109 175 115 174 199 131 139 77 71 60 163 71 160 152 76 91 181 108 97 183 189 112 187 96 184 106 138 90 163 172 191 191 105 141 149 110 57 46 107 76 168 99 137 195 157 201 100 109 156 95 152 131 81 164 82 83 165 151 100 161 76 66 56 146 178 144 106 97 136 195 140 183 123 87 157 112 61 144 118 125 158 110 107 122 185 87 137 136 109 159 113 182 153 153 61 97 78 87 58 99 174 84 76 147 64 96 123 74 47 82 137 87 166 165 81 114 112 203 112 195 183 91 142 101 109 95 153 180 142 82 105 68 165 151 52 148 163 89 184 178 173 135 111 119 101 122 157 102 186 178 212 119 167 83 154 145 58 47 79 115 122 188 107 165 128 162 156 166 182 169 170 102 170 163 125 73 142 43 49 135 52 70 86 114 76 82 175 81 90 80 67 154 176 144 70 72 142 91
125 126 125 120 112 110 111 119 134 150 156 159 166 177 186 201 210 201 181 164 170 158 144 161 168 189 203 206 203 198 187 176 176 174 178 189 196 191 190 181 180 170 154 173 174 146 190 207 225 201 191 187 174 184 138 158 161 164 192 200 131 153 147 134 140 87 163 76 92 95 120 70 88 88 142 110 85 122 172 143 74 75 61 65 95 114 62 60 61 92 79 81 90 105 105 112 105 80 106 82 73 89 74 71 93 70 111 94 106 139 119 144 147 86 140 94 67 119 100 99 130 82 152 179 110 178 168 180 149 118 135 110 84 165 171 69 179 190 208 204 83 148 47 148 68 114 103 71 131 82 109 119 175 102 190 129 138 162 139 96 136 182 143 98 94 154 134 171 187 101 173 135 119 103 81 135 148 82 101 79 148 86 82 191 121 156 155 178 163 86 124 71 111 172 144 88 94 100 97 135 143 188 143 89 97 107 181 161 83 181 172 163 135 170 152 81 138 81 171 182 161 86 97 173 98 200 131 163 158 167 119 117 156 152 198 164 193 181 88 134 156 69 78 175 151 89 153 90 122 181 118 126 191 95 104 99 137 144 95 184 148 166 169 173 141 71 104 139 112 177 190 112 194 115 107 118 109 183 122 89 88 75 168 180 167 189 95 191 83 152 122 55 93 104 76 77 101 85 36 69 50 79 142 118 144 119 158 182 76 142 141 121 156 90 152 105 102 84 149 109 98 61 61 50 83 136 127 163 157 197 208 159 118 174 157 185 127 79 169 164 84 168 158 101 204 169 81 55 70 141 123 139 57 74 167 148 182 103 184 213 204 186 130 57 89 89 178 150 160 162 75 187 162 98 98 38 62 189 210 205 122 151 202 117 150 176 198 193 186 164 151 157 138 74 185 108 196 190 131 103 150 97 173 149 138 151 179 114 86 91 117 113 135 166 185 197 118 83 153 68 67 107 157 75 182 91 81 118 75 155 203 205 199 196 183 154 167 150 185 96 102 158 164 145 86 144 71 111 159 136 85 184 117 109 166 92 85 73 69 77 74 82 190 180 112 183 100 80 101 89 158 139 85 173 176 75 146 146 80 87 143 171 191 197 124 166 74 164 90 49 141 34 57 92 145 58 72 142 76 121 128 99 92 111 182 126 74 143 114 57 51 51
119 120 118 116 113 111 110 115 137 139 156 152 170 182 206 204 212 194 185 165 164 157 155 162 194 216 214 207 209 210 200 191 184 188 192 208 208 198 188 176 171 168 171 154 155 177 191 181 225 223 231 190 186 169 126 135 173 178 197 205 182 160 132 169 133 171 97 101 106 119 122 77 165 183 117 74 70 80 111 72 128 120 76 74 58 134 97 94 52 74 93 101 132 152 121 89 77 90 57 58 105 67 73 96 73 60 112 84 114 151 178 132 84 64 126 76 53 146 82 144 174 101 95 190 115 139 152 204 213 107 101 120 131 86 173 180 148 194 203 206 87 159 126 159 73 71 160 148 119 108 178 166 174 185 184 144 175 166 153 176 169 85 130 127 178 143 152 171 92 96 126 167 136 160 184 98 97 140 117 66 112 66 164 199 172 192 87 133 157 191 155 154 66 74 100 138 177 98 172 165 112 176 122 88 147 148 121 148 172 107 127 110 87 148 84 145 90 107 139 93 190 164 183 181 126 175 174 174 185 138 176 164 90 175 109 200 164 104 86 132 66 135 155 148 73 166 162 103 163 197 185 94 178 112 162 96 193 148 115 95 81 114 114 89 172 115 137 65 159 96 174 109 190 206 140 204 114 116 97 167 163 127 185 166 166 190 122 83 173 174 168 66 149 179 78 103 53 119 32 44 73 79 109 168 145 157 173 160 92 151 140 173 163 171 185 95 155 82 135 131 80 47 31 81 122 62 86 85 176 123 107 125 114 131 97 86 161 85 65 154 104 92 176 207 112 205 77 149 49 67 148 103 150 65 73 84 92 197 214 125 186 134 141 140 116 130 106 123 82 125 77 110 155 89 67 38 164 188 175 152 192 181 161 119 183 119 185 129 145 100 180 79 169 180 179 118 116 99 199 101 102 134 98 97 176 147 142 129 154 185 124 67 92 191 158 132 154 188 196 144 165 100 110 90 202 175 158 103 157 190 174 208 105 195 125 190 157 160 97 167 151 105 157 162 145 115 179 113 174 163 142 117 71 144 94 63 70 175 135 141 115 137 204 172 141 128 80 78 75 159 110 141 183 183 125 163 105 158 192 166 133 177 198 136 130 155 91 166 133 46 125 137 63 136 149 130 125 128 173 100 181 128 177 96 184 79 120 123 162 73 104 79
119 121 123 130 133 131 130 126 134 133 146 149 174 190 202 211 212 197 194 179 170 153 163 171 204 228 216 209 206 198 199 192 181 190 198 204 204 193 168 163 160 156 151 149 162 165 149 192 172 219 213 181 186 182 125 160 142 136 182 197 167 111 166 134 123 103 107 166 158 98 128 169 122 142 123 126 136 73 61 98 130 81 85 78 66 94 71 89 58 98 68 75 95 82 96 131 69 71 54 79 74 72 103 77 77 68 70 112 101 145 165 121 106 72 50 117 53 72 90 156 129 90 137 120 212 129 130 125 115 194 166 193 105 92 168 97 186 171 201 184 122 126 134 136 154 98 145 146 49 148 66 79 181 87 178 127 145 113 71 86 158 112 89 106 178 169 156 104 161 124 109 71 172 136 155 168 127 107 177 72 139 127 160 138 118 193 110 185 183 195 172 75 70 134 92 176 161 123 128 139 108 101 101 190 104 204 199 198 97 93 164 59 65 64 170 183 127 203 185 148 162 172 169 169 181 154 185 165 106 154 127 99 97 111 171 134 210 206 193 72 103 153 93 79 66 169 83 116 189 103 142 187 140 96 113 95 191 177 151 194 157 177 124 166 158 125 152 132 150 192 165 176 183 174 178 106 174 114 125 75 158 84 94 138 106 86 176 73 147 137 83 162 125 168 158 118 169 131 143 53 121 192 95 175 72 138 147 83 92 145 121 129 210 138 141 160 68 112 62 71 52 108 60 108 121 123 163 167 105 94 193 107 187 81 176 177 68 66 127 142 171 82 195 162 158 153 149 125 132 67 131 93 145 73 84 197 166 208 190 150 174 200 170 60 137 132 136 93 144 171 113 128 151 170 54 70 77 113 130 206 205 139 107 104 104 188 101 189 204 128 185 185 124 184 113 172 163 94 187 87 71 56 55 85 63 105 112 119 137 168 167 173 121 167 119 156 207 180 130 175 91 165 97 211 130 135 134 93 167 95 210 190 113 182 121 174 108 195 156 79 128 74 157 106 102 92 94 162 107 107 181 137 163 114 63 70 167 145 97 171 112 195 137 132 134 145 87 148 164 128 161 195 100 180 177 104 75 81 137 209 112 181 147 100 104 126 187 69 99 153 60 65 107 50 132 160 128 92 183 83 85 96 179 96 184 105 100 79 124 130 117 109
127 130 138 145 150 151 143 127 117 117 133 153 172 203 215 215 194 198 197 180 181 157 167 179 215 230 225 199 196 184 178 182 183 186 195 199 192 176 162 142 135 145 151 150 133 145 168 169 182 204 183 176 198 161 145 152 114 177 146 137 181 113 123 127 142 119 112 134 120 166 150 163 115 131 108 135 114 99 81 50 48 67 84 63 73 148 82 85 61 96 68 69 82 79 79 95 70 59 72 85 94 81 106 104 123 79 75 85 137 120 121 150 158 76 52 54 135 86 123 186 112 133 171 123 166 125 176 114 112 118 218 112 107 201 193 180 95 148 92 129 167 153 72 149 170 169 61 134 140 125 85 119 80 104 175 66 73 155 167 71 121 156 131 202 198 141 159 155 140 122 168 143 173 187 159 124 185 157 88 173 125 194 171 208 144 129 198 197 191 115 139 143 154 186 98 149 162 155 41 61 145 77 110 130 198 136 175 106 186 180 71 157 140 120 167 88 110 202 111 181 99 169 149 95 161 155 143 107 88 103 68 158 93 177 181 173 105 113 117 87 82 92 108 114 68 76 168 123 199 165 125 183 160 162 76 150 156 178 128 187 180 177 133 112 92 135 164 164 164 179 112 138 198 183 94 96 170 138 181 185 185 183 147 77 75 169 175 119 90 135 173 182 114 111 206 118 122 165 96 135 94 98 117 121 89 103 140 136 113 147 175 172 208 133 103 166 77 66 121 63 81 93 61 63 88 116 150 83 155 119 85 103 106 137 99 153 105 166 81 107 162 166 83 178 155 201 92 165 65 174 181 175 100 157 202 192 176 220 117 146 211 196 123 117 69 90 172 169 144 124 89 111 195 179 91 85 173 119 198 139 171 130 121 155 114 106 104 129 182 88 88 127 97 143 154 166 184 97 106 188 164 137 73 52 64 76 93 187 110 108 141 91 105 166 203 214 175 193 142 110 201 108 111 153 231 191 105 181 157 194 113 106 145 111 138 117 141 139 70 90 149 148 164 88 135 190 143 90 73 78 99 82 128 63 90 156 102 142 106 199 154 181 103 126 121 141 165 65 103 83 82 110 120 123 99 171 97 175 202 166 111 98 147 96 115 146 88 118 160 152 158 86 141 122 112 173 166 132 92 99 106 102 188 132 136 144 163 189 133 115 118 145
131 140 148 153 157 162 154 139 122 126 132 149 176 200 213 199 179 193 205 184 187 161 165 191 203 208 207 199 180 180 170 175 179 182 192 183 177 157 145 135 136 133 142 131 149 133 160 170 183 188 191 157 170 152 106 91 139 166 134 171 155 174 120 170 112 156 97 165 115 109 122 112 162 112 101 110 149 115 113 65 69 60 129 101 136 137 110 133 110 116 74 114 80 72 92 69 65 123 100 92 99 77 102 117 122 118 101 88 138 112 111 119 150 74 68 101 111 113 199 168 137 152 131 143 203 106 96 94 111 128 134 133 190 138 115 140 99 173 82 102 134 149 154 135 76 75 166 138 137 145 151 158 174 84 133 166 175 155 82 151 86 180 200 150 128 163 101 165 178 154 187 110 125 130 104 92 189 124 144 93 127 101 194 135 158 143 101 93 105 166 152 168 186 125 186 94 120 157 68 146 85 139 189 117 179 153 91 86 95 97 176 145 126 76 102 97 142 123 132 158 168 89 80 84 161 133 93 180 144 97 54 158 94 164 174 89 182 183 152 139 176 94 106 118 167 85 178 145 200 169 169 149 141 81 149 154 167 93 153 195 201 150 108 176 111 146 76 163 118 182 196 218 132 149 76 152 116 158 187 152 166 100 166 127 76 135 175 115 80 153 101 112 167 112 144 121 108 180 106 68 117 133 95 147 78 102 88 144 60 80 91 177 105 154 131 70 130 80 144 82 132 74 85 148 139 155 128 153 111 106 78 169 69 65 124 107 67 85 113 133 67 163 72 106 177 196 109 179 174 136 115 104 169 108 220 138 172 222 216 196 203 194 125 71 72 142 72 75 154 120 111 176 184 159 74 105 125 166 120 87 89 66 136 40 59 139 186 113 192 158 135 191 171 98 159 182 164 151 114 187 194 115 155 98 67 162 93 143 117 152 165 192 112 121 133 130 171 108 156 197 103 174 214 130 225 171 194 122 158 145 162 114 187 98 78 112 180 96 118 110 145 95 173 99 154 128 162 161 126 149 85 73 147 135 170 180 128 203 124 103 147 152 145 138 155 255 87 177 151 156 162 136 146 108 144 122 88 121 122 139 164 106 187 97 122 94 84 168 79 59 134 121 126 179 91 82 98 71 122 114 91 96 87 178 80 86 190 162 169 178 185 110
127 138 150 156 156 155 159 146 139 133 149 160 192 197 193 181 167 172 171 175 169 162 160 189 208 200 207 196 185 180 168 167 172 185 186 180 163 140 131 130 129 130 132 133 146 150 157 131 182 181 199 188 151 173 133 130 151 153 153 136 125 150 153 177 157 162 140 95 88 155 89 95 143 119 113 255 187 129 169 94 74 93 118 93 112 97 78 93 100 65 126 78 107 98 85 68 73 74 82 130 111 87 64 97 109 96 118 119 116 110 123 135 115 81 109 103 138 184 132 161 236 174 131 205 200 92 181 155 192 126 214 128 114 132 84 68 80 94 174 165 162 156 68 150 108 103 100 124 56 135 65 156 164 104 185 176 180 182 154 179 93 179 194 129 183 140 168 99 126 143 115 127 122 185 165 108 105 186 173 77 127 102 158 148 132 94 159 180 95 143 62 87 161 163 109 186 105 183 80 99 113 140 85 181 72 118 140 179 147 109 135 150 174 141 97 130 120 162 178 179 128 108 142 155 109 72 96 188 85 151 163 114 130 156 159 108 75 114 87 182 182 167 175 169 187 186 177 198 95 136 136 147 127 138 146 157 166 76 149 150 98 146 94 89 92 119 104 155 169 176 203 209 187 82 112 87 152 159 115 188 115 132 117 163 53 99 177 89 194 107 136 92 193 179 168 214 198 87 139 167 141 138 190 96 83 86 152 108 45 44 134 121 136 193 90 146 149 107 89 150 82 121 92 169 69 73 105 60 162 69 152 147 89 162 79 164 125 71 74 77 79 161 71 80 136 188 188 156 196 149 202 199 131 110 213 226 169 163 202 211 196 140 96 87 112 171 163 150 81 162 111 189 205 187 143 168 168 154 195 121 62 104 121 55 134 76 187 194 179 146 255 120 193 142 118 200 151 155 111 192 205 106 94 155 61 103 80 177 111 98 161 105 218 150 215 167 141 143 142 159 85 148 140 212 212 164 95 94 176 82 88 142 149 95 172 83 125 128 84 163 130 168 83 128 128 145 106 82 90 65 114 94 183 110 123 113 195 120 192 154 128 148 151 156 74 140 84 101 112 161 150 93 81 137 196 157 144 150 161 124 109 113 118 99 97 119 83 158 142 63 149 186 191 165 94 150 73 84 72 179 127 147 162 135 80 92 85 127 178 199 188 211
126 137 148 150 143 148 151 147 151 157 157 172 190 207 187 179 167 162 151 152 162 157 157 174 196 203 193 198 196 181 183 180 184 187 187 170 151 138 124 130 123 121 130 135 148 130 143 146 149 156 182 158 159 164 154 162 109 149 186 193 179 178 120 174 87 123 115 103 157 159 108 124 129 164 162 214 199 141 116 123 131 138 120 132 103 155 116 90 87 119 83 96 98 86 81 78 98 136 140 104 92 103 59 97 59 96 111 105 117 96 85 97 84 92 102 191 136 108 202 208 168 139 145 111 113 90 178 150 100 150 147 107 97 147 80 110 56 64 170 149 73 172 173 170 193 122 180 171 147 68 95 119 75 159 128 197 106 121 172 195 116 182 103 165 110 175 147 148 186 142 177 214 154 192 207 173 137 155 155 143 160 69 148 161 160 163 76 70 152 81 150 184 174 200 110 107 112 192 151 134 155 158 170 167 152 116 144 82 133 116 104 93 152 160 90 109 162 106 160 164 73 149 79 91 56 122 181 98 149 93 79 141 161 159 144 61 133 95 81 86 124 114 186 181 123 126 187 198 192 82 63 135 84 145 125 72 146 131 169 133 113 95 185 88 146 85 169 96 171 194 126 195 172 70 147 127 146 167 127 146 161 203 96 156 102 62 160 190 135 104 188 163 147 151 116 202 194 123 81 138 92 103 148 117 177 186 163 154 128 78 89 88 124 95 161 182 108 134 109 123 150 182 112 87 152 45 94 53 160 90 107 108 179 137 156 158 168 77 130 181 183 171 113 134 129 153 124 87 185 154 146 210 114 154 177 202 135 202 154 185 214 151 182 87 180 69 76 80 71 174 164 173 207 148 182 158 172 157 169 68 52 45 116 131 67 173 173 85 118 141 135 93 173 130 155 117 109 107 188 132 220 120 108 95 69 124 177 91 185 152 135 210 124 126 202 194 170 91 150 86 134 93 195 180 169 188 131 76 154 146 171 89 89 93 123 171 155 137 79 140 78 86 138 101 198 202 193 83 126 124 142 133 192 157 125 157 217 110 171 117 67 120 109 57 128 149 136 144 91 57 141 106 164 150 146 179 109 176 109 145 164 122 182 186 172 103 82 87 146 71 125 188 180 144 188 128 154 85 172 117 146 178 130 161 160 87 107 135 118 135 110 190
138 146 150 145 138 132 140 146 149 159 162 175 181 192 180 170 152 147 137 148 137 148 144 164 199 197 193 198 198 190 194 187 188 183 179 169 153 144 140 148 150 142 122 139 133 147 161 167 163 175 171 156 186 154 150 184 135 188 178 147 200 153 159 162 109 120 107 139 106 100 146 107 187 124 170 139 188 100 99 93 77 101 72 78 94 135 180 135 155 105 101 108 129 103 118 90 86 110 99 135 123 113 112 50 47 58 53 50 92 114 58 55 64 82 96 128 136 84 92 96 177 116 171 108 147 122 138 96 145 103 184 184 183 177 114 82 95 166 79 156 170 158 175 88 98 99 106 102 111 81 86 163 159 164 171 162 168 183 165 193 154 143 180 73 120 94 143 122 105 132 121 211 184 180 178 108 119 82 121 146 75 148 60 62 64 62 63 64 62 168 125 163 184 156 114 196 113 184 129 126 100 126 170 84 135 58 150 103 166 122 168 128 108 79 84 96 148 108 152 133 167 173 114 82 144 69 103 169 181 122 95 173 93 122 52 71 124 73 158 173 105 100 203 207 121 199 174 90 159 174 163 112 147 53 119 161 109 163 84 131 77 106 182 106 110 88 172 71 176 126 169 171 155 155 133 125 102 156 96 143 107 106 89 80 255 96 84 119 96 130 124 97 163 93 158 173 133 120 131 92 97 187 143 177 177 115 104 177 75 59 57 94 107 91 123 128 171 170 91 95 131 161 80 156 67 141 113 57 144 73 100 175 188 99 101 128 147 96 207 125 135 143 100 70 113 67 98 135 100 146 128 130 185 187 121 169 170 196 192 169 151 130 94 133 162 72 126 147 66 152 179 173 133 173 162 157 128 103 157 139 91 107 28 41 56 168 182 113 139 146 87 190 104 157 111 169 139 172 194 202 177 217 189 177 150 115 69 103 183 163 93 153 122 192 124 101 87 122 108 79 93 88 99 118 110 196 196 96 166 80 75 88 91 189 86 91 171 71 73 88 98 79 117 151 209 122 129 189 177 177 81 117 137 146 160 129 150 137 113 148 127 43 30 37 107 51 135 157 100 116 138 137 146 85 142 92 172 118 137 161 202 111 173 89 184 138 86 93 151 178 171 134 119 205 117 89 170 71 177 152 159 124 83 99 93 96 136 164 99 99 108 127
154 157 154 142 129 125 128 132 143 152 155 163 162 171 176 172 161 135 148 141 129 135 146 163 172 189 186 189 193 196 203 196 199 191 181 166 157 158 150 170 172 162 159 155 159 169 173 166 160 149 122 161 167 136 157 186 184 164 159 148 144 203 153 142 110 131 208 140 132 153 175 109 201 188 166 117 180 111 111 136 90 72 72 85 151 121 131 117 100 86 83 87 90 91 105 82 77 102 122 113 149 144 83 78 87 90 95 37 48 71 83 110 90 77 162 102 67 90 60 75 88 188 99 189 142 92 105 102 194 109 89 172 81 87 163 154 74 131 169 90 115 153 141 175 192 183 137 168 140 154 115 169 154 171 175 182 128 174 149 159 94 89 168 127 174 193 181 170 160 181 97 194 147 146 166 149 139 94 98 161 59 123 149 152 82 97 149 121 55 106 77 136 82 89 168 79 186 165 200 156 178 186 124 162 72 61 84 108 181 167 123 151 161 66 140 109 109 155 126 89 184 103 73 160 96 114 166 103 180 156 191 197 183 78 153 142 68 154 176 96 98 194 207 207 120 196 152 159 81 159 67 170 76 169 156 159 176 86 82 120 124 164 135 106 113 180 153 72 77 126 135 95 131 100 72 142 141 176 119 98 90 168 124 129 178 95 151 186 174 105 118 139 177 173 125 101 107 142 101 101 144 113 121 134 117 126 174 170 68 63 152 109 76 116 153 135 165 132 73 150 155 60 168 143 136 151 111 100 163 75 180 114 164 171 132 195 164 112 128 206 155 87 155 55 38 46 81 128 158 190 188 153 187 104 127 118 205 111 217 135 123 202 125 108 71 168 97 164 156 126 156 191 212 202 188 166 161 83 122 145 64 116 35 36 57 81 183 160 147 100 132 124 179 189 151 207 199 92 139 146 198 166 102 73 53 86 65 135 182 152 113 146 124 223 219 210 126 188 79 132 147 129 167 105 148 155 141 184 92 165 66 171 84 179 188 114 168 76 141 150 139 107 147 129 163 113 202 193 106 86 160 194 88 88 91 200 201 107 125 151 94 39 68 137 84 93 81 93 63 75 56 96 160 157 155 137 79 161 107 204 188 80 148 82 92 98 190 167 187 106 115 172 166 208 157 113 76 177 132 203 131 167 168 59 68 69 172 128 97 181 196 109
159 159 152 139 129 121 121 126 130 135 143 143 141 163 162 156 154 148 139 140 118 128 122 141 158 161 172 179 182 199 212 214 207 194 179 179 173 178 184 198 199 193 175 166 146 162 140 133 122 144 119 127 167 175 146 196 146 204 210 169 167 191 191 178 141 213 194 132 255 152 135 121 133 158 122 119 121 128 103 63 128 77 87 75 150 119 133 151 162 114 69 107 83 110 82 120 70 101 145 131 160 116 132 65 97 62 63 54 46 58 113 136 93 100 73 68 56 61 139 103 66 125 143 89 96 135 104 88 187 142 167 177 183 179 138 194 83 119 63 51 44 106 157 85 193 190 77 159 128 73 155 112 176 139 151 171 140 131 160 120 112 93 165 159 132 143 128 183 207 197 96 103 123 103 146 174 149 141 173 77 99 57 57 96 157 72 37 113 151 63 168 170 165 66 106 73 69 154 119 174 156 148 176 170 156 163 152 78 85 106 186 174 110 82 85 195 188 147 105 171 93 165 71 146 152 100 95 147 90 142 162 94 178 165 133 52 154 102 129 191 200 182 157 212 213 201 166 130 149 133 166 160 80 119 93 81 88 117 187 185 74 157 151 160 147 165 147 180 83 105 108 83 146 89 105 169 168 181 188 181 81 170 111 138 177 119 181 94 125 167 109 196 86 78 93 153 130 122 157 139 117 108 137 188 112 111 170 159 123 62 107 94 138 179 109 134 66 151 116 129 92 54 103 100 91 80 70 64 172 120 177 130 101 104 105 143 130 127 122 201 98 166 123 132 58 135 128 158 166 128 157 198 201 193 142 157 216 213 167 211 196 95 139 166 64 158 69 164 99 151 171 180 111 132 141 127 159 87 115 172 151 116 124 58 65 167 197 169 117 168 186 164 84 144 83 88 183 130 139 180 98 189 140 65 54 132 96 166 103 164 128 182 189 128 135 222 113 116 153 129 102 173 187 210 133 139 122 179 123 119 59 81 177 116 153 104 127 93 150 163 168 144 105 201 117 121 137 104 172 174 166 194 160 111 160 80 181 93 147 82 152 157 159 160 158 86 112 162 66 113 255 68 96 152 93 173 88 191 115 104 108 77 152 87 193 135 131 187 162 135 171 179 180 106 111 105 82 168 136 157 127 160 168 108 102 107 85 178 127 88 95 171
142 144 143 134 130 129 127 128 118 120 128 133 139 143 157 165 154 151 148 137 139 131 112 121 149 161 167 175 177 199 209 214 212 199 185 186 185 183 194 210 207 203 186 175 157 141 143 156 166 133 140 118 143 175 130 187 204 189 192 180 199 170 111 109 147 202 139 194 186 143 86 178 115 101 123 155 78 154 134 117 89 100 68 88 106 163 179 124 90 74 74 70 77 89 76 81 65 82 86 105 113 107 112 70 68 86 43 86 50 93 88 115 79 82 96 114 64 75 78 72 94 58 73 167 94 95 83 161 176 182 131 116 156 182 215 201 129 74 90 134 133 95 140 102 197 98 79 98 89 151 154 103 167 182 120 103 184 172 136 101 134 98 123 87 129 121 125 217 214 115 115 162 102 116 140 150 162 119 93 166 81 102 102 77 148 124 78 54 56 155 109 153 76 67 53 101 54 114 146 197 201 110 92 150 86 72 68 79 120 132 153 160 169 115 122 146 189 170 140 120 168 77 147 161 78 138 158 173 137 182 178 109 121 88 113 60 116 171 146 97 99 103 185 110 149 93 167 144 110 49 90 61 159 177 146 96 182 174 199 176 133 168 178 135 111 160 151 90 113 80 152 174 102 114 107 128 146 91 134 95 111 92 166 122 177 151 87 255 110 133 199 118 82 131 181 98 182 114 196 160 92 96 101 181 153 125 172 115 161 72 179 90 142 104 72 155 156 59 116 60 56 58 119 101 119 102 166 107 160 111 153 199 127 153 175 99 168 179 158 109 124 139 124 76 88 255 137 69 161 129 180 166 169 102 211 170 124 115 197 92 96 138 151 163 80 66 119 78 158 161 90 178 151 101 156 131 156 74 111 117 108 157 108 166 132 89 195 212 156 109 186 77 69 71 115 115 71 148 155 170 186 179 78 156 140 125 124 111 119 184 98 186 110 161 209 173 199 176 192 160 111 149 127 189 186 217 113 200 128 130 108 140 92 112 200 183 182 88 164 154 141 162 167 150 196 95 194 195 178 95 96 130 84 152 154 164 171 86 86 119 128 172 141 188 87 71 94 69 122 95 74 89 96 167 105 117 191 120 130 181 110 121 140 118 139 148 162 182 161 56 157 75 179 193 114 138 82 93 183 95 159 78 63 51 67 72 77 101 165 85 158 133
119 126 130 130 132 145 140 135 118 123 129 139 139 156 150 156 157 161 159 156 134 129 129 140 152 159 175 173 179 202 212 215 197 190 182 188 190 191 189 204 212 208 186 156 142 164 170 178 176 148 136 146 138 145 125 181 182 186 196 141 185 140 176 109 180 169 125 123 157 170 167 119 123 99 72 73 79 85 139 165 159 141 137 160 108 115 114 110 151 74 64 82 78 102 103 106 110 73 90 75 89 94 70 79 72 72 54 80 58 62 113 94 91 86 68 91 100 94 99 157 134 57 63 179 91 86 71 135 110 77 94 201 128 204 132 205 197 164 59 141 51 86 175 93 102 193 152 73 140 85 48 119 144 86 134 107 116 182 85 167 113 113 131 167 173 187 195 206 141 175 175 152 115 165 159 181 118 148 162 116 155 119 150 108 89 158 117 149 157 130 78 73 171 100 151 60 54 70 165 108 191 197 101 110 136 130 178 101 141 114 114 151 130 139 175 88 158 108 174 197 111 167 162 163 169 147 123 114 70 78 72 157 134 101 77 137 64 170 174 91 131 99 155 165 149 183 64 110 38 101 144 106 125 105 89 126 196 195 133 187 78 154 109 187 195 184 151 99 169 164 69 176 130 180 162 137 152 85 255 107 78 177 76 130 144 132 93 163 96 173 130 188 181 179 87 190 170 155 152 123 88 166 111 94 119 124 103 133 178 147 91 113 109 86 72 156 116 145 128 91 54 121 120 154 122 171 102 100 190 171 121 191 96 84 167 102 182 104 101 157 90 167 78 59 76 46 148 69 140 135 131 163 106 194 210 170 195 107 169 181 177 181 116 132 162 129 102 127 118 69 78 87 131 146 146 95 113 115 78 163 160 86 172 164 175 180 189 125 192 108 82 157 160 96 88 152 149 90 160 160 196 123 179 124 155 52 77 157 109 172 131 162 188 120 226 190 219 119 199 175 208 190 207 134 104 100 97 94 179 139 152 141 80 183 203 190 185 94 71 172 128 211 176 208 150 96 100 197 188 128 183 124 187 82 77 108 104 79 168 171 96 116 201 176 152 100 66 103 121 79 179 180 157 109 116 128 101 120 128 213 123 197 161 172 123 185 107 110 52 44 65 88 190 202 185 133 70 68 162 73 79 108 64 86 157 167 136 152 146 77 116 134
101 111 121 128 138 149 147 137 121 119 128 138 161 161 168 159 161 158 173 159 159 137 137 153 163 173 179 189 189 196 208 195 181 172 177 186 187 190 182 195 199 194 184 158 139 150 175 182 169 186 159 136 153 157 158 180 192 188 200 156 183 151 174 189 198 182 194 151 164 149 106 172 131 114 91 75 98 110 129 100 138 94 120 109 172 159 103 116 85 79 109 143 90 91 85 134 102 74 97 102 84 72 70 47 58 75 130 75 100 92 74 69 114 79 82 83 157 172 140 139 91 82 73 93 170 91 99 52 76 123 152 111 107 174 184 97 183 104 74 128 49 160 122 164 112 116 108 141 141 86 139 163 166 122 183 168 176 133 81 112 127 90 155 91 79 171 183 152 141 105 167 157 170 169 175 100 105 153 127 153 149 68 133 149 83 83 101 165 68 142 108 170 125 140 70 87 128 97 133 70 110 88 101 157 184 86 154 157 88 92 90 98 151 166 109 128 100 177 112 199 159 118 130 169 167 143 143 101 75 122 128 134 85 125 56 68 65 175 170 110 94 111 205 186 105 185 159 68 127 42 97 65 140 175 192 212 134 195 181 86 110 147 82 86 170 147 191 97 147 67 113 173 128 180 98 172 99 144 131 92 133 174 123 87 166 173 145 79 87 86 88 80 148 255 130 185 193 165 184 86 83 132 179 204 134 192 208 116 90 88 187 89 114 83 143 167 87 161 129 44 124 162 90 105 171 121 106 142 192 117 123 140 190 87 165 167 102 174 121 112 119 85 158 114 92 108 62 91 94 137 183 178 175 97 204 176 217 177 182 86 165 178 184 108 81 166 94 90 153 60 65 65 136 110 126 176 191 131 166 120 95 152 136 114 104 165 129 180 190 131 78 128 73 255 138 157 158 141 182 193 116 107 130 115 164 163 95 87 160 160 185 100 204 115 137 174 127 132 169 133 194 214 190 132 135 168 163 168 112 150 148 95 141 182 143 203 103 85 161 101 191 119 125 218 114 148 149 91 83 89 89 171 187 140 95 177 139 149 181 124 97 176 115 188 183 71 105 77 67 101 157 118 125 149 174 156 205 156 215 127 144 121 130 125 178 200 131 93 67 51 139 157 91 182 170 164 164 115 157 66 132 60 109 71 122 173 76 70 62 41 68 113
98 107 118 129 144 145 150 132 121 116 143 162 169 182 181 167 166 168 178 177 163 157 150 163 161 179 184 197 201 198 205 196 177 162 167 178 190 193 193 189 183 181 173 166 152 167 163 167 202 184 188 173 157 155 161 178 188 174 155 125 126 126 149 138 178 201 159 176 141 151 99 104 194 142 158 143 146 103 103 100 97 116 105 104 101 110 103 105 150 84 101 94 81 83 76 73 80 91 97 98 72 103 96 71 67 115 145 117 89 63 67 130 126 80 83 93 105 122 136 120 142 92 125 115 160 95 91 74 156 110 95 103 96 180 68 102 97 117 172 72 63 55 109 159 164 174 130 156 125 149 149 168 125 132 154 178 178 176 95 129 158 123 168 162 109 107 152 87 102 108 102 146 174 116 159 156 175 151 152 174 157 85 79 121 168 173 80 120 108 87 122 85 176 159 97 69 68 170 136 152 164 92 183 131 96 168 125 141 121 154 185 142 135 66 115 89 69 80 84 91 99 176 128 139 170 123 90 69 132 177 73 67 54 108 70 105 150 163 83 88 100 159 193 214 109 174 78 145 105 95 142 128 167 178 138 228 221 133 133 79 148 119 168 138 127 111 106 161 158 80 90 92 84 83 114 149 186 102 131 73 153 165 170 86 175 85 96 175 88 162 83 114 104 102 89 91 170 105 180 107 190 199 117 116 111 114 113 117 118 105 105 130 166 84 85 149 106 127 69 49 53 136 142 186 112 123 99 119 90 198 117 119 105 93 76 136 71 77 177 187 88 185 172 164 91 180 111 103 143 198 182 141 148 185 131 177 158 109 152 71 174 184 135 193 146 155 135 148 155 57 68 142 88 85 95 173 165 128 129 123 173 143 99 112 110 148 157 103 81 74 87 115 171 110 70 165 112 158 96 108 161 104 149 146 77 105 163 129 139 173 150 93 108 203 211 196 195 97 103 126 126 174 198 104 186 154 118 120 65 94 140 146 167 150 144 196 128 130 175 96 182 120 163 199 149 179 188 155 171 131 160 75 111 105 165 154 139 128 80 172 174 187 187 193 196 140 116 169 159 109 169 120 168 138 111 179 162 161 170 167 132 104 170 180 134 119 118 93 125 106 122 65 158 129 156 93 154 86 75 118 49 110 67 73 135 114 143 75 130 55 123 37
108 116 125 138 145 142 143 131 130 131 164 170 182 183 171 163 154 166 179 176 182 155 155 159 160 180 188 193 193 202 210 192 174 161 169 187 206 210 202 189 176 170 162 159 142 146 174 201 173 196 176 159 154 144 151 177 138 190 165 154 80 121 170 189 154 184 134 154 168 137 122 170 179 146 88 145 107 90 97 117 158 91 94 168 144 91 75 80 90 141 99 89 95 75 71 95 70 73 86 71 103 76 84 96 85 91 98 99 99 86 85 70 100 104 161 98 95 182 113 151 195 105 94 172 108 190 95 78 81 90 99 198 140 111 119 167 103 134 166 146 152 134 138 77 130 160 154 71 135 141 131 126 182 180 172 150 156 151 170 164 147 142 175 150 166 130 166 104 174 88 173 175 137 163 150 133 169 128 186 109 177 76 117 84 150 174 183 88 119 96 199 176 119 170 97 98 150 79 156 75 83 69 136 181 195 116 186 183 86 85 181 86 83 153 110 61 91 160 148 122 165 160 148 100 96 116 92 132 68 121 90 101 143 131 105 144 130 132 162 82 90 98 108 119 125 127 67 118 54 125 50 158 152 118 193 130 156 192 145 79 157 140 170 84 166 154 164 163 85 143 151 133 109 146 162 187 115 147 80 150 116 65 58 72 152 77 169 122 103 101 58 108 80 167 143 192 145 188 163 104 107 117 163 120 174 136 101 112 81 64 149 143 170 175 177 175 145 120 154 70 102 100 141 115 101 93 183 186 88 98 208 172 113 95 147 183 100 117 85 165 92 154 188 145 94 104 147 189 111 212 181 198 171 123 190 117 164 187 84 77 155 185 161 193 105 175 123 78 44 153 162 90 164 80 140 119 109 181 137 181 82 154 149 139 158 100 162 131 160 131 66 116 93 83 88 95 152 196 212 115 205 108 185 172 140 138 139 138 132 181 92 92 105 167 194 152 94 94 155 121 164 125 205 179 87 88 148 104 85 131 138 158 65 137 63 88 184 94 190 170 147 113 147 132 146 179 166 59 98 99 79 63 172 185 100 155 82 169 81 111 103 191 133 106 132 117 146 134 137 129 80 100 202 215 211 123 122 144 207 155 150 141 181 174 164 151 92 105 81 75 56 61 64 171 84 131 100 114 139 70 116 109 123 77 82 179 167 58 68 64 59 152
123 130 137 143 147 144 137 132 139 158 180 187 183 181 153 138 137 145 174 171 185 156 160 157 166 174 178 180 202 205 206 190 171 169 182 196 218 214 208 185 160 154 130 147 144 182 199 213 215 158 165 128 160 173 181 166 174 119 135 119 102 87 144 154 182 181 139 142 111 118 152 153 167 146 170 113 90 84 84 85 88 142 128 95 91 119 108 108 131 113 100 111 102 71 87 130 71 71 66 63 83 87 85 101 99 93 96 108 83 80 70 83 166 139 125 98 152 96 161 142 119 180 118 155 109 204 109 94 143 167 92 182 107 77 121 91 192 95 149 139 60 105 69 59 58 107 153 169 64 71 81 173 130 187 124 172 75 136 104 136 174 127 161 154 178 156 166 79 142 100 106 140 178 171 113 138 141 115 160 115 176 121 111 177 163 124 127 193 132 146 156 142 107 158 182 190 187 111 163 63 161 128 99 136 129 193 100 82 94 176 143 148 160 162 103 87 155 119 167 107 178 139 169 178 116 161 90 86 143 104 166 95 120 125 53 145 57 168 177 185 109 154 146 109 132 135 120 55 130 155 76 89 161 182 184 222 125 159 105 126 65 92 117 167 165 136 98 145 145 58 142 137 91 156 116 106 92 101 180 65 106 130 46 111 90 94 105 152 88 160 64 69 77 181 192 159 186 103 86 95 108 173 113 107 107 89 115 107 97 73 114 71 105 82 102 113 104 188 170 107 144 102 119 49 115 171 183 148 99 151 104 143 123 143 192 167 119 163 109 162 90 92 174 133 188 154 163 118 97 195 181 206 103 167 108 185 131 181 85 176 177 134 99 197 107 70 108 54 47 76 125 175 159 177 106 167 110 204 155 171 94 163 168 184 197 98 176 96 81 137 154 77 132 198 114 195 173 142 127 206 187 149 81 92 81 186 187 132 102 94 108 98 156 167 151 138 187 155 175 215 134 223 129 101 188 127 179 93 101 144 180 169 76 151 53 75 70 185 144 199 104 155 215 128 93 140 77 86 158 93 64 70 94 176 139 71 157 163 119 156 184 171 202 190 159 205 92 163 128 73 108 168 168 125 117 204 114 176 209 215 117 126 154 123 103 83 89 113 122 163 86 255 145 59 58 64 136 40 89 57 154 168 162 76 177 167 121 62 71 162 81 185
140 145 146 148 141 132 127 130 143 178 199 193 190 175 149 121 134 136 167 184 189 167 157 141 159 170 177 188 201 200 193 178 174 179 198 209 228 225 210 188 163 141 127 137 155 187 214 231 211 191 174 163 180 183 175 186 169 183 104 106 76 72 142 135 209 152 187 158 113 123 196 169 169 133 134 134 137 115 150 89 154 101 114 95 87 120 85 165 130 255 98 73 62 119 66 115 76 74 74 54 99 81 69 71 90 101 76 109 92 84 120 131 143 147 129 115 120 97 115 101 150 144 138 166 117 112 158 124 99 84 174 90 87 147 97 112 173 93 138 62 63 146 144 62 126 124 178 158 84 79 131 183 210 203 124 177 163 101 142 60 107 169 194 161 122 127 144 174 89 140 193 181 169 148 85 185 90 88 196 203 177 116 115 189 185 197 167 211 123 185 112 130 134 110 199 89 133 91 120 84 80 103 141 192 160 117 114 147 117 92 80 123 121 146 90 168 167 71 113 136 118 190 159 166 95 160 79 134 68 153 98 165 61 102 163 164 70 109 185 98 89 103 130 113 175 99 71 116 76 100 146 153 81 156 135 177 172 131 158 111 137 104 66 77 148 91 92 62 120 49 92 151 72 121 182 124 140 196 145 149 46 117 70 156 76 138 186 114 121 145 86 74 116 102 101 83 99 167 151 189 96 144 134 101 97 127 59 97 47 45 55 157 109 177 113 174 106 150 173 165 145 93 123 89 66 146 118 133 146 93 196 133 210 112 153 177 155 157 220 205 194 94 90 113 180 159 97 167 124 104 124 120 193 84 95 85 103 170 171 77 155 136 194 105 89 147 105 87 55 142 150 117 151 82 184 168 147 182 153 85 162 155 145 140 147 198 115 122 64 147 121 159 188 211 217 207 187 213 180 143 182 184 190 186 94 184 88 97 160 190 175 95 167 160 171 167 144 125 159 210 119 206 121 82 170 186 209 201 255 165 188 90 94 153 147 112 167 170 189 106 172 101 200 206 187 61 49 66 122 81 179 115 145 119 76 146 94 78 180 189 210 121 172 151 206 176 136 156 134 78 54 113 172 161 178 108 141 95 131 152 211 96 77 149 137 62 159 255 165 113 83 168 83 108 46 64 93 120 119 123 110 151 101 163 78 172 104 161 85 106 112 123
141 144 147 145 141 129 123 128 142 179 208 199 195 173 145 133 134 141 175 182 187 166 159 140 154 169 186 195 204 195 182 170 173 187 202 216 218 212 189 174 157 119 127 131 154 170 197 230 188 194 200 177 195 183 201 157 141 123 167 146 138 152 147 143 194 150 169 202 128 201 167 134 181 117 146 119 90 94 126 118 104 152 102 93 118 93 149 127 136 109 90 132 93 104 86 89 93 80 63 57 82 65 55 54 103 59 90 72 97 81 147 133 148 114 131 134 123 84 86 113 130 106 105 85 156 161 97 96 91 155 65 170 121 107 186 114 115 196 146 177 167 76 164 172 150 107 183 181 182 86 178 210 204 199 182 129 142 159 104 129 166 152 179 185 153 133 109 146 185 138 205 126 189 180 105 112 119 131 112 164 119 218 160 180 170 184 191 189 222 208 191 192 147 197 98 130 69 60 68 150 115 75 112 90 185 134 148 111 106 174 100 145 148 163 142 173 133 102 159 181 180 127 164 63 65 153 142 113 71 156 73 87 175 180 74 159 176 143 129 191 188 182 185 184 108 140 80 145 69 170 172 134 180 153 108 195 111 196 142 111 176 67 145 56 144 92 172 151 100 47 157 92 100 138 90 116 143 165 130 145 158 135 56 88 163 112 178 86 132 153 176 124 122 97 98 97 159 125 136 174 94 148 105 101 133 95 70 66 61 47 54 63 139 196 155 162 172 118 141 113 115 82 100 67 132 141 113 168 164 145 117 115 216 147 191 141 158 130 132 230 117 101 89 128 162 80 170 156 96 188 187 147 95 183 100 135 166 181 178 177 113 172 175 154 75 140 102 100 54 112 159 142 135 135 176 105 100 125 101 177 131 159 169 98 175 195 168 105 113 142 153 100 125 117 114 201 165 102 203 200 110 175 102 177 102 170 191 165 87 128 75 132 143 124 118 117 170 91 129 140 141 196 122 160 102 94 119 119 101 97 133 112 131 146 178 83 118 117 158 168 178 172 149 186 195 88 159 78 187 139 89 71 164 138 56 99 90 92 193 180 190 134 179 104 126 94 170 138 142 89 44 120 188 150 114 140 81 91 143 143 132 163 77 61 60 90 108 154 192 173 93 85 158 128 104 129 40 148 84 171 181 108 156 193 176 73 66 56 163 95 200 234
130 137 141 145 144 137 124 129 145 171 198 203 200 173 149 131 148 154 182 197 193 168 156 142 157 180 182 202 201 193 178 166 170 184 205 214 212 194 178 255 143 137 125 133 146 174 188 218 222 202 201 192 194 184 156 152 189 183 160 125 124 124 161 152 145 149 172 161 130 141 145 200 183 99 127 100 113 132 120 176 122 169 99 144 151 146 111 122 121 111 92 86 132 83 74 116 65 102 72 61 86 48 44 63 53 58 58 78 127 77 148 113 179 150 112 127 168 117 110 101 82 96 102 107 175 193 94 96 70 160 66 102 90 96 137 199 158 120 193 142 190 188 115 93 129 161 183 133 172 185 166 162 205 196 114 175 125 104 143 123 154 139 164 107 111 125 134 161 180 188 107 157 189 155 174 173 166 179 176 199 112 130 185 95 174 173 177 169 195 192 84 149 108 112 90 147 138 56 52 153 123 149 184 89 87 153 76 150 146 81 73 147 65 100 158 166 68 159 115 108 195 135 159 125 122 57 109 68 166 167 80 97 101 136 105 136 169 176 84 131 157 183 144 174 156 133 132 74 138 172 199 130 190 187 134 174 85 183 154 195 92 143 129 66 147 130 120 87 66 69 122 80 96 137 168 94 124 187 112 155 128 96 169 119 155 88 72 121 94 111 141 149 107 171 126 155 108 92 109 132 204 113 142 125 104 114 164 71 162 131 167 119 91 204 214 129 135 102 149 170 147 129 180 111 80 81 104 81 94 86 198 116 222 124 218 213 195 192 152 196 125 103 94 75 75 156 187 122 207 154 105 172 143 118 128 102 141 186 134 172 100 188 101 105 136 139 140 39 55 53 165 74 182 189 161 103 184 163 148 175 180 87 181 138 115 196 142 93 72 69 139 109 116 166 187 176 93 122 102 186 154 101 112 121 132 108 93 178 161 101 117 95 130 146 153 156 137 105 174 142 86 113 178 161 175 147 100 137 195 180 184 136 201 104 125 184 170 175 169 164 90 178 162 199 203 150 113 172 131 207 198 81 101 64 82 161 166 130 105 135 184 174 123 135 177 102 80 161 154 93 95 113 166 143 215 122 113 86 174 92 113 84 80 172 78 108 147 92 105 157 141 173 78 73 99 62 94 53 113 188 107 111 97 130 101 102 51 45 160 187 132 147
112 121 131 140 150 147 142 133 144 148 178 192 192 187 166 159 152 176 174 183 184 166 157 153 169 178 198 198 191 182 174 164 161 175 190 195 192 181 172 161 150 120 134 115 140 175 188 197 192 176 201 182 186 185 183 148 136 173 147 149 106 160 181 194 208 178 167 124 159 129 130 127 147 89 81 135 124 89 88 140 135 93 116 122 101 127 118 127 181 138 109 80 89 80 87 72 59 61 95 97 84 61 60 87 64 58 87 53 86 84 85 88 165 139 176 193 116 105 89 128 94 119 156 95 92 160 101 99 72 166 76 127 96 168 191 91 94 96 97 142 102 200 131 203 197 164 125 150 166 170 126 195 193 173 93 170 138 128 68 134 95 136 192 184 189 129 101 123 79 173 156 172 96 174 93 133 88 146 106 186 154 126 155 63 92 97 105 191 91 79 128 99 171 127 135 120 68 158 154 82 79 164 85 144 150 76 130 186 170 144 151 144 78 154 137 103 99 136 161 123 103 185 101 144 63 157 77 105 174 93 121 94 184 189 138 58 148 96 125 144 186 140 119 151 185 182 79 151 81 172 124 203 163 154 78 168 179 107 189 144 137 162 95 104 161 127 157 102 101 91 176 98 136 169 94 159 166 196 195 191 182 158 168 119 112 109 98 76 113 185 192 138 84 78 140 143 135 110 151 205 191 124 170 97 159 69 75 83 109 138 180 89 132 127 135 105 125 145 185 230 137 114 168 175 70 64 71 91 93 108 155 119 199 215 187 91 166 183 149 191 180 115 158 60 91 181 174 122 142 115 204 199 145 148 181 118 138 192 158 137 142 203 105 188 123 174 147 121 55 78 167 153 165 154 143 118 177 164 85 78 119 179 203 202 116 99 133 69 169 146 182 185 113 100 90 85 172 88 163 187 92 89 197 131 186 127 130 150 126 114 162 165 92 85 140 155 164 156 107 138 152 152 162 72 96 183 145 163 164 104 146 91 163 174 116 175 112 165 135 151 154 171 113 102 169 139 165 190 218 124 132 159 72 73 126 154 156 166 114 128 184 115 91 121 162 154 170 177 172 136 169 78 136 201 191 108 120 142 81 139 136 78 146 108 130 88 109 194 126 160 102 96 184 167 78 255 77 106 133 187 188 190 108 134 70 97 146 121 87 78 181 135
110 118 128 140 152 157 149 143 145 145 167 183 184 177 167 157 159 173 175 179 174 151 141 143 161 183 190 200 184 181 174 169 170 171 171 175 174 167 162 160 147 131 140 129 146 161 181 169 176 196 182 137 141 172 126 129 148 171 103 91 144 112 175 172 125 165 160 184 112 185 117 128 150 90 158 156 88 167 87 120 87 147 161 159 170 108 127 118 159 95 145 103 81 106 127 71 70 100 82 81 101 70 65 92 69 75 56 88 64 95 73 102 84 175 101 175 98 176 98 66 104 135 132 152 90 166 155 135 183 153 84 183 185 103 158 177 160 84 90 101 199 100 104 97 194 177 187 162 65 162 94 183 147 128 89 87 177 79 79 90 173 124 119 182 181 129 151 160 77 106 123 154 185 168 156 126 166 162 113 127 165 129 106 62 164 163 181 82 82 75 121 180 170 75 142 167 74 91 117 79 84 151 186 118 84 143 138 105 178 178 77 153 108 93 159 95 153 73 110 106 89 172 177 70 124 120 172 180 113 112 194 196 98 107 105 50 46 97 157 168 192 154 83 145 118 183 192 161 85 119 159 180 182 76 160 175 127 99 107 108 131 175 74 150 155 107 111 63 92 164 170 161 100 92 103 170 89 125 166 108 161 151 172 168 155 83 126 82 115 128 100 202 104 120 92 97 127 143 110 110 130 195 109 103 148 102 165 142 179 89 84 172 114 128 129 91 89 151 115 214 152 212 86 102 65 80 110 81 187 144 112 144 129 100 94 106 146 123 176 88 89 92 133 116 97 102 127 202 231 148 213 145 162 180 99 157 189 154 109 182 97 102 202 167 123 149 110 74 97 168 148 166 77 117 111 146 171 69 73 143 110 207 203 130 129 170 85 148 120 158 117 198 144 138 182 180 123 107 142 169 89 146 158 95 174 106 180 163 135 106 148 77 84 136 99 83 162 79 87 63 62 66 149 68 82 112 181 98 186 92 143 86 92 191 167 192 185 83 79 93 108 178 182 96 140 142 131 168 210 129 108 153 148 76 142 97 154 130 207 145 115 169 154 116 142 109 155 160 159 186 177 97 92 128 203 116 104 191 89 115 85 98 79 83 96 161 111 108 121 97 76 94 107 88 131 131 74 147 107 99 182 115 82 95 155 65 135 55 160 63 163 91
118 121 125 131 139 153 153 160 148 149 164 179 180 178 169 154 166 170 174 172 171 156 152 171 182 189 191 193 180 176 168 177 177 172 165 154 161 165 169 153 154 149 146 142 170 182 180 186 171 149 151 164 168 170 121 125 183 123 149 111 102 140 114 183 130 166 191 178 106 84 131 159 101 125 75 155 147 88 83 75 67 133 144 94 134 107 113 115 99 93 83 89 113 88 78 78 89 88 121 108 96 134 88 83 60 64 60 71 97 81 71 89 89 109 118 105 106 90 96 55 58 54 96 168 87 100 116 198 146 90 80 74 64 134 150 67 167 166 173 180 159 189 178 193 192 141 81 121 61 110 91 151 140 174 175 176 183 81 168 141 144 201 204 181 168 131 153 76 170 153 154 183 180 183 86 101 127 196 170 179 170 125 56 101 98 170 152 120 74 182 175 127 119 178 111 149 171 162 64 68 83 179 189 96 153 108 155 99 190 91 150 71 139 66 75 164 119 168 155 97 104 160 173 164 145 145 187 190 215 219 178 99 169 158 61 149 65 51 135 97 189 118 172 76 89 174 201 188 91 176 145 162 81 135 154 172 114 183 148 174 146 188 129 138 157 170 79 149 156 106 82 184 136 149 132 72 148 100 105 171 174 125 123 135 89 90 155 108 133 102 102 107 130 152 194 110 219 135 109 99 91 185 117 132 159 152 160 165 98 79 129 187 102 108 99 182 121 98 131 124 173 106 74 117 40 53 66 100 191 167 176 134 96 81 78 109 86 112 137 137 61 124 48 144 60 90 104 198 130 210 128 104 124 70 151 186 186 140 183 174 160 201 114 133 94 182 173 168 93 129 138 159 130 144 94 143 130 125 185 193 162 160 213 126 208 97 186 104 108 180 120 156 207 109 128 117 79 181 176 180 78 86 148 183 135 192 165 119 148 152 167 160 142 71 72 142 96 80 130 114 54 83 137 159 78 111 96 163 175 88 153 130 118 167 187 157 174 85 188 115 89 121 137 110 203 184 179 107 158 103 124 107 96 92 152 81 170 102 124 104 182 87 156 96 170 153 112 183 135 161 95 68 136 94 144 136 175 173 146 127 90 147 116 144 162 189 103 196 149 84 98 165 106 69 150 66 126 154 69 79 84 83 76 159 58 55 61 163 98 64 137 130
131 129 125 130 130 134 142 158 161 170 171 181 174 166 158 147 164 178 171 177 163 162 174 186 190 189 193 187 185 171 177 181 185 178 165 157 160 164 173 170 168 160 160 163 164 167 187 180 178 179 176 142 134 164 153 150 188 178 166 157 81 122 90 133 165 132 163 115 96 120 80 134 110 125 143 97 120 159 95 72 57 114 88 93 112 131 255 104 104 116 92 81 98 82 89 89 145 123 110 113 105 130 96 87 89 63 62 65 99 93 76 102 102 107 110 91 90 124 164 76 57 143 108 170 100 129 117 115 176 110 132 94 46 148 158 68 95 157 157 176 192 111 185 163 132 81 160 169 162 92 184 202 124 195 143 167 153 145 116 186 152 201 162 170 151 183 189 185 114 157 180 110 168 121 96 178 141 196 196 181 167 78 81 107 99 175 76 158 117 193 146 126 169 84 84 154 134 117 81 145 149 94 103 97 96 101 104 137 167 114 101 130 161 117 155 113 81 146 139 138 77 172 160 120 178 185 99 107 156 206 129 158 108 121 65 129 53 104 89 78 92 172 132 91 91 183 118 122 192 149 87 146 70 145 81 152 103 133 202 179 169 129 174 181 107 169 162 124 147 154 174 86 78 153 62 92 104 174 186 185 102 99 138 56 131 165 110 110 181 101 155 135 124 199 135 185 129 121 211 108 152 96 197 100 139 70 53 121 135 66 168 170 136 143 102 88 73 72 171 102 178 134 88 46 145 152 163 87 98 113 168 188 150 134 152 95 61 85 120 66 153 151 159 68 160 96 139 164 148 164 154 84 162 112 161 174 168 86 75 175 159 190 131 198 179 124 122 153 102 135 188 190 89 90 102 104 86 136 142 140 210 138 151 132 195 161 94 164 98 152 201 130 211 204 176 171 144 186 93 138 186 191 89 119 146 176 181 154 75 65 67 151 145 142 57 99 113 155 83 176 120 125 153 84 77 162 97 166 181 178 155 71 165 82 182 170 175 166 163 189 194 141 156 166 196 103 126 93 172 107 183 178 67 161 65 78 101 161 102 186 98 143 171 156 214 206 104 188 192 159 135 70 81 90 138 215 224 203 99 88 143 161 154 157 85 175 144 81 146 84 159 157 105 63 150 118 54 142 68 110 104 97 84 70 158 141 83 102 149 77 74 36
124 123 122 122 123 131 143 162 171 180 185 179 167 162 151 157 164 175 180 173 187 176 188 190 198 190 187 187 184 186 190 191 188 182 173 168 169 177 184 185 180 164 168 166 177 185 176 179 137 180 188 177 187 189 141 177 187 160 177 120 130 95 136 119 175 140 149 134 84 123 54 95 100 138 99 77 255 126 153 94 69 71 141 83 138 167 125 161 126 76 70 136 80 124 83 93 100 107 106 122 131 93 72 64 48 57 113 85 146 107 96 103 121 84 139 85 80 81 85 99 88 79 88 83 88 137 101 99 146 69 61 111 54 106 109 170 74 137 151 174 191 207 162 151 156 112 163 118 162 163 192 215 215 206 183 180 162 119 163 158 146 102 189 134 144 159 156 108 162 130 90 110 159 90 188 143 154 140 167 103 165 97 95 151 142 186 162 82 143 89 187 107 117 87 147 170 73 81 70 136 82 162 160 198 169 207 213 213 210 159 116 88 110 169 189 120 144 166 91 145 74 138 159 147 115 79 156 141 187 165 184 102 134 174 167 80 166 75 115 86 120 95 160 255 123 167 158 198 184 158 148 74 45 67 155 120 98 196 108 95 110 91 88 169 180 108 90 126 116 171 181 143 169 86 115 117 98 183 131 138 145 103 92 48 55 81 164 108 134 203 120 134 134 88 178 172 100 213 145 151 97 138 111 133 106 181 122 47 66 160 66 77 79 106 181 71 80 138 105 80 80 156 147 130 63 93 135 93 91 167 183 78 96 71 127 52 95 162 65 91 81 126 112 74 116 158 87 84 126 134 186 141 157 151 142 73 101 163 134 169 147 148 160 122 110 88 104 141 143 118 165 198 189 181 107 180 90 147 155 192 197 188 192 202 155 104 113 171 150 171 137 170 180 200 154 120 110 146 165 106 185 190 198 156 185 120 83 167 107 59 83 131 44 140 171 179 84 175 149 89 169 68 87 128 173 166 92 168 182 94 158 163 88 127 186 118 146 162 73 183 160 158 107 190 94 126 135 186 170 97 82 152 147 156 135 90 129 91 154 185 184 162 99 170 192 165 198 143 156 201 103 149 58 72 91 148 116 202 140 83 172 127 176 82 174 166 74 138 141 126 136 155 122 66 156 52 67 82 72 91 118 179 105 81 107 105 190 205 173 183 104 62
106 109 112 118 122 134 144 167 183 193 188 188 176 158 160 151 154 170 161 179 178 187 188 185 186 172 179 179 175 188 191 191 187 182 182 185 189 193 181 192 175 166 158 181 162 187 157 146 174 148 191 178 160 189 173 152 131 131 114 93 146 120 129 102 119 184 180 142 132 120 55 58 122 112 124 95 94 86 84 126 95 85 118 132 108 95 131 91 93 69 78 87 145 88 101 88 106 139 102 99 84 80 59 70 68 85 80 85 144 94 87 127 111 138 137 100 107 84 149 164 92 105 174 85 100 99 107 132 150 62 102 62 108 161 95 158 136 132 120 85 108 117 144 95 165 81 184 90 113 123 121 115 219 187 126 162 147 111 116 126 161 111 82 143 179 90 176 175 136 176 121 135 167 108 195 109 197 139 103 110 121 165 190 201 184 180 156 152 73 149 146 91 115 81 83 83 189 103 169 56 128 177 102 139 196 134 161 170 211 184 180 67 92 71 173 115 160 165 174 80 143 160 97 56 89 168 142 162 178 100 144 147 179 184 103 91 183 118 112 139 122 151 100 177 175 181 200 94 92 148 47 90 52 60 62 135 97 155 174 174 128 131 101 146 170 108 118 90 173 200 192 131 164 88 180 163 72 75 112 97 83 91 152 98 128 47 165 95 144 120 206 116 107 83 60 84 185 115 126 120 122 199 130 219 189 155 73 152 136 78 122 130 71 103 80 160 82 94 82 124 135 82 66 65 169 161 157 83 88 76 102 88 77 90 97 121 147 63 55 120 65 80 184 190 105 64 157 80 201 208 130 107 142 74 148 78 80 162 67 77 94 95 188 157 103 146 92 131 127 123 134 195 181 209 111 123 86 97 83 92 181 187 159 130 125 122 94 119 83 154 201 110 213 190 86 114 116 87 132 152 197 162 201 205 113 94 93 103 159 91 100 39 41 60 85 180 175 140 206 178 106 163 92 76 79 167 108 190 128 183 98 126 116 143 148 106 63 108 62 97 184 167 200 155 138 124 146 177 165 78 144 74 69 109 132 148 79 74 175 181 142 139 196 108 182 186 209 124 156 210 211 128 154 61 87 85 136 167 171 91 70 153 145 115 108 154 157 112 58 63 83 143 107 88 70 107 128 88 161 148 164 108 108 103 133 185 113 206 107 196 88 161
89 92 99 111 131 145 159 170 177 183 195 197 188 174 175 179 170 160 169 160 163 179 188 171 171 164 167 159 172 176 180 181 174 172 185 189 200 199 193 182 195 199 186 176 191 182 142 142 165 185 203 212 170 193 183 184 179 146 170 124 130 126 145 150 143 105 177 98 140 113 95 112 43 57 125 98 100 87 79 118 74 108 79 87 155 101 103 96 122 80 127 75 84 111 89 109 99 117 129 71 112 98 63 69 90 91 77 95 116 111 93 83 81 73 115 105 86 155 78 92 144 126 137 95 178 83 185 180 74 146 54 144 117 183 183 164 127 150 100 193 214 127 120 174 94 90 181 170 197 180 108 191 119 216 219 174 91 163 127 59 149 72 123 95 117 133 89 162 160 144 142 103 122 105 176 197 159 83 70 88 171 179 169 163 154 196 196 133 162 133 83 166 146 163 139 148 205 132 86 122 88 167 101 201 215 111 146 155 103 119 120 86 144 142 178 182 89 176 158 142 68 113 149 65 95 154 166 151 71 171 165 173 183 109 86 87 99 161 168 186 137 147 103 143 185 196 140 192 161 92 91 130 157 156 72 117 150 159 157 61 112 81 114 95 171 137 117 134 99 162 155 158 122 116 184 124 138 115 162 81 92 163 112 69 95 126 148 86 113 144 212 142 158 76 66 145 94 119 111 200 111 195 205 120 145 124 196 168 92 106 122 255 101 109 142 128 80 151 148 133 84 163 121 99 180 200 101 109 85 74 125 109 163 160 147 155 144 142 44 152 165 163 151 99 144 166 111 163 118 163 175 144 93 130 182 135 125 151 133 94 156 97 88 78 128 139 73 72 74 165 185 181 204 109 187 135 139 122 178 182 101 187 187 91 182 184 153 174 100 92 181 143 142 103 95 95 184 179 162 163 116 122 204 200 125 110 101 176 168 102 45 124 67 103 79 173 205 188 132 150 121 190 112 115 135 86 139 174 178 167 214 186 177 212 101 98 62 139 142 75 128 109 100 127 92 185 178 122 95 179 139 156 162 174 98 187 167 169 90 161 88 153 175 150 211 212 200 220 168 170 193 90 157 104 143 122 128 119 82 80 83 83 134 137 56 95 112 137 168 91 71 163 161 76 114 168 89 82 99 114 130 212 118 95 103 95 202 161 202 113 112 156
90 90 97 112 136 157 168 168 177 187 192 194 187 189 183 178 169 162 153 141 148 171 177 171 157 164 162 161 159 168 170 170 166 173 182 197 204 202 188 176 190 199 198 189 190 183 141 130 153 184 207 210 204 192 164 178 130 174 126 155 152 116 169 93 154 97 171 107 92 117 131 124 68 110 66 150 119 143 120 131 157 131 77 100 122 97 173 170 137 78 121 82 87 102 140 78 98 85 70 108 59 102 102 70 78 71 104 122 162 132 100 121 97 115 88 130 130 112 83 75 77 65 62 129 63 67 105 76 109 159 103 181 93 131 183 158 108 153 156 193 206 182 163 125 134 194 93 96 185 193 96 112 121 144 214 111 115 124 91 59 80 144 167 136 161 169 150 153 109 137 158 151 146 193 125 171 169 134 76 143 136 109 202 189 109 197 101 106 53 114 54 60 171 186 141 205 213 192 187 133 84 190 200 182 139 145 128 127 151 92 108 130 153 163 141 120 106 123 52 144 55 139 143 72 84 171 171 114 105 91 152 161 171 176 177 131 79 174 172 172 117 196 191 200 174 206 206 202 180 169 82 147 150 169 89 123 66 136 140 138 77 127 170 138 95 118 166 109 105 115 160 179 188 166 181 93 108 171 105 119 166 86 107 66 58 118 152 131 198 116 160 144 104 183 67 140 129 116 88 180 149 158 130 119 116 124 115 150 161 83 53 47 56 116 73 117 168 149 110 172 147 131 140 157 211 110 157 100 111 149 146 178 165 77 115 54 115 57 126 51 56 80 87 184 162 170 72 94 184 179 188 181 109 106 190 105 162 146 83 70 156 181 130 155 144 102 115 75 69 116 117 129 182 180 171 87 127 134 170 116 104 84 174 115 129 131 154 77 111 106 189 143 188 111 186 116 156 108 145 180 109 188 191 116 187 184 182 92 79 155 126 116 84 121 171 148 159 181 103 188 106 169 135 74 138 65 163 82 101 202 130 210 237 166 119 88 124 58 60 153 117 113 97 165 145 186 189 109 174 191 179 107 132 111 197 185 110 195 208 159 152 144 148 99 106 197 118 210 121 141 105 83 164 89 69 69 163 150 137 73 93 172 85 152 55 157 139 101 158 138 132 123 107 149 153 186 192 168 153 137 125 114 203 178 142 190 148 95 86 76 157 60
107 102 103 118 139 160 165 170 174 186 191 201 190 182 177 186 175 175 152 137 149 154 164 169 156 163 162 159 166 167 165 158 166 166 177 186 193 192 184 180 186 191 193 182 172 163 177 131 141 186 192 203 193 183 143 133 115 143 141 168 190 112 119 132 134 159 154 110 128 168 92 69 86 95 97 77 82 77 145 156 100 125 76 82 94 154 91 100 153 140 86 74 73 119 75 80 86 104 86 67 55 58 90 79 92 105 148 140 106 128 116 141 123 136 96 102 122 88 137 72 140 57 120 72 57 77 161 85 82 120 107 163 173 109 189 156 61 157 84 116 105 124 187 199 112 98 103 184 106 127 132 102 102 216 215 144 78 152 138 118 139 181 111 96 162 156 103 108 82 142 91 82 90 146 113 167 125 73 148 79 153 85 122 183 186 177 122 109 138 146 68 96 90 97 179 175 115 123 142 87 80 92 197 106 216 150 197 96 128 80 177 143 119 175 126 181 149 66 107 128 89 71 125 97 94 98 74 169 64 65 77 72 70 143 93 138 74 65 128 154 174 193 164 192 107 108 207 148 117 89 186 187 185 172 118 149 157 140 126 113 139 84 126 171 111 172 143 116 141 187 145 110 147 115 125 191 100 194 126 146 148 96 173 177 152 145 66 77 188 155 121 181 204 94 147 126 66 91 156 174 94 186 109 88 98 193 216 132 202 77 55 139 148 120 117 172 112 109 184 122 132 111 182 200 192 189 106 143 96 169 98 106 122 154 104 148 112 59 130 120 102 142 142 155 68 157 167 162 102 135 124 188 165 196 162 193 86 146 116 72 164 164 134 117 148 141 147 112 86 76 117 95 71 140 170 115 166 94 145 93 149 139 136 119 172 108 112 138 159 94 167 116 185 168 164 204 207 180 125 125 111 167 85 74 79 141 189 172 188 82 63 35 128 142 88 169 143 126 184 177 175 179 167 106 65 84 111 87 200 188 203 255 251 139 218 101 143 187 110 166 181 72 87 118 162 94 112 132 149 176 178 102 186 156 211 117 212 212 202 206 202 181 99 94 191 93 193 109 204 194 151 90 79 118 182 180 173 76 93 81 117 80 160 101 96 105 120 142 162 94 141 157 158 67 92 206 195 178 105 144 192 110 188 167 91 88 145 79 167 61 92 58
123 118 119 129 145 159 162 167 174 183 193 180 182 180 181 190 176 157 142 132 127 133 154 166 165 166 174 180 173 172 159 158 162 165 173 173 179 171 179 175 156 173 169 166 173 192 188 171 165 172 157 196 177 168 126 169 132 123 130 186 128 108 154 159 93 151 114 127 93 161 138 66 85 123 62 110 68 113 92 83 79 95 82 132 87 78 75 75 75 72 61 55 64 122 77 93 119 128 92 73 66 104 77 108 98 92 137 105 92 117 91 71 131 76 113 133 133 90 121 143 72 52 102 47 135 151 68 173 172 187 122 203 204 100 114 135 70 77 103 163 124 94 119 188 122 184 167 180 100 169 78 96 199 110 195 197 84 64 67 153 180 120 112 133 188 188 109 121 164 72 132 173 175 91 162 73 58 74 145 99 148 95 140 156 86 112 127 148 167 166 143 128 144 109 110 101 191 188 130 124 184 88 187 109 181 202 198 157 188 140 182 148 170 160 190 176 165 101 52 74 101 42 133 84 89 169 136 163 150 159 66 159 72 166 80 171 161 167 61 81 79 107 100 149 173 199 107 197 185 95 190 98 185 96 117 168 147 164 145 173 120 155 177 172 180 165 137 159 132 115 178 87 64 169 106 139 201 125 159 204 110 195 206 185 188 112 153 165 152 91 109 129 93 116 79 101 60 137 153 90 112 72 162 88 92 176 197 154 119 146 43 120 169 111 162 120 84 111 116 145 129 149 182 195 177 198 179 187 93 89 93 125 64 74 107 155 147 86 36 106 135 58 118 152 148 65 65 158 80 182 89 86 144 167 178 86 166 159 129 96 67 163 147 66 148 68 149 170 133 65 118 44 48 103 153 125 167 139 140 150 113 97 81 158 119 94 90 169 65 148 125 115 92 95 153 95 100 101 173 95 163 73 116 169 133 175 192 157 198 103 159 120 112 121 109 102 178 101 82 163 81 174 173 136 141 59 172 173 195 166 239 224 186 137 221 109 194 199 106 121 165 139 151 129 121 183 168 210 115 153 203 131 138 185 142 111 161 116 153 92 88 91 181 181 179 90 122 110 110 164 167 149 104 140 201 108 144 162 103 81 71 132 98 127 148 130 67 120 179 116 119 101 131 133 200 174 213 181 176 192 188 206 128 194 186 83 81 62 133 57 77 130
133 131 133 142 151 157 159 155 156 165 170 173 180 169 169 177 175 155 153 140 138 134 152 158 173 170 176 192 198 180 171 157 156 163 168 167 166 169 174 166 156 155 165 172 182 190 188 175 167 168 145 168 126 156 128 160 165 138 112 177 178 154 111 165 128 175 168 96 158 156 153 148 95 75 104 91 109 82 62 124 79 93 88 88 146 69 62 85 58 59 49 59 87 49 74 92 111 121 124 104 99 86 115 127 100 124 95 91 69 53 54 56 59 107 94 94 86 91 160 124 65 156 107 59 92 59 104 70 111 102 160 122 190 127 112 184 170 79 90 189 163 97 176 79 163 123 131 191 187 91 116 178 190 211 119 174 158 170 81 186 178 189 195 162 100 111 156 180 170 134 95 135 95 88 145 56 69 137 127 73 147 121 99 144 137 168 84 164 154 133 91 169 171 187 196 189 103 86 182 179 141 96 88 171 198 121 108 164 158 127 155 174 131 192 149 145 159 171 144 130 64 99 158 100 125 168 122 114 170 160 146 65 133 90 87 187 123 143 93 159 101 104 160 156 160 190 176 172 186 186 174 164 187 192 137 92 185 171 168 140 108 163 125 94 162 168 84 168 144 109 157 111 146 154 152 135 137 92 157 109 172 127 212 203 186 86 94 145 131 139 135 142 86 112 66 131 98 173 86 115 81 155 62 108 46 60 130 124 189 66 89 82 91 109 133 106 127 111 125 157 158 181 131 84 109 98 181 121 80 170 75 161 137 120 62 88 70 52 131 145 123 101 48 155 65 67 102 68 155 163 156 146 139 99 82 80 108 84 168 146 111 78 99 73 165 123 82 92 86 124 41 70 89 158 106 152 81 165 89 134 183 101 161 156 90 143 163 125 59 128 90 99 124 140 155 85 116 92 192 164 81 76 152 175 140 98 129 186 204 193 124 71 163 94 137 83 133 177 74 76 158 71 162 126 143 141 141 96 179 186 222 179 219 140 149 148 197 168 200 129 175 153 141 120 66 178 187 99 131 148 173 141 80 133 181 134 87 174 91 169 158 140 165 93 144 113 89 146 80 68 175 130 148 167 120 196 102 162 79 166 133 159 57 152 130 107 136 144 162 68 66 61 66 114 185 145 165 182 155 125 165 153 146 180 80 120 49 41 34 101 72 92
131 134 142 151 158 158 160 147 150 148 151 162 171 171 165 167 168 163 143 135 130 142 145 160 162 173 191 197 210 197 173 156 157 162 162 159 157 158 169 167 150 160 166 175 177 181 142 167 161 124 121 127 150 148 150 106 142 156 126 172 132 165 151 167 152 106 153 152 84 114 139 123 92 133 105 108 107 76 92 68 105 117 91 129 75 126 108 67 86 125 52 102 41 45 118 139 97 115 116 123 94 92 101 101 113 121 105 120 73 81 41 79 85 92 78 89 152 160 89 86 106 92 107 60 58 82 84 115 130 74 105 85 92 84 128 112 159 85 125 107 192 153 95 78 124 84 122 164 113 114 97 161 113 196 170 165 95 135 175 255 145 186 203 206 135 181 81 118 255 128 173 77 112 164 158 150 96 98 71 104 63 96 143 171 78 132 152 133 97 177 175 190 170 192 121 100 114 150 134 102 127 183 90 125 181 86 132 90 154 122 195 160 160 171 181 113 100 95 88 89 111 158 127 85 171 146 148 66 141 79 86 82 95 104 136 170 98 165 161 64 155 128 113 180 179 159 199 129 207 200 104 159 157 173 163 255 114 177 170 141 180 130 100 173 115 139 100 122 161 116 179 160 80 59 105 83 79 97 127 186 186 127 198 131 112 95 94 132 118 144 73 148 79 144 78 139 59 133 100 124 99 94 67 55 70 51 57 102 106 106 119 95 130 138 187 90 115 91 162 150 96 165 112 120 75 91 120 163 111 140 169 136 113 146 98 94 129 160 148 99 141 82 74 119 160 136 93 147 154 156 63 109 166 116 77 103 58 135 59 70 158 175 98 169 172 117 147 115 99 109 116 90 154 144 180 181 173 95 126 114 101 139 162 79 183 82 170 143 129 95 34 75 128 43 138 119 178 193 130 111 112 85 79 96 118 211 134 199 137 99 190 77 156 183 104 159 190 105 142 100 159 103 141 143 79 141 60 105 111 123 181 112 109 125 109 103 100 142 170 171 69 119 65 32 150 163 102 87 144 115 194 127 135 72 163 113 168 103 75 83 153 94 69 168 177 98 92 82 96 137 141 100 134 214 116 206 153 98 130 62 138 109 122 85 115 53 80 55 144 52 147 128 153 97 143 205 125 116 117 138 113 171 117 89 139 136 39 38 25 54 81 78
133 141 150 160 159 158 152 148 134 135 141 160 163 169 161 152 159 153 163 164 148 145 147 163 164 175 191 207 201 192 174 161 164 169 168 157 151 153 150 154 148 168 171 160 162 161 156 157 125 161 159 112 132 150 105 168 150 99 100 162 110 152 170 153 175 138 180 165 91 88 91 95 106 152 78 154 94 148 139 77 88 115 85 75 72 127 77 84 85 130 60 52 84 101 79 114 111 115 115 107 107 124 126 124 91 104 96 127 88 94 101 99 106 92 94 113 134 154 179 105 157 102 153 172 97 153 90 67 156 118 163 146 66 81 163 78 111 82 84 107 87 95 109 75 79 84 184 171 179 115 134 159 168 179 172 104 188 178 119 137 194 165 209 134 109 172 95 73 92 167 112 153 83 146 79 93 97 168 159 76 65 107 161 115 181 182 175 168 156 78 108 86 158 175 108 119 123 135 89 185 136 184 121 91 157 95 171 112 185 89 135 124 169 171 143 163 193 189 178 141 74 157 127 151 68 96 114 81 107 99 140 160 106 210 136 177 155 120 94 179 182 181 171 120 117 159 148 146 144 194 146 146 159 119 139 110 161 63 58 153 128 127 194 93 118 170 116 86 100 193 169 110 79 69 136 81 150 163 145 160 103 223 167 149 206 143 103 88 159 131 109 139 115 54 153 120 111 67 123 114 94 143 144 78 162 55 61 83 81 128 166 100 166 105 153 108 170 86 91 178 163 169 160 177 174 158 145 157 91 136 158 111 95 131 155 108 150 90 167 88 166 162 184 177 87 147 118 160 119 75 71 79 161 114 126 61 68 63 146 143 81 126 96 79 178 141 171 75 120 107 64 143 157 93 125 191 115 177 144 191 166 94 169 154 93 167 151 124 67 159 85 143 136 158 112 133 118 145 107 159 206 166 108 119 192 149 212 111 145 182 197 182 181 132 157 116 195 191 168 155 163 173 94 101 136 51 57 152 85 91 132 179 103 192 191 141 171 70 58 132 103 99 40 102 144 69 114 130 192 156 178 184 106 119 149 154 157 65 99 76 146 139 66 163 191 171 162 151 188 90 123 186 157 113 149 150 193 86 66 88 144 71 73 116 130 85 55 149 106 39 41 154 169 119 204 152 195 107 72 100 103 148 115 129 152 118 37 22 88 70 90 51
136 145 154 161 162 158 151 145 131 125 146 156 174 169 153 151 146 145 152 169 169 163 160 155 151 166 187 199 199 186 172 168 174 175 170 162 151 145 148 155 157 168 162 170 171 166 151 156 163 165 125 142 102 99 155 118 134 133 170 172 168 141 159 100 93 93 157 113 104 116 123 83 144 95 83 146 94 84 87 70 81 67 111 59 64 82 163 114 144 148 135 64 74 90 121 108 102 94 105 97 255 106 97 105 94 255 153 97 106 77 91 116 134 137 109 117 131 112 138 203 118 114 116 91 115 164 90 75 65 65 158 69 101 133 169 86 81 171 174 79 96 174 91 134 133 93 175 76 149 128 143 141 151 175 168 188 94 86 169 173 196 210 130 172 132 181 109 137 177 142 115 77 142 164 77 95 111 154 154 177 73 155 99 132 149 132 92 178 135 161 163 63 176 144 209 194 191 184 155 197 153 155 114 164 117 143 146 180 97 93 97 129 202 153 158 158 168 95 94 151 152 52 91 138 139 68 154 72 118 70 122 184 123 144 112 132 103 117 176 110 152 198 123 139 187 75 155 77 123 153 173 144 101 173 170 163 113 130 104 143 91 170 152 144 107 117 126 119 101 141 165 132 134 51 155 160 63 125 114 166 138 214 171 208 193 201 118 205 186 114 71 64 66 73 129 97 105 163 95 188 103 140 166 110 97 140 145 63 74 128 100 182 113 185 82 83 186 97 96 180 95 85 184 140 82 179 104 88 83 174 124 85 103 59 150 55 150 81 193 110 108 172 112 200 92 85 173 69 123 159 89 94 183 128 172 68 139 120 122 103 165 183 131 136 102 150 124 124 107 115 138 122 122 87 172 110 176 183 167 109 190 169 101 169 126 59 137 160 106 171 99 156 178 179 135 164 178 211 215 211 217 141 169 159 113 101 162 198 96 98 94 130 133 106 155 148 193 145 187 185 198 196 170 62 148 118 156 81 139 46 149 85 147 136 99 107 184 67 58 137 32 121 79 95 84 77 184 182 190 186 139 174 119 143 71 162 154 82 96 164 154 142 69 170 125 135 184 108 197 147 153 89 161 185 122 171 140 85 103 133 166 65 156 110 88 143 160 111 59 81 153 115 114 94 150 145 166 104 108 72 175 151 114 99 139 126 143 120 53 61 128 62
152 160 161 157 155 150 145 138 131 136 156 171 255 165 147 141 137 152 163 157 175 171 166 147 152 155 169 188 187 177 170 176 182 181 177 164 157 137 131 131 151 164 174 163 255 169 134 150 153 140 160 139 146 118 157 168 175 129 150 154 188 158 180 135 105 121 97 93 118 148 158 152 110 151 154 99 110 148 79 60 95 79 46 48 110 71 118 134 174 117 112 76 70 88 106 139 101 131 84 121 101 100 109 103 127 118 91 139 119 96 94 99 126 113 136 130 146 206 142 154 162 202 105 95 181 196 114 89 170 73 67 70 135 62 68 159 125 141 162 105 84 102 201 180 107 103 188 73 167 61 75 115 127 149 150 165 111 151 174 176 147 169 176 121 185 138 104 104 111 174 116 144 104 171 141 108 98 156 187 110 133 110 65 176 84 178 165 94 121 185 112 143 84 108 177 213 197 174 213 161 151 107 145 65 83 92 153 183 168 84 174 160 92 89 147 151 129 93 116 134 72 124 39 146 152 155 66 148 138 114 97 99 92 109 142 165 182 80 192 168 152 165 213 103 181 88 157 74 151 132 112 158 176 124 129 78 50 104 85 140 96 135 164 177 89 106 67 161 109 58 110 149 72 53 102 159 142 66 76 70 157 115 226 200 124 124 119 158 91 142 82 154 72 60 132 76 67 62 73 164 120 192 173 100 174 83 67 143 64 159 91 122 184 124 169 103 101 93 188 144 93 161 87 89 89 187 112 180 106 184 123 82 73 138 147 87 122 180 101 121 204 171 157 96 255 87 130 105 122 100 149 103 140 181 160 82 131 53 126 70 116 119 82 73 59 59 67 132 153 148 74 72 69 150 125 104 198 127 160 110 160 148 116 83 61 150 105 81 132 139 186 145 132 169 173 129 165 122 189 217 215 204 189 116 103 81 149 173 165 88 131 174 98 113 125 172 194 187 131 120 176 159 192 157 144 137 146 78 53 62 153 152 74 188 188 172 178 70 148 43 129 131 113 180 96 188 194 108 179 129 130 112 116 89 127 178 182 186 109 179 134 80 76 146 168 169 156 109 146 105 173 255 106 101 203 119 108 193 137 137 73 135 91 153 75 108 160 98 170 162 142 143 118 93 155 93 191 188 174 129 107 112 187 189 99 146 68 155 46 49 66 119
166 168 164 155 146 148 152 154 139 149 159 172 168 172 155 149 155 163 163 157 174 172 160 160 144 146 159 181 175 171 173 180 186 179 174 167 164 147 141 137 141 151 166 165 164 180 178 163 157 163 171 157 158 162 175 165 180 185 189 183 206 183 165 138 118 151 96 75 150 120 98 134 76 76 117 141 148 144 139 62 55 84 92 85 43 116 79 146 117 107 90 90 139 81 86 117 98 108 96 93 125 126 119 111 109 87 117 79 139 99 105 166 139 106 131 169 122 143 175 124 114 107 100 124 88 191 115 162 187 97 100 104 77 65 67 62 58 96 97 70 114 106 214 203 101 188 178 84 79 166 166 113 59 115 69 119 56 112 146 68 85 176 201 129 210 193 116 179 207 160 152 119 110 173 140 93 149 129 165 150 60 109 88 172 101 164 125 200 124 108 166 154 179 116 180 168 185 214 207 100 164 142 85 70 104 159 125 181 161 161 75 124 81 89 157 156 125 150 202 183 131 72 52 145 77 145 136 57 62 57 131 145 73 85 110 155 82 137 159 114 212 137 143 107 89 150 149 113 63 116 66 141 164 110 140 96 153 140 85 161 75 96 83 167 168 142 65 67 79 45 135 54 89 82 66 80 91 110 91 127 78 105 176 217 156 164 138 177 151 152 177 112 75 123 63 108 150 59 112 146 88 113 96 147 72 74 104 75 116 60 121 112 86 168 112 113 126 198 174 151 99 99 91 159 95 105 149 119 84 79 85 85 75 59 152 82 65 173 104 146 120 199 153 99 182 178 112 176 188 159 113 144 140 103 79 72 173 153 169 86 90 116 93 92 111 138 165 162 83 58 76 137 132 151 115 89 119 150 146 91 100 82 93 132 138 83 121 115 76 86 203 126 153 116 155 194 151 181 206 131 208 177 83 154 83 125 123 60 84 91 83 194 156 173 121 161 109 121 128 202 167 220 149 83 76 100 127 125 56 73 76 112 124 112 90 165 171 94 102 143 124 101 159 181 167 162 151 151 178 82 72 142 123 155 174 86 165 170 188 150 148 154 129 166 187 97 148 118 130 84 167 175 183 97 127 129 201 105 97 180 95 98 81 75 164 87 176 82 125 118 80 133 112 152 181 108 140 165 171 173 180 102 116 177 131 93 138 67 119 154 121 196
176 173 164 151 148 148 162 167 160 160 158 157 168 167 169 174 170 159 153 161 167 177 168 155 131 141 145 174 176 160 174 180 185 182 175 173 167 161 152 142 140 155 170 185 182 204 197 179 177 141 168 143 159 162 129 154 130 145 150 200 147 145 138 127 133 143 115 75 169 178 111 90 82 142 129 133 91 70 63 68 93 36 79 44 46 57 80 86 143 128 90 85 88 80 95 128 105 102 100 97 120 125 110 141 118 106 96 56 103 93 102 165 127 137 113 196 137 135 163 96 116 88 160 168 73 97 97 187 117 135 102 91 182 160 57 64 61 154 61 171 137 120 125 187 93 183 169 141 128 118 169 155 50 116 47 132 120 141 125 124 161 101 189 255 202 127 199 193 148 113 190 182 96 171 83 67 105 66 166 63 145 148 114 64 84 119 150 135 176 213 162 97 160 185 154 175 199 117 172 132 149 84 98 65 76 146 125 99 129 133 106 97 169 72 84 189 115 117 147 186 79 121 158 108 85 169 87 139 82 36 127 134 140 62 95 147 62 161 104 167 148 139 98 183 164 61 153 146 70 139 68 151 166 130 68 138 160 72 140 136 180 106 154 70 127 118 111 80 120 148 51 124 133 166 84 80 118 174 164 98 129 103 132 108 182 92 112 79 83 107 73 73 173 70 109 98 134 147 139 73 91 136 145 125 97 70 75 112 166 61 152 159 110 90 188 90 105 96 144 183 186 90 175 107 102 105 194 123 168 164 71 99 67 126 150 159 98 169 202 120 201 141 127 94 167 127 99 152 102 146 197 187 93 173 165 156 164 190 130 149 133 143 162 137 52 57 161 177 90 123 145 133 142 57 100 184 191 196 101 171 148 255 110 101 70 66 104 96 115 190 189 166 123 92 169 176 179 188 195 204 100 94 102 115 62 107 113 50 40 104 106 116 120 153 211 138 97 92 102 180 120 213 104 82 143 54 69 111 131 136 87 65 141 103 174 132 138 95 105 102 74 133 175 207 119 206 167 180 152 102 156 130 135 132 105 81 97 189 160 165 91 104 147 178 88 95 88 131 111 80 93 180 181 94 120 173 145 182 206 150 167 167 83 125 163 171 94 143 159 144 91 150 84 93 179 92 167 86 81 104 83 158 108 164 114 99 181 173 67 140 153 93
175 171 162 157 153 159 165 170 172 163 159 152 148 148 152 168 174 164 153 157 165 171 169 153 135 125 146 164 172 174 175 177 181 169 162 167 171 173 170 154 162 154 177 195 179 207 198 186 165 141 153 156 155 143 157 143 153 184 191 181 194 123 112 132 151 64 106 66 90 107 175 89 136 96 122 124 133 68 53 48 52 60 48 110 115 82 79 82 97 113 171 126 100 90 125 112 165 115 95 84 80 88 125 108 93 93 63 107 121 85 128 103 177 115 104 142 114 103 113 96 111 67 91 95 56 113 121 85 180 115 110 184 153 169 157 155 159 163 167 173 103 200 200 147 174 130 80 156 158 137 147 158 43 135 101 94 64 141 55 64 123 100 153 117 125 118 185 171 220 205 146 172 147 90 158 52 131 159 117 157 148 109 109 153 150 184 97 114 128 143 169 166 119 109 183 167 187 82 87 162 96 170 175 174 133 145 64 175 117 144 133 164 69 81 151 134 219 148 129 142 88 166 170 160 94 139 142 72 48 83 60 129 131 114 133 131 96 156 167 171 155 104 83 166 110 156 151 100 36 138 141 154 133 169 142 157 146 177 194 201 92 120 156 101 102 143 124 180 107 79 141 108 59 88 164 158 123 92 85 67 66 112 90 174 143 90 135 137 67 76 60 75 125 84 90 166 79 69 68 120 156 168 158 173 63 62 90 152 74 66 59 101 181 104 106 118 148 132 126 183 131 116 93 195 202 113 130 201 131 139 175 96 77 138 133 88 70 90 95 209 127 149 112 103 66 100 164 179 92 194 95 194 149 140 124 81 206 142 220 145 194 163 77 157 147 91 127 185 79 149 111 97 64 165 152 129 108 179 176 139 164 164 124 170 117 80 68 137 178 93 108 164 97 124 143 85 107 83 109 173 189 156 81 77 143 84 97 134 135 54 101 153 105 143 162 95 178 179 179 101 169 202 127 76 79 68 126 85 22 124 41 105 126 135 62 140 159 76 162 156 81 158 116 206 124 151 92 142 144 94 65 40 41 58 140 113 172 96 191 178 129 143 173 101 153 195 119 136 159 139 84 136 185 98 180 153 116 218 153 111 164 144 159 168 172 164 70 96 145 59 165 146 96 95 107 88 155 95 68 68 91 92 105 197 137 134 180 97 69 146 94 140
171 169 166 165 164 170 175 182 179 166 151 149 145 139 150 161 164 155 141 146 142 169 161 142 124 134 150 167 181 180 177 171 169 159 163 164 176 182 185 187 188 183 178 198 203 205 198 147 146 153 155 158 168 181 181 171 173 173 136 139 156 173 112 145 78 79 100 144 145 169 134 94 95 66 92 80 82 140 98 127 47 110 61 146 94 125 58 144 137 120 132 116 106 95 137 138 159 117 95 110 100 76 106 109 114 68 83 89 89 156 126 152 103 121 96 94 146 84 96 73 94 69 50 69 86 139 133 89 68 77 94 125 82 77 96 73 126 123 125 136 88 187 94 78 168 165 87 169 159 115 177 88 109 101 154 156 81 164 75 171 166 192 164 178 93 110 147 209 129 209 107 133 79 134 64 123 61 144 52 130 124 150 116 119 141 174 194 196 90 87 158 64 71 83 184 115 89 149 169 75 129 141 105 81 129 137 92 77 96 147 82 75 138 130 168 184 208 169 207 135 162 104 169 135 176 84 173 101 156 149 46 48 147 114 83 154 113 54 100 72 133 89 172 112 104 161 137 56 128 140 153 62 72 159 59 88 69 180 203 205 105 181 60 150 99 182 204 152 82 93 131 59 124 123 180 176 185 158 84 80 107 72 167 99 100 105 65 100 149 131 77 86 186 92 143 127 123 133 87 166 194 208 145 93 169 142 73 176 86 147 162 84 179 149 181 108 160 105 100 102 112 161 98 170 111 121 182 123 134 158 186 165 186 175 91 159 149 176 97 122 150 175 156 84 155 109 122 112 79 167 165 154 168 183 114 145 210 165 146 182 203 176 153 154 111 86 182 113 174 158 68 172 153 144 167 139 183 128 145 154 172 169 143 122 159 91 93 118 144 123 92 189 84 103 94 92 165 178 105 177 99 95 162 170 133 157 148 40 94 149 78 102 104 196 191 124 114 170 78 105 87 142 131 157 159 136 90 91 49 79 135 66 100 110 156 128 168 122 109 78 114 166 112 175 178 184 255 160 86 41 126 109 123 49 101 166 155 176 178 175 90 88 120 147 175 205 175 109 202 124 193 125 134 88 108 107 119 131 128 211 156 137 141 119 134 86 88 75 58 133 156 65 167 162 89 88 142 71 65 162 74 88 187 106 185 108 177 147 167 145 83 149
167 169 171 174 173 178 176 181 179 179 154 142 128 127 123 151 157 150 139 138 146 156 156 149 140 138 149 171 174 184 179 165 153 150 154 161 172 172 193 192 201 191 189 192 185 173 198 180 156 162 133 123 148 175 134 189 191 182 159 199 196 195 111 153 110 51 119 65 116 121 162 142 129 55 107 80 82 80 125 150 74 63 77 75 139 57 119 106 117 174 184 166 164 136 94 140 105 100 75 67 65 67 71 79 92 77 86 48 77 127 109 122 138 144 90 161 117 255 135 134 143 75 54 37 97 50 121 49 104 131 73 181 97 105 130 189 92 97 199 145 179 117 71 69 154 68 103 81 155 115 179 123 77 156 147 93 127 163 185 203 187 173 85 181 120 144 226 220 128 116 128 86 144 71 136 47 125 65 119 105 147 115 174 88 192 113 196 96 157 155 95 69 177 85 195 133 184 86 174 170 176 90 181 158 150 136 77 255 149 154 118 94 148 170 101 97 169 204 134 120 145 52 133 164 164 90 170 125 157 62 151 60 60 60 151 152 87 142 140 153 125 117 180 143 72 84 53 135 148 138 65 139 63 140 149 74 70 162 152 182 164 169 137 60 124 119 116 104 109 104 59 114 107 73 176 89 168 147 107 74 125 127 153 85 148 65 138 51 112 120 56 129 157 97 185 147 83 100 124 83 199 123 114 200 112 77 162 163 177 99 105 149 83 122 187 198 93 132 134 155 120 132 114 118 141 188 223 205 106 169 91 136 116 131 198 193 166 135 92 126 195 173 204 182 116 154 151 170 167 96 142 140 188 171 155 82 102 139 231 185 150 163 87 156 92 94 136 143 141 155 165 162 92 173 106 122 114 189 105 145 145 121 148 62 66 168 173 116 108 131 102 102 157 95 156 159 98 162 188 109 171 183 84 158 161 150 64 150 135 87 118 104 91 89 95 63 85 124 118 150 105 108 56 67 144 80 79 109 128 104 156 80 146 155 110 97 159 113 135 173 128 138 107 193 95 187 85 98 73 108 49 137 48 136 58 161 106 159 139 89 96 188 201 160 112 193 149 163 100 159 147 168 112 82 147 108 213 206 163 185 170 74 117 151 176 169 130 134 145 160 142 87 101 109 104 158 82 128 95 76 166 173 156 98 111 157 176 77 136 101 152 136
157 162 166 171 170 172 171 177 173 174 157 153 140 129 126 128 152 143 138 137 140 149 136 148 147 152 148 163 186 192 182 159 145 141 146 158 167 168 189 200 206 199 187 171 197 206 190 191 181 137 148 164 169 159 155 160 129 170 131 130 149 172 164 84 89 108 100 107 148 85 100 142 65 61 129 86 141 156 121 84 139 134 144 84 69 80 63 89 140 190 174 128 96 107 74 115 80 75 60 53 80 68 93 75 90 97 63 85 128 110 155 139 113 94 91 82 85 100 79 97 116 145 148 128 39 46 140 105 156 71 99 112 131 84 89 183 159 180 181 100 107 120 74 168 74 118 75 147 188 107 177 71 157 171 148 144 172 150 167 171 203 178 103 122 106 122 132 199 186 185 169 101 70 142 78 47 46 59 118 152 88 97 169 133 187 193 140 161 73 92 74 143 182 106 107 108 198 108 118 174 131 176 160 174 64 154 55 115 130 106 176 175 93 102 68 177 178 157 105 182 155 93 153 157 81 119 99 133 96 174 167 82 255 82 103 158 114 160 141 125 162 124 82 89 94 111 146 144 94 161 153 162 157 120 103 50 162 143 191 175 139 131 73 162 88 93 104 137 128 82 59 132 98 87 81 149 185 129 159 95 105 110 125 127 87 140 68 78 56 142 104 105 173 137 173 177 74 74 86 110 188 213 123 132 170 78 162 86 120 175 145 75 141 116 105 106 164 78 131 90 92 167 103 214 155 133 124 117 139 178 103 90 142 189 125 115 126 133 172 191 112 155 102 122 100 64 129 62 112 152 58 171 154 120 59 158 128 138 161 218 115 177 176 79 176 161 111 68 77 130 90 161 102 79 141 97 84 124 199 203 192 155 165 71 61 141 65 162 186 181 112 175 87 141 68 165 68 175 148 114 178 186 189 192 107 85 154 95 118 153 150 151 74 151 58 37 57 58 91 125 58 86 85 125 70 109 181 92 180 79 80 149 85 97 149 174 90 201 100 116 144 199 101 163 183 166 103 166 52 140 60 93 64 74 116 85 153 137 120 152 138 130 194 146 190 111 103 176 104 98 154 124 76 163 143 101 159 211 220 120 94 93 93 147 130 104 84 158 112 113 125 125 128 129 186 166 123 83 82 96 75 118 69 173 158 96 103 178 73 161 136 80
139 147 154 160 162 163 162 172 177 171 155 149 126 122 120 139 157 152 134 131 138 139 146 156 255 162 171 183 190 201 187 160 143 137 150 158 162 170 176 190 199 173 176 167 198 203 212 206 163 184 143 155 126 163 155 138 117 167 160 117 127 184 117 92 88 110 127 76 88 86 100 67 66 136 80 121 75 115 112 157 167 123 133 90 147 68 76 117 122 137 143 116 92 96 67 67 55 88 53 47 64 53 49 89 73 86 88 104 101 161 123 125 132 169 80 99 85 66 98 104 142 91 69 139 85 81 71 79 171 159 76 122 176 85 79 151 132 165 102 195 124 112 93 71 171 159 143 176 189 184 193 142 157 136 117 101 145 87 142 192 93 88 158 92 102 209 203 143 196 183 183 147 73 149 72 134 116 141 132 135 93 174 182 154 155 87 172 58 92 115 147 207 194 186 183 120 140 105 200 177 129 112 87 116 125 113 80 78 71 155 78 127 182 146 66 170 179 179 145 83 60 54 105 159 156 90 150 54 61 95 175 87 85 127 152 131 153 150 91 133 141 116 84 176 88 163 159 80 89 92 173 134 56 62 124 138 114 91 127 180 151 88 89 85 174 84 152 167 95 162 103 63 82 154 96 161 91 155 98 61 62 90 78 129 163 98 171 71 82 120 74 147 79 85 89 177 163 173 167 108 89 140 114 110 102 75 80 97 105 103 152 73 107 84 166 124 66 59 98 76 165 100 108 112 119 211 136 96 162 105 93 138 144 94 114 93 177 103 164 195 107 117 130 152 71 153 164 159 78 117 132 147 113 117 44 83 102 160 210 139 131 188 175 190 85 101 133 137 171 164 77 162 91 102 119 171 131 88 96 153 124 119 81 97 129 42 83 132 200 142 174 90 83 85 168 108 169 158 96 168 91 165 96 185 87 168 102 140 137 184 84 94 92 56 58 73 146 103 100 144 79 154 150 113 78 104 176 113 195 194 102 111 192 86 133 97 170 199 197 133 161 86 94 126 157 156 79 66 121 38 43 146 83 75 162 164 162 60 64 126 94 184 127 175 108 97 186 146 117 163 142 175 132 144 154 165 107 113 225 121 106 177 134 158 199 115 90 77 155 157 76 137 188 98 146 161 138 66 52 60 62 49 91 77 91 113 139 145 73 82 139 130
119 130 137 140 145 145 153 162 162 166 156 137 126 139 136 146 141 159 143 135 144 142 152 163 173 168 182 195 208 203 191 170 145 147 153 162 161 164 173 179 187 188 187 168 193 186 196 212 193 170 162 140 174 115 155 141 158 174 188 181 150 121 122 154 152 94 96 90 142 97 122 118 99 69 120 91 77 83 175 117 106 140 175 98 90 144 82 92 107 125 141 97 83 87 34 90 58 43 90 60 65 90 41 83 89 126 130 106 123 108 167 167 122 116 104 120 56 139 85 122 98 176 103 74 129 90 158 130 156 79 103 176 70 141 116 154 82 136 159 182 87 102 162 174 131 191 100 185 91 186 118 82 125 162 109 125 95 146 142 146 153 137 106 185 191 137 206 190 188 112 147 159 132 168 133 141 129 141 112 175 118 152 171 171 141 161 157 143 134 147 99 207 112 117 191 103 109 199 187 83 95 140 60 70 74 80 107 76 109 255 158 164 139 138 81 159 72 166 102 170 142 144 78 107 131 128 73 142 142 74 170 89 128 181 132 60 55 147 152 69 105 172 167 152 125 56 77 183 194 109 121 79 125 70 71 149 104 104 91 131 73 146 133 82 165 137 170 107 166 85 85 161 87 126 100 100 113 129 151 66 167 138 88 95 152 162 89 181 80 179 136 84 104 125 177 104 99 173 140 151 138 91 164 187 130 97 138 179 94 122 113 75 120 107 67 135 146 142 89 103 165 92 133 139 150 162 135 79 137 147 47 71 146 145 128 85 170 195 102 100 191 142 82 169 120 115 99 162 70 130 130 59 121 144 139 72 163 129 98 94 132 145 124 162 99 177 163 179 142 102 46 57 124 98 90 146 155 128 153 145 117 138 169 71 54 45 156 170 181 112 155 179 108 67 107 69 160 93 118 189 177 92 153 144 63 62 164 159 81 80 162 163 171 255 139 147 118 107 95 187 178 73 152 52 77 65 161 151 152 205 173 133 102 127 167 171 84 121 130 147 136 163 103 79 80 157 139 161 127 143 82 56 84 99 137 90 150 153 109 91 194 193 115 111 84 156 138 129 56 151 155 173 174 160 145 79 188 158 232 148 200 169 187 129 148 121 99 74 161 60 123 98 165 109 178 88 120 153 50 152 79 90 47 70 67 102 87 82 168 77 119 124
111 121 130 130 133 133 146 161 159 157 151 145 132 150 153 150 152 150 144 151 151 155 154 174 180 186 178 199 207 198 190 176 166 162 165 155 154 153 168 187 194 190 191 201 212 211 191 192 198 153 188 173 144 174 124 106 121 166 149 170 187 198 176 94 152 110 146 120 97 151 157 129 139 146 75 115 104 125 134 116 127 178 113 154 95 97 76 86 90 105 110 77 62 57 43 42 37 76 51 84 92 80 70 117 116 156 114 106 119 101 144 115 177 114 111 65 62 135 132 167 90 73 104 95 111 153 140 92 174 115 144 145 121 92 50 46 66 90 87 91 185 79 127 105 113 160 127 181 149 155 97 163 150 83 138 132 111 140 122 108 145 169 179 170 100 166 137 125 211 213 200 174 110 179 158 89 150 165 178 81 94 106 122 67 77 124 105 65 117 151 191 186 189 198 143 192 167 157 156 77 127 141 116 160 171 146 111 168 175 77 147 135 75 94 158 140 98 128 98 174 64 79 157 113 108 133 51 139 155 65 104 170 91 86 87 140 135 142 147 160 162 151 145 149 106 85 88 198 161 108 106 86 85 146 139 134 149 81 90 159 174 129 181 183 94 149 75 133 150 60 82 78 93 153 135 154 103 255 73 157 78 90 125 103 165 94 145 93 90 155 182 134 89 93 178 172 96 84 79 163 127 141 105 198 112 163 97 198 196 105 118 83 92 156 120 73 143 56 119 115 109 191 160 174 194 108 83 106 94 83 37 130 52 109 66 163 97 186 195 92 87 80 90 80 154 86 166 72 165 79 90 52 147 108 72 163 172 172 168 98 78 120 173 132 98 113 96 177 162 136 55 137 162 96 90 71 135 100 99 152 117 95 134 91 94 112 77 93 204 120 156 87 120 97 134 91 91 146 86 168 83 106 108 141 154 140 159 161 114 92 79 160 83 99 65 158 136 79 151 158 154 102 163 120 135 110 86 100 103 121 116 188 94 105 161 68 173 102 126 102 150 118 83 149 116 157 117 107 136 81 77 104 149 166 97 146 150 196 152 199 110 176 202 97 85 145 128 159 155 109 149 76 147 154 81 168 116 142 205 131 142 174 110 136 162 166 182 104 98 82 127 116 165 111 200 94 143 79 136 128 161 155 125 146 75 62 168 69 166 91 135 66
115 123 128 131 131 139 151 159 166 152 160 155 157 150 146 154 149 154 153 162 168 163 173 178 168 164 180 187 193 193 185 178 171 174 169 153 150 156 171 193 200 194 192 210 205 218 208 195 163 183 152 188 186 153 176 134 163 172 159 193 214 192 183 150 114 121 121 126 100 79 76 68 141 142 80 112 122 108 145 132 107 111 127 106 150 76 130 123 130 87 97 135 141 106 66 61 83 89 85 82 108 65 104 122 83 121 113 123 131 132 102 103 117 129 95 75 146 166 158 101 99 76 76 104 105 113 194 93 120 76 130 76 135 166 110 58 90 119 91 179 92 175 79 187 179 114 98 149 177 86 174 105 78 67 152 156 155 147 57 149 164 126 162 170 112 112 207 214 127 156 133 193 95 89 170 119 98 98 93 171 96 67 82 174 137 172 160 65 163 187 100 137 166 131 96 136 103 143 193 147 71 58 84 153 69 163 94 101 149 146 69 160 71 174 74 168 156 81 164 154 147 49 148 151 76 148 154 117 101 176 147 96 91 76 167 147 140 126 160 165 96 160 65 138 101 68 195 216 135 201 97 106 178 181 151 160 161 133 255 80 123 156 152 124 190 162 137 171 159 126 118 157 93 142 168 100 122 155 88 159 190 131 169 115 137 97 98 122 188 133 176 162 182 89 115 115 144 152 99 150 114 96 88 158 89 154 129 205 128 204 87 83 102 147 74 65 90 163 74 182 87 98 255 197 165 184 106 156 73 71 138 96 63 64 65 162 75 176 151 187 98 70 74 155 153 58 82 96 179 173 101 112 72 74 114 171 178 149 170 78 121 83 165 175 172 132 120 77 55 98 62 43 106 95 103 71 108 75 173 166 170 193 115 108 84 136 146 179 183 110 172 71 93 100 131 65 93 163 124 176 123 124 146 167 82 161 83 70 69 125 93 178 118 95 169 78 140 183 115 101 202 111 154 140 160 108 76 176 171 105 186 181 106 143 137 170 153 127 120 197 187 91 73 119 67 161 86 191 91 84 165 160 169 161 96 190 189 255 161 210 132 167 107 144 137 72 133 114 110 50 158 151 98 93 140 110 110 177 124 121 113 157 182 192 98 167 156 91 82 144 90 109 213 138 121 104 153 66 148 167 80 101 86 103 64 141 137 144 78 126 146 148
124 131 136 138 147 157 173 174 176 165 164 173 175 172 162 143 143 150 156 175 173 179 185 183 179 168 175 180 186 187 181 178 180 178 176 158 152 168 185 198 199 181 198 206 213 214 201 186 158 186 157 186 164 151 173 131 165 171 180 188 177 191 174 113 89 88 77 97 73 91 75 104 77 89 110 114 131 161 106 130 149 164 181 102 88 106 122 54 92 89 109 109 92 111 91 94 105 128 110 105 89 130 91 83 79 124 109 106 109 122 117 99 139 111 86 148 73 118 80 98 107 111 172 101 200 146 93 81 65 91 63 77 67 114 155 68 110 185 194 123 122 165 147 179 118 181 111 96 71 124 93 70 168 164 140 163 162 99 105 158 102 119 115 119 162 111 208 149 165 198 182 198 113 135 176 93 126 189 185 94 126 62 172 177 119 135 92 135 77 95 155 194 91 137 124 88 173 100 104 165 80 143 158 76 168 117 140 200 180 143 156 133 143 102 80 181 72 123 68 58 125 141 139 92 82 164 155 147 166 181 166 97 143 79 170 83 137 163 173 94 70 76 126 85 173 95 177 238 238 213 162 173 69 174 146 94 166 132 174 165 180 88 179 160 183 170 183 176 93 68 159 88 131 149 168 106 152 144 178 101 195 113 116 178 99 113 137 154 91 133 131 96 187 121 140 130 116 141 105 72 93 115 155 111 147 184 130 178 141 113 129 162 53 81 89 118 65 102 86 98 168 114 94 96 94 133 131 126 72 158 154 66 64 126 139 140 89 82 131 166 186 144 69 133 118 148 170 87 203 193 184 81 181 82 108 151 160 175 108 90 124 102 106 126 104 206 187 165 131 137 43 59 85 114 95 107 167 131 158 194 104 109 173 57 121 166 105 168 97 108 202 85 78 56 158 95 193 165 148 117 60 68 74 101 84 174 87 182 172 168 116 198 121 179 145 187 180 146 92 202 110 117 138 102 76 64 158 160 154 159 87 179 106 95 184 120 146 167 190 158 194 147 69 157 98 189 197 101 151 98 96 77 69 89 133 115 85 97 176 208 213 161 115 95 78 102 111 108 88 124 160 149 145 108 72 95 145 112 115 209 188 81 93 160 165 130 189 139 158 189 98 144 215 124 117 145 117 89 142 82 135 180 90 115 86 175 66 154 73 43 49 29
131 138 143 152 161 179 181 190 181 183 175 183 189 176 168 154 157 145 167 170 167 169 171 181 183 173 182 170 183 187 175 175 178 180 174 175 174 184 198 205 206 199 198 189 191 197 207 185 203 201 192 192 146 137 131 151 153 162 125 129 255 115 148 94 136 74 83 77 83 108 94 102 145 147 127 118 96 125 138 76 125 157 101 89 98 57 50 60 98 156 140 105 153 116 127 113 102 84 92 116 111 105 104 101 85 112 72 92 109 110 156 143 117 114 106 113 91 91 87 84 101 102 163 96 142 123 167 144 107 78 86 66 115 165 162 100 87 187 201 113 121 84 71 129 102 141 82 72 123 159 141 134 82 144 160 131 163 129 150 71 80 162 156 100 185 136 135 204 197 202 156 150 188 97 92 162 81 185 91 85 70 110 103 105 142 157 159 148 175 186 149 180 139 173 76 175 180 104 184 137 84 165 103 175 83 83 136 145 128 101 173 139 128 119 192 188 105 163 144 39 34 48 159 73 109 140 162 103 153 134 166 187 127 192 176 128 105 174 111 110 97 147 80 134 182 198 184 244 242 119 94 79 111 145 150 187 197 162 177 120 96 88 129 123 172 153 95 128 143 156 168 112 188 114 153 111 117 99 168 176 165 118 149 131 89 98 139 117 144 108 124 111 97 117 164 177 113 86 84 148 80 114 55 63 134 169 101 109 108 155 179 86 112 68 110 75 70 122 76 84 114 146 185 190 88 130 178 176 135 90 151 71 106 105 169 124 133 200 152 202 137 115 74 99 89 121 158 185 158 170 93 150 94 100 194 100 97 101 91 193 118 161 208 150 101 208 145 180 177 143 54 121 158 176 184 179 92 116 190 106 101 78 63 136 141 93 155 171 207 208 117 199 107 87 81 169 204 102 125 134 73 71 77 83 134 113 137 140 79 80 174 170 202 157 139 140 82 179 127 107 167 171 183 120 96 72 143 149 64 163 162 137 148 173 182 91 181 188 197 201 159 175 169 126 121 102 115 167 202 102 166 182 152 125 157 160 129 180 137 192 137 136 155 191 134 161 44 132 33 94 132 88 70 124 68 132 140 130 122 125 182 188 76 157 158 121 108 191 115 189 131 149 207 106 140 97 98 178 171 106 99 99 134 181 149 199 151 68 155 47 53 46
140 145 149 160 172 183 187 183 176 185 192 203 209 207 186 175 171 155 161 164 166 178 180 197 216 255 194 196 189 191 184 179 172 182 186 182 181 193 201 206 206 196 181 179 164 189 200 187 197 202 175 184 172 105 98 129 106 150 140 167 124 134 95 118 154 164 163 155 155 122 106 135 78 153 90 151 161 73 55 61 103 151 137 86 71 104 69 139 87 97 101 103 100 120 100 105 115 83 128 107 119 108 136 87 60 97 59 123 109 86 109 94 141 109 122 115 127 136 86 92 105 168 108 113 114 110 119 160 118 64 101 140 59 133 109 159 89 143 189 128 124 118 64 64 67 146 115 78 107 58 156 145 113 166 73 158 82 123 111 160 110 115 152 112 112 120 154 187 165 200 117 111 181 121 115 147 84 167 128 184 153 79 166 83 116 46 112 63 147 99 198 115 65 131 77 181 157 193 107 92 175 110 92 86 157 183 127 183 102 165 185 129 102 130 177 115 171 164 152 132 130 140 87 167 119 158 175 97 141 141 187 101 197 198 172 146 175 133 203 194 105 136 140 165 189 171 201 171 231 153 172 136 161 95 186 122 201 94 176 90 113 114 106 121 118 182 164 110 160 76 71 162 187 103 155 81 180 185 114 97 165 120 175 134 150 122 130 149 87 128 161 105 158 155 213 127 175 132 110 190 154 55 96 65 44 68 148 128 192 95 108 97 158 155 131 193 143 132 83 161 117 174 182 87 128 117 167 94 91 73 96 64 104 122 160 88 199 157 128 196 205 193 74 122 118 120 110 92 106 179 93 162 178 111 181 204 107 103 141 158 181 205 200 106 185 149 168 175 196 155 117 132 90 187 187 99 175 104 102 177 147 87 139 96 86 186 142 210 178 157 160 107 163 175 137 169 195 180 168 163 71 58 67 85 146 122 141 98 97 138 174 187 115 131 100 130 138 84 113 159 159 150 82 123 167 143 80 84 157 69 128 168 177 181 97 187 173 99 98 160 168 177 173 187 126 148 211 179 169 126 177 161 156 58 123 75 132 80 113 153 141 119 80 129 158 94 151 41 81 70 45 159 163 75 170 169 187 127 207 208 174 138 139 74 119 193 130 182 100 109 195 158 122 156 119 80 177 74 97 167 91 92 128 138 113 198 112 139 96 108 73 36
155 153 151 161 171 183 182 180 166 167 172 191 200 209 203 189 168 172 158 151 160 170 176 212 230 227 213 199 201 193 180 178 179 188 190 187 178 187 189 202 185 176 172 158 164 173 198 189 204 154 183 142 139 143 102 143 139 137 140 166 175 119 140 158 168 123 153 126 166 167 110 97 131 130 92 103 70 105 52 47 87 102 98 81 78 85 79 84 89 92 126 149 136 93 131 137 80 110 70 76 82 86 79 54 42 50 47 54 124 81 79 94 117 122 128 94 98 106 97 102 184 117 97 139 98 102 68 118 164 134 132 85 141 47 46 151 60 120 68 79 143 150 158 60 101 153 175 175 68 159 139 140 189 94 113 174 135 120 70 114 119 88 113 164 87 71 131 110 95 186 124 186 97 132 72 159 167 193 195 185 92 90 87 151 146 142 99 147 146 199 176 80 106 152 133 71 141 168 101 163 177 94 140 117 100 132 87 145 177 159 118 132 148 124 190 170 156 169 105 99 106 141 139 210 182 186 113 98 130 174 180 159 175 112 184 175 84 158 207 129 124 97 83 192 186 207 177 201 128 188 131 177 179 100 224 141 178 175 179 82 98 77 79 188 195 122 99 184 152 155 125 158 103 129 174 166 84 179 107 184 89 164 96 116 122 143 99 96 118 103 107 167 140 122 131 117 190 98 106 190 157 143 72 27 76 93 153 94 89 130 81 153 109 132 134 131 199 106 160 109 140 98 82 146 108 87 175 160 66 70 80 145 70 135 96 139 120 126 189 122 176 200 187 80 94 158 74 188 95 183 84 83 183 164 201 203 164 185 181 132 172 161 110 155 188 189 186 124 201 201 157 144 136 96 160 173 84 177 171 154 81 137 86 63 156 114 127 202 122 173 209 105 166 200 206 109 113 192 172 148 148 133 79 163 105 184 127 190 137 85 166 102 171 113 167 102 129 121 130 169 116 118 177 80 138 86 131 162 167 169 96 80 178 165 189 96 99 170 149 177 83 155 179 196 127 124 176 151 94 186 85 163 126 103 117 84 65 68 147 174 101 164 136 161 82 62 116 82 149 119 92 127 69 74 129 176 96 185 196 177 214 179 159 101 153 117 162 139 164 178 196 148 129 177 172 71 127 114 85 125 164 102 145 188 190 120 146 187 69 71 28 116
168 160 151 155 158 169 171 161 153 151 171 176 195 200 188 193 190 179 158 166 167 172 189 217 241 242 236 212 202 188 183 175 182 194 199 193 184 177 188 194 194 177 153 137 139 164 201 207 196 161 163 120 151 108 110 142 159 112 130 103 145 107 178 109 166 167 119 188 97 163 135 159 139 78 98 142 90 55 76 102 110 108 110 110 144 99 102 81 85 110 101 97 123 136 96 69 85 96 86 62 88 68 60 40 41 30 53 96 53 62 73 77 93 101 130 104 100 126 98 190 105 98 95 78 157 74 82 122 108 161 74 86 59 100 58 87 133 97 67 64 72 90 143 93 132 113 205 201 148 114 99 189 186 117 199 95 132 127 156 116 186 102 179 150 81 113 166 175 116 193 193 196 105 107 156 87 160 186 162 129 98 171 146 155 69 106 134 64 147 91 152 183 64 136 65 134 84 164 173 86 100 179 174 187 106 98 168 100 190 106 120 210 159 106 97 185 175 175 83 174 158 142 207 153 222 223 200 132 190 106 184 105 126 127 182 148 119 103 115 115 130 172 179 183 187 101 196 203 198 134 184 114 188 179 190 141 230 114 102 163 60 158 160 87 182 136 114 164 170 103 88 160 101 137 85 139 157 126 91 81 155 184 88 162 90 182 119 176 90 184 191 183 135 117 113 171 195 107 114 150 73 47 102 66 69 83 175 103 97 86 153 86 167 116 137 160 131 133 183 117 86 73 124 76 85 81 89 134 88 64 112 75 50 60 148 114 146 199 118 115 205 199 143 110 186 159 94 166 170 185 181 106 134 102 122 144 139 90 151 144 128 140 198 206 131 151 108 122 126 110 198 164 176 101 145 84 68 71 164 157 94 95 82 85 100 180 217 130 207 133 119 169 190 136 178 154 156 163 83 69 159 164 75 111 115 193 177 189 165 94 126 172 91 82 92 143 168 153 167 95 96 104 170 107 98 132 191 96 163 194 165 153 89 175 151 128 99 159 106 162 93 181 100 128 179 148 191 164 114 169 148 160 161 84 164 69 63 161 69 172 99 166 106 99 77 92 68 70 157 156 79 92 156 89 179 181 85 185 110 96 168 193 183 178 206 194 104 97 103 109 169 82 107 155 96 80 143 182 189 131 180 120 85 97 128 124 129 136 59 45 133 103
179 167 151 147 154 157 153 152 138 149 148 173 173 181 172 177 174 178 167 162 170 165 183 208 217 242 230 213 192 187 177 180 192 199 200 193 184 180 175 190 183 165 145 139 160 161 193 191 148 174 166 114 140 104 131 122 134 112 167 100 129 141 177 150 202 134 171 131 151 89 88 147 81 137 78 83 62 95 67 137 130 167 100 148 111 150 97 89 97 74 90 107 149 115 54 113 110 60 63 67 65 74 42 50 21 30 50 70 39 83 62 74 104 148 90 90 91 101 103 122 102 157 166 83 71 67 64 107 118 75 77 83 154 53 83 134 50 81 83 120 180 162 188 90 202 184 167 239 229 209 193 119 199 212 191 174 78 122 94 72 141 197 164 116 162 164 156 140 193 133 133 112 115 71 64 146 68 178 120 173 109 166 122 58 156 57 157 255 145 184 97 98 160 149 101 144 155 109 67 183 116 90 181 77 96 152 114 133 84 101 113 158 215 255 160 164 122 85 184 174 193 104 114 197 125 186 212 206 154 97 124 144 108 108 95 167 172 177 124 193 176 96 179 180 184 98 103 145 194 176 173 167 199 117 135 171 172 108 103 96 60 51 159 155 135 114 124 125 117 135 147 144 140 136 75 93 146 147 158 171 121 105 137 190 162 108 86 71 87 179 121 111 202 189 106 193 97 139 93 183 71 53 48 47 120 122 105 126 92 181 174 103 99 135 142 112 134 105 142 160 58 64 89 96 78 174 140 161 126 61 111 59 91 136 150 67 97 147 179 140 123 116 117 196 186 131 98 96 102 90 186 181 118 191 176 120 183 159 83 82 173 184 95 160 197 183 146 194 185 150 181 105 146 116 159 159 69 94 128 176 80 180 88 141 200 178 187 123 207 198 89 118 129 100 127 208 112 108 87 73 88 78 101 95 106 104 194 147 201 122 125 198 96 117 77 93 165 136 79 188 195 200 178 189 135 194 179 132 101 192 115 84 81 175 85 83 110 67 149 166 91 88 150 160 137 192 114 191 100 151 150 145 157 122 95 122 114 123 129 143 76 77 63 149 49 152 81 101 163 76 164 59 150 105 163 128 93 155 186 87 165 82 187 255 165 189 110 154 169 132 89 60 146 63 102 108 92 108 150 97 117 74 155 100 211 201 150 169 75 149 100 61
180 168 150 141 139 143 139 139 137 141 154 164 160 169 171 159 171 152 168 177 165 178 174 175 197 221 223 216 205 182 184 186 197 200 206 197 197 188 195 194 168 162 128 145 169 189 201 202 181 139 157 157 161 136 134 132 148 127 125 119 87 103 113 152 169 129 199 163 139 126 150 85 121 92 78 145 92 152 107 130 126 154 152 116 169 127 95 145 117 82 111 110 124 66 63 80 63 105 92 73 49 57 77 93 47 65 25 44 40 255 108 101 91 104 123 92 102 159 88 90 130 80 83 77 178 171 74 82 127 81 96 171 127 94 108 140 41 138 159 174 91 196 190 188 113 190 218 200 239 218 207 190 204 132 161 169 78 166 143 177 191 153 135 138 168 176 94 139 161 216 189 201 179 141 70 70 165 171 137 170 131 138 78 133 132 90 147 127 111 79 120 171 93 141 101 54 94 129 137 85 157 78 71 70 80 146 172 87 110 143 107 213 204 109 120 129 168 175 90 158 154 104 183 186 113 203 138 129 104 192 197 153 210 106 144 81 181 187 197 175 147 163 170 118 73 172 149 98 173 201 192 196 115 101 211 123 209 119 183 161 139 135 137 178 205 119 143 165 93 65 101 71 157 83 81 124 60 90 48 159 81 108 128 154 113 98 89 73 98 95 195 201 145 119 120 201 123 108 184 100 76 81 112 151 131 69 180 173 95 102 98 145 91 120 182 104 145 98 144 172 108 140 68 53 80 142 157 66 66 157 62 157 133 59 103 102 124 169 92 107 199 186 215 140 130 122 98 160 91 100 137 183 91 168 184 181 142 170 71 75 176 110 193 155 131 116 96 120 81 185 195 204 141 137 177 160 76 142 135 99 122 91 139 196 128 108 211 214 149 146 111 184 91 96 129 125 149 179 109 174 80 130 124 139 106 156 184 158 111 164 216 182 191 92 70 117 79 136 145 132 120 102 164 201 144 116 120 177 154 169 197 172 112 138 147 126 112 154 127 157 174 112 168 188 89 133 180 88 115 156 135 52 144 130 128 155 79 78 159 88 180 175 72 76 80 66 131 175 184 92 96 60 132 121 171 188 187 90 80 93 131 81 78 103 198 127 113 151 109 77 78 63 36 92 92 82 143 159 200 94 118 150 83 195 206 203 85 147 160 164 156 161
187 172 151 139 133 126 123 125 136 148 157 155 152 159 155 154 154 142 151 179 183 171 175 172 181 204 203 207 202 194 190 255 200 207 206 195 196 191 198 191 181 158 156 137 164 204 178 181 167 156 132 141 147 113 141 155 158 146 155 111 92 156 149 113 196 157 131 148 172 105 97 76 62 86 153 103 123 131 105 131 151 125 118 143 178 118 98 116 80 84 255 114 114 89 57 72 85 71 66 67 71 63 54 93 60 78 44 45 33 44 71 97 112 83 95 156 133 91 137 171 97 99 88 96 104 91 185 89 88 188 184 115 85 74 163 97 63 106 78 168 197 196 101 90 88 204 195 210 143 130 184 109 185 177 154 163 114 74 172 150 184 140 170 175 149 83 168 186 210 179 201 115 132 132 139 145 111 108 155 167 103 118 53 63 72 155 142 116 154 173 184 129 180 79 149 135 86 119 98 54 157 63 105 165 88 155 140 114 90 88 116 129 117 180 183 175 106 96 107 171 136 190 140 77 177 85 150 177 134 124 100 206 108 139 115 175 105 174 190 192 173 93 173 70 166 172 163 185 97 173 156 167 92 179 179 205 141 210 115 163 62 37 52 137 97 214 193 163 132 89 150 137 116 129 156 148 148 148 51 125 119 123 137 114 101 119 151 157 67 124 151 189 100 109 127 135 103 86 110 190 155 95 89 84 169 101 75 126 125 96 181 99 87 147 173 152 128 130 184 133 93 150 54 112 146 78 110 169 124 99 65 88 83 89 64 70 105 143 175 94 104 173 114 199 195 201 192 188 86 180 106 153 89 133 182 107 157 179 169 74 172 164 133 170 83 131 132 84 106 160 127 200 132 197 160 100 144 156 144 133 177 130 119 86 188 193 199 182 199 108 103 126 163 171 204 137 164 145 145 85 178 147 119 196 203 108 212 211 123 143 134 175 85 119 63 73 96 137 93 104 93 133 200 123 102 102 91 103 110 140 109 84 69 71 168 150 144 92 164 88 152 166 87 105 88 110 76 140 82 113 68 57 59 157 161 138 102 170 85 177 144 79 132 159 95 116 64 158 101 161 80 56 152 82 170 125 157 171 73 104 85 172 92 107 116 115 201 106 116 76 63 120 108 112 77 119 115 214 166 129 167 83 140 98 138 104 69 130 86 170 73 167
187 170 145 125 123 112 117 115 128 137 150 154 153 156 145 138 123 134 169 176 187 181 155 168 161 188 205 210 201 196 193 194 205 209 202 197 199 205 207 202 188 175 160 171 190 199 204 157 123 129 147 168 175 173 162 148 147 137 179 161 175 172 153 146 136 177 157 107 174 79 98 120 97 65 86 171 158 177 138 95 87 89 110 111 126 135 86 75 91 114 109 116 151 76 65 58 73 79 57 65 47 100 62 88 95 95 92 47 77 78 128 121 159 94 99 119 109 162 93 105 120 104 115 91 104 137 164 85 93 92 94 184 193 89 178 117 77 108 146 125 185 120 76 62 94 157 167 194 186 156 195 187 156 182 73 123 52 80 163 105 131 138 82 90 90 152 165 156 152 171 143 158 99 162 133 71 255 74 107 162 145 73 70 154 131 162 159 166 134 70 161 150 86 95 174 131 64 137 45 255 59 136 68 129 188 106 159 118 169 150 188 128 203 102 91 96 118 105 189 196 87 160 90 96 164 90 83 94 197 163 116 106 193 189 92 162 167 70 149 81 157 175 116 145 150 64 102 120 187 200 110 167 127 92 173 99 177 206 138 184 64 43 138 60 84 187 121 188 109 154 69 124 87 89 159 121 144 117 123 54 145 133 152 96 176 138 192 161 148 108 162 89 185 124 117 108 165 90 168 131 156 190 177 102 93 59 90 68 161 158 94 93 105 205 110 116 195 141 83 124 127 87 126 63 97 176 99 78 114 137 63 110 122 161 161 151 53 70 158 91 189 94 98 132 167 194 120 195 132 188 188 167 105 96 126 91 172 126 170 151 137 97 193 129 89 163 137 69 72 163 90 106 178 192 173 86 188 180 104 112 189 187 106 175 171 79 120 123 208 175 164 209 110 158 145 175 97 171 157 178 172 171 193 137 124 149 118 211 112 211 154 181 163 69 129 90 154 68 143 151 124 109 93 179 160 120 116 199 197 224 171 103 78 151 84 132 125 186 177 114 116 102 122 176 85 101 92 129 167 162 103 156 157 161 115 176 112 164 192 118 165 94 167 162 106 169 164 180 123 123 156 105 70 57 103 154 69 124 128 183 87 96 134 178 141 107 157 208 122 166 83 150 159 138 126 120 114 121 187 194 81 175 77 120 68 57 51 148 90 125 127 184
179 159 135 114 113 108 115 115 128 132 142 133 145 136 137 136 121 149 154 169 175 174 150 164 169 185 199 202 207 199 198 203 208 204 195 188 193 198 200 187 185 164 167 183 196 188 170 182 163 141 148 167 182 180 142 166 120 160 182 183 108 132 119 188 151 145 161 157 87 89 113 105 69 68 170 121 182 166 142 123 80 83 104 164 151 97 112 80 132 89 166 128 108 93 82 99 79 81 70 79 48 50 90 117 110 109 62 123 104 83 92 94 112 123 178 103 114 184 88 138 81 141 85 138 194 102 100 123 96 91 188 192 147 200 196 100 183 88 190 200 97 176 154 153 63 76 175 182 91 87 175 143 100 158 133 73 139 109 110 125 86 167 83 145 140 94 167 180 177 121 104 92 89 90 160 116 81 123 103 150 96 150 165 180 180 79 173 165 168 148 162 182 114 188 100 81 84 116 103 65 151 84 100 165 196 129 182 193 138 194 171 109 162 190 146 149 188 118 133 156 160 136 151 146 138 56 170 104 103 183 160 187 96 188 82 146 136 75 128 103 66 73 148 160 72 157 73 79 176 103 203 194 154 110 192 184 157 162 201 147 134 52 130 142 157 160 180 195 83 126 79 158 79 138 74 80 99 78 141 119 89 159 128 99 158 137 112 118 73 68 54 161 109 143 92 94 92 77 123 102 148 93 88 127 134 50 95 60 78 64 71 146 102 200 99 192 95 155 110 165 53 127 114 71 86 162 188 152 72 63 127 65 68 115 108 55 42 106 148 161 154 170 90 131 103 196 120 92 189 110 79 79 163 147 192 194 148 181 166 83 109 165 150 153 139 121 187 177 152 87 199 107 106 184 182 91 132 187 196 198 178 175 180 71 154 143 188 182 116 215 123 219 129 148 139 134 187 99 162 174 108 85 117 165 157 111 156 110 194 118 96 175 146 138 175 79 83 101 162 189 84 125 100 73 118 99 183 181 167 137 225 183 184 189 85 190 134 153 77 79 187 96 190 92 125 110 155 75 70 161 67 73 169 174 167 129 93 103 128 147 98 133 139 166 170 157 85 121 89 116 158 57 133 159 65 146 152 72 83 125 95 99 95 100 108 178 119 138 223 219 152 146 182 146 137 111 110 219 210 144 187 84 159 166 59 145 51 101 107 91 94 181
149 130 109 95 97 106 117 123 137 137 135 128 122 121 135 121 129 152 162 184 172 154 146 156 163 182 183 201 202 200 193 202 201 201 192 184 185 188 185 179 174 172 165 186 183 203 168 188 136 161 156 162 178 141 140 133 194 198 158 138 126 178 114 200 121 170 121 134 79 63 128 132 62 117 116 122 127 118 95 153 99 92 173 109 125 119 162 106 86 102 155 103 122 112 116 103 100 111 96 86 58 74 68 105 76 107 78 85 139 138 112 173 137 160 119 101 183 175 82 113 74 109 71 73 89 94 106 91 191 190 198 96 171 120 107 166 187 179 148 182 188 99 116 61 156 172 85 169 151 177 123 67 99 47 108 86 91 45 60 69 69 161 133 155 143 89 133 163 169 95 101 106 159 155 139 137 143 155 98 90 113 174 93 104 189 110 104 72 72 173 158 85 180 146 198 179 78 147 67 171 173 107 87 169 191 125 162 226 197 206 122 211 114 115 152 159 154 191 186 135 143 79 46 46 53 137 69 164 76 96 162 112 173 109 142 174 170 93 91 147 117 143 170 173 163 173 148 118 99 107 170 93 184 158 198 97 96 172 97 181 147 164 100 45 135 140 194 126 85 142 166 120 104 121 144 96 155 136 113 71 180 104 185 90 158 97 132 102 146 134 57 114 166 95 71 164 162 68 114 154 165 126 79 74 143 85 111 50 122 159 76 100 108 110 163 183 157 109 88 65 93 69 85 123 167 103 115 86 75 88 54 108 67 134 79 77 47 144 94 70 165 164 148 153 133 108 179 174 152 160 74 109 169 192 98 171 192 171 142 75 170 132 155 163 100 133 105 150 102 180 129 111 205 196 181 163 131 175 184 105 204 143 130 113 90 164 85 107 159 113 255 125 113 142 210 160 149 141 113 141 150 102 83 118 153 126 192 136 202 100 174 81 68 109 161 109 163 186 167 93 149 110 100 141 96 171 92 139 207 183 139 205 140 116 116 184 130 75 139 180 141 94 101 115 115 145 78 117 137 58 154 94 95 176 103 101 179 122 216 147 207 169 125 161 137 128 106 165 91 155 168 154 89 69 153 113 152 167 116 127 184 175 146 173 114 183 124 196 207 242 184 114 110 160 80 89 101 112 204 105 103 144 179 134 71 135 98 160 108 186 180 210
126 109 92 82 92 103 122 133 141 140 137 255 114 127 132 129 132 152 169 179 173 162 146 155 177 189 198 201 192 198 192 192 189 184 176 166 163 172 170 171 153 166 166 166 194 197 166 162 168 160 162 156 160 188 182 185 173 164 196 114 133 173 193 191 174 174 120 125 64 119 128 100 107 102 107 114 150 146 92 101 127 92 95 122 148 93 92 101 84 94 84 104 108 109 109 100 98 99 94 80 77 65 65 116 87 120 86 91 155 98 116 116 164 131 133 97 170 92 70 137 63 92 53 59 74 145 154 194 108 161 91 129 187 99 95 188 146 185 188 95 190 129 155 165 165 184 179 150 184 186 176 157 156 141 131 36 139 134 69 91 157 120 81 112 78 75 145 160 111 137 81 169 104 162 109 176 130 80 61 144 157 111 128 172 184 83 78 108 143 103 110 82 193 162 117 127 72 163 169 120 91 151 89 106 151 202 198 147 217 207 133 185 109 160 148 184 188 93 91 69 102 146 64 134 88 99 124 53 137 180 178 188 173 158 142 171 172 167 149 153 153 163 95 181 95 141 185 181 99 132 100 198 196 198 119 192 179 108 127 174 115 150 141 132 72 68 71 161 123 103 184 127 208 187 77 116 113 67 94 189 141 165 159 128 130 135 120 202 181 63 44 116 71 156 146 66 158 74 104 182 94 160 102 110 69 150 149 80 66 112 103 143 159 175 78 74 103 83 92 79 55 134 137 146 143 131 123 77 119 136 115 141 138 74 115 66 107 124 98 60 164 78 153 111 132 174 154 172 117 161 70 114 102 124 205 151 192 92 136 71 102 180 90 84 192 132 173 121 190 203 122 162 203 120 159 124 136 70 103 194 171 117 171 141 94 65 177 133 139 184 114 204 111 209 170 214 191 89 111 100 97 124 72 117 126 175 114 119 156 96 71 126 66 180 113 107 196 181 180 186 86 151 154 81 173 111 186 116 117 148 170 160 182 195 148 147 176 171 177 160 106 86 114 133 71 88 81 154 139 95 99 97 92 168 99 194 133 111 125 184 171 96 140 166 167 94 162 183 124 169 171 132 77 116 186 91 121 96 162 192 131 174 123 174 166 186 152 188 183 216 231 175 153 120 91 141 187 140 146 182 120 84 137 162 111 118 96 113 85 92 122 123
122 108 89 78 86 101 127 141 154 149 147 129 129 142 149 156 157 159 182 180 184 179 171 167 188 187 191 181 190 189 181 181 174 168 159 159 162 163 165 163 145 143 150 180 180 192 194 197 168 159 126 126 116 161 194 163 208 148 191 167 167 255 184 162 113 137 100 94 101 133 133 145 97 105 102 133 189 152 150 90 83 80 154 141 95 158 90 120 127 90 98 124 117 129 109 110 145 100 94 97 85 87 81 89 136 94 135 95 144 97 102 112 168 139 142 108 83 73 137 68 115 82 95 54 73 157 179 102 175 93 84 177 136 106 181 81 142 104 191 91 100 183 189 181 188 180 198 207 180 120 170 171 148 141 64 60 114 69 163 160 148 82 74 117 131 161 135 80 148 164 124 99 180 130 175 154 164 170 101 76 159 167 101 77 75 105 78 140 166 160 68 155 174 155 82 154 147 95 157 128 97 152 187 105 89 123 199 118 113 132 188 123 155 148 152 118 117 185 127 126 139 146 111 43 60 30 30 40 146 177 154 139 86 186 130 193 79 127 137 68 140 165 169 127 91 200 130 172 104 137 113 101 205 151 198 255 173 94 136 182 159 94 74 152 159 64 120 77 54 158 122 207 175 185 88 92 138 79 118 124 121 190 178 74 91 136 162 125 88 94 78 147 124 148 103 73 106 158 109 100 149 79 172 148 134 73 57 85 88 156 255 185 137 168 118 167 64 141 61 75 82 139 75 103 90 80 104 84 161 80 113 94 169 86 87 83 76 80 129 101 171 93 116 187 146 76 164 113 129 88 172 77 112 95 173 167 176 142 89 159 161 147 125 180 96 163 144 193 194 136 161 194 159 118 78 106 94 154 173 176 196 85 114 62 81 59 167 97 184 145 157 185 190 182 206 124 157 128 139 163 115 170 79 131 163 159 92 146 96 136 140 132 110 176 121 209 203 125 101 90 145 153 75 171 186 149 132 146 192 98 71 93 129 100 100 95 182 156 147 135 84 142 98 152 142 43 48 52 70 54 104 171 184 105 91 192 196 137 188 195 137 92 78 129 165 160 155 81 143 125 166 89 122 162 191 196 156 163 119 171 188 153 188 101 155 178 126 132 143 143 155 151 78 134 94 96 182 143 167 104 126 82 175 188 132 159 113 120 93 152 120 231
141 128 110 96 96 112 130 142 154 157 155 155 154 149 172 171 175 177 192 197 194 200 187 183 193 191 186 178 168 165 173 166 157 150 146 152 164 165 164 162 142 158 165 171 173 185 194 191 161 157 125 120 150 174 158 179 153 166 185 151 144 139 150 148 94 92 145 147 113 134 130 99 133 107 176 111 170 93 107 149 87 158 142 85 135 91 87 88 119 99 113 111 104 97 133 111 86 118 111 130 78 116 86 111 146 108 114 129 125 88 94 103 130 126 194 94 92 92 96 62 79 68 61 159 79 161 170 124 124 138 72 163 117 168 173 179 145 126 192 169 92 85 131 139 106 110 107 139 183 167 119 157 94 82 173 166 68 171 166 97 133 105 167 163 169 88 102 154 103 94 165 105 86 182 109 186 86 77 146 147 129 121 106 69 83 95 104 132 164 96 163 79 101 119 79 151 141 151 63 102 95 100 161 78 159 110 147 124 197 180 98 164 171 191 173 128 85 182 162 79 153 110 55 127 139 133 139 73 168 154 185 172 109 167 101 114 113 158 171 133 171 69 170 179 154 117 200 164 122 94 142 123 182 157 216 134 147 180 134 148 136 167 141 102 61 107 91 138 78 115 99 127 199 172 87 153 132 82 89 120 200 117 90 126 52 94 95 181 146 71 94 78 159 70 52 55 91 121 132 90 90 86 139 166 71 69 168 105 181 134 181 175 174 142 70 136 137 85 63 98 78 91 97 94 91 76 58 82 78 80 149 167 79 162 190 94 168 158 73 153 185 193 134 100 169 66 81 148 158 146 78 177 151 91 90 147 114 125 143 150 122 88 122 162 137 182 153 119 85 141 158 168 173 75 61 74 67 118 137 172 109 135 91 62 59 150 161 77 172 129 173 149 169 188 207 114 199 118 90 89 93 96 166 182 100 104 159 105 162 168 175 80 179 170 214 141 157 124 140 168 87 73 114 134 91 175 106 202 167 174 66 152 152 153 120 162 146 114 130 97 130 79 120 46 69 76 78 132 159 164 79 160 178 144 189 176 183 159 176 114 143 136 55 94 103 110 125 98 156 146 114 92 106 186 108 141 99 101 95 98 151 196 188 115 122 139 124 121 185 117 92 162 105 151 136 129 146 78 82 79 139 83 83 198 114 148 149 113 184 132 133 222
156 149 134 118 113 121 133 138 145 157 171 168 175 185 186 188 173 187 190 185 195 199 183 187 188 185 168 159 157 162 164 160 145 150 155 165 178 175 177 171 167 143 164 166 158 180 200 204 197 193 167 145 165 132 180 188 194 199 185 141 179 182 113 135 115 153 114 161 98 141 161 95 101 70 117 108 107 97 91 134 92 96 150 163 95 90 103 85 255 115 112 117 94 84 73 119 119 109 89 109 76 97 79 91 113 97 86 94 79 92 83 105 99 138 151 106 91 73 66 87 255 109 119 117 103 123 172 94 186 131 72 65 61 131 75 174 107 110 193 137 161 116 184 191 213 158 213 211 222 216 232 200 115 201 149 120 175 93 135 173 127 115 98 103 172 144 144 151 142 69 108 96 97 83 136 141 104 97 109 72 165 122 95 155 90 165 150 138 140 157 128 143 114 45 120 131 126 159 73 171 100 113 119 164 161 104 134 201 112 153 191 157 180 101 82 76 92 148 115 129 157 166 51 146 123 156 156 118 86 187 94 77 159 132 180 124 100 98 78 123 166 98 95 165 93 179 97 179 100 182 99 121 167 232 245 181 191 173 160 160 126 158 137 71 87 135 131 104 72 156 117 124 131 107 153 154 110 148 106 170 100 109 168 136 133 173 163 184 114 77 149 138 69 150 98 161 148 77 137 89 163 136 79 130 160 101 72 152 109 186 93 122 85 160 102 81 74 126 121 72 91 157 111 107 115 50 48 95 128 163 197 92 138 140 180 131 150 177 176 185 132 185 144 95 121 70 80 87 66 87 118 165 175 178 88 173 172 191 178 140 107 72 99 151 212 130 119 135 128 158 59 85 75 115 148 88 163 173 159 85 174 89 98 162 160 161 69 73 162 160 76 99 121 137 92 176 138 144 61 112 170 171 113 90 89 144 143 100 78 177 80 119 168 115 156 225 113 101 159 71 67 84 81 68 162 181 178 107 122 87 137 61 146 122 167 98 205 130 112 174 88 169 158 64 133 65 58 137 69 179 179 94 174 163 193 115 149 64 163 137 58 49 147 142 68 72 142 172 155 117 95 190 108 183 213 198 121 165 101 170 129 124 189 120 118 101 132 104 114 134 73 131 119 128 140 106 128 79 164 105 62 67 182 121 126 225 201 184 88 96 104 197
157 155 147 134 131 132 139 133 141 149 166 175 186 187 194 187 191 180 191 193 200 188 179 165 179 179 171 149 151 147 159 159 155 157 171 187 194 194 185 179 166 165 140 138 166 185 191 181 208 157 155 166 156 178 175 174 179 174 178 129 133 154 132 145 170 145 93 160 167 132 119 88 149 74 64 118 158 116 140 105 121 95 110 91 143 152 83 158 130 116 95 125 80 105 63 59 97 69 85 77 68 100 125 132 106 147 74 80 76 115 123 95 101 119 106 156 156 96 74 74 83 98 107 111 108 198 108 92 85 73 67 79 91 130 168 134 133 181 144 93 94 131 128 171 197 191 159 218 215 171 232 213 161 202 203 95 176 141 171 162 151 132 131 172 102 185 167 103 112 142 163 86 149 106 99 126 75 168 172 154 164 154 134 151 144 72 172 89 119 154 110 151 46 100 100 97 71 145 94 112 129 113 72 92 184 133 129 184 209 91 188 175 193 126 255 74 133 77 156 168 165 152 143 50 142 86 136 157 182 91 180 90 197 157 124 203 127 156 149 107 165 78 156 159 156 169 104 91 175 134 198 191 163 179 241 163 111 121 115 149 132 191 175 132 137 111 102 79 90 106 178 177 147 122 87 153 69 139 142 81 139 86 152 93 149 84 155 130 185 89 95 120 100 139 140 108 72 127 58 60 145 80 85 128 149 120 78 86 108 120 124 135 130 87 186 91 85 160 80 92 143 81 112 86 62 125 57 93 158 158 213 194 121 105 140 105 114 143 167 92 147 211 169 180 147 99 61 59 144 164 169 177 80 156 119 96 162 198 109 112 110 150 141 166 132 182 109 131 130 130 85 167 69 69 114 80 164 147 92 161 164 84 98 77 255 166 148 115 157 90 60 44 48 111 101 121 172 56 114 121 101 127 88 176 111 193 167 118 149 108 77 102 105 149 128 176 139 154 157 85 149 103 74 50 61 171 185 130 140 182 178 169 144 62 78 118 138 160 202 133 146 123 166 95 146 152 64 98 79 188 118 150 132 99 96 164 95 136 156 60 53 136 75 145 94 95 81 160 86 91 189 179 207 156 203 205 192 203 157 142 102 107 183 121 214 121 123 180 109 113 93 152 55 66 128 186 94 130 155 93 66 71 137 97 128 190 208 102 104 62 69 140
148 152 153 146 143 142 138 134 143 141 158 171 179 175 188 186 184 181 207 214 209 184 168 159 163 255 179 156 159 158 165 165 165 171 188 203 206 196 193 190 182 175 168 161 157 175 203 213 188 201 183 169 157 179 145 146 119 131 163 160 199 182 114 160 133 140 100 103 88 164 102 135 158 91 148 98 135 135 95 178 176 93 95 93 91 95 119 91 127 111 79 64 61 62 64 54 52 58 85 67 68 82 96 112 123 96 98 104 66 118 59 146 103 117 179 131 83 68 102 76 98 110 140 135 138 117 181 105 183 108 71 167 99 64 142 63 123 177 142 185 112 137 169 186 201 167 198 175 157 224 181 239 230 197 196 96 179 94 121 77 155 139 166 96 146 123 101 106 131 143 131 94 157 147 148 153 151 103 161 180 140 128 130 177 108 91 179 255 150 99 141 127 91 107 74 140 155 108 166 125 87 169 73 97 134 166 227 204 131 98 177 133 108 92 179 120 164 153 172 180 172 140 146 126 39 119 89 64 178 180 127 206 127 151 234 157 120 93 90 148 165 132 153 74 155 158 160 157 165 76 102 143 113 171 163 222 189 78 72 141 96 134 87 117 70 44 69 132 153 112 135 183 118 171 184 144 76 61 131 162 131 137 133 151 166 99 181 178 195 147 126 114 113 168 95 120 115 66 80 100 112 175 125 111 100 108 183 125 74 75 130 120 125 128 97 174 178 73 74 75 71 121 87 120 64 151 67 114 116 119 142 186 118 207 110 170 103 71 77 112 104 196 97 159 149 152 118 120 59 146 165 103 124 150 158 116 130 140 139 74 162 139 97 215 168 226 134 122 87 162 113 181 96 163 176 83 140 91 77 105 168 160 66 151 158 161 119 92 132 143 55 139 103 66 122 177 73 129 145 117 100 190 184 118 151 203 139 83 145 146 68 83 144 136 110 120 156 102 130 95 159 138 150 53 77 69 76 192 153 135 93 157 70 128 88 162 81 119 86 137 79 164 85 157 150 142 68 167 74 83 193 195 175 84 154 158 122 165 154 142 117 131 117 119 168 87 95 117 117 115 172 137 149 145 205 148 136 151 214 210 116 206 183 182 121 122 190 175 107 103 177 75 98 96 108 175 95 121 136 68 68 66 153 159 140 121 201 87 72 74 89 31
139 144 151 154 156 156 155 154 146 154 152 164 170 173 180 182 177 184 199 213 210 186 177 169 178 175 189 168 162 149 159 157 164 180 194 218 218 206 195 181 183 185 154 161 165 179 185 177 193 166 187 150 181 145 135 145 130 155 171 200 131 164 163 138 174 163 116 145 88 112 133 177 157 168 81 127 119 155 96 120 157 104 115 81 75 87 130 81 117 97 66 57 34 98 50 40 45 37 74 46 84 71 111 122 90 80 69 83 69 51 134 87 99 165 165 101 102 73 64 85 96 162 126 126 125 175 107 119 108 177 81 65 94 60 64 80 161 64 140 121 67 117 166 122 92 195 152 86 197 121 214 239 187 227 185 157 170 190 168 176 167 116 142 167 162 106 185 135 72 140 156 150 132 165 173 155 184 164 152 106 169 157 110 161 163 107 176 77 167 55 82 75 147 136 140 83 147 193 200 93 180 163 115 164 98 111 113 214 197 191 106 92 169 179 98 179 156 131 168 78 111 134 136 60 75 66 59 94 157 185 204 135 207 146 245 239 193 159 130 139 164 172 88 117 159 97 57 69 57 94 180 194 111 129 152 140 101 116 159 161 151 95 129 136 160 53 54 144 134 173 176 158 193 196 123 171 139 74 133 126 165 87 182 190 120 94 172 128 153 118 207 133 195 119 124 202 97 123 147 54 60 178 91 108 110 105 176 141 63 75 72 61 111 89 80 177 175 74 68 58 68 128 152 178 93 84 80 110 118 142 117 118 154 168 180 130 139 69 175 116 180 162 168 86 166 79 158 100 65 70 118 74 115 181 132 198 210 209 193 148 140 164 181 189 145 222 172 108 137 171 192 191 144 107 158 125 197 129 85 117 172 160 115 168 163 84 168 104 71 135 112 80 105 63 120 178 162 58 164 149 99 105 202 186 140 158 140 107 177 169 89 104 159 179 187 94 89 93 134 106 144 158 67 119 88 70 151 81 115 200 178 124 144 79 109 174 77 107 168 115 72 72 130 59 155 142 98 107 168 74 175 133 142 148 137 126 186 89 146 73 122 150 103 170 83 135 163 182 154 212 140 100 134 177 173 179 116 137 191 162 201 200 183 190 201 166 180 122 160 188 175 132 144 97 99 184 106 173 168 142 58 135 95 114 91 91 127 173 84 116 65 86
143 146 148 152 155 155 164 168 162 165 162 167 169 177 175 165 184 184 211 217 223 209 191 175 190 198 202 184 177 161 152 153 160 176 197 220 226 222 210 200 196 192 179 145 163 171 177 191 156 182 185 181 181 192 159 203 184 126 175 193 192 126 174 174 127 173 160 161 72 83 106 150 177 118 136 143 135 116 175 122 119 80 97 101 128 75 118 74 123 71 56 83 58 93 46 77 51 52 40 59 117 87 117 91 100 86 79 71 92 112 98 93 133 124 102 78 64 111 83 74 132 130 206 132 121 117 97 97 85 174 132 66 63 166 92 131 149 55 138 72 49 97 139 171 80 180 126 172 84 107 226 149 210 195 170 210 158 173 95 124 132 139 173 175 158 121 162 136 147 83 114 162 188 179 203 115 156 199 137 142 186 181 82 183 184 146 153 146 164 117 88 165 169 120 165 188 201 205 162 137 91 68 72 69 163 187 120 149 130 181 105 110 113 174 205 201 188 143 160 69 142 154 108 137 56 50 66 150 84 164 143 160 183 195 146 144 221 125 124 179 200 146 86 176 172 67 159 61 153 125 104 185 105 107 186 146 179 158 163 53 47 137 147 75 149 159 90 106 173 191 140 142 200 170 162 123 118 119 110 174 74 136 119 85 85 167 142 142 144 197 165 135 208 193 121 104 92 74 72 77 112 85 100 203 114 121 89 86 144 52 79 53 151 147 94 74 75 78 123 179 180 145 108 102 168 75 110 102 180 122 208 142 171 103 101 141 162 107 129 108 79 137 159 157 166 107 179 176 83 124 159 149 92 103 116 122 197 110 116 130 85 176 177 129 122 119 110 152 198 165 96 90 101 165 142 153 121 111 94 164 146 70 148 113 141 88 95 90 165 66 80 67 60 99 113 142 175 65 177 168 191 221 139 99 190 101 100 123 85 160 63 64 75 160 146 160 163 69 154 85 108 131 114 160 90 80 74 174 151 255 129 183 103 86 181 90 80 156 163 63 161 114 84 135 158 95 86 59 62 143 93 182 166 177 92 93 197 147 182 165 168 71 179 98 88 135 189 162 118 106 123 139 130 166 137 111 134 182 145 198 138 194 187 141 196 102 209 111 201 113 146 209 142 114 194 157 141 141 80 140 119 157 72 127 149 154 167 125 105 163 60 45
152 150 143 138 133 143 162 168 170 174 168 174 174 177 175 163 162 177 196 196 203 193 196 198 200 197 204 202 181 160 151 149 160 178 195 212 226 220 199 189 187 192 173 146 167 168 152 159 141 166 175 141 148 157 181 156 202 162 183 180 136 174 133 118 137 169 103 78 66 79 91 151 158 108 103 119 166 178 162 103 118 106 141 150 85 108 71 137 78 138 65 73 57 72 65 61 57 80 43 75 102 108 91 89 88 94 108 123 71 76 96 111 125 91 128 88 122 80 78 95 95 115 111 111 101 95 88 88 79 80 78 69 81 75 83 80 83 67 141 136 55 137 148 128 77 123 151 112 180 201 220 220 202 169 217 220 105 177 188 134 187 156 171 102 162 79 84 120 85 125 68 179 206 149 220 125 181 207 174 174 92 168 88 182 124 164 106 140 142 203 130 178 80 99 180 192 207 182 189 208 150 167 126 99 163 77 117 188 121 154 102 168 105 195 212 126 104 142 134 95 45 149 79 164 165 74 77 69 75 108 146 141 150 182 221 221 219 217 191 209 155 134 160 173 89 103 141 164 91 255 167 143 169 175 162 94 162 255 156 70 144 56 107 117 102 175 81 80 189 159 165 164 131 180 173 105 176 102 186 88 144 83 109 147 142 98 100 138 146 88 89 97 103 119 103 143 161 84 89 175 110 117 179 136 209 203 116 112 55 52 137 132 72 90 75 112 179 185 152 102 181 124 174 107 121 144 69 148 125 127 200 136 103 167 177 122 126 163 150 85 104 169 112 76 136 147 178 95 101 133 173 187 100 181 181 118 134 85 167 184 91 199 201 150 202 206 138 196 193 178 94 180 96 126 104 166 209 194 122 78 70 140 68 137 125 98 165 75 167 165 161 147 64 156 191 113 142 74 88 163 213 157 159 182 255 86 187 98 89 94 172 75 60 78 130 149 91 144 104 101 96 179 187 176 195 87 143 133 171 163 80 140 84 169 122 104 255 154 146 99 81 112 152 137 152 127 106 72 175 82 112 131 190 132 157 186 164 134 158 86 117 84 118 143 83 93 161 199 166 134 135 82 79 175 177 98 109 126 200 128 118 159 100 109 158 155 111 183 196 125 149 114 176 128 161 99 76 83 72 172 75 135 76 112 92 126 102 115 111 177 102 149
167 157 141 122 112 122 139 162 178 167 182 171 179 175 174 166 149 152 168 163 176 188 191 205 203 209 219 202 192 168 158 156 168 184 205 210 211 214 203 191 199 190 158 159 163 155 141 161 141 151 141 135 156 150 168 212 168 177 161 188 168 180 193 181 156 120 97 133 61 74 99 107 118 141 149 178 107 161 182 143 75 72 79 92 98 158 91 150 94 119 98 126 86 93 74 60 103 79 75 92 126 99 146 125 102 99 86 99 100 117 142 126 126 121 145 82 118 59 73 161 126 143 197 96 92 100 111 174 113 162 78 74 162 100 67 90 146 151 44 115 38 147 144 68 122 85 145 69 157 108 188 213 229 135 131 118 138 180 91 91 140 123 136 80 79 255 98 135 115 94 141 184 202 161 172 161 210 181 176 153 105 98 188 107 103 112 124 120 220 190 207 198 125 152 87 185 158 175 144 190 190 156 142 50 57 75 166 126 85 159 122 197 126 107 123 198 98 95 81 30 50 153 141 172 123 108 99 131 78 171 135 201 172 160 113 121 119 158 184 187 115 202 109 113 110 98 85 176 153 149 108 163 134 85 168 95 190 147 75 99 143 170 164 141 211 190 119 118 113 95 145 162 99 116 141 87 128 107 143 79 149 142 190 97 135 156 68 76 75 79 104 174 84 96 126 93 124 192 106 205 106 106 195 124 121 204 151 76 138 32 100 18 72 55 128 72 100 121 95 100 89 105 175 121 64 62 155 171 91 123 101 136 193 94 151 106 62 109 155 167 139 114 169 135 177 109 163 158 92 119 190 191 111 158 167 72 57 65 153 185 189 201 153 164 100 154 179 131 108 140 97 97 107 169 196 114 120 93 173 72 161 162 157 175 129 101 68 66 64 126 83 160 130 115 195 120 94 95 146 86 110 191 168 181 87 168 97 185 99 137 151 80 77 104 97 144 119 57 154 130 116 86 174 201 200 177 179 117 171 82 148 153 126 115 106 50 105 150 144 74 71 67 117 158 83 189 173 190 172 184 128 180 114 196 97 88 160 178 148 178 118 118 177 96 142 184 97 94 121 169 65 55 155 154 177 173 139 105 100 181 115 79 146 94 120 128 167 207 176 120 115 202 181 168 104 74 146 163 81 92 97 79 82 77 131 77 81 125 167 91 87 183
179 162 137 109 102 110 135 153 157 159 163 165 160 164 150 140 137 138 132 141 158 170 194 204 211 211 218 211 184 176 166 165 184 199 214 213 209 207 200 208 191 193 169 165 155 151 142 153 161 168 149 150 196 205 202 168 196 138 178 182 126 200 198 119 98 79 142 87 97 145 102 110 172 165 137 104 107 172 93 120 77 78 153 89 148 103 136 99 96 100 106 145 148 128 81 75 117 68 75 120 110 97 143 129 100 138 96 143 120 107 165 158 109 79 129 85 81 103 127 116 88 91 180 180 95 142 98 77 71 165 74 119 80 75 112 165 65 58 149 53 55 158 73 130 95 88 157 78 158 109 185 196 172 217 130 180 157 119 183 187 88 112 138 152 108 152 148 113 129 43 68 181 177 186 199 110 151 150 177 59 152 173 195 202 95 194 188 152 148 212 169 189 171 90 78 87 185 115 204 103 111 81 84 159 161 70 93 148 128 186 198 159 185 255 101 156 133 143 55 29 108 152 114 167 177 152 178 82 72 118 90 132 122 104 94 189 103 211 216 212 188 167 119 205 165 179 176 94 172 159 181 141 97 152 128 81 146 114 150 130 183 107 143 198 140 214 210 106 126 102 150 189 191 148 179 160 116 64 81 103 124 174 199 159 136 111 67 137 146 106 69 68 123 168 159 147 122 168 109 202 121 164 97 114 182 114 115 125 37 46 25 78 53 79 165 114 88 136 87 104 170 98 83 161 56 67 61 130 174 146 96 103 100 170 90 157 86 122 110 99 147 89 91 171 179 110 142 103 192 145 110 96 178 73 88 72 120 129 110 78 185 190 193 138 95 104 201 191 121 169 108 68 98 135 195 112 172 179 152 98 149 110 136 118 126 61 84 155 106 126 59 51 94 171 121 121 151 142 155 104 132 150 87 134 150 166 111 100 184 194 93 121 104 125 82 53 64 162 126 78 82 154 150 205 190 190 139 110 143 174 177 157 138 58 125 100 84 57 140 149 120 63 112 157 169 199 111 153 120 195 126 205 170 101 189 255 166 123 116 182 105 201 148 90 186 166 168 154 103 83 76 51 78 105 87 170 156 197 129 91 69 68 160 124 158 173 165 122 170 99 131 97 96 138 64 111 60 75 73 93 154 187 81 83 179 157 109 87 88 88 169 147
190 169 140 111 102 110 134 149 154 153 151 154 151 143 151 137 138 129 137 127 149 166 185 195 192 205 198 199 191 179 182 189 203 211 217 213 200 206 207 210 195 177 179 157 142 150 136 128 160 176 164 141 195 194 190 165 147 146 113 125 198 193 126 185 93 129 141 149 75 114 71 132 123 144 95 185 124 155 147 126 127 69 152 106 164 173 121 126 124 116 113 159 97 87 78 70 65 73 88 123 89 109 93 116 142 95 89 117 78 93 119 85 80 76 47 56 61 105 77 80 136 97 96 89 99 184 83 93 74 66 96 148 155 128 70 169 158 98 73 100 163 169 140 174 135 174 92 96 144 79 166 102 167 173 134 189 184 146 93 154 170 159 92 74 141 52 140 89 127 153 142 139 145 91 97 148 122 179 153 113 159 169 87 81 174 119 128 186 164 134 105 183 97 83 176 144 126 184 93 180 85 88 99 108 83 167 63 51 82 140 98 108 144 75 138 96 99 89 95 127 79 133 116 100 109 167 179 170 82 184 96 123 92 108 185 179 179 191 127 195 195 118 117 200 142 190 81 171 176 157 170 81 71 154 171 89 121 140 127 131 130 218 200 224 197 188 117 191 121 167 135 193 118 125 112 71 147 63 154 66 84 174 110 141 103 141 174 70 80 78 127 106 77 93 93 148 154 115 112 103 94 134 108 208 113 181 174 87 38 126 119 75 94 123 138 93 90 109 170 82 255 144 125 84 114 137 81 101 174 167 85 135 138 132 98 94 84 90 194 107 157 92 157 143 169 177 177 198 168 208 145 104 68 157 148 152 137 48 125 107 142 145 85 186 188 201 111 192 84 121 162 84 119 96 123 149 199 89 97 153 255 64 149 114 100 67 149 123 162 85 110 145 59 155 95 125 109 169 157 146 141 97 134 88 68 174 97 94 125 123 144 94 88 158 168 165 78 64 134 115 107 158 146 203 189 142 145 130 177 162 132 165 162 61 163 70 63 59 156 148 52 68 37 153 154 193 145 115 203 151 163 171 202 153 181 76 85 117 120 206 216 207 159 179 132 159 120 175 146 112 79 146 139 131 109 207 198 113 145 144 124 157 107 134 169 134 160 165 156 73 96 121 84 61 59 150 122 170 99 185 101 173 136 91 164 93 100 102 110 91 168 115
191 173 146 123 117 127 145 150 147 144 141 144 136 135 141 141 136 140 131 141 140 171 175 185 190 193 187 188 191 197 199 202 211 211 213 208 207 205 202 186 186 186 175 160 134 136 150 144 165 147 144 178 149 172 189 188 142 113 141 161 150 133 169 128 137 169 160 165 113 107 92 138 89 165 166 131 138 110 152 136 97 98 141 86 163 131 187 125 159 148 100 89 84 104 94 67 113 100 80 97 84 104 108 104 138 105 71 89 117 82 75 99 101 118 58 51 132 120 100 157 73 66 164 71 154 82 183 91 125 72 150 52 64 70 152 157 112 172 79 83 97 145 191 92 185 92 166 108 159 177 178 80 79 102 97 112 82 163 182 187 173 147 119 92 156 154 149 90 135 91 168 175 98 109 166 86 189 127 107 93 106 167 166 158 153 97 128 129 196 156 200 104 198 102 95 157 68 117 87 73 161 151 88 146 85 178 155 56 61 173 85 89 113 65 62 89 62 95 110 89 149 80 74 98 177 144 173 115 167 153 171 80 180 122 145 83 181 177 144 157 144 108 117 211 201 182 173 161 173 96 173 166 164 74 82 183 186 92 158 171 183 168 198 209 128 134 112 116 169 213 121 84 167 71 165 141 150 146 146 102 94 184 127 106 114 168 88 88 113 75 110 64 131 79 187 94 100 98 102 162 123 80 96 120 122 193 118 139 51 96 127 131 97 145 110 172 69 134 126 105 111 193 100 91 129 68 129 68 160 185 102 181 179 98 171 100 122 202 126 125 113 176 116 172 162 158 190 93 160 116 98 179 76 82 156 137 146 147 59 101 154 83 176 119 99 138 201 128 184 81 115 183 110 90 182 158 160 81 179 140 161 73 149 154 148 143 75 151 67 71 62 91 121 125 178 104 147 203 188 190 126 134 111 82 161 149 181 185 169 195 136 107 150 93 76 166 108 255 78 124 102 110 190 104 118 93 78 93 74 166 153 175 79 177 178 163 84 69 158 150 109 139 127 69 178 140 212 108 187 143 196 112 88 106 119 81 126 150 137 122 223 223 225 217 133 207 153 119 191 175 103 101 163 84 172 114 160 115 105 95 70 72 97 76 96 97 110 71 90 85 60 134 64 59 123 155 113 99 99 91 170 193 98 101 95 102 106 125 84 108 140 216
184 175 161 147 143 143 158 162 166 155 148 148 135 150 151 160 164 155 162 165 168 176 165 182 181 183 188 198 195 198 211 214 204 208 200 203 196 188 180 176 186 184 177 166 141 158 166 178 182 176 160 162 173 121 131 169 117 167 113 116 177 175 162 142 170 114 161 89 124 87 111 83 104 148 166 161 164 174 141 114 145 87 72 112 173 187 119 139 123 145 141 105 80 77 82 90 84 102 114 114 114 105 105 125 80 97 83 110 126 84 90 130 70 89 76 91 141 87 163 100 91 124 151 89 134 138 93 167 87 91 109 115 71 173 174 151 170 77 83 176 172 107 80 86 195 193 184 158 172 135 188 192 182 160 174 168 134 135 150 140 103 109 170 109 158 154 80 84 160 168 186 184 85 125 113 169 187 194 151 128 92 68 112 146 114 139 108 164 145 121 174 198 120 105 123 174 59 50 157 84 77 87 185 191 132 196 187 177 142 85 185 174 87 174 127 69 173 164 115 140 129 194 128 165 173 143 179 117 163 108 173 91 80 195 205 197 184 168 68 154 74 162 107 212 207 146 75 72 127 157 62 146 64 138 153 135 169 177 89 208 222 159 125 122 119 168 166 152 171 172 165 172 72 76 115 129 175 165 123 93 162 118 143 186 173 190 95 83 74 71 113 78 135 173 91 86 88 89 120 73 145 91 182 112 150 90 101 134 124 128 146 105 119 195 167 174 114 160 99 91 121 174 170 198 132 131 178 101 102 86 124 91 133 154 149 112 195 114 97 130 111 167 89 102 90 115 179 87 189 97 180 159 91 84 180 173 166 152 121 64 161 158 152 164 149 188 122 137 115 172 111 102 119 164 113 108 156 161 74 151 123 87 56 77 134 154 99 82 164 148 116 64 130 171 179 103 209 116 152 124 145 119 191 167 185 110 188 181 186 101 174 123 146 175 152 70 84 91 144 89 167 97 193 111 164 133 77 140 161 173 176 122 91 147 185 135 190 121 122 67 127 150 119 73 172 187 173 186 183 107 122 72 60 64 149 61 167 95 127 190 144 172 226 195 138 219 159 144 171 107 167 95 66 97 133 127 107 122 180 169 111 141 98 121 135 99 139 152 134 106 141 71 72 104 92 170 113 198 97 127 136 134 105 132 114 81 141 104 154 166 108 206
174 175 174 165 160 158 169 173 169 158 159 147 148 165 163 172 172 174 174 188 189 184 189 187 171 169 173 195 199 197 205 205 198 194 200 207 200 193 181 178 165 168 182 159 172 173 197 170 190 141 140 158 124 155 130 149 152 144 157 165 125 157 121 101 130 169 136 122 110 112 75 77 97 174 150 91 173 153 103 98 92 151 72 111 151 95 159 118 108 103 111 138 81 79 133 122 94 96 105 95 102 98 113 114 78 113 107 75 91 99 134 85 77 66 55 74 81 113 119 172 99 87 115 68 106 117 89 176 163 53 55 50 172 181 146 170 175 180 108 79 88 66 142 171 178 134 98 86 127 176 188 180 157 91 127 156 160 80 173 145 129 179 101 180 142 76 166 160 98 206 182 121 186 160 93 118 158 153 154 188 109 174 131 78 149 64 109 108 85 118 89 152 198 152 106 123 119 97 55 99 167 126 164 166 111 143 207 101 184 199 199 200 170 133 178 173 125 156 157 207 112 112 109 88 76 110 137 176 163 93 158 96 183 188 185 205 105 116 160 148 98 120 204 128 140 81 165 156 106 148 95 114 108 73 87 87 144 146 104 165 215 183 218 170 134 180 141 186 101 114 112 83 134 92 71 106 99 104 94 122 123 105 190 135 92 94 166 101 132 104 67 54 165 135 95 101 130 140 76 84 87 82 179 110 82 87 85 90 109 188 155 116 108 111 186 185 102 55 64 100 184 134 175 202 122 108 144 145 84 90 153 85 124 146 157 186 188 127 95 81 65 136 112 114 186 132 182 179 90 171 157 122 113 174 168 172 85 73 127 109 158 153 161 93 202 127 176 190 205 210 147 212 179 127 130 176 81 62 120 89 77 82 70 142 64 150 86 76 81 107 115 123 154 83 166 140 162 133 161 173 199 201 110 134 103 101 88 115 109 183 127 166 97 102 159 135 166 104 135 76 145 193 105 108 176 113 182 132 74 73 153 143 170 197 125 190 158 100 83 74 119 75 86 82 152 168 85 108 169 114 151 51 70 93 92 152 161 93 162 103 199 118 147 224 142 159 148 125 128 132 103 71 76 63 141 120 184 131 174 71 144 134 101 162 74 89 162 157 93 97 92 87 103 142 118 151 167 161 112 186 88 118 109 153 117 143 136 116 85 94 98 203
171 178 183 183 178 171 172 184 183 175 164 168 164 167 173 171 161 171 181 191 185 199 193 191 176 181 180 187 188 189 185 184 178 181 190 205 209 199 179 175 177 191 175 189 177 184 189 206 191 185 169 142 151 131 105 120 122 92 146 133 111 95 165 125 171 106 167 92 79 88 120 91 150 146 173 107 131 172 140 153 78 145 86 111 57 141 114 96 88 95 75 138 78 82 103 131 118 123 137 111 94 94 98 88 126 80 92 78 145 83 84 82 139 73 80 133 83 118 104 95 163 171 69 80 157 155 161 84 161 155 99 170 100 192 184 84 134 112 187 169 155 163 78 71 168 85 156 96 144 105 162 165 149 175 178 87 104 158 127 157 105 158 168 118 181 182 161 129 123 127 222 133 136 114 140 114 184 156 167 156 168 179 181 68 160 112 175 123 178 168 103 83 192 202 180 77 114 138 91 139 180 171 108 118 218 186 210 126 175 133 114 184 163 175 82 173 120 185 180 191 221 133 196 189 174 172 178 106 174 147 188 176 86 122 147 130 121 107 170 176 91 191 109 190 187 96 80 115 135 62 134 65 149 98 177 175 176 119 158 176 239 221 207 120 106 180 166 99 180 183 188 112 139 92 155 145 166 137 196 189 149 98 166 138 104 147 154 189 148 139 84 80 169 93 183 149 179 97 136 81 155 93 105 70 93 67 77 97 140 178 183 188 188 121 130 186 93 146 90 162 123 102 113 165 180 160 161 153 158 88 69 75 187 200 144 93 179 173 79 100 124 57 60 68 128 79 128 105 191 92 146 170 195 197 167 179 89 120 184 75 72 104 151 177 148 121 153 198 191 207 212 168 194 111 141 149 83 163 158 66 148 113 101 139 73 84 80 65 92 99 158 150 160 113 178 175 209 172 117 147 153 127 166 101 168 154 188 94 122 213 138 190 205 179 96 179 68 93 114 157 158 194 201 154 209 175 87 96 161 118 124 177 183 196 201 114 101 170 93 107 152 75 142 114 146 129 158 75 113 60 47 73 150 62 61 91 119 169 79 139 70 87 145 195 133 159 158 103 139 162 81 159 160 130 121 82 74 170 168 66 143 119 111 81 83 159 123 160 125 102 195 101 142 94 159 194 179 99 95 109 176 82 139 173 76 158 75 71 110 124 136 98
169 176 182 185 177 172 171 177 168 171 159 154 162 156 161 163 160 163 176 179 201 198 199 186 183 176 160 173 172 171 170 166 162 163 182 207 216 210 193 191 183 203 202 195 172 182 175 180 207 161 136 164 126 162 159 156 152 149 142 140 116 91 157 143 115 166 114 121 93 124 48 52 64 76 146 100 114 179 87 147 131 93 104 37 43 123 76 141 75 72 87 81 104 103 109 114 122 141 125 104 83 119 123 95 114 89 148 138 93 108 102 81 146 88 96 163 94 95 90 150 157 89 101 122 77 78 148 163 105 87 77 134 102 171 197 123 200 98 126 101 171 104 78 82 101 145 135 159 149 93 154 145 99 75 137 146 120 147 141 133 188 170 170 141 173 182 162 154 175 189 221 224 201 155 206 145 155 185 176 87 159 92 158 167 145 110 152 169 74 66 63 76 152 197 195 138 52 93 53 169 102 199 158 179 222 183 153 148 201 111 196 215 171 194 152 93 123 124 189 220 167 129 114 141 110 173 86 113 191 188 160 103 171 184 213 192 200 204 146 92 101 146 124 125 180 102 66 128 79 115 117 168 104 130 84 83 169 181 169 191 192 240 197 199 181 164 70 78 138 90 159 126 124 123 172 183 118 155 112 124 174 91 99 102 134 90 162 119 111 206 177 92 97 96 122 119 186 180 85 109 143 95 111 117 128 135 65 64 60 79 79 159 128 188 129 190 87 120 144 171 111 96 131 163 130 164 173 73 111 131 135 166 112 176 111 183 172 130 71 58 46 43 145 59 118 68 159 190 141 183 97 96 100 152 85 135 125 98 100 181 164 86 140 184 204 197 158 186 94 165 191 163 188 173 109 124 79 106 151 64 136 137 91 142 93 132 158 168 95 157 112 63 147 121 184 117 216 100 181 101 151 174 166 171 116 156 169 102 202 134 213 170 209 108 180 152 93 148 88 115 77 174 192 180 208 177 156 91 66 113 82 150 144 166 175 93 182 166 171 161 105 148 110 81 155 75 101 165 85 142 156 100 97 87 161 175 84 176 131 147 66 77 103 157 185 162 171 71 140 91 115 72 61 58 63 67 76 75 128 100 99 105 110 62 150 135 123 190 122 152 169 103 92 185 98 149 137 113 177 95 136 82 113 153 105 116 66 125 77 160 68 149
163 168 175 173 169 165 167 168 168 159 153 152 147 149 144 152 140 153 163 170 184 175 182 193 192 174 164 162 158 166 166 160 153 150 172 195 215 217 207 194 194 208 195 204 180 188 185 216 190 193 174 158 157 179 125 151 149 123 130 79 149 114 104 130 155 88 151 89 144 99 112 110 112 78 80 87 160 142 144 68 79 90 52 71 57 53 91 100 112 72 83 125 102 99 104 137 131 177 145 103 96 75 86 90 106 93 91 81 103 119 78 77 136 72 88 175 171 178 107 141 95 99 149 92 76 99 67 134 133 126 131 122 198 114 120 197 112 194 152 182 169 128 160 178 177 109 95 168 173 184 171 96 164 162 109 180 128 159 79 153 129 128 171 132 152 87 69 145 97 195 200 210 180 230 192 215 175 116 188 118 175 108 87 150 180 135 134 97 83 157 56 69 135 196 161 161 100 55 82 151 120 183 214 132 217 168 147 186 183 150 129 194 125 185 176 196 110 148 167 132 218 116 105 85 79 88 178 205 124 125 199 194 135 138 109 119 113 205 104 91 89 152 104 143 73 65 159 159 72 151 124 136 118 160 78 95 131 105 166 236 188 172 190 125 104 139 151 105 137 61 161 156 164 75 168 129 155 206 130 133 73 127 73 93 102 101 174 161 158 171 108 115 207 204 109 128 151 157 156 173 142 192 87 150 25 59 43 47 51 56 89 81 78 183 130 146 110 195 98 83 76 88 167 74 105 173 102 77 153 108 123 87 124 200 121 142 101 56 53 117 141 115 97 111 55 146 144 187 90 195 107 194 188 117 150 89 165 86 129 130 83 170 90 124 101 116 141 161 175 133 77 92 98 168 102 114 110 101 159 125 147 60 68 121 108 167 126 103 131 83 156 162 176 120 122 123 140 197 120 156 188 195 156 126 86 178 181 185 95 132 147 129 173 128 169 108 115 112 31 65 49 132 179 125 92 178 168 153 151 65 86 117 89 165 182 83 166 91 156 74 163 76 147 140 95 165 165 107 179 173 86 62 86 143 130 89 115 169 141 53 41 65 93 177 70 92 55 84 44 127 97 89 107 81 75 150 76 107 154 81 118 136 66 152 71 157 189 129 150 123 118 158 151 118 82 85 94 129 132 129 169 163 171 114 79 128 120 89 80 142 52 104
144 152 159 159 158 155 148 154 143 149 134 132 130 124 134 149 139 139 140 151 154 168 175 185 188 183 165 160 162 167 163 161 152 148 164 188 211 205 202 196 198 202 207 209 194 197 190 217 166 186 175 191 152 149 143 153 123 133 159 121 150 114 73 103 123 143 144 122 108 108 122 127 52 107 125 139 92 146 75 145 61 136 88 112 47 123 72 113 80 95 98 162 98 100 123 117 145 149 121 99 78 81 101 104 118 92 77 79 91 86 87 85 91 93 143 108 118 115 88 88 88 107 97 123 162 77 69 141 68 83 145 197 207 114 161 200 91 151 181 82 107 184 193 193 193 171 84 163 163 102 169 155 165 156 65 150 170 185 94 78 120 149 170 162 102 126 127 40 85 168 136 177 219 198 146 211 169 124 167 188 124 158 182 155 159 187 105 172 61 54 58 69 176 191 151 191 75 164 157 166 141 121 136 128 216 199 102 91 163 106 107 99 184 158 168 105 114 117 170 109 164 133 147 167 106 157 190 130 197 129 203 202 174 200 148 124 148 96 181 99 165 98 117 96 172 129 66 73 94 103 142 119 107 142 167 93 108 97 161 158 140 127 123 138 113 86 133 46 32 70 145 147 158 118 73 167 193 131 183 148 160 103 126 100 98 137 82 128 177 93 100 166 116 109 142 96 188 144 121 174 102 108 100 128 26 105 55 57 74 163 139 126 158 98 107 100 130 166 134 177 81 137 92 123 163 190 87 154 131 142 113 106 181 114 181 75 148 144 153 154 80 150 51 60 129 126 172 100 167 127 96 156 86 168 69 80 160 125 104 185 169 128 107 132 116 169 161 147 82 143 68 70 143 151 76 168 145 135 77 140 150 72 89 175 133 105 108 183 116 137 178 180 97 117 130 209 159 201 140 113 97 192 181 187 182 77 79 85 120 116 197 118 131 108 111 135 100 97 124 116 96 46 57 142 157 66 51 58 44 126 76 180 173 188 81 99 133 139 178 162 160 130 62 106 117 80 91 91 188 114 131 151 81 82 154 135 141 112 48 61 135 119 112 111 83 141 83 74 144 42 59 115 108 164 151 74 180 163 162 122 56 76 112 60 81 77 169 161 186 194 95 181 97 171 94 146 90 104 90 160 123 96 155 111 150 129 112 72 142 73 137 59
128 137 146 152 148 150 149 140 140 136 130 123 125 137 147 142 144 136 139 158 147 159 159 172 173 186 182 173 173 178 180 170 154 147 154 177 199 207 195 173 183 189 180 183 208 209 193 213 188 185 179 194 143 131 165 126 142 134 169 149 161 146 70 130 120 86 67 104 67 118 92 48 133 107 137 109 101 158 119 118 92 69 59 53 129 69 82 128 88 94 116 151 98 96 117 111 140 104 111 90 82 77 125 140 99 140 76 68 69 62 66 70 88 63 142 81 94 84 172 97 84 106 91 94 86 168 62 123 60 76 89 106 137 114 177 153 173 160 121 130 186 89 102 200 156 172 92 124 68 138 165 106 157 149 143 97 93 170 175 158 162 128 164 125 163 134 120 44 142 146 122 138 213 144 120 168 194 193 183 148 178 170 105 173 116 155 118 169 151 90 93 56 87 89 97 182 143 182 174 132 93 145 172 187 211 204 114 137 79 174 95 160 158 144 95 139 140 206 197 103 164 179 156 79 87 150 188 189 153 132 118 91 192 151 103 109 124 82 96 156 120 84 165 165 135 167 172 100 153 114 174 121 203 120 106 176 74 168 197 123 200 156 175 186 132 100 96 109 71 137 59 46 84 97 125 145 154 70 123 108 159 77 127 76 91 101 158 149 111 73 128 156 141 106 108 137 125 164 183 97 100 70 105 110 92 66 137 86 103 87 71 105 169 102 114 121 101 116 186 95 167 81 104 63 72 90 156 126 127 105 116 185 165 194 100 125 160 76 79 74 86 123 68 63 149 119 81 130 99 197 182 144 142 88 82 172 69 176 165 129 102 130 159 151 142 180 120 102 169 139 85 134 88 95 70 112 97 58 50 125 132 122 162 159 164 202 213 126 192 182 155 187 95 88 88 156 125 154 206 170 193 89 146 161 180 96 141 139 83 140 106 191 118 100 152 134 164 146 45 120 60 111 137 86 110 93 68 55 103 62 130 135 182 116 140 78 148 134 71 88 151 161 164 158 71 80 136 169 99 168 176 165 77 114 118 175 171 64 107 65 63 69 73 110 102 43 147 95 117 123 83 92 82 171 131 166 90 125 119 130 140 98 137 142 106 170 150 156 107 147 104 73 155 105 124 135 88 97 121 191 179 151 114 109 151 122 132 189 80 155 153 142
119 129 140 148 142 137 131 132 128 139 138 143 135 147 149 150 159 157 175 167 154 155 145 160 172 190 198 192 192 187 185 174 161 157 164 179 196 196 187 170 173 164 180 255 181 183 204 178 197 164 178 166 157 153 166 121 130 118 136 135 120 113 136 142 128 120 63 136 83 70 134 58 124 83 83 122 101 126 178 143 105 93 112 73 66 98 76 91 126 133 130 116 126 95 93 105 105 104 106 94 74 99 84 141 109 98 100 65 80 108 70 89 65 59 118 70 81 166 85 168 156 98 126 72 126 148 73 128 52 157 83 97 202 103 118 112 91 123 72 70 77 179 94 198 196 185 107 56 100 168 109 192 163 157 149 96 151 161 165 78 168 145 89 82 141 123 38 88 84 164 111 169 150 171 204 124 81 87 128 189 175 79 88 146 166 154 161 109 89 146 76 150 60 80 196 184 121 176 185 119 185 96 178 124 129 157 197 191 155 165 162 178 179 117 125 196 210 120 171 204 120 125 93 90 71 69 161 187 102 193 183 95 122 81 81 142 73 163 157 155 143 76 130 158 75 99 142 95 202 107 110 207 195 112 102 76 157 74 108 179 88 122 99 130 185 79 174 167 110 89 59 41 61 103 74 69 67 76 145 89 75 142 138 109 173 66 62 97 105 135 117 134 178 84 104 86 68 71 130 64 54 92 48 69 149 71 156 94 161 96 92 148 149 147 149 119 93 181 97 72 146 96 166 71 149 128 91 74 136 191 123 185 116 184 133 83 155 94 102 188 176 108 173 125 165 122 95 100 100 193 188 152 136 103 150 81 172 170 79 177 76 165 83 138 69 130 139 166 77 166 109 154 91 139 78 128 87 75 41 147 105 176 199 193 147 118 168 202 125 131 166 169 177 116 70 171 136 162 123 174 93 170 140 167 96 171 112 84 183 114 185 191 116 153 99 149 148 176 132 143 35 40 148 58 76 57 84 85 137 114 165 101 93 180 112 157 148 119 136 152 167 164 162 91 171 106 88 85 83 180 73 166 158 68 167 157 150 152 103 155 92 67 159 94 63 111 55 53 67 71 160 175 162 169 178 171 181 175 160 135 145 139 122 157 110 161 120 157 165 74 111 137 118 85 102 132 84 93 202 139 144 140 200 99 110 115 100 124 153 156 105 102
119 127 134 133 129 124 120 129 136 145 147 147 148 162 169 183 189 178 196 179 165 150 149 147 159 184 198 209 201 190 179 177 168 170 175 181 181 180 178 175 173 172 175 169 170 167 181 172 162 145 182 156 184 180 169 158 174 180 189 161 154 114 101 84 123 108 100 106 93 82 93 66 151 142 127 184 176 117 129 115 137 110 95 122 117 98 136 83 128 135 169 121 109 95 79 102 121 110 99 73 76 78 84 96 94 110 73 61 67 128 79 81 69 78 145 68 91 139 99 109 90 59 135 97 85 66 143 80 136 143 77 102 148 197 88 174 130 148 157 65 74 118 191 154 101 77 63 150 117 156 134 159 155 168 59 172 189 161 186 93 81 132 180 117 139 146 60 119 81 138 153 210 194 187 177 99 158 134 92 115 153 163 92 91 139 159 110 138 155 134 155 59 153 73 177 188 195 100 176 178 107 127 140 193 122 171 180 157 83 99 176 171 171 129 154 96 107 163 193 196 129 92 172 67 105 64 173 180 189 183 171 81 100 74 162 164 140 63 156 98 48 45 146 110 157 99 117 153 178 104 174 165 199 197 89 87 143 156 167 153 169 78 82 157 138 114 146 139 100 87 114 89 146 62 109 103 148 92 104 96 58 97 94 172 165 68 151 72 91 132 71 81 82 68 91 99 93 73 96 106 60 139 77 65 70 104 119 164 190 106 119 178 87 94 139 192 165 101 88 136 80 93 186 89 78 113 138 130 161 161 145 171 183 110 49 121 127 189 107 94 174 139 66 159 81 79 165 165 103 115 179 171 140 178 186 81 109 142 164 164 113 149 108 78 79 126 117 114 93 62 103 87 144 103 127 149 135 50 137 64 164 185 183 90 123 107 196 103 157 74 101 100 141 118 88 81 173 107 111 194 109 108 104 133 148 124 87 188 160 122 86 86 94 116 115 163 159 100 103 118 65 83 151 176 170 176 165 154 176 93 143 68 164 112 77 168 162 142 59 50 144 157 118 154 164 180 190 187 157 102 150 131 137 113 75 141 176 77 80 159 130 134 93 154 175 138 94 136 125 133 74 180 115 105 95 197 145 165 145 125 77 84 172 175 105 180 151 94 70 135 76 120 54 76 89 171 160 104 111 105 176 196 123 115 174 184 127 130 184 90 75 166
124 124 121 121 111 110 109 119 136 155 153 162 163 172 185 177 189 187 201 205 185 170 144 142 133 164 184 200 191 193 184 183 181 180 182 177 173 171 167 177 165 169 166 165 157 162 157 163 147 172 143 135 152 159 164 163 180 195 165 147 129 99 89 73 104 122 132 55 145 96 161 144 98 124 134 132 128 188 119 121 130 140 157 91 72 86 119 127 190 145 199 174 140 87 106 98 91 94 106 74 78 89 75 75 69 117 103 107 79 108 121 92 88 70 69 96 77 104 188 153 90 58 56 134 157 87 61 120 94 44 136 86 100 193 175 153 153 66 154 162 115 175 120 162 176 70 163 161 128 154 185 123 124 159 129 103 148 203 178 152 107 192 103 149 98 79 148 149 77 109 161 181 114 198 112 134 170 174 184 127 202 255 91 130 148 88 68 78 81 71 169 91 171 162 80 190 185 87 89 96 122 112 104 134 142 192 108 183 160 122 76 161 129 72 102 155 165 194 179 191 193 95 115 116 95 67 173 114 92 185 180 173 160 56 54 148 102 60 50 71 137 131 100 114 145 161 91 142 202 145 113 165 197 192 126 61 57 52 91 135 128 79 162 85 81 103 157 151 172 203 184 154 104 48 66 59 118 60 74 65 84 166 108 188 168 138 81 73 93 76 169 148 55 70 163 91 135 78 64 126 75 132 164 116 88 124 106 83 180 159 180 115 146 102 210 190 144 99 98 183 111 102 194 84 172 149 128 63 81 86 113 132 170 137 83 118 117 99 166 89 167 71 148 69 158 71 157 81 150 86 173 109 145 162 93 171 112 158 78 160 108 77 160 141 152 173 110 117 155 129 56 57 52 69 101 135 156 102 144 151 90 125 141 185 97 173 191 196 157 178 159 139 108 154 150 178 181 196 110 102 75 65 125 158 100 150 144 163 144 148 179 85 161 110 119 197 205 137 105 176 167 179 187 175 187 138 188 184 99 94 102 139 76 147 132 103 59 145 143 47 159 142 71 124 160 170 177 106 135 167 153 147 91 108 146 146 123 75 127 101 75 163 81 105 194 156 84 73 146 151 168 130 163 123 101 148 107 182 89 89 158 100 191 188 167 117 183 127 69 73 105 125 129 84 161 166 118 170 150 169 168 137 108 85 180 89 180 174 121 130 73 94
132 123 108 104 104 104 113 120 144 154 164 163 168 167 175 171 189 188 204 189 193 175 156 150 137 140 154 184 178 176 177 187 187 191 182 170 157 153 163 178 185 184 177 174 169 145 162 158 159 153 139 134 146 115 163 140 185 196 156 156 187 182 144 90 115 55 125 113 73 72 144 131 163 151 198 187 133 109 109 197 125 127 173 105 148 117 83 118 123 182 163 126 144 94 74 67 255 66 113 67 64 93 70 72 108 66 68 77 87 101 101 102 106 108 91 138 155 137 118 108 82 148 114 84 75 79 71 62 82 44 58 85 158 87 160 183 80 73 159 162 177 92 152 183 137 168 75 141 121 176 129 84 183 146 183 97 163 176 148 176 140 192 126 166 146 130 175 175 175 154 168 126 116 179 165 144 97 174 182 114 211 160 132 120 167 85 127 88 133 184 113 174 164 160 84 120 101 182 82 176 105 146 103 113 115 124 97 84 173 130 96 110 119 69 141 138 77 87 165 90 179 144 98 158 169 156 176 119 122 175 155 136 129 255 163 77 148 132 149 37 95 135 141 45 154 104 155 159 199 93 131 145 82 143 90 70 59 123 139 95 164 94 99 92 68 106 158 180 131 161 175 119 158 66 96 52 143 52 88 133 107 116 70 133 106 178 101 121 123 177 81 118 108 129 185 101 108 191 73 113 145 115 75 125 87 98 94 158 72 79 131 154 99 104 168 118 192 152 110 192 128 106 166 119 87 67 121 91 153 132 128 183 163 106 148 147 90 159 119 84 158 146 122 134 149 153 151 169 153 158 112 70 71 140 157 116 68 174 126 164 140 104 162 150 159 159 93 94 86 112 122 62 143 144 139 99 64 98 125 122 78 135 192 129 90 128 108 192 191 83 145 117 108 79 182 161 177 168 91 100 128 156 58 122 153 79 190 125 96 174 80 168 99 167 107 147 206 143 179 154 89 129 181 124 123 207 120 187 104 93 174 76 133 187 166 72 70 48 105 49 83 161 165 158 92 92 91 96 109 125 69 155 118 74 141 105 173 189 175 95 165 126 101 180 103 88 111 71 147 77 71 103 115 138 102 115 158 179 87 81 88 90 165 101 191 165 124 152 162 71 156 64 68 63 65 168 185 98 101 91 157 130 105 157 174 107 197 89 83 115 147 99
141 124 104 100 105 112 117 128 139 154 170 179 182 176 166 166 182 183 187 199 183 195 168 160 143 135 143 149 155 153 169 181 204 198 188 169 151 154 162 178 184 184 186 186 183 167 145 130 149 94 122 93 138 135 141 139 159 154 154 206 193 124 164 129 129 127 72 112 111 160 162 123 139 169 117 125 103 95 97 101 140 174 179 117 106 104 171 121 126 152 115 115 90 115 78 70 76 81 93 131 79 75 111 123 93 101 114 110 113 91 104 137 94 80 60 61 100 184 165 118 168 78 110 179 88 92 168 73 53 122 55 163 171 160 185 93 166 175 82 178 86 118 192 108 108 133 73 74 172 177 164 166 192 197 125 146 183 139 142 91 96 147 185 87 111 148 185 195 176 173 180 166 113 90 180 177 166 106 130 175 109 218 181 137 110 153 163 192 189 185 84 82 80 179 182 172 91 189 169 146 137 170 189 197 113 186 173 76 175 176 67 54 120 154 152 150 68 125 185 89 120 149 158 105 81 101 148 84 161 74 167 159 162 142 171 122 158 178 150 46 56 71 140 155 60 96 148 106 184 114 153 133 69 157 158 84 156 98 115 107 190 151 179 76 151 115 69 178 162 195 200 156 176 57 126 71 151 118 144 55 113 106 115 117 144 95 146 95 84 79 67 107 156 80 113 133 163 111 116 139 89 166 107 146 82 105 127 77 153 61 59 75 181 104 151 164 170 143 79 163 163 184 189 86 81 68 128 255 76 81 195 93 78 127 154 151 84 180 88 82 63 115 45 121 47 160 76 83 75 161 161 61 134 74 173 126 180 141 169 198 196 114 169 118 83 120 105 195 137 160 113 145 136 138 123 140 82 79 114 116 90 151 94 169 109 185 172 154 93 168 174 148 167 174 103 148 173 155 166 166 70 84 145 111 79 78 139 192 99 86 77 82 86 133 206 161 108 103 93 186 172 108 144 188 211 114 206 200 180 93 174 90 138 96 136 144 91 90 81 81 87 173 87 73 132 148 97 171 117 134 99 159 168 162 184 176 158 106 131 177 138 160 136 134 144 130 160 97 128 105 89 158 169 140 156 211 143 138 92 156 186 165 203 132 144 145 97 73 75 255 106 73 159 174 151 142 167 131 126 99 143 95 107 122 116 180 128 121 168 137 97 121
140 127 112 110 115 125 130 125 135 154 177 179 182 176 170 176 178 173 179 197 206 195 201 183 148 134 139 131 134 141 152 181 202 204 183 169 157 161 170 180 177 185 187 203 208 201 192 168 122 125 103 124 126 149 149 154 131 116 197 146 205 183 154 96 95 121 62 141 110 173 106 102 103 167 85 112 137 161 158 86 138 144 136 108 133 171 99 130 160 144 138 86 113 99 119 106 106 86 90 115 126 104 103 106 108 125 119 85 74 79 92 97 96 88 87 138 94 128 201 144 100 95 131 125 108 154 93 100 147 119 109 152 83 76 78 92 181 83 172 108 181 183 91 152 95 122 84 79 128 159 163 152 148 196 171 182 164 158 172 129 181 145 105 101 150 164 169 161 190 199 156 163 172 180 174 143 196 122 153 115 159 143 208 193 136 89 174 191 90 151 140 106 93 97 182 196 185 169 98 162 128 88 182 110 126 158 94 135 185 126 172 58 130 161 153 146 78 170 191 146 154 179 81 94 114 103 76 78 162 84 78 181 110 85 178 205 127 182 128 143 130 79 151 150 157 68 115 80 138 168 137 156 142 55 154 136 58 176 144 192 111 103 181 110 61 118 129 154 167 116 179 175 118 108 53 126 73 107 99 95 133 130 135 124 108 141 93 107 143 89 170 59 89 135 107 211 132 187 138 186 103 100 131 98 88 107 102 115 98 91 59 67 85 147 156 172 155 153 122 144 87 170 147 68 255 68 123 168 84 188 170 172 154 133 90 136 166 194 95 161 140 61 140 138 137 162 76 81 176 113 127 167 146 176 148 183 145 141 143 162 161 190 181 136 162 173 151 157 97 121 156 89 100 140 72 171 156 74 152 75 152 81 164 168 83 164 173 84 124 186 255 108 128 163 141 79 186 177 141 166 79 151 157 156 72 129 169 153 98 161 124 82 134 194 187 124 143 105 155 101 113 185 142 189 114 144 193 212 184 108 88 108 151 122 177 157 62 141 142 149 159 98 184 131 172 175 98 193 177 189 97 127 174 83 184 200 167 210 172 154 165 182 155 171 131 134 161 112 113 106 107 96 163 197 120 204 142 202 168 135 174 131 104 157 178 98 66 71 160 167 100 118 104 143 164 95 164 141 90 130 127 111 168 171 195 139 104 81 159 164 82 125
134 127 123 122 132 133 133 126 138 151 170 179 181 165 179 180 171 182 193 192 202 205 201 189 163 151 146 133 131 131 142 176 194 198 191 178 173 168 175 187 182 182 195 200 221 196 206 183 255 138 138 96 138 136 102 149 117 127 146 197 199 175 143 94 133 109 153 142 169 122 150 109 93 95 73 139 72 141 150 79 132 104 96 174 143 117 135 89 160 89 122 88 71 70 73 90 102 121 125 109 137 114 102 131 114 145 125 84 76 82 84 90 77 71 95 136 104 124 123 107 100 95 118 94 121 172 119 154 47 91 76 167 181 137 168 140 156 167 169 122 110 106 88 177 169 198 96 148 111 138 117 161 197 113 193 170 163 161 182 179 167 101 150 110 177 169 127 136 123 186 100 185 100 100 98 200 121 198 132 172 131 107 124 170 102 182 169 137 109 165 162 164 90 172 199 212 216 132 197 166 111 177 73 105 78 159 149 186 96 124 176 160 122 105 146 119 87 178 182 184 186 192 148 108 165 81 87 94 88 68 111 160 163 185 93 183 108 196 175 112 142 141 59 160 164 120 79 126 172 109 141 59 122 158 157 60 63 76 147 126 215 206 137 76 64 130 48 158 105 87 173 180 66 75 56 122 85 70 125 59 120 73 117 54 104 148 96 138 186 146 150 171 107 99 154 152 206 208 138 208 192 135 105 81 97 130 107 88 70 53 79 68 136 148 112 79 65 87 161 72 139 77 139 154 97 170 96 90 126 201 105 171 85 115 114 96 177 186 199 88 82 76 124 156 153 66 99 147 76 83 139 89 142 136 187 150 154 209 137 116 190 115 163 105 110 101 202 107 164 90 151 155 158 134 180 88 154 150 149 44 75 121 91 153 67 82 119 165 181 193 179 101 145 102 72 93 86 179 130 79 165 151 139 151 163 79 177 137 108 140 135 192 101 129 140 152 82 181 192 208 200 142 94 168 172 98 156 173 116 163 97 128 131 190 173 83 69 158 117 171 87 180 86 101 89 117 95 187 145 192 174 161 95 178 193 163 138 135 223 120 195 132 112 91 97 130 158 94 163 121 71 162 131 126 145 136 168 151 216 217 213 210 122 192 80 95 69 105 67 136 176 145 95 190 108 146 84 176 177 172 98 158 155 178 196 151 96 86 108 64 101 77
131 130 133 132 138 138 127 126 131 151 154 173 172 170 183 176 199 203 189 200 198 189 181 186 172 154 156 143 131 131 146 170 189 193 187 183 181 177 185 180 174 167 188 192 219 198 207 188 163 146 157 132 146 142 115 97 125 171 195 191 205 196 142 166 168 176 170 98 179 171 138 174 75 100 142 78 112 60 135 146 127 165 146 93 90 163 102 136 94 93 125 84 76 80 74 124 156 122 156 143 104 90 88 98 101 113 144 102 113 109 82 91 70 109 161 164 130 143 121 157 104 97 92 180 80 155 65 49 57 73 181 108 156 186 63 51 62 52 63 166 157 145 100 196 192 114 127 162 137 123 121 174 185 154 183 100 69 122 255 109 139 172 159 181 147 193 113 113 153 184 118 121 105 167 126 192 200 108 157 113 117 80 108 199 129 213 208 189 101 92 134 63 176 105 120 207 123 162 186 140 186 177 172 70 71 178 186 139 179 171 105 163 129 156 123 147 129 168 114 115 138 162 195 192 183 86 129 151 160 88 166 138 165 102 85 175 138 192 101 171 143 154 159 93 153 170 150 160 121 171 66 149 139 156 136 87 69 93 184 157 158 118 127 155 103 96 147 75 129 136 132 174 91 141 89 106 157 120 124 155 135 115 119 140 90 71 168 113 158 155 142 114 111 93 167 103 141 97 196 153 205 216 168 110 93 125 204 105 167 168 134 143 132 142 168 70 112 129 69 107 77 64 59 90 163 76 94 109 208 196 107 186 161 72 144 77 150 156 104 177 80 88 73 167 161 161 104 164 153 72 180 114 171 104 96 103 206 204 125 148 134 141 155 118 172 181 86 160 163 61 86 56 67 81 172 133 80 75 101 50 111 141 45 101 72 137 153 105 177 203 186 95 167 112 175 130 183 123 116 173 154 122 141 153 147 148 86 141 179 104 167 156 143 120 160 165 89 118 198 184 183 165 148 146 150 98 165 117 128 88 81 94 125 202 173 95 151 120 85 84 134 110 183 186 178 185 184 91 131 211 220 177 199 202 196 195 223 137 207 175 186 77 128 153 147 158 125 111 184 85 132 88 126 149 216 140 207 131 134 217 139 103 120 90 101 91 160 107 165 177 114 130 174 182 125 96 89 139 102 121 195 98 148 147 176 77 103 171 166 159 143 62
134 135 136 135 136 131 132 125 123 144 152 154 163 163 167 189 203 195 191 198 186 188 187 184 163 160 154 153 149 151 161 173 187 191 186 186 184 180 176 164 167 171 174 200 209 191 172 176 159 163 143 141 113 144 88 105 95 128 158 148 168 175 113 186 128 144 199 127 133 143 169 156 108 58 119 54 51 123 112 119 77 114 154 114 141 84 149 88 95 151 97 151 84 113 115 122 151 179 139 114 106 91 109 80 79 106 84 90 96 135 130 116 89 117 111 105 115 111 126 171 88 141 98 166 73 59 55 124 79 154 87 190 165 193 155 84 29 109 152 155 79 120 175 99 173 203 112 186 84 133 161 85 184 169 164 69 150 85 154 86 171 141 85 107 177 164 95 129 176 123 88 163 177 99 110 155 186 132 96 151 53 76 166 164 200 205 139 198 167 166 57 125 157 127 96 196 171 170 125 147 100 181 139 152 181 181 123 113 138 142 147 97 175 147 162 58 151 160 168 186 104 128 181 147 179 118 68 154 165 170 68 72 69 180 155 195 205 209 154 183 163 68 66 69 81 144 183 89 121 148 64 55 120 97 100 148 164 135 135 160 173 110 81 64 111 49 123 85 106 117 121 95 93 79 131 113 175 93 182 90 69 53 125 100 127 120 123 110 129 135 89 136 98 83 122 98 135 191 112 208 141 119 181 199 187 111 136 131 115 83 105 150 84 118 184 78 76 80 105 141 127 153 86 59 170 103 134 152 111 167 194 170 186 78 160 89 126 116 138 108 163 110 142 132 137 139 59 69 67 148 151 194 94 164 174 171 125 104 119 142 140 151 124 202 194 149 51 132 121 152 151 90 152 85 160 181 166 78 105 143 83 153 99 104 62 81 65 110 255 138 133 183 179 173 93 95 173 89 96 117 64 146 90 58 66 158 94 64 69 78 181 130 182 189 162 139 92 82 139 205 164 122 112 88 43 133 51 133 114 87 159 131 100 102 132 166 166 82 178 200 112 93 90 94 180 176 75 81 133 123 131 183 133 200 187 208 163 201 107 92 170 82 58 167 188 192 102 206 199 199 137 171 140 191 175 208 122 143 180 216 204 99 141 102 190 109 78 121 88 98 97 163 100 84 169 126 91 146 165 107 135 185 158 68 102 166 69 134 111 61 50 45
144 143 142 138 134 132 124 128 131 132 148 146 154 149 174 175 190 194 204 189 177 189 180 177 168 172 154 163 154 158 169 182 189 190 188 178 178 169 166 164 162 170 182 181 186 164 166 157 144 125 168 173 146 137 116 140 120 168 165 204 138 150 141 177 193 156 136 203 106 178 113 134 73 52 137 80 55 49 61 140 152 136 125 106 99 90 84 89 111 96 134 142 148 131 78 119 99 152 110 106 108 91 124 76 62 85 62 99 91 164 107 87 76 127 116 111 103 100 91 163 147 96 123 139 67 101 63 139 47 89 177 195 197 94 82 73 135 93 57 100 137 81 76 188 106 121 224 137 172 162 73 140 118 84 137 113 140 143 145 85 104 157 189 132 138 132 121 113 91 110 174 175 180 125 144 127 86 155 166 147 47 138 132 168 156 121 109 133 103 140 159 172 150 133 85 194 123 94 167 82 100 106 191 105 106 186 124 173 141 153 147 95 118 119 99 114 110 109 156 187 93 178 189 160 201 112 181 105 167 78 173 100 168 189 199 196 214 213 210 200 194 126 177 171 182 98 117 85 133 175 136 123 59 116 173 181 171 118 117 140 144 182 175 159 147 64 84 156 95 167 200 175 101 155 163 92 163 91 104 164 172 166 138 129 159 105 75 48 71 154 181 132 156 178 115 93 88 127 172 131 120 122 215 183 105 214 119 115 183 101 85 107 99 178 98 95 95 137 79 83 112 144 114 76 174 98 127 108 137 212 121 184 105 101 116 84 108 88 179 64 67 122 167 165 122 154 99 88 169 95 120 199 96 180 85 78 148 113 151 181 138 214 174 103 178 144 84 131 85 123 138 64 65 84 122 184 113 145 112 64 102 126 110 132 108 145 169 164 118 126 201 102 183 143 128 201 151 91 93 122 165 157 120 162 133 79 56 117 142 175 185 130 200 173 170 158 71 82 89 94 164 142 89 72 98 127 144 156 168 148 136 195 98 172 139 130 104 169 201 112 157 151 188 98 187 82 78 108 145 187 126 110 103 139 122 102 107 173 131 168 63 119 123 167 134 198 195 199 192 149 179 122 149 107 183 199 161 186 199 179 118 88 107 138 170 128 162 89 194 192 145 163 95 68 155 96 88 198 118 117 179 167 134 130 79 99 118 118 76 50 144 37
150 148 147 139 133 125 123 121 128 142 151 149 140 148 156 173 180 194 194 185 189 181 199 197 179 177 169 165 156 158 172 192 193 186 181 170 164 156 161 163 171 177 166 176 170 172 129 115 140 131 153 180 159 119 92 134 167 123 195 132 140 123 157 187 180 198 164 166 111 170 82 117 126 120 120 87 119 80 128 94 62 80 160 103 162 129 87 83 111 89 101 109 104 137 69 123 85 80 82 77 100 117 103 100 79 56 100 114 81 141 147 79 75 84 116 105 152 82 66 114 107 136 75 75 138 61 111 145 149 100 76 84 255 162 115 76 92 62 62 92 72 175 178 120 115 175 155 194 114 107 165 162 91 96 135 134 158 170 98 183 200 203 155 109 92 92 165 150 176 120 189 125 127 183 82 165 165 176 168 102 67 103 106 73 192 103 148 130 147 161 120 107 175 75 122 169 124 170 168 147 129 189 115 121 123 146 154 150 187 105 174 98 95 101 149 104 108 126 108 154 67 143 88 155 210 111 148 94 166 152 183 167 104 122 157 125 195 196 116 196 199 192 189 117 192 107 99 171 92 71 165 158 150 154 159 72 123 165 186 168 161 163 119 118 163 173 177 123 154 160 190 114 107 178 106 193 177 132 118 153 187 83 131 124 74 134 82 149 156 104 73 72 69 160 127 162 147 112 97 142 140 196 126 108 159 201 196 190 205 97 157 120 87 192 117 124 111 139 79 149 82 137 49 111 117 136 98 182 103 187 124 112 109 190 92 116 119 179 69 136 146 114 89 96 85 83 181 106 91 188 104 210 203 89 82 158 165 156 76 185 104 167 109 173 164 159 114 121 139 165 134 99 169 136 124 138 114 112 158 128 81 87 180 168 183 114 164 156 169 178 198 110 167 167 119 138 139 177 160 195 190 170 175 165 168 105 165 151 162 176 170 142 159 156 125 128 165 161 166 128 169 143 183 94 72 152 153 69 182 173 194 130 195 120 108 100 92 81 178 173 209 118 175 117 192 96 105 182 202 192 174 117 181 109 180 160 173 166 160 112 114 79 128 113 137 181 175 139 211 139 103 167 118 90 94 147 191 190 186 189 81 80 98 165 94 137 183 134 142 171 131 165 155 110 142 60 81 202 111 191 97 95 77 65 153 182 192 151 76 157 114 133
151 151 149 140 134 133 123 120 125 142 143 149 140 145 137 157 180 186 186 181 182 202 197 209 189 186 175 160 169 177 185 192 188 175 170 158 156 156 156 171 166 185 186 167 181 158 137 140 104 148 159 163 151 98 144 159 141 182 165 185 123 129 180 190 212 170 188 101 157 154 94 151 140 88 140 145 85 122 133 58 137 89 80 106 154 104 163 111 131 93 101 150 85 82 79 73 63 112 77 76 75 107 79 57 70 37 44 84 72 77 81 78 105 78 104 86 71 146 59 91 176 90 150 105 128 111 80 57 108 159 152 102 79 81 121 90 86 104 182 86 121 181 122 198 108 209 119 185 109 100 160 184 175 124 173 160 189 130 197 188 181 172 219 188 123 75 136 97 186 162 121 211 178 191 162 131 167 146 74 106 88 100 91 71 186 161 192 108 153 191 148 143 173 93 164 83 163 162 79 92 76 96 111 148 131 186 85 141 179 117 167 188 92 207 112 117 172 142 94 157 146 95 94 204 226 141 190 197 203 170 131 93 118 128 207 215 114 196 172 99 182 196 96 151 130 207 184 177 97 90 65 126 160 59 145 61 170 157 183 104 155 108 158 150 148 182 134 185 155 117 102 180 172 89 168 142 103 181 173 196 157 168 84 83 89 71 126 158 135 169 83 109 116 69 173 162 109 86 107 166 133 225 218 129 153 99 105 129 137 129 82 147 177 196 128 218 159 178 164 156 145 131 57 121 126 96 161 118 87 146 206 202 121 193 189 198 90 97 60 127 50 146 112 92 168 195 96 181 157 86 105 199 194 91 144 54 75 151 154 120 122 187 180 144 65 130 168 181 172 98 184 172 169 159 150 101 127 125 162 180 163 132 150 196 190 91 165 120 66 142 110 206 131 146 220 145 88 161 91 138 121 105 184 96 97 180 165 133 84 193 206 113 131 191 190 171 161 78 168 185 121 203 111 159 189 153 136 71 100 173 129 142 193 95 193 151 156 169 190 204 158 201 172 159 201 104 209 202 187 121 130 80 81 116 178 72 69 159 76 146 137 164 153 122 154 164 101 203 199 216 210 100 131 171 194 143 185 154 84 179 158 57 112 69 109 83 192 160 112 192 91 169 117 62 75 85 171 192 118 173 150 255 70 134 87 198 215 114 188 114 63 156
136 141 145 146 145 140 136 135 133 133 147 157 141 138 136 159 168 173 174 174 180 206 203 214 194 191 176 171 169 186 186 192 184 172 166 159 155 151 161 171 177 177 160 180 157 167 149 139 113 146 153 137 123 104 137 135 130 127 182 115 189 186 180 157 181 188 128 96 119 152 108 84 92 104 155 100 77 74 105 77 57 93 92 94 167 130 120 116 109 141 118 152 126 56 107 50 47 63 68 119 78 125 80 64 66 53 114 79 107 69 100 138 144 124 77 75 68 120 60 80 99 109 161 80 75 57 128 63 69 103 170 86 120 155 197 112 198 186 103 100 196 97 191 198 200 105 134 102 112 159 146 152 135 144 169 182 215 207 233 191 132 158 134 175 152 146 79 163 163 190 125 143 125 131 103 170 136 114 72 82 97 76 122 132 113 137 208 144 212 197 192 195 108 149 68 58 105 126 70 79 124 187 102 98 122 192 100 175 155 183 177 158 132 195 108 207 191 156 107 109 66 128 142 136 208 208 196 157 126 183 79 71 169 99 189 113 105 179 97 193 167 199 119 111 212 216 104 79 83 121 76 94 176 114 60 79 74 146 138 191 100 113 108 84 173 149 115 97 170 158 116 112 113 144 114 179 110 128 162 156 178 169 66 94 170 173 152 134 117 184 86 127 149 72 92 114 84 111 111 99 105 132 110 122 144 182 126 162 96 125 81 91 148 103 123 198 115 201 91 103 148 78 153 82 92 170 79 69 79 109 139 175 131 107 205 104 123 138 148 46 83 76 85 96 103 98 194 85 163 77 142 194 188 177 70 138 135 121 119 159 179 114 161 158 86 125 102 173 192 167 175 187 129 154 113 147 154 114 162 88 101 158 138 106 112 195 115 150 168 82 88 125 152 116 214 200 89 120 103 98 99 187 139 160 76 131 93 117 185 106 107 187 116 129 143 94 170 82 162 92 210 182 230 191 137 99 185 99 172 117 122 183 189 116 196 193 163 101 95 103 106 206 206 183 170 106 126 183 119 162 93 102 109 87 81 116 156 70 168 158 131 157 67 177 174 100 195 178 127 153 209 99 185 104 108 161 191 141 129 83 162 60 118 87 99 102 126 114 176 154 108 159 47 139 79 64 155 201 144 229 132 94 96 87 91 162 227 172 223 127 182 78
115 123 130 138 146 151 151 146 134 142 147 152 144 154 140 143 165 155 162 159 168 194 197 202 202 181 184 174 185 196 199 189 183 172 162 161 158 160 164 164 166 160 162 169 152 172 165 157 153 147 152 148 116 103 113 127 127 159 147 180 133 185 203 166 142 142 170 120 129 129 153 94 127 161 143 155 127 100 143 156 68 67 113 94 105 109 131 107 173 151 102 89 64 43 56 55 54 60 74 118 128 104 78 60 70 94 60 65 77 70 75 67 108 85 91 74 121 63 110 143 94 98 106 185 79 163 92 67 60 138 79 116 94 186 109 124 133 183 212 149 179 144 111 174 184 163 164 75 140 87 182 168 183 107 95 154 153 222 152 147 168 163 140 174 183 76 139 84 120 184 137 208 119 185 90 153 82 102 129 163 92 113 94 83 90 116 198 157 137 165 172 94 188 177 165 139 152 152 143 88 171 148 137 175 155 91 82 80 165 171 155 182 175 129 182 115 100 147 166 156 86 90 193 205 121 108 148 126 194 140 153 92 160 167 110 185 180 181 96 137 106 205 113 185 205 160 99 94 90 87 102 144 171 180 168 87 179 162 188 118 134 173 111 131 101 173 179 105 106 132 140 94 58 162 96 82 162 183 190 98 174 91 131 74 79 165 131 89 142 160 103 121 82 150 122 94 100 125 157 173 119 92 92 93 174 107 93 119 104 192 89 80 107 95 110 128 124 146 160 99 75 142 138 169 103 89 61 57 153 157 162 190 201 200 193 88 153 71 155 145 150 68 167 87 151 172 90 123 173 255 147 162 138 100 146 49 140 129 97 179 120 178 141 160 89 81 187 122 211 186 165 178 195 192 92 121 80 143 183 80 161 165 85 128 151 108 145 127 170 110 126 190 187 107 128 139 94 183 78 79 89 110 172 121 179 93 106 201 205 161 122 97 159 128 128 104 96 188 195 103 124 176 152 185 165 219 200 159 120 70 131 84 177 96 191 180 129 106 106 207 107 204 197 190 163 193 181 111 174 186 80 168 115 158 147 178 188 144 88 165 61 132 114 143 184 88 110 195 206 166 201 157 105 98 202 161 180 190 161 162 84 72 118 154 102 115 132 120 172 99 182 107 47 99 104 72 157 117 174 143 137 201 102 113 111 199 176 159 224 169 159 87
98 106 117 131 139 147 155 148 139 143 152 149 149 164 162 165 161 155 153 158 166 181 193 197 195 190 186 185 181 194 204 192 186 172 165 167 170 157 165 157 151 148 153 140 147 181 161 180 154 150 140 115 156 118 132 142 128 128 158 122 130 179 152 164 172 126 133 130 105 165 79 118 101 175 185 130 101 139 80 143 115 77 77 84 128 101 91 92 98 107 115 108 122 41 35 33 71 65 94 85 104 96 80 94 49 75 61 84 66 71 65 140 106 118 81 78 148 73 80 96 94 96 194 114 100 134 58 99 123 66 121 162 182 102 177 116 209 124 123 199 99 142 194 98 166 78 149 160 170 171 186 182 168 80 172 179 104 207 206 139 143 219 191 142 83 86 92 135 179 104 196 196 147 103 172 139 118 98 125 103 110 117 146 167 178 180 171 156 194 193 119 141 111 188 185 88 101 111 210 121 115 130 166 149 160 173 90 114 188 84 150 180 151 98 196 162 107 119 134 128 124 83 164 96 78 173 84 187 191 134 178 167 60 137 67 139 168 181 153 193 157 212 223 141 203 207 85 68 155 83 153 184 185 175 166 140 80 120 158 191 90 113 147 128 131 90 161 82 138 115 116 97 57 154 60 85 89 76 99 186 100 85 171 81 129 113 149 180 104 103 88 185 71 71 170 116 105 62 76 159 80 59 68 144 162 129 132 98 144 128 135 141 85 153 187 116 138 175 105 98 74 117 93 153 117 77 101 67 105 76 94 119 193 94 111 181 120 131 162 159 157 98 75 89 92 174 90 181 66 55 136 122 72 74 124 104 89 117 98 86 144 167 152 121 136 148 196 139 186 143 174 197 164 176 82 146 72 159 108 139 79 165 87 139 164 164 152 161 80 73 152 183 160 165 137 182 188 76 125 115 88 86 88 176 97 194 110 207 154 193 149 152 153 82 131 89 181 188 121 198 183 201 170 216 150 167 152 109 181 105 159 157 161 145 148 106 92 125 158 190 156 111 193 86 178 118 95 195 200 110 188 155 143 204 125 198 195 167 173 149 132 125 153 135 86 124 171 103 204 102 188 167 164 90 147 133 145 189 107 102 99 94 100 209 169 134 180 107 128 89 84 79 57 148 57 96 187 167 163 199 221 130 208 186 145 112 196 167 219 151 135 103
100 103 108 116 126 138 143 148 151 155 153 163 153 163 167 154 171 165 149 153 161 168 179 187 175 188 175 187 187 192 201 189 179 169 170 166 177 176 176 157 143 132 135 152 153 177 205 206 201 187 174 169 162 174 169 126 112 171 164 150 197 125 169 184 182 151 136 87 106 80 92 136 122 104 155 116 161 89 149 176 102 109 85 88 127 71 64 69 142 146 93 88 62 94 45 35 88 56 62 100 90 88 75 49 53 87 53 60 73 134 90 98 85 255 105 164 104 73 102 85 123 94 110 168 111 82 65 121 145 57 148 114 76 167 163 171 190 130 255 191 186 192 129 165 149 139 101 143 163 188 95 193 151 81 173 164 143 154 118 199 180 107 182 162 106 89 138 145 159 168 138 183 152 90 89 150 106 71 57 111 195 179 169 144 91 162 176 184 85 161 126 164 172 179 148 202 188 121 207 124 116 101 166 60 121 84 143 128 100 93 90 146 135 80 173 166 133 115 142 134 164 71 72 93 57 89 114 170 185 150 140 64 161 134 169 98 135 255 96 160 103 196 222 228 205 130 192 74 149 133 148 78 159 97 130 117 142 177 199 160 157 134 175 114 179 169 154 70 113 144 140 64 80 88 71 68 132 140 145 95 147 159 164 113 129 117 97 163 74 159 89 96 186 127 77 106 162 121 97 124 86 57 30 33 46 89 100 149 111 127 145 156 179 88 86 191 202 97 105 141 72 142 123 93 48 63 139 117 67 176 123 139 126 91 82 99 149 111 148 161 101 61 98 92 119 101 97 117 156 136 146 52 65 129 98 72 135 163 87 120 131 131 160 136 165 133 121 111 178 169 90 100 183 126 149 74 74 162 158 90 174 113 132 129 159 196 164 158 179 154 101 173 83 121 156 176 160 160 64 133 92 158 89 102 89 128 101 112 97 188 129 183 170 139 100 173 177 180 103 106 108 204 121 207 115 146 210 109 107 162 117 105 94 100 171 65 151 177 94 120 188 119 98 155 177 81 185 143 165 155 143 119 141 213 131 188 172 151 98 163 129 181 121 130 108 161 194 174 103 149 159 159 150 166 106 176 175 106 138 129 142 145 184 184 225 150 213 128 95 140 152 100 65 64 167 145 103 130 185 130 194 120 188 185 194 135 199 165 107 88 113 130
111 110 108 107 119 129 148 156 157 164 160 168 166 163 168 160 165 174 177 158 145 141 159 167 185 185 193 190 192 188 196 187 173 168 168 172 176 185 180 161 141 123 138 140 167 197 191 201 215 197 173 178 175 172 183 179 157 143 154 149 201 193 193 169 168 121 169 85 107 120 99 112 121 134 114 149 113 125 109 186 130 84 90 119 67 88 65 129 146 92 102 81 115 68 64 57 49 59 99 64 86 93 88 61 92 62 90 63 70 99 103 90 113 163 99 111 161 84 136 111 82 81 91 129 165 82 67 57 145 82 148 159 67 147 161 206 120 216 154 190 188 184 168 158 150 62 124 144 171 158 123 173 197 161 167 164 166 154 91 130 152 131 156 105 94 133 99 137 116 158 88 176 130 98 84 148 104 140 112 150 140 111 156 210 168 76 104 78 155 196 173 185 194 143 210 171 236 197 142 147 210 89 165 133 100 133 190 114 151 196 164 81 83 127 83 183 178 114 78 159 140 143 145 122 150 49 133 151 157 173 158 60 53 64 141 197 146 151 115 180 94 181 161 215 111 149 144 125 171 103 67 88 161 157 54 74 107 144 127 110 137 176 99 166 177 103 90 52 68 119 62 65 117 147 66 60 68 99 107 119 180 106 174 63 144 59 63 75 91 148 131 94 183 190 135 113 108 92 98 103 98 110 112 20 30 101 153 155 144 114 147 101 168 74 83 99 206 195 144 151 72 60 96 36 35 135 43 56 160 137 182 108 89 87 182 98 74 87 165 69 65 59 137 175 185 109 101 112 153 53 152 158 158 116 133 84 143 156 91 99 143 174 95 127 120 158 180 107 192 87 173 173 77 132 152 76 73 135 104 170 187 159 135 164 207 192 159 101 161 109 182 188 120 101 65 64 124 123 71 169 121 155 105 98 91 134 146 194 178 103 109 181 183 113 72 67 102 83 175 194 97 92 146 100 103 102 168 119 173 178 185 189 185 78 143 80 98 64 96 183 172 121 103 94 98 88 177 124 88 170 100 105 125 212 198 157 234 145 145 190 190 90 87 131 167 168 116 202 144 95 100 149 75 115 147 160 83 88 89 195 135 132 169 168 179 163 122 157 194 167 187 108 84 77 85 151 128 165 196 159 179 109 137 197 225 144 125 102 69 123 70 73
115 109 102 107 117 135 151 161 165 169 162 166 162 167 159 146 154 172 172 163 144 137 146 166 185 193 189 194 185 189 178 176 169 171 172 178 183 181 174 153 136 143 138 160 162 170 213 224 214 195 164 167 204 180 198 179 174 190 179 194 172 180 141 102 166 135 161 142 131 147 60 76 136 161 115 110 148 186 130 137 157 73 69 115 67 88 135 93 91 91 95 138 84 109 115 71 78 84 72 111 78 82 69 75 116 80 116 117 73 96 81 95 125 169 102 164 97 107 100 98 89 132 72 82 93 158 151 120 102 154 168 142 172 93 172 181 105 207 127 193 200 193 177 145 75 99 81 151 164 190 179 149 151 146 103 163 179 183 182 187 181 143 165 129 167 131 133 108 132 65 107 170 132 192 191 96 136 154 86 129 154 110 142 114 95 183 156 190 201 198 198 167 157 131 192 148 142 242 232 117 146 118 83 88 102 164 117 85 191 95 149 160 127 152 69 79 74 162 149 70 60 102 70 80 57 121 71 87 122 174 153 149 46 70 162 114 213 115 193 180 101 192 109 146 137 191 207 123 163 110 149 148 105 135 154 125 163 156 201 198 93 150 108 134 135 89 102 93 101 100 127 117 85 66 72 76 136 92 82 131 88 98 86 153 130 150 63 59 57 127 78 96 198 96 103 94 95 101 87 158 152 96 36 24 116 39 119 131 109 142 144 171 78 165 88 127 192 142 96 157 145 135 145 61 91 117 55 155 83 104 96 89 96 89 177 103 73 74 100 174 119 137 63 102 137 191 185 91 62 73 163 90 78 131 134 102 172 81 163 139 184 88 65 149 170 107 94 97 185 129 173 165 158 77 147 167 158 79 105 162 182 111 120 113 154 177 71 178 147 190 164 162 102 130 170 80 162 149 92 164 179 199 169 193 167 109 195 115 101 138 179 129 131 100 175 116 144 173 95 177 181 186 124 72 142 94 134 144 100 86 82 85 184 128 104 52 144 80 56 86 109 182 182 192 94 255 170 95 76 154 135 164 160 127 176 211 150 135 201 129 161 148 190 138 140 89 124 184 149 170 139 133 79 135 152 62 82 134 112 193 183 211 132 224 140 202 198 167 194 185 193 175 138 186 100 183 94 116 127 71 85 132 146 138 220 104 136 145 156 96 151 95
107 102 101 109 127 145 162 165 164 171 170 164 160 154 153 131 148 160 162 158 159 141 152 166 199 214 203 197 192 187 185 179 179 184 181 184 174 175 160 148 145 158 178 166 168 184 164 204 194 213 175 219 200 201 179 211 213 140 149 183 178 136 164 119 83 156 83 169 136 109 154 133 112 144 122 137 153 187 128 90 92 57 58 88 136 140 78 101 170 106 91 83 80 86 99 155 91 101 84 100 120 72 86 85 132 108 125 80 86 92 87 77 101 156 159 102 93 87 104 158 77 132 70 79 103 141 182 96 95 117 153 102 90 101 187 98 193 151 145 194 202 189 100 179 172 160 162 171 153 180 198 201 143 179 128 105 167 97 149 180 188 151 200 191 174 129 122 156 79 81 88 137 133 116 117 101 181 102 124 171 192 161 170 134 204 131 207 142 183 125 140 170 194 108 177 213 203 217 215 103 189 98 88 166 165 138 151 74 166 182 118 95 155 145 149 145 66 74 66 87 79 166 166 178 153 94 129 188 178 118 59 147 104 118 188 213 159 190 193 93 183 115 105 116 107 123 192 122 189 151 118 99 191 75 162 95 101 210 223 150 203 96 180 201 97 185 173 139 91 154 93 83 148 69 149 139 153 186 181 133 174 191 168 77 140 153 105 160 61 60 66 181 133 165 94 196 167 179 101 145 67 55 116 48 104 135 123 84 105 197 200 134 86 147 136 188 180 210 115 97 88 79 69 54 121 60 120 147 88 159 100 172 85 100 84 80 176 103 128 174 86 85 61 118 79 160 75 158 63 94 137 122 141 157 186 123 158 80 135 99 189 81 167 90 80 148 198 144 169 133 118 162 150 178 85 98 69 58 113 103 105 193 194 104 175 130 76 175 191 179 137 130 193 206 166 130 179 138 157 133 187 198 128 210 198 109 161 204 186 160 133 108 122 172 86 75 56 165 175 101 136 190 104 68 97 75 128 156 102 132 71 162 171 121 106 100 84 126 57 156 67 150 97 87 143 171 141 138 78 91 167 154 177 122 236 238 154 234 188 133 185 102 94 105 118 79 163 74 174 162 86 121 135 138 65 107 147 79 187 202 134 210 121 180 103 167 93 153 160 193 190 163 89 149 88 178 87 103 78 143 135 114 180 131 107 179 149 136 99 87 149 50
95 92 95 109 135 153 156 155 161 160 163 154 148 152 142 125 134 145 156 169 153 140 164 182 198 219 214 192 187 182 181 192 195 194 185 186 181 172 153 158 172 188 199 193 155 180 180 189 176 178 226 184 179 181 187 166 179 137 181 107 156 146 143 141 147 131 154 110 89 97 120 118 83 163 81 78 121 90 167 155 61 107 110 74 133 77 131 110 134 104 122 90 110 106 128 103 156 108 105 98 111 75 82 134 99 100 91 86 76 88 111 139 72 111 147 95 118 98 166 131 68 80 74 85 112 176 185 138 103 108 145 193 124 145 90 84 82 88 99 203 151 212 211 181 195 126 104 87 86 193 92 170 189 129 137 127 131 180 127 184 101 188 132 109 191 144 163 127 111 126 105 91 167 105 107 184 166 183 171 188 195 211 181 188 173 204 146 221 143 122 146 115 126 108 204 206 179 205 114 161 139 171 88 81 77 91 152 119 74 144 96 118 174 99 121 69 87 159 141 86 90 192 153 128 117 112 89 171 180 108 69 113 123 110 193 151 135 166 115 193 94 177 190 195 164 173 192 185 142 197 219 120 164 172 83 160 188 120 212 217 154 200 183 181 210 198 176 173 182 104 101 167 147 141 144 168 110 119 197 168 116 103 179 165 105 154 106 87 99 152 68 80 94 89 95 98 110 189 170 151 86 159 63 101 112 83 80 101 188 120 115 124 115 133 98 140 123 113 170 196 186 80 169 78 57 75 80 102 166 133 130 171 169 100 180 101 125 69 85 83 63 66 88 138 67 125 72 170 158 94 146 75 102 88 182 146 77 125 81 90 151 102 139 177 180 198 157 100 117 150 96 159 167 110 177 172 83 116 157 131 97 115 184 156 151 129 99 168 100 92 92 200 109 115 195 132 101 166 91 162 111 127 124 187 145 209 217 217 113 114 121 119 127 136 158 149 117 111 191 194 154 140 148 149 175 129 78 170 88 62 149 97 101 177 173 109 153 160 98 101 162 157 83 176 79 175 71 153 143 155 77 134 112 199 239 229 248 132 113 116 193 133 107 156 66 76 118 169 126 181 174 113 152 60 51 30 52 102 155 107 122 193 139 131 84 164 162 105 179 108 166 81 136 89 107 194 193 86 153 162 72 68 93 177 174 186 87 69 129 103 97 55
97 95 97 111 133 146 156 161 162 151 158 152 143 140 142 142 142 143 156 159 175 171 171 190 206 212 208 190 179 179 178 187 200 196 190 188 185 169 173 164 171 197 203 195 158 182 179 164 175 206 221 221 169 200 150 157 132 142 113 132 135 161 190 150 94 113 107 121 145 138 138 110 145 80 67 122 101 92 79 64 86 90 87 135 94 82 100 137 125 118 146 127 105 93 104 112 112 123 124 108 103 129 120 133 105 147 97 90 83 75 99 99 97 98 77 80 90 141 134 71 73 97 97 93 76 105 167 161 119 167 155 127 204 90 177 67 70 138 194 107 163 170 164 130 164 196 187 97 187 184 96 167 140 129 134 113 137 174 158 116 189 189 183 136 104 150 131 142 180 110 96 157 159 148 161 175 142 112 134 154 200 134 196 171 118 218 225 182 109 190 150 204 120 110 133 87 181 162 110 156 104 89 104 129 135 102 152 164 164 86 166 84 114 95 170 68 67 119 77 164 139 192 178 112 180 93 177 76 68 119 115 74 180 155 182 132 202 197 194 200 181 125 202 180 140 177 84 184 111 136 198 184 133 140 147 91 188 200 117 206 103 108 115 222 135 158 189 167 143 163 136 61 90 70 114 165 158 124 201 200 109 185 117 130 95 99 90 69 73 142 108 91 188 88 85 129 137 96 193 167 181 147 64 86 117 73 87 97 133 149 146 189 110 85 191 114 107 111 119 104 179 134 97 126 165 76 80 108 73 86 90 92 87 154 69 127 62 76 157 53 95 105 155 118 162 85 141 87 177 76 124 72 125 123 92 168 132 143 78 80 185 143 85 192 98 174 204 139 133 100 117 118 176 176 76 76 158 63 153 80 91 99 191 147 148 80 124 181 82 139 156 203 117 223 197 124 198 193 184 179 103 210 216 225 145 125 137 152 195 204 109 174 167 131 118 144 82 182 116 121 157 141 199 98 88 86 122 73 128 116 97 179 176 186 86 170 123 185 176 84 80 82 159 128 100 174 97 169 168 99 89 118 83 104 174 188 167 208 184 147 162 114 182 122 129 117 66 79 130 130 105 111 127 46 68 108 142 69 190 121 91 181 78 168 146 136 112 173 145 107 79 126 173 190 161 120 122 163 96 68 66 131 73 145 131 121 125 106 86 56 49 147
112 106 101 107 125 138 143 147 156 148 147 148 146 154 150 157 156 155 163 180 176 191 204 206 201 202 195 185 173 171 167 185 192 196 189 184 187 182 177 180 179 191 194 179 185 191 165 191 191 198 206 195 168 159 180 140 149 146 157 119 171 207 140 202 140 112 157 103 109 208 138 163 152 103 65 67 47 88 63 63 93 92 60 71 81 84 99 106 102 124 154 93 109 93 151 95 104 127 112 106 101 110 108 139 103 132 118 120 98 65 64 142 92 89 72 119 63 66 76 173 94 82 156 70 62 61 73 104 133 197 159 152 152 82 164 155 108 93 100 115 135 144 212 141 108 196 199 182 135 202 199 178 118 165 106 112 143 166 100 88 180 119 179 90 142 125 148 104 103 123 162 138 108 143 112 157 106 101 176 108 90 132 155 116 147 210 139 133 194 130 194 111 199 204 112 255 110 146 136 94 85 127 87 105 96 162 165 80 102 194 124 146 87 82 88 152 146 105 104 98 116 127 215 219 199 121 165 71 60 119 72 174 180 120 114 143 223 212 191 198 103 110 95 183 153 75 150 186 138 208 166 105 151 85 146 63 165 118 124 138 88 193 142 195 118 210 107 127 140 104 176 107 96 55 65 68 121 139 126 176 214 181 92 118 97 84 84 120 90 193 190 148 136 92 78 88 182 108 144 177 175 79 78 88 118 76 135 63 75 130 175 161 98 186 92 95 188 187 146 206 102 93 183 89 71 141 68 55 51 107 141 125 101 168 59 146 84 82 85 75 140 141 149 164 84 80 166 151 78 109 91 153 118 58 60 136 145 79 92 171 71 99 141 193 138 130 155 194 183 127 81 161 170 110 125 62 148 105 72 111 152 89 100 147 143 134 181 166 129 123 184 173 119 127 226 131 190 147 136 90 183 166 186 110 104 104 189 128 180 222 121 111 130 93 152 60 107 102 166 150 200 177 215 159 98 91 178 69 107 154 138 79 184 149 169 171 183 96 180 107 92 82 76 178 76 75 171 181 111 108 108 68 80 86 124 199 177 101 97 88 159 178 123 126 124 166 132 101 86 153 103 158 144 115 34 45 51 92 85 158 137 169 166 167 99 98 152 163 83 66 117 168 111 86 134 192 107 100 97 144 141 72 108 104 154 127 150 184 68 50 78 79
134 120 106 103 112 127 142 144 151 158 149 153 163 165 167 174 175 167 171 167 189 191 211 211 221 205 188 174 164 163 171 179 197 195 189 183 191 192 190 187 186 179 175 188 173 190 192 189 205 196 195 172 165 180 126 174 132 158 162 105 187 133 143 172 126 151 134 116 180 197 209 202 185 85 76 104 118 51 68 103 121 108 64 68 111 86 101 108 92 80 81 98 135 91 86 86 103 99 100 106 94 110 114 109 139 129 94 87 95 87 72 69 129 92 70 77 123 138 73 102 93 157 77 142 66 145 74 83 126 141 206 105 98 175 64 123 167 180 201 208 122 197 139 139 111 102 130 181 195 197 199 185 167 143 134 123 122 161 176 97 82 81 113 171 187 125 138 83 164 162 91 67 151 88 60 126 97 127 134 150 134 121 157 201 193 202 165 124 171 84 148 102 113 188 98 93 124 86 100 167 137 187 100 177 154 144 93 97 123 123 155 199 192 188 84 79 144 178 85 182 117 223 164 178 176 145 142 98 161 69 136 105 167 76 141 201 211 209 201 107 94 182 84 92 159 96 130 149 194 192 167 167 92 133 131 138 100 193 112 130 133 117 171 135 152 209 209 179 162 120 84 135 124 78 165 102 171 196 161 189 222 200 89 142 68 98 176 141 164 200 157 104 124 114 84 85 77 67 93 127 170 164 145 100 168 128 63 95 88 127 78 145 84 83 158 147 155 202 196 175 188 124 103 119 156 71 48 87 73 112 78 164 164 82 41 51 122 77 49 42 38 145 170 89 151 108 131 72 72 93 132 108 130 49 134 112 105 129 79 152 64 86 81 178 107 181 117 138 134 186 186 183 109 63 65 96 46 153 158 109 123 176 123 120 97 103 127 119 98 187 113 121 125 190 210 215 192 94 182 89 84 173 194 196 193 187 159 205 163 134 129 189 121 162 76 166 126 209 218 108 110 134 121 159 119 119 83 76 57 158 161 162 175 137 98 193 144 99 105 96 167 176 160 82 92 172 71 117 164 181 181 89 109 166 108 97 196 171 96 84 139 76 176 82 88 82 90 77 75 75 112 118 93 73 47 33 135 140 157 174 135 74 82 120 152 77 145 148 151 67 108 112 126 84 196 169 208 131 110 90 78 80 82 112 178 189 110 88 66 86 76 170
146 129 109 98 108 115 129 135 134 140 156 162 183 184 172 172 181 167 179 174 191 201 208 210 221 206 186 159 155 156 162 176 188 189 183 184 184 191 180 188 187 178 187 184 184 169 172 162 205 205 191 182 157 181 188 122 122 168 144 143 157 136 203 158 201 165 130 93 143 206 158 167 139 113 152 83 65 77 66 78 255 78 115 87 86 98 117 104 100 67 101 105 101 86 126 90 135 88 84 95 112 140 137 98 115 90 100 86 95 83 85 88 88 96 96 73 67 112 86 98 102 75 84 67 72 62 134 112 164 96 204 126 114 182 76 175 121 150 133 125 122 147 168 185 161 149 126 190 185 144 95 173 138 146 39 59 87 160 139 108 162 70 169 158 179 107 102 134 152 159 154 69 91 77 90 129 150 111 146 52 57 70 171 255 115 116 127 126 111 113 89 159 141 104 121 154 164 182 134 189 195 99 189 150 182 125 132 195 201 133 143 128 136 155 149 87 133 98 184 198 117 204 145 157 170 123 159 81 173 84 80 57 69 96 70 93 202 118 100 75 157 108 160 123 121 144 50 89 135 172 67 79 150 103 97 79 165 109 126 116 74 165 182 111 165 175 139 117 186 142 199 143 90 98 85 135 194 147 212 190 122 93 90 52 82 92 133 125 104 130 203 100 166 129 99 82 133 110 67 135 158 172 154 98 110 110 103 123 131 53 136 70 77 110 113 127 110 163 156 206 126 88 104 83 78 110 150 140 152 118 147 188 73 131 54 142 110 90 62 46 48 106 77 104 182 92 140 106 80 66 77 140 117 117 97 110 143 138 80 144 83 152 88 168 148 129 144 148 170 179 132 99 79 74 97 61 142 95 112 169 168 173 81 147 107 161 128 162 99 169 155 212 216 181 216 119 177 194 97 103 176 99 125 204 157 136 70 90 174 92 88 104 70 108 166 141 144 109 205 160 152 137 144 188 184 105 165 158 87 116 71 81 174 169 166 110 163 198 145 137 126 89 137 113 65 95 82 159 141 157 183 162 168 88 70 174 173 185 149 99 170 112 116 97 181 103 84 126 116 65 111 147 148 113 156 96 43 99 70 162 156 105 84 92 148 59 71 167 155 73 83 152 125 183 106 132 121 184 134 198 178 95 91 185 183 105 202 183 90 68 89 85
144 131 111 108 114 125 132 130 123 127 150 159 175 176 164 166 169 162 164 172 178 181 183 199 201 196 174 170 144 155 161 171 175 173 184 188 186 190 192 193 181 196 176 177 183 181 156 191 188 209 192 176 158 174 179 152 121 171 141 123 173 182 192 144 200 118 172 149 114 164 187 204 167 89 154 67 54 84 80 118 142 119 91 153 158 159 114 124 93 111 81 72 152 115 124 124 65 65 108 125 101 112 103 88 113 108 138 91 95 77 81 59 71 138 79 97 163 122 102 173 122 84 130 150 65 78 170 86 182 185 157 96 86 86 183 86 86 175 162 127 144 168 184 80 155 166 182 192 147 193 88 154 157 51 124 135 113 138 76 107 164 107 119 155 175 147 172 137 162 83 168 161 134 115 73 156 78 85 67 139 60 112 157 140 168 124 172 116 177 84 189 143 172 109 105 196 191 82 128 140 131 88 138 158 129 200 202 125 201 152 199 112 172 153 135 137 69 138 75 87 196 201 190 160 119 121 255 183 184 167 72 148 101 153 76 158 166 99 160 68 75 59 139 61 62 77 53 153 92 169 129 120 139 98 126 104 109 102 173 103 154 138 185 171 88 119 99 117 201 147 205 127 195 191 194 180 165 177 125 150 106 168 57 42 38 140 141 121 199 178 92 97 86 106 180 162 170 125 175 112 182 137 90 114 83 109 63 123 113 132 40 74 112 160 87 92 103 111 149 114 93 119 166 80 80 130 78 160 85 102 98 99 114 118 55 82 68 118 165 103 139 97 169 158 97 71 68 143 67 69 142 117 77 150 58 52 155 148 161 164 169 103 139 167 113 165 165 194 180 180 180 171 123 153 79 152 126 63 150 170 184 131 150 175 117 110 183 162 179 109 188 106 135 123 167 215 139 185 122 158 111 174 109 214 110 86 163 58 114 130 131 166 66 66 174 124 99 156 180 157 141 90 142 83 165 161 67 166 74 152 139 159 179 113 146 204 177 178 147 77 108 69 153 71 159 62 149 155 154 70 176 183 255 82 64 68 87 153 105 124 126 67 168 96 147 82 127 91 153 170 104 129 207 158 198 146 81 79 84 188 181 182 163 102 80 145 110 85 134 188 178 85 134 187 156 205 125 122 114 199 186 171 121 187 101 161 178 142 78 77 124 104
137 129 118 118 126 134 140 127 115 124 129 152 162 162 166 158 141 153 154 173 170 171 166 166 162 180 173 159 146 157 159 160 162 163 177 186 184 182 171 192 197 200 185 184 176 172 171 182 163 201 199 219 168 140 179 150 160 150 118 161 169 158 194 173 199 145 132 143 133 151 131 140 126 146 149 72 62 61 88 112 111 130 103 173 116 108 144 104 84 80 117 87 100 130 127 62 63 79 114 84 91 152 127 132 107 72 119 124 133 92 99 28 36 61 78 84 108 173 111 78 132 128 159 162 83 162 178 82 174 77 92 174 135 147 188 83 173 138 105 154 114 141 71 151 255 137 157 90 188 169 125 138 70 142 143 50 57 101 155 129 162 120 156 150 182 132 165 125 90 121 104 102 96 84 154 158 56 83 148 69 162 63 152 159 110 66 168 74 134 159 143 198 143 108 166 110 175 123 135 68 72 149 93 122 153 192 115 97 97 167 146 132 141 187 184 155 135 96 168 166 159 172 144 88 141 178 106 93 194 182 101 113 73 172 78 76 174 194 177 70 41 127 106 143 92 110 114 61 146 156 80 173 169 113 100 136 177 184 198 183 99 92 124 145 176 118 136 91 151 103 172 161 177 149 156 169 111 121 201 132 137 96 124 111 46 83 83 194 128 99 92 141 78 157 117 131 77 157 83 101 101 107 119 98 77 101 117 53 32 27 51 138 175 155 188 128 109 167 255 204 102 69 115 86 82 132 175 167 175 109 87 95 91 64 53 60 77 83 179 106 81 61 58 91 77 70 156 72 167 99 53 145 158 165 126 145 54 141 79 175 106 114 127 166 174 203 159 120 178 84 175 124 156 163 80 129 154 79 176 164 106 165 188 98 181 95 89 181 156 92 147 194 154 192 192 128 129 91 184 181 131 126 211 131 147 151 62 101 141 125 112 161 74 153 70 83 189 193 178 98 176 168 182 169 147 86 97 83 127 97 99 165 124 184 148 214 182 98 142 170 127 104 156 129 153 121 144 52 143 79 147 197 170 86 119 171 159 109 101 104 150 142 158 75 74 80 129 89 98 123 118 207 181 204 183 205 255 176 83 184 179 163 187 134 75 94 79 144 105 173 168 103 189 189 141 119 148 145 170 171 103 104 100 181 116 177 185 115 89 136 84 84
134 130 128 135 142 154 147 135 125 119 124 133 145 143 148 147 132 156 156 160 169 173 162 151 143 152 157 152 149 154 159 163 159 166 177 183 175 168 173 187 198 195 170 168 164 142 173 179 174 199 204 218 214 148 166 148 111 109 159 105 172 131 163 141 130 131 113 141 139 176 156 121 104 113 82 60 49 122 113 80 132 175 176 122 128 108 107 125 157 93 77 77 88 114 82 72 85 87 86 75 114 131 153 101 106 84 105 152 106 75 70 47 46 86 115 82 87 89 96 153 67 136 125 88 115 84 167 189 184 80 142 162 175 187 185 152 78 139 92 191 175 119 62 145 133 140 94 111 156 167 120 87 134 60 113 140 156 162 183 82 156 150 160 138 178 199 155 187 146 120 100 184 132 160 130 164 68 170 179 177 72 108 51 72 56 134 154 69 170 100 81 97 102 116 168 210 88 82 54 102 74 151 87 192 174 173 184 165 81 66 140 133 115 127 152 171 87 93 137 159 157 150 105 166 126 151 108 94 137 91 160 97 157 107 181 126 105 158 82 132 142 65 118 42 37 36 131 91 159 176 183 181 176 161 102 112 188 116 205 115 158 151 182 103 127 131 81 113 143 122 110 173 180 113 105 139 152 147 169 174 92 68 93 109 148 109 130 183 206 101 139 141 78 176 85 156 181 78 113 114 89 95 71 68 112 56 143 52 26 125 41 63 102 100 206 106 173 147 156 158 142 141 146 92 129 92 74 87 111 119 174 150 72 123 61 161 81 89 95 123 157 151 93 77 88 120 148 144 101 77 81 78 123 170 134 153 142 150 70 79 161 177 168 149 183 146 181 116 139 144 106 166 147 109 80 120 50 90 144 124 186 141 160 172 133 105 81 179 110 92 186 147 188 105 146 122 187 93 184 145 128 203 181 224 138 119 79 64 89 170 81 87 124 87 82 83 147 103 100 158 116 108 103 138 147 135 151 86 193 189 140 174 131 204 173 184 178 103 166 102 106 76 75 132 145 146 106 65 54 70 78 196 191 171 85 77 148 151 112 131 94 151 114 151 145 172 144 138 155 183 159 194 158 123 137 216 163 182 160 175 142 181 191 138 174 82 95 181 109 90 115 175 182 129 209 206 175 172 106 150 133 132 143 115 108 101 111 196 195 255 165 78
142 143 142 152 158 159 154 141 140 135 129 133 130 148 150 147 150 158 152 172 174 161 159 148 134 139 150 140 139 152 161 171 171 169 175 173 162 157 159 168 168 177 155 141 133 142 147 186 196 211 215 222 167 182 127 114 99 145 144 121 190 205 195 185 186 160 107 137 184 144 134 166 138 83 132 37 40 45 131 100 111 108 104 161 108 129 110 160 103 94 142 76 122 106 102 81 83 78 91 87 102 112 166 157 117 136 102 115 93 62 71 35 91 112 101 174 109 103 140 172 71 159 73 138 108 85 143 117 81 72 165 156 72 116 80 153 63 58 83 95 186 90 71 47 39 159 73 82 89 77 50 157 155 173 173 158 158 193 179 104 152 111 140 111 155 166 123 119 95 131 177 99 100 139 86 147 123 172 97 89 130 146 121 49 135 149 57 59 97 111 166 72 83 129 205 160 113 68 105 119 129 152 103 183 198 192 140 131 98 121 103 106 192 206 100 181 148 144 86 152 159 89 126 117 164 129 131 125 197 92 126 187 141 203 200 93 97 130 168 162 72 90 56 53 125 136 129 72 121 110 86 176 165 179 161 97 111 197 213 137 204 117 192 132 71 155 157 64 72 139 179 116 164 141 167 154 143 145 70 148 95 134 129 167 81 187 195 137 192 187 113 90 71 142 97 101 69 65 70 119 156 139 168 101 124 68 136 74 104 124 75 169 100 115 114 100 135 141 93 149 136 92 142 79 161 76 152 79 106 73 122 70 80 134 170 172 174 127 127 96 72 115 157 68 97 178 86 82 144 105 126 132 154 60 161 155 78 58 139 150 90 165 185 90 181 188 179 182 110 166 175 182 167 171 137 162 117 110 155 192 191 139 167 150 148 102 136 96 132 193 175 154 172 100 155 109 143 171 91 169 174 197 223 197 127 119 168 137 181 176 113 96 152 101 151 90 99 131 150 111 191 113 189 188 114 131 123 173 93 98 176 142 151 98 95 190 154 159 170 100 170 93 72 85 150 152 169 88 176 73 185 145 189 103 181 177 78 73 108 67 70 56 118 94 90 107 153 128 161 110 139 126 91 144 196 193 222 206 157 188 192 89 84 184 117 191 187 178 68 94 97 130 131 178 104 194 148 114 151 118 129 206 179 119 132 206 178 165 200 152 131 87
154 154 155 165 168 163 155 144 143 148 141 132 140 138 150 156 154 159 149 160 170 173 169 151 151 152 147 149 148 158 168 187 188 185 175 164 146 139 147 156 149 165 161 139 153 163 185 189 177 204 223 184 212 186 159 152 106 144 130 135 162 203 167 192 155 150 151 179 134 120 151 85 77 51 63 38 92 73 59 79 123 109 104 111 112 140 148 174 143 94 84 71 134 118 79 102 88 89 105 92 135 127 133 125 134 118 106 166 101 124 60 97 138 111 136 153 112 104 101 162 166 103 144 136 88 106 181 79 105 84 94 69 69 130 75 114 62 141 138 115 102 114 156 140 126 149 111 62 97 141 50 153 80 125 81 140 97 105 165 103 116 166 67 89 168 152 127 110 145 132 80 121 168 90 179 138 136 184 180 190 153 95 112 76 79 49 64 94 120 141 154 154 176 178 157 149 157 62 134 47 70 167 95 183 194 97 101 141 65 88 89 148 100 112 166 185 92 94 73 66 128 102 94 88 175 160 144 192 138 182 172 163 111 191 135 160 133 116 88 150 45 117 145 60 84 80 113 167 164 179 131 166 171 140 100 194 204 170 212 183 196 95 91 134 68 60 59 159 66 160 141 97 111 152 165 178 143 149 75 88 54 89 170 132 108 181 125 118 178 107 135 117 81 94 109 70 153 60 106 70 73 150 140 100 161 86 118 147 129 57 133 177 139 145 123 198 117 105 96 85 83 109 115 80 78 75 83 127 131 107 93 100 186 82 166 127 174 91 168 191 80 170 73 85 147 130 157 103 134 161 83 123 102 144 154 66 154 126 104 192 108 117 198 173 195 188 112 103 171 154 82 164 189 179 142 115 110 113 80 104 191 86 133 107 57 55 83 157 90 145 140 112 179 93 194 149 207 141 97 100 173 199 170 142 184 110 170 123 188 132 183 142 183 132 85 147 97 160 185 160 208 114 185 191 166 182 84 85 144 100 164 142 76 158 91 104 113 196 151 129 173 117 163 149 156 203 200 115 107 88 190 136 150 189 106 147 76 159 81 130 112 144 134 91 112 67 100 115 149 75 76 55 255 179 155 202 186 186 136 153 144 84 110 124 91 136 169 123 161 122 41 139 70 103 183 194 115 188 197 107 147 181 175 210 208 203 157 110 119 98 128 71
161 160 161 169 169 159 148 145 149 153 141 142 139 138 156 174 160 146 154 150 158 169 177 174 172 169 180 179 173 177 192 208 209 196 179 159 152 142 145 143 153 143 163 134 135 163 176 212 208 255 217 207 196 152 120 147 110 131 185 162 192 185 119 101 164 162 146 157 144 127 97 131 61 104 56 38 78 50 72 85 106 255 104 128 111 150 119 114 128 135 86 66 78 107 77 106 103 87 110 107 103 95 148 168 110 98 100 255 136 109 90 66 125 102 152 144 122 124 153 84 79 169 164 102 93 97 137 78 90 92 80 125 175 74 175 134 167 103 69 177 178 96 149 138 44 144 125 120 141 113 103 153 74 165 182 88 96 115 143 121 89 101 144 159 168 171 173 107 135 122 142 162 162 172 192 191 195 200 194 184 162 146 154 94 148 140 88 62 138 155 126 165 76 175 139 161 53 107 41 133 81 105 150 115 102 177 161 149 138 142 108 80 102 143 119 194 110 100 106 163 83 160 141 190 187 109 91 153 123 91 143 183 96 89 160 157 184 171 153 53 40 141 158 175 123 186 145 101 159 153 179 188 163 132 137 120 189 179 210 130 194 177 186 175 140 61 135 108 86 133 91 101 196 131 100 108 91 134 47 135 66 124 170 87 159 125 154 194 110 189 155 111 156 156 141 169 55 52 155 67 84 70 92 153 80 255 92 98 38 54 75 150 187 183 141 106 188 163 120 149 143 85 112 108 111 99 126 59 53 154 79 98 110 195 137 79 120 94 97 147 112 140 88 104 164 105 164 71 110 146 92 40 124 116 53 85 159 101 174 110 125 220 201 207 202 160 191 136 115 75 150 108 142 133 175 82 156 150 176 117 187 157 156 96 96 83 50 138 151 126 175 187 120 153 103 180 212 212 132 116 119 120 221 139 189 107 129 135 111 111 167 84 131 168 165 104 118 119 127 191 120 113 202 178 187 91 95 174 175 74 142 167 83 80 88 102 200 203 100 155 151 173 114 91 174 139 128 190 215 166 190 193 205 160 133 105 95 167 103 176 150 98 83 144 137 130 180 176 88 156 50 152 169 114 119 211 214 181 149 171 142 102 82 187 141 174 184 100 149 151 137 75 122 142 117 87 197 210 113 113 135 213 210 105 101 112 166 181 99 177 67 98
156 155 157 162 156 147 134 130 137 149 151 128 126 137 154 176 168 162 142 137 134 164 180 189 188 195 195 206 201 208 220 225 221 207 190 172 161 153 157 158 165 170 166 162 172 174 190 220 228 185 189 163 149 123 171 146 113 163 169 206 190 123 150 82 73 153 112 208 179 125 154 86 127 57 91 107 68 80 67 124 108 168 177 157 99 115 115 115 98 150 77 61 75 85 92 99 102 137 102 87 99 86 112 154 103 89 85 121 116 99 95 111 95 162 162 193 121 189 132 89 126 92 94 152 132 110 162 174 115 92 189 90 83 176 80 139 79 99 128 166 69 162 49 131 86 126 58 62 164 138 139 142 119 69 103 102 203 182 182 185 191 119 124 130 78 136 128 141 180 171 126 171 182 186 92 186 195 190 146 182 88 171 90 102 70 175 86 178 173 91 80 137 179 135 75 133 69 150 77 67 95 193 102 119 106 87 107 99 178 174 132 87 181 180 167 191 86 148 70 156 157 160 172 168 184 79 70 113 163 167 124 186 94 175 151 82 84 139 131 98 126 137 158 181 191 111 183 89 188 190 193 148 161 156 163 148 199 208 234 189 184 80 162 69 128 84 51 139 109 162 108 158 167 158 176 134 171 66 145 157 67 124 80 88 119 215 112 178 197 156 112 202 168 130 102 80 62 143 143 77 114 104 155 84 84 66 126 117 47 37 97 153 190 145 133 164 172 110 158 53 81 145 100 126 194 118 65 69 54 122 87 116 131 202 91 97 70 172 94 123 184 169 196 107 93 125 153 105 76 84 117 85 139 83 78 76 121 66 170 126 137 121 196 177 159 149 81 88 48 82 83 96 87 156 180 170 110 93 92 184 177 184 123 166 67 45 56 72 182 185 90 116 172 181 182 194 170 178 119 214 115 188 107 120 127 201 201 121 116 115 170 122 168 154 137 156 134 124 75 84 161 126 172 130 189 164 163 168 117 64 163 171 163 79 82 181 105 103 122 106 152 200 186 116 129 169 174 214 189 95 187 144 129 220 129 186 193 94 150 188 176 154 155 148 168 90 122 103 97 144 63 92 99 163 145 176 165 205 195 132 75 138 119 88 97 105 134 116 158 59 109 128 63 156 153 178 182 109 155 176 105 196 126 148 103 163 83 96 92 117 144 61
141 143 149 156 148 137 120 121 141 146 137 118 118 128 153 168 178 158 148 148 146 169 184 199 207 203 216 232 233 236 231 231 222 212 200 190 185 177 171 177 181 184 167 177 177 183 201 219 210 209 165 130 153 154 157 141 135 171 177 135 145 140 150 139 100 154 150 132 178 137 92 131 111 119 149 74 128 70 151 142 93 158 88 102 96 169 113 108 120 90 74 91 77 102 83 109 90 90 135 80 111 86 95 146 125 84 72 78 93 121 126 98 81 83 152 109 108 120 172 111 130 105 116 100 133 179 73 165 168 94 204 103 176 188 192 187 127 171 62 160 116 64 149 90 115 88 111 107 184 123 179 84 163 150 130 199 123 193 197 194 171 163 153 88 120 164 90 185 118 116 186 161 110 173 91 145 172 150 185 120 176 123 142 158 145 169 122 162 189 192 190 173 163 169 151 58 55 90 70 87 186 100 176 155 157 92 146 155 107 182 175 176 171 121 114 91 91 79 144 153 140 96 85 139 89 149 141 125 99 86 175 183 117 139 151 135 111 102 47 124 46 138 96 189 255 147 188 110 109 92 173 89 130 134 160 195 125 238 140 196 85 108 67 156 78 123 68 107 59 143 138 132 100 126 166 166 117 164 61 115 165 103 81 155 120 117 122 121 194 196 105 129 120 197 142 175 146 81 115 178 143 87 120 87 86 93 127 131 26 49 60 121 119 209 155 174 202 123 82 91 93 179 194 130 94 110 158 87 79 168 181 98 187 105 120 110 105 111 152 177 112 105 103 93 187 185 165 112 141 138 85 119 149 153 179 178 172 168 138 142 164 120 111 110 181 100 173 84 127 140 157 159 177 170 150 72 130 146 159 146 177 117 187 125 160 80 120 105 131 104 151 126 83 72 128 123 94 139 198 210 114 105 143 179 200 112 192 153 114 200 172 71 148 147 141 88 115 85 102 169 94 199 197 185 176 179 173 126 127 95 68 158 111 130 175 113 134 94 174 217 226 142 115 170 100 110 198 208 106 110 185 191 114 185 128 215 209 145 145 176 98 67 129 103 134 123 180 100 141 74 142 145 157 102 140 205 107 114 171 109 175 165 146 88 181 124 178 86 98 65 58 80 166 124 61 110 106 115 77 130 141 99 75 160 103 78 170 98 132 176 54 80
127 131 139 149 141 130 117 123 136 135 131 122 119 114 146 148 155 162 159 149 156 174 183 196 199 204 216 228 229 235 231 226 218 209 202 194 197 194 195 183 198 194 170 180 175 178 177 181 213 189 176 111 130 96 102 113 143 166 192 195 158 120 124 141 76 124 105 162 99 114 88 119 94 153 101 136 90 113 71 81 81 135 125 156 133 114 110 134 135 77 123 101 77 80 110 81 85 81 114 100 98 106 92 142 136 137 84 123 150 156 110 89 68 66 95 92 149 110 98 155 177 105 107 114 163 141 76 67 131 94 110 129 97 187 98 96 87 71 84 93 63 71 169 175 124 175 163 184 176 108 100 189 138 136 90 112 134 226 155 195 175 176 205 140 155 75 94 183 120 201 168 139 134 130 87 125 169 147 127 192 184 158 97 103 141 106 117 147 173 177 130 112 112 112 115 67 75 88 86 171 116 162 166 118 140 85 111 122 166 157 94 121 152 115 124 111 151 133 73 152 118 109 172 105 139 139 64 97 136 98 96 90 113 155 119 181 177 68 142 135 62 55 145 97 199 189 169 114 159 184 159 150 179 171 97 170 203 212 185 171 165 109 151 137 138 79 28 84 99 130 73 89 77 150 174 179 122 90 80 90 145 107 70 87 113 132 108 114 128 171 96 102 129 108 105 112 141 149 126 113 102 182 157 107 182 89 43 126 38 133 94 183 130 123 137 214 179 95 77 70 72 137 164 121 83 177 105 69 75 150 113 93 101 101 90 94 84 162 128 210 114 104 96 90 184 88 80 118 54 155 80 181 156 112 105 188 94 89 150 171 170 66 70 171 115 102 137 122 147 102 131 159 134 78 100 76 98 77 163 146 167 130 124 83 76 60 152 72 164 86 117 80 158 158 93 150 115 170 197 110 186 86 120 170 100 173 203 215 136 115 89 171 79 123 139 129 136 150 85 85 153 157 94 115 142 68 155 136 63 162 139 116 91 110 163 78 87 96 104 190 173 240 139 179 195 117 140 203 198 176 196 191 213 211 232 217 205 132 126 113 111 105 116 78 84 97 175 139 122 193 92 126 188 142 205 126 189 126 161 190 175 95 104 79 102 120 118 74 152 52 140 107 102 106 66 93 63 79 140 56 53 95 63 67 172 126 93 185 144 100 167 68
113 119 130 142 144 140 132 125 130 133 126 117 106 123 129 145 162 165 161 170 165 174 169 190 199 202 206 210 209 208 206 214 207 199 195 190 200 197 201 202 204 187 178 181 145 168 158 203 212 177 131 103 96 122 92 112 110 129 177 180 201 122 138 168 92 176 103 110 102 154 144 128 133 122 192 125 129 106 85 108 82 161 104 118 91 100 106 91 85 122 121 110 92 120 132 80 86 84 94 71 64 71 66 126 136 89 102 106 86 122 73 64 81 124 84 159 89 90 97 108 89 93 143 90 161 58 57 78 88 85 98 181 182 94 166 92 177 168 134 97 81 85 168 102 179 177 84 175 186 198 116 172 161 163 119 184 134 230 201 134 213 178 162 151 110 168 149 106 164 141 167 110 132 127 123 138 163 178 137 194 154 145 64 160 82 166 100 143 113 123 207 187 193 150 75 162 99 88 119 191 202 102 97 180 149 100 128 178 192 146 146 153 149 143 125 179 88 127 171 158 180 100 182 198 86 78 59 141 143 68 115 69 151 69 105 116 179 158 148 137 49 121 89 190 202 106 201 191 136 161 112 138 151 163 93 201 112 214 194 165 150 159 62 61 84 41 35 58 101 110 72 133 56 86 141 79 107 175 119 72 163 52 147 70 92 149 102 104 175 95 89 85 175 138 99 102 142 130 168 103 137 107 216 161 153 114 108 38 56 69 188 211 136 127 147 164 205 171 179 103 74 137 121 110 170 93 72 87 148 174 166 97 163 96 153 179 88 201 186 128 110 122 181 132 169 173 141 71 166 80 186 146 207 207 147 156 111 167 74 86 144 140 110 156 177 85 150 178 128 193 117 106 93 84 147 94 159 120 111 68 84 108 165 98 76 158 49 151 68 110 109 124 75 124 53 120 151 175 84 97 180 181 72 123 88 101 189 185 111 194 182 179 139 158 79 82 134 129 160 119 104 126 173 176 84 98 102 60 81 70 104 169 71 82 155 185 87 184 184 116 134 243 191 118 169 187 91 123 122 115 198 108 157 199 220 121 97 200 122 213 183 93 94 55 105 106 171 117 201 196 88 107 109 142 103 203 187 207 172 174 125 93 152 165 148 96 98 127 54 147 82 64 109 152 56 142 95 71 65 57 81 50 136 132 93 90 110 105 75 147 147 104
102 108 118 132 143 142 138 130 127 128 115 109 111 124 127 138 165 255 159 169 160 152 162 177 180 180 183 188 177 188 183 194 191 176 170 174 182 178 189 185 201 199 187 185 177 169 161 192 192 168 131 144 101 146 138 112 144 153 166 185 179 166 160 167 122 121 180 158 138 122 87 75 165 174 118 173 113 125 157 124 134 100 97 100 117 149 167 158 87 79 95 105 109 94 101 88 114 90 94 73 87 59 57 109 114 88 113 131 107 103 58 105 39 46 61 70 113 150 123 90 107 162 80 67 148 53 46 82 138 103 100 95 127 90 107 185 162 76 95 60 165 126 90 124 190 107 84 90 185 196 114 169 172 79 180 199 222 177 207 123 169 215 184 212 201 183 159 170 173 155 104 89 67 62 121 76 115 119 171 170 90 82 62 151 164 129 201 166 110 187 176 165 104 109 161 114 80 155 101 207 110 103 136 166 120 69 123 169 82 111 158 122 88 177 87 187 94 168 188 144 190 116 110 172 132 128 145 55 123 160 99 63 164 77 111 201 202 151 157 65 94 72 130 196 166 165 156 103 186 94 97 178 108 172 76 186 94 164 167 138 122 158 108 113 125 140 40 128 47 139 74 98 129 156 149 180 185 157 167 73 148 53 44 115 114 108 104 110 126 141 83 177 95 138 164 94 144 89 73 98 160 180 174 211 91 72 53 98 77 144 94 132 133 214 136 150 166 126 86 159 78 78 120 77 123 149 79 157 179 140 112 171 111 195 172 146 192 111 132 150 123 121 185 200 154 135 168 150 172 145 100 255 146 216 204 105 96 188 111 91 128 60 153 171 118 91 195 116 207 202 183 97 168 158 126 174 139 72 74 59 110 146 96 82 168 70 57 143 58 171 68 91 53 146 125 131 168 180 110 173 130 84 134 106 179 185 199 116 97 118 82 132 158 65 63 81 72 90 172 180 93 94 76 72 92 73 155 63 171 84 169 182 182 87 148 114 99 180 147 127 206 162 178 122 187 91 107 175 204 199 185 113 102 103 96 138 106 183 108 185 116 75 135 156 73 141 106 190 187 140 92 94 174 122 188 102 204 114 205 121 90 54 83 97 74 148 183 110 60 150 60 146 107 53 152 83 94 139 153 59 115 94 131 160 102 194 142 135 161 122 144 112
87 92 100 120 136 148 139 139 129 135 131 125 119 117 128 150 175 176 169 169 162 161 153 155 169 174 174 172 170 170 177 182 171 166 151 156 160 176 182 169 184 167 165 186 159 147 173 177 181 208 193 142 127 160 161 151 156 134 169 185 188 190 187 129 125 165 157 176 153 95 147 111 111 140 130 190 183 90 97 111 94 105 143 119 118 145 99 115 111 89 119 86 127 82 131 108 108 121 92 87 75 82 54 86 77 118 77 106 85 128 66 60 62 61 53 112 149 177 179 99 84 108 127 70 126 50 56 76 77 76 156 177 163 91 189 90 75 162 121 159 73 100 168 104 117 122 137 167 94 193 139 165 74 110 71 184 143 158 157 173 217 183 132 195 198 97 173 172 148 176 166 161 159 98 77 171 157 91 130 73 102 117 179 95 111 107 189 111 170 105 155 138 99 159 78 99 140 152 163 211 109 163 170 69 60 129 134 141 155 161 76 170 168 111 155 92 89 128 198 98 165 194 97 90 115 149 111 73 172 129 144 164 132 87 193 160 195 122 171 66 135 162 111 191 119 153 171 196 104 83 82 137 112 128 71 178 92 121 128 155 64 115 99 183 83 121 156 71 126 107 172 167 113 131 75 161 180 130 92 135 76 43 136 87 60 176 140 177 100 128 103 163 159 151 97 198 183 137 167 113 78 83 142 191 89 177 153 139 64 83 147 197 103 99 88 91 73 139 87 79 91 96 83 95 170 102 178 76 89 123 195 99 157 89 80 176 169 110 194 200 135 220 142 195 210 132 103 104 140 195 190 138 164 120 162 101 148 193 83 171 165 109 79 134 178 194 103 194 146 146 193 107 192 194 98 118 155 126 167 86 133 169 144 110 126 96 160 69 125 121 96 129 108 99 168 171 94 189 165 96 142 89 93 124 156 198 102 98 103 124 146 98 140 151 149 91 105 134 104 187 80 78 157 168 64 71 106 71 158 187 126 107 112 146 123 160 170 130 73 170 153 106 139 100 87 116 129 194 122 125 101 150 179 123 153 101 96 61 162 165 129 40 43 64 160 89 166 129 178 181 73 72 63 153 153 119 92 113 122 153 134 58 129 73 126 91 125 104 151 149 153 96 66 139 75 77 161 127 135 81 73 144 89 198 113 211 189 152 58 132 80 99
86 86 91 107 124 142 141 144 148 145 132 127 114 118 137 163 176 181 180 162 146 140 148 149 161 176 170 174 165 173 174 175 163 154 138 143 160 172 173 169 163 164 171 173 187 156 162 186 188 184 174 178 151 179 156 159 110 129 166 170 167 188 158 158 152 145 119 173 119 141 88 132 144 183 154 191 121 119 81 79 89 170 161 104 148 163 164 102 102 129 126 86 117 98 92 115 120 112 105 88 94 64 103 92 65 61 72 111 98 95 74 116 129 53 97 63 81 80 95 85 141 100 74 58 46 90 49 68 66 169 172 111 93 200 102 97 182 131 67 67 84 165 176 180 179 87 190 182 182 116 151 130 140 64 72 107 173 197 201 134 198 125 128 139 110 150 157 84 148 173 81 97 171 109 181 135 132 171 71 102 71 92 138 149 205 128 91 154 121 161 89 121 131 75 117 57 77 117 109 163 106 94 176 72 57 56 132 165 101 74 154 75 158 122 100 142 170 171 175 135 175 186 183 163 77 103 161 114 155 170 162 166 107 90 173 129 128 178 121 179 103 182 116 135 202 190 199 182 162 76 113 100 142 169 87 79 92 159 96 106 138 50 164 78 116 152 132 158 177 153 173 125 133 136 156 111 86 96 65 153 255 75 30 135 93 156 89 172 150 114 158 165 91 131 100 128 145 128 67 61 58 63 117 126 91 93 131 137 93 152 83 89 101 164 166 112 74 147 61 59 70 146 119 158 177 163 110 147 95 79 110 153 193 85 76 71 65 147 92 182 163 227 143 149 217 121 96 165 88 94 119 172 79 108 164 163 177 122 125 101 175 118 168 80 184 132 171 105 179 110 181 177 91 110 154 183 198 181 90 172 172 161 102 175 179 136 90 98 88 190 102 92 162 110 176 198 189 206 109 93 89 146 173 115 183 202 149 171 186 103 150 152 91 99 92 121 138 95 101 161 119 76 159 63 160 155 86 174 144 122 100 188 129 173 206 125 104 69 138 142 186 186 123 176 179 113 132 168 81 78 142 89 60 150 116 117 29 69 104 89 92 56 99 60 164 150 102 131 165 106 55 69 129 63 102 119 119 100 171 132 121 67 86 160 160 179 91 102 148 107 150 77 157 87 143 117 156 99 94 109 127 94 157 193 119 120 199 151 68 57 90 124
104 98 93 101 117 136 145 159 163 149 137 128 113 115 141 154 176 179 181 164 164 149 153 167 183 176 184 182 175 179 172 170 158 151 147 152 171 183 178 165 153 153 168 182 187 188 150 152 186 210 178 192 201 182 129 121 163 164 134 110 127 117 117 199 138 133 114 85 91 76 166 111 197 184 135 103 151 149 80 94 151 106 140 77 118 105 139 89 117 119 133 81 140 91 94 90 101 131 110 125 126 102 79 97 52 65 60 82 102 127 130 103 79 75 64 79 66 64 169 99 154 180 82 76 56 68 98 160 170 152 145 139 196 180 208 203 194 85 95 67 117 76 172 176 95 170 101 85 125 90 87 131 76 141 165 79 166 187 109 146 162 126 154 109 172 152 74 143 164 145 107 129 92 175 111 193 89 157 139 156 167 144 120 121 134 133 120 107 163 67 77 103 98 158 95 140 84 115 180 204 204 172 81 159 117 60 146 179 115 94 167 136 167 150 83 78 86 171 149 122 157 83 80 165 160 159 118 96 131 110 72 168 147 70 85 155 94 175 187 143 181 186 99 188 166 135 165 147 148 107 74 125 65 89 187 104 81 85 140 63 119 122 143 99 95 105 116 71 180 88 106 106 76 70 94 168 146 85 122 64 64 82 134 57 88 147 106 109 163 113 151 135 120 117 93 98 82 154 71 142 151 96 105 148 177 94 78 75 68 91 170 179 125 130 149 79 101 64 83 70 164 158 182 133 152 86 57 63 69 123 87 95 90 178 72 156 156 55 64 78 110 213 147 198 131 207 115 109 131 151 134 139 70 138 71 96 97 189 113 130 184 131 74 156 98 172 152 140 89 140 169 99 143 110 177 183 120 144 137 156 140 177 164 84 174 115 123 194 159 128 191 94 122 178 189 199 205 139 132 109 121 120 195 133 167 193 164 197 176 132 60 109 81 113 125 88 179 145 98 95 111 169 173 136 141 152 160 177 152 169 193 122 200 167 113 182 90 169 82 139 99 125 122 208 175 184 159 157 82 119 114 92 133 64 123 255 116 136 145 102 127 37 130 148 72 165 109 97 88 150 56 133 86 77 85 147 89 141 98 154 159 146 97 179 87 117 126 173 96 98 163 156 133 106 82 88 121 187 89 106 180 146 91 139 152 125 128 87 69 115 57 129
138 124 106 105 120 143 163 176 179 173 156 140 133 128 129 146 158 175 171 161 160 159 166 188 201 198 186 183 179 184 179 179 166 151 150 168 185 185 181 169 152 165 181 174 203 195 153 181 176 158 187 201 182 171 179 132 117 142 103 158 158 191 149 193 191 165 88 70 130 145 104 135 187 111 107 170 134 96 104 149 95 148 139 83 130 72 82 87 113 113 104 71 83 90 100 89 109 95 108 107 114 123 94 72 81 59 72 90 112 145 107 126 158 141 109 64 51 64 137 124 193 117 98 109 157 134 157 168 127 136 89 147 173 212 118 190 199 89 64 96 141 175 167 166 174 104 82 178 163 149 146 146 47 80 149 101 182 171 171 106 148 103 114 99 169 162 136 161 171 113 112 199 115 191 123 196 176 109 145 81 175 89 154 115 217 107 168 137 157 133 111 73 169 108 145 151 73 111 191 151 145 95 87 71 150 64 157 78 84 133 164 92 162 152 37 35 143 173 132 196 157 166 145 161 160 90 137 158 203 180 81 79 78 148 155 88 163 181 129 152 178 187 146 184 125 90 172 124 115 133 145 142 60 83 196 198 114 129 108 134 79 79 93 153 172 171 133 121 165 79 87 85 122 145 156 152 81 143 155 120 138 123 113 91 79 138 97 142 90 169 100 101 98 117 95 127 80 57 82 62 157 148 81 98 72 174 102 107 89 65 70 107 83 110 140 81 81 151 101 124 134 111 185 185 76 55 42 115 113 154 128 98 147 90 77 127 113 129 121 168 145 117 200 207 202 175 108 176 96 106 84 174 153 133 58 140 96 164 181 168 157 158 142 97 153 159 79 114 70 126 163 150 76 187 190 157 149 116 174 161 171 99 171 125 98 195 175 100 172 205 106 177 99 192 185 145 136 112 171 181 112 123 143 114 141 107 210 128 154 74 62 141 142 137 126 147 69 86 88 87 106 116 105 169 75 113 67 109 85 155 170 185 208 206 101 130 122 177 159 135 136 180 206 152 102 158 137 152 132 48 48 63 105 135 28 114 129 53 58 163 141 152 61 77 162 146 146 55 89 124 46 139 124 95 50 134 56 108 168 177 93 127 140 124 128 170 121 105 129 83 106 132 130 70 127 61 107 76 179 151 92 98 140 148 173 197 97 113 74 57 96 130
163 144 123 118 130 154 177 196 200 194 175 151 140 122 138 141 155 151 163 154 153 164 178 193 210 209 208 194 173 182 171 178 164 172 168 176 192 192 177 176 169 183 184 190 209 193 186 155 181 181 184 175 143 127 139 128 117 162 127 172 124 186 189 182 152 106 117 136 111 139 122 120 175 99 135 138 69 139 103 104 100 86 134 107 94 130 67 133 107 82 98 75 85 82 84 126 85 111 100 98 115 96 112 117 100 59 83 78 92 100 106 145 137 141 112 84 86 112 104 95 120 181 108 94 171 114 77 82 96 107 110 186 109 208 206 123 104 85 115 158 77 124 155 125 176 134 135 148 87 142 86 80 124 115 80 112 163 126 149 80 112 144 122 129 167 176 174 98 141 153 216 125 139 176 160 152 196 182 75 171 177 180 207 122 133 145 172 148 129 114 156 165 105 118 125 130 177 137 198 165 101 135 97 175 82 76 118 109 111 76 101 85 65 138 54 31 93 158 99 129 110 170 157 157 79 170 107 130 144 141 145 183 124 123 133 50 110 145 86 154 143 180 96 77 145 125 134 181 145 158 163 138 105 123 134 210 123 167 69 89 56 115 169 99 86 161 112 116 110 97 87 166 93 54 57 90 134 89 169 133 113 97 153 67 141 103 94 101 149 129 156 122 101 92 122 103 59 71 160 105 79 89 79 153 80 160 180 141 152 57 102 122 126 86 112 89 132 114 57 55 81 72 84 105 81 52 124 96 148 76 72 83 194 191 87 111 63 131 102 78 177 126 102 182 164 117 149 164 82 76 147 167 125 133 169 154 90 115 86 145 162 169 142 85 177 172 85 140 255 133 132 155 162 179 185 195 188 164 159 124 130 113 179 176 132 157 149 104 195 199 113 107 114 208 134 182 174 185 103 141 104 105 71 73 86 133 143 164 104 179 75 167 63 48 54 58 70 177 79 77 61 144 117 108 163 174 180 185 86 171 66 124 111 179 113 78 181 180 184 157 190 121 192 187 110 79 145 159 65 146 148 55 144 70 89 136 136 101 75 174 79 69 129 146 65 107 122 62 104 165 148 155 59 99 164 144 94 156 95 90 113 173 201 199 163 111 112 99 188 95 191 185 123 82 78 101 82 73 159 104 98 116 93 142 138 124 80 87 141 81 148 107
166 151 136 137 153 175 189 205 197 193 182 166 147 131 138 140 148 143 160 150 155 143 173 189 216 218 207 192 180 169 174 177 255 177 177 183 183 176 171 163 181 181 206 213 197 189 149 163 175 162 141 139 152 143 111 132 165 109 124 157 153 105 185 194 180 176 181 101 90 121 162 99 156 111 111 121 97 95 105 153 85 152 100 48 117 124 69 132 120 155 96 102 83 80 88 88 126 85 86 99 105 133 113 95 80 79 73 115 92 121 129 153 138 79 62 133 55 101 76 164 140 102 84 176 93 152 169 181 92 97 153 103 102 135 163 192 101 105 87 72 65 97 166 131 172 160 139 177 176 174 169 167 173 143 173 161 175 122 135 137 68 94 71 156 149 135 106 100 113 162 153 220 218 146 170 200 186 192 148 187 113 101 107 201 208 209 212 137 72 58 119 81 93 99 187 138 116 174 129 194 95 173 84 105 150 140 169 157 171 79 104 150 116 69 59 147 136 108 178 104 169 97 153 79 72 114 103 184 117 211 203 123 101 164 78 109 126 87 173 144 177 104 170 78 155 176 133 202 175 202 128 119 154 184 106 186 146 187 115 161 151 157 109 117 179 83 126 104 144 87 114 155 106 92 54 67 98 165 175 124 172 155 69 164 95 136 181 165 128 141 108 170 173 90 109 145 94 121 129 153 124 139 180 160 133 84 115 102 167 80 62 169 169 72 69 159 72 98 72 65 146 142 99 175 72 155 99 66 158 160 161 100 188 184 149 169 69 99 91 166 81 85 83 171 137 74 162 73 54 104 108 122 68 90 175 106 176 178 185 186 133 166 132 170 103 184 90 114 172 186 93 119 184 159 106 186 106 101 128 155 85 178 187 104 123 191 111 143 172 202 164 167 107 183 146 98 177 153 195 197 198 166 164 135 151 178 104 125 160 137 187 172 66 145 123 112 81 99 164 99 161 128 160 177 162 122 96 90 180 68 145 160 179 163 182 82 173 178 178 83 137 196 191 101 92 175 156 70 165 64 63 80 140 40 85 118 142 168 132 151 126 108 130 151 90 155 98 170 99 166 114 128 86 170 129 125 174 101 129 90 112 126 196 101 194 134 128 130 157 106 203 128 127 196 114 91 80 129 177 99 178 143 101 185 79 70 89 64 110 108 55 147
155 148 147 156 172 182 194 199 195 189 186 169 152 138 142 142 142 151 147 154 153 150 165 181 200 206 188 169 173 172 169 180 190 193 187 181 166 165 163 171 178 170 177 199 172 190 173 152 132 176 174 174 131 166 129 162 131 131 146 101 139 172 133 159 190 157 144 119 187 158 148 158 127 156 110 115 63 77 132 88 85 128 55 45 90 52 67 111 125 126 122 118 99 67 91 98 88 115 115 134 102 112 133 124 82 73 94 112 91 78 74 94 74 112 56 56 92 115 56 69 75 145 166 165 87 168 135 172 92 102 122 98 183 79 165 178 122 174 165 255 51 53 51 158 160 85 153 137 161 87 118 77 143 182 141 151 123 136 58 45 99 71 74 155 170 178 157 196 200 182 202 255 146 121 133 157 148 192 113 181 141 99 199 192 147 220 198 153 180 132 161 71 140 176 166 131 109 98 190 82 130 87 108 84 130 76 90 108 88 144 83 90 174 142 170 80 91 86 100 160 204 130 174 170 72 161 96 192 208 149 205 107 182 171 136 65 175 89 91 173 165 178 137 139 115 106 147 110 170 206 176 181 117 135 126 203 195 151 147 167 172 92 93 148 95 140 113 170 152 163 110 59 117 93 77 64 122 165 128 98 77 104 136 146 125 72 73 79 152 170 87 108 81 119 91 115 99 138 85 72 114 125 97 86 103 80 186 90 84 67 125 109 152 114 154 100 170 173 102 99 139 75 151 173 72 81 120 141 180 136 86 128 97 170 121 168 65 116 153 95 136 154 164 65 168 85 156 43 76 93 139 136 100 161 184 85 177 137 178 86 157 147 180 133 109 112 114 114 95 187 196 166 147 151 184 160 162 88 132 155 74 105 112 160 149 117 155 126 182 143 150 161 162 204 188 100 162 164 136 175 207 183 153 79 128 186 191 167 194 194 177 144 108 139 166 93 93 97 115 132 115 157 74 87 121 179 174 128 169 141 100 119 75 119 111 101 166 132 84 91 123 157 108 168 189 184 79 130 114 167 63 157 77 127 69 148 74 163 59 53 116 150 93 72 64 147 157 119 183 84 145 85 180 129 161 149 94 85 175 160 99 188 190 171 84 86 92 141 182 110 102 178 104 105 114 185 147 145 140 108 203 169 204 191 81 74 73 76 68 104 108 65
144 143 150 162 174 184 185 181 181 176 167 155 153 152 159 166 150 162 158 148 130 141 154 160 175 175 175 160 169 167 164 179 189 200 196 178 160 147 159 165 174 182 169 174 187 177 170 167 169 173 136 150 147 165 138 124 180 126 167 153 144 123 183 189 183 199 128 135 160 183 180 193 142 106 60 89 63 121 79 84 155 98 73 34 71 91 73 152 110 163 126 162 117 71 116 78 116 98 122 112 131 150 103 97 108 105 118 117 79 81 71 55 87 60 123 91 72 79 52 57 80 69 94 69 64 145 91 83 94 94 152 181 73 70 124 152 164 70 134 155 148 79 50 156 150 66 107 167 93 174 151 77 103 108 164 129 190 167 70 124 59 76 161 102 95 150 153 150 181 211 212 204 146 186 199 192 178 113 185 105 118 104 163 181 150 185 129 199 106 159 159 57 72 76 158 184 159 191 140 151 74 91 153 145 85 111 82 113 118 135 160 69 94 187 121 128 128 161 163 116 149 94 175 102 120 124 163 92 157 170 191 182 112 83 132 77 145 193 104 209 200 159 73 159 79 177 152 115 146 195 185 130 167 112 185 178 168 119 157 120 82 174 188 115 117 110 193 139 95 166 108 73 75 98 74 121 128 109 112 155 121 56 96 118 71 67 69 152 137 163 91 168 126 70 126 147 105 83 89 107 100 126 100 168 83 176 169 73 144 75 170 118 153 85 120 70 93 174 160 85 81 77 75 167 150 61 100 172 109 196 111 100 123 155 113 67 62 145 163 87 87 64 115 154 170 73 160 55 67 124 75 63 151 153 173 137 175 161 160 83 186 87 108 101 103 126 174 148 146 191 167 139 194 195 95 140 186 178 140 82 177 188 90 117 142 112 190 190 135 164 102 184 185 116 205 142 105 159 195 166 123 194 73 143 90 184 165 169 205 185 120 175 120 92 155 100 85 183 84 144 152 173 169 182 97 178 178 173 186 90 165 101 76 105 147 109 56 88 107 98 210 192 166 194 187 142 110 175 142 166 115 167 150 138 63 149 146 67 93 78 139 47 51 66 82 48 75 137 144 94 170 183 119 184 181 109 174 149 170 113 153 90 166 163 101 124 158 136 170 164 177 104 124 135 113 120 86 184 148 215 217 133 153 109 70 95 122 159 69 173 98 98
134 137 145 159 171 171 165 163 168 168 169 164 171 178 180 187 169 171 151 153 137 131 142 145 162 160 151 159 166 169 171 176 193 202 198 184 163 162 155 173 164 178 175 163 172 141 143 157 157 143 176 122 116 160 168 156 168 183 159 127 132 181 137 171 148 193 135 134 153 126 147 161 113 164 136 50 134 156 121 88 98 55 63 38 57 95 120 90 102 116 180 137 78 67 80 98 102 114 112 116 107 96 105 94 129 95 94 114 120 122 58 58 74 104 121 90 72 119 64 135 123 107 77 114 66 161 100 99 101 116 135 142 67 87 160 159 64 103 86 115 139 155 70 164 84 159 154 164 162 144 109 65 165 255 105 155 186 94 170 120 168 95 83 146 86 114 194 114 189 199 192 124 101 196 146 217 119 105 75 170 86 135 101 126 149 211 186 227 186 142 143 63 145 70 136 102 176 180 167 171 104 94 125 67 65 97 113 106 180 175 102 56 154 164 102 124 159 211 110 177 137 98 177 110 187 87 174 174 87 95 183 104 130 120 115 143 181 124 151 146 155 188 136 175 156 199 158 190 97 193 87 106 179 87 103 102 110 99 104 160 155 153 155 209 213 203 163 128 143 77 136 67 143 152 82 165 155 163 147 58 69 100 146 109 144 69 153 138 100 162 130 69 168 129 159 50 76 96 137 113 124 136 151 100 93 96 81 114 69 77 180 119 170 107 84 136 125 92 170 109 155 78 70 93 163 163 152 90 191 159 103 143 192 110 156 137 57 156 91 112 92 55 147 153 68 148 149 79 83 120 134 114 172 89 167 78 67 56 72 171 131 107 149 188 148 198 149 203 187 128 174 117 190 174 129 98 193 192 169 147 160 175 161 82 179 99 86 86 144 132 81 145 161 137 185 132 166 127 133 147 129 178 168 116 156 83 148 92 140 152 174 128 117 94 99 168 182 89 74 77 71 163 90 166 120 170 118 146 152 136 120 76 72 160 165 104 82 144 101 142 124 217 206 174 97 182 152 171 106 195 112 175 134 123 143 136 65 74 108 48 148 155 88 64 120 115 164 255 179 90 183 109 107 90 186 78 141 90 129 101 105 76 165 100 179 117 127 133 107 138 185 173 188 176 175 172 81 156 102 223 239 212 173 101 72 105 159 61 166 160 87 103
129 129 136 154 167 166 153 145 141 152 165 167 167 187 192 201 186 187 154 154 135 132 138 147 139 151 159 168 169 175 174 182 196 206 199 189 180 168 184 191 188 189 177 172 150 155 154 161 144 166 124 147 112 112 163 129 177 174 121 130 255 139 133 171 126 139 123 196 212 207 124 137 152 82 147 107 121 126 95 128 90 93 59 102 99 95 93 106 104 105 138 111 99 78 150 120 120 101 92 90 97 99 92 133 108 113 99 110 103 81 63 62 80 103 74 78 78 114 98 120 84 91 96 89 78 125 88 183 192 113 177 74 69 68 148 114 161 152 178 122 169 176 76 163 149 162 143 82 83 151 121 98 139 170 111 197 192 190 115 156 144 151 163 142 127 187 188 146 98 190 123 182 127 141 137 142 206 189 92 164 97 155 167 162 152 120 226 232 143 150 175 152 81 61 171 84 86 82 135 104 195 123 96 172 73 154 96 118 179 176 137 96 149 130 184 211 196 197 93 186 124 118 85 134 160 99 81 100 163 107 183 176 166 63 74 165 83 195 197 178 201 113 181 180 88 116 162 133 197 94 120 115 88 84 174 75 124 58 94 152 96 195 162 190 163 209 119 198 175 125 72 99 122 131 115 155 152 126 142 71 111 163 77 114 76 81 126 61 73 167 128 124 182 142 90 59 82 94 134 104 132 103 128 127 126 93 129 153 82 182 193 93 124 106 126 93 181 145 142 86 83 90 122 117 148 133 110 175 185 157 202 99 143 152 186 74 112 77 138 101 155 73 150 154 96 151 162 149 75 145 161 124 80 125 87 154 157 149 160 87 124 139 79 113 200 184 164 130 184 147 207 185 136 215 192 143 201 199 174 96 116 181 160 134 118 78 158 99 131 77 68 176 91 206 218 124 192 129 126 187 124 123 124 84 104 161 101 172 104 143 102 182 157 182 92 82 122 87 175 128 72 172 101 126 108 154 83 107 82 168 187 139 113 106 131 154 81 151 124 147 209 220 216 119 104 164 175 80 173 114 192 166 135 169 70 171 109 161 56 56 66 77 105 106 153 138 75 175 83 123 173 178 149 177 185 83 172 131 125 87 154 169 125 76 171 106 193 98 120 83 80 179 187 183 96 91 162 78 175 114 225 192 142 140 175 75 161 67 108 159 135 145
122 124 132 149 164 164 151 144 142 145 149 157 166 174 190 189 188 196 179 152 132 134 134 138 147 150 151 156 174 177 185 189 191 201 190 184 188 197 204 205 203 197 186 162 167 170 161 135 163 162 164 159 125 119 137 126 142 145 171 161 171 200 179 134 142 126 105 139 196 129 125 114 134 89 57 127 141 117 95 83 110 43 39 66 72 107 161 108 103 106 125 92 101 91 113 105 113 93 78 93 106 118 83 89 101 78 71 122 133 109 75 78 88 60 129 78 90 127 146 147 131 164 118 69 104 80 94 157 113 94 109 87 255 66 139 102 185 101 199 195 103 176 186 177 116 128 88 64 160 81 141 60 135 164 167 125 190 153 86 170 132 176 135 204 136 98 130 103 122 129 95 149 165 107 152 230 176 147 165 66 157 143 108 191 198 221 169 126 209 174 142 157 75 149 127 84 87 78 151 190 132 141 133 195 103 120 128 187 194 74 144 61 68 168 170 113 116 131 142 163 171 138 117 78 126 75 150 129 255 84 150 175 176 85 158 190 188 100 105 206 103 187 180 175 168 164 123 131 189 96 109 86 100 65 142 59 145 152 151 165 181 184 139 198 146 189 112 188 134 74 124 161 100 78 135 149 119 174 184 171 174 174 79 117 149 118 145 145 121 205 121 116 164 150 118 142 60 153 102 204 225 123 151 177 162 98 188 90 97 204 111 120 105 129 138 194 176 189 172 144 104 176 144 90 88 62 146 81 137 186 162 115 97 118 87 109 154 70 122 64 61 146 132 110 81 94 172 197 169 175 168 153 158 171 162 60 139 63 107 156 186 135 175 143 174 143 124 183 208 123 178 205 219 134 153 147 190 170 161 90 84 74 163 84 129 94 75 162 66 68 99 135 176 154 146 138 202 142 168 161 189 189 169 150 167 161 61 76 83 137 186 186 143 102 83 181 121 121 168 178 170 105 108 202 186 107 69 113 112 170 116 177 146 167 164 147 123 101 93 200 163 111 190 96 185 170 87 88 136 159 138 144 188 128 83 153 121 57 162 157 130 73 70 77 99 141 171 108 86 113 164 95 73 88 163 100 161 129 152 131 108 179 163 100 99 70 95 90 156 143 118 87 125 148 167 184 75 129 171 93 125 128 137 100 189 121 86 102 157 145 105 201
120 125 133 152 156 160 155 152 146 144 138 143 161 171 176 188 193 198 174 142 137 135 140 137 147 145 151 160 167 180 181 196 200 194 184 181 186 199 211 212 209 196 198 183 167 149 174 161 172 148 149 170 155 114 141 153 144 200 170 164 178 165 145 152 129 130 132 138 155 106 98 145 122 141 98 76 116 131 63 109 84 77 83 138 92 118 118 103 110 103 114 115 99 148 100 126 95 109 82 54 68 99 91 115 73 53 69 93 58 75 110 93 81 125 64 99 127 95 106 97 156 112 111 72 159 179 187 116 101 196 94 97 109 86 150 195 128 142 195 180 196 111 181 131 144 119 82 168 86 178 138 74 163 179 181 112 165 151 162 168 171 118 103 194 109 175 99 95 160 152 95 151 155 131 229 202 195 200 133 147 183 181 152 111 117 204 182 148 170 105 112 79 161 143 107 76 117 177 135 108 120 200 115 188 139 159 200 196 160 175 128 73 71 155 92 105 157 149 87 91 82 115 93 115 73 67 100 71 112 179 84 189 164 134 103 199 94 163 179 175 163 99 102 121 135 182 142 180 188 129 186 87 171 133 83 115 142 93 58 102 173 168 157 130 171 143 173 179 106 171 163 143 188 164 168 122 131 157 80 160 71 69 88 70 70 88 50 114 202 222 140 144 181 99 180 96 95 110 131 133 140 140 137 123 113 156 169 119 102 110 183 183 207 140 117 123 104 134 95 110 162 98 179 90 89 148 61 152 101 93 151 163 87 111 88 155 171 75 68 92 58 75 53 54 162 76 115 190 102 157 154 102 115 69 57 121 48 89 159 77 168 138 184 123 126 185 126 119 153 211 206 182 124 131 178 187 193 194 192 87 87 133 82 162 85 134 85 164 104 101 117 131 123 135 162 158 137 135 177 184 100 204 164 93 165 144 67 85 84 94 114 117 180 161 163 95 184 165 186 168 195 162 134 151 143 186 86 102 69 104 159 174 119 108 87 87 86 137 199 137 121 179 90 255 164 160 124 89 192 140 124 113 196 116 99 63 66 104 164 164 65 153 68 84 175 148 146 164 98 177 141 96 160 100 94 104 154 100 93 71 174 163 140 59 74 134 142 117 134 94 68 131 158 199 184 105 151 148 134 96 101 150 115 127 147 175 145 184 176 109 116 99
114 125 137 155 156 156 161 161 151 147 136 149 149 159 177 192 183 181 164 155 146 137 135 150 143 142 147 153 167 181 192 198 195 187 178 181 194 204 203 208 206 202 193 190 174 180 172 181 151 183 167 130 146 155 165 173 175 155 177 166 200 182 194 100 108 149 116 167 175 92 148 81 64 71 77 116 68 85 125 101 78 53 119 71 132 88 131 141 100 99 135 162 99 121 97 93 91 67 71 49 57 66 123 71 99 99 50 97 82 65 93 77 77 73 74 107 110 148 140 114 112 115 54 112 66 121 148 180 130 187 133 87 82 73 93 102 189 221 220 125 120 193 97 119 70 167 171 115 167 183 127 182 148 164 78 144 159 137 147 168 105 104 176 178 140 115 119 88 107 106 184 113 150 206 160 147 209 130 201 137 90 185 141 111 144 206 163 110 205 118 201 182 134 153 130 124 126 167 149 151 161 103 176 124 108 143 140 200 183 144 68 161 108 75 181 117 199 179 152 180 86 150 94 154 158 88 51 57 128 75 178 96 93 135 200 130 148 200 190 129 117 99 163 154 76 169 180 106 109 89 99 174 171 164 121 135 138 39 47 59 168 79 80 187 194 201 141 97 190 146 116 144 100 80 119 173 99 95 82 69 85 136 118 78 137 115 128 182 157 234 138 215 191 141 170 91 190 209 220 140 163 202 154 121 154 111 136 139 119 164 143 207 207 209 139 103 195 84 81 185 101 103 143 192 78 121 64 46 46 70 117 120 158 175 96 119 170 89 171 112 84 84 92 54 162 113 122 126 168 202 94 86 168 130 112 37 83 52 107 109 185 133 78 171 175 177 201 123 196 216 199 200 137 133 172 185 92 187 185 135 110 100 88 124 141 60 65 73 120 96 167 116 145 121 178 97 191 154 176 183 171 140 191 255 116 64 130 161 173 127 160 186 123 88 177 182 106 198 121 116 153 124 207 129 112 189 105 189 184 152 143 93 154 151 132 70 123 120 183 103 190 85 108 86 66 71 255 166 191 196 210 128 203 84 163 55 47 112 154 71 98 70 105 134 171 81 165 162 140 134 100 173 153 176 100 172 159 63 152 146 166 106 58 86 36 122 135 56 75 129 128 148 140 194 174 73 114 137 101 64 105 127 209 116 123 175 146 121 94 106 82 89
112 127 143 157 155 155 162 160 153 149 144 152 162 163 173 181 193 180 168 153 149 147 156 151 150 149 141 160 177 194 205 204 189 182 178 185 194 192 203 196 196 179 193 192 172 182 185 188 198 199 150 134 163 138 158 174 194 189 188 207 255 190 172 164 113 96 115 89 61 113 65 144 106 61 121 61 97 94 141 73 70 75 141 85 73 120 111 94 99 109 138 105 101 104 101 86 99 56 51 53 77 76 84 117 94 68 34 34 51 72 109 134 103 102 81 135 103 144 110 97 83 60 55 66 66 160 136 120 151 156 91 186 180 76 179 184 189 203 182 129 133 113 97 165 175 75 174 206 210 207 111 149 180 170 80 94 138 138 156 186 136 202 109 186 116 104 115 171 171 96 146 86 166 156 224 193 225 230 136 162 109 152 98 145 158 128 136 204 183 220 210 195 183 176 184 117 100 105 127 138 184 91 181 170 94 98 141 91 137 80 131 148 62 85 168 121 157 193 126 141 92 89 95 89 160 156 104 145 118 96 182 131 174 127 189 112 193 177 208 205 145 201 87 107 98 117 160 169 178 91 140 181 179 186 169 167 160 67 149 150 166 150 139 186 99 255 159 174 186 120 121 175 98 69 136 108 148 88 102 100 95 148 119 88 164 55 57 103 106 159 137 109 106 100 103 94 94 110 196 161 170 123 157 96 149 114 80 114 109 112 109 210 111 88 90 87 160 120 129 180 164 193 184 109 184 60 45 131 46 56 68 70 87 118 176 163 171 192 160 84 105 120 129 130 134 92 133 177 111 209 116 109 93 128 141 80 115 126 83 69 87 114 63 152 71 167 112 212 222 214 108 89 129 131 125 108 128 122 200 171 112 124 102 101 114 99 130 61 114 172 169 187 180 171 190 189 191 181 179 91 101 199 145 81 171 116 124 118 119 119 194 180 180 81 109 183 102 132 187 123 228 190 202 191 138 107 181 141 101 195 198 161 85 62 56 108 105 187 197 93 144 57 137 68 128 135 154 164 96 121 131 168 108 100 125 161 155 163 168 157 109 138 104 170 172 144 81 123 163 106 210 126 203 201 178 165 165 151 130 63 164 143 97 79 57 85 107 142 48 152 164 154 117 127 81 130 99 114 64 157 146 114 209 195 152 112 118 164 166 79 170 82
110 128 148 164 167 168 168 164 152 147 146 166 170 186 195 197 195 174 178 167 184 167 168 160 157 145 151 167 192 209 216 205 189 176 179 185 194 202 204 200 180 187 185 186 187 187 196 175 201 201 177 154 153 145 131 155 181 144 143 188 133 180 181 120 173 105 146 75 50 64 136 87 156 88 52 117 143 86 157 155 90 84 150 122 110 85 104 119 116 156 152 129 120 89 75 69 72 70 62 69 93 143 101 98 81 96 42 44 111 69 81 117 105 170 105 110 110 190 113 166 74 106 80 151 83 164 160 84 86 83 174 169 107 151 148 104 189 142 206 114 185 105 96 101 77 182 110 110 192 131 82 74 159 144 150 70 65 164 153 168 168 152 205 127 136 141 155 155 141 172 82 178 184 149 143 157 134 132 203 196 103 165 126 191 172 178 153 180 210 160 231 199 141 143 188 107 145 187 113 103 160 115 150 156 171 130 123 162 89 169 113 58 116 89 121 113 147 169 114 101 177 165 184 100 175 98 158 161 111 185 181 133 122 161 116 166 100 154 102 103 114 196 132 146 163 126 109 82 92 164 168 102 176 115 171 152 184 138 166 160 142 133 82 131 113 157 109 180 112 195 96 189 156 54 98 129 83 136 50 78 154 134 161 172 177 81 146 88 170 214 105 88 89 127 128 91 147 199 169 165 98 120 101 96 181 70 67 80 143 83 148 185 177 113 89 145 89 158 120 110 122 135 219 138 134 151 50 37 36 53 105 161 169 82 163 149 211 109 91 120 63 48 146 173 90 92 97 109 220 128 148 118 113 177 124 52 77 143 57 121 141 127 62 145 125 79 99 164 200 173 148 117 106 117 160 166 150 158 110 200 200 98 112 100 172 171 139 46 142 164 185 187 153 180 188 193 156 133 123 93 114 197 102 115 74 160 144 188 104 101 125 184 163 177 181 90 181 199 121 211 137 200 145 200 158 119 106 160 194 178 142 98 170 66 79 107 68 140 86 181 70 146 49 35 62 124 110 184 128 216 192 152 150 107 179 98 92 176 167 167 175 143 178 97 179 132 186 159 108 120 212 190 219 135 175 122 132 160 180 171 162 92 53 154 119 88 64 55 57 127 90 98 114 108 178 167 84 72 145 54 159 166 127 185 188 94 139 77 79 164 90 163
115 131 152 173 178 183 174 155 145 132 141 163 191 202 201 188 193 187 202 209 192 192 176 158 151 147 153 179 205 225 227 212 194 179 181 191 197 204 204 197 192 179 173 174 179 178 177 175 198 176 154 116 140 134 121 106 144 167 114 104 130 185 125 162 182 117 71 90 82 71 87 95 78 105 144 117 152 92 94 148 88 86 89 146 85 125 76 97 102 103 164 86 74 64 63 71 116 73 101 92 109 131 108 110 100 68 73 37 75 136 112 154 92 130 93 121 111 191 109 96 151 150 110 109 73 72 71 65 165 72 73 95 73 71 72 127 164 88 126 118 124 101 193 169 112 97 193 178 170 171 99 134 102 149 76 139 147 157 70 147 172 151 204 186 117 154 95 102 180 158 76 149 158 183 190 122 128 126 219 111 79 144 93 179 203 149 113 185 217 148 240 156 188 137 169 140 166 204 117 195 160 170 78 88 76 181 93 77 113 81 133 136 78 137 86 95 121 174 203 188 167 182 97 160 86 125 70 169 156 115 183 170 56 134 124 59 56 163 121 179 144 184 166 166 71 114 188 163 93 171 155 173 115 143 168 145 105 172 184 165 142 77 120 139 178 155 120 196 119 168 159 103 132 72 112 37 111 111 107 97 72 134 145 109 177 147 83 92 100 151 102 176 148 65 145 90 106 118 92 125 118 195 188 100 174 74 114 112 139 76 77 77 74 81 165 102 99 102 166 87 124 206 156 208 158 101 131 130 44 59 163 150 118 174 181 184 120 173 90 137 146 63 145 84 194 181 195 199 136 134 116 203 116 98 121 167 124 151 156 131 61 140 59 149 63 81 120 121 173 113 103 190 149 183 160 130 178 168 164 127 102 172 157 194 113 98 98 91 143 126 176 141 151 71 89 185 126 186 158 98 144 130 98 100 172 154 195 114 171 198 110 91 184 107 171 79 109 159 112 181 193 168 152 114 167 131 116 104 120 124 185 99 181 154 123 155 74 83 100 87 73 108 145 143 130 58 100 176 119 187 139 213 174 133 188 137 116 204 126 88 88 127 194 180 126 104 118 204 199 114 217 142 144 210 126 163 132 153 94 80 71 113 79 111 155 83 100 118 72 153 155 107 164 79 71 94 85 134 148 53 107 180 101 125 92 184 115 108 143 113 99 183
115 130 152 173 186 192 182 156 144 128 148 169 180 201 196 204 194 201 201 213 220 203 169 175 170 174 174 185 204 218 218 210 197 189 190 196 203 210 214 211 195 173 142 153 157 148 143 166 171 168 144 103 99 133 150 151 153 126 135 127 155 127 166 188 178 125 158 76 72 91 137 149 110 101 79 166 120 137 128 104 123 161 130 138 108 126 89 106 107 107 85 92 76 69 56 63 80 90 104 112 129 121 126 98 106 97 56 75 48 62 79 87 89 117 119 112 162 101 152 88 105 71 71 117 106 64 155 61 171 77 80 183 83 154 76 89 183 154 171 174 91 97 202 194 144 185 165 130 180 70 153 108 89 55 130 133 99 102 92 89 125 200 129 189 78 129 88 154 139 176 170 112 107 182 87 102 114 155 168 103 113 173 153 190 183 131 100 120 142 217 149 225 114 130 140 171 99 151 175 187 173 92 97 160 105 116 96 140 159 96 156 158 66 97 89 132 175 138 117 134 195 145 147 123 175 175 84 168 182 129 112 77 118 99 93 36 71 126 54 123 139 89 157 132 176 147 115 87 75 65 72 60 151 114 136 148 131 211 199 136 169 89 123 154 109 149 152 159 116 189 91 189 76 67 102 64 126 133 122 83 35 118 50 63 70 108 160 98 116 194 100 79 73 117 178 179 105 116 89 145 158 182 122 94 83 103 95 59 79 54 73 58 69 123 92 94 86 89 126 91 133 107 202 148 102 106 74 62 92 66 108 136 181 80 146 105 158 145 101 105 136 158 79 171 103 158 182 137 136 186 156 137 99 112 171 147 110 59 83 85 108 180 166 83 73 153 169 173 86 104 192 182 180 185 167 114 105 107 100 99 99 186 125 178 165 181 130 143 120 86 67 135 149 148 136 175 115 91 101 137 116 145 152 136 83 186 139 201 102 180 179 98 151 153 133 74 98 117 85 96 128 115 123 188 178 155 142 178 186 119 130 95 165 182 172 100 183 181 188 167 93 77 78 124 141 76 96 177 110 184 131 144 110 114 183 118 195 100 87 170 131 142 115 195 113 128 111 128 211 184 110 204 149 158 146 214 185 106 193 160 92 133 103 129 67 117 109 93 154 107 121 158 148 64 85 121 136 95 78 99 179 94 166 95 97 109 123 151 77 101 87 153
115 127 142 155 172 179 176 160 152 144 160 164 176 186 199 201 197 193 199 220 200 182 170 160 177 187 187 196 202 215 217 212 201 197 198 207 211 212 206 202 185 159 154 143 127 137 151 139 167 167 125 159 142 135 166 155 112 148 170 199 134 126 155 106 141 153 92 141 145 151 159 152 96 92 85 90 179 131 114 128 109 158 91 75 129 126 138 134 116 101 143 56 115 56 64 71 127 87 96 129 121 155 121 89 94 77 120 69 74 90 78 97 150 93 77 126 88 124 156 75 140 85 82 172 78 74 154 167 78 118 91 96 187 90 92 96 124 195 177 120 179 139 141 106 180 176 182 199 171 97 71 117 137 136 37 85 137 90 77 181 99 129 150 141 81 115 91 100 159 173 167 107 102 95 105 185 107 192 174 103 172 88 128 88 86 163 121 132 205 223 222 125 198 81 163 95 177 156 158 102 181 81 74 106 144 151 99 118 161 86 168 161 104 144 127 92 168 117 149 183 115 126 161 155 166 175 90 152 90 174 99 62 103 50 113 47 145 139 116 110 136 163 165 108 171 110 85 173 141 103 120 149 167 152 123 204 202 145 123 155 163 126 120 112 186 124 103 178 97 155 134 184 142 78 76 162 163 128 102 75 110 88 114 64 65 73 77 169 173 81 72 154 64 126 190 117 218 133 99 121 193 101 109 87 81 60 98 55 62 44 97 91 76 144 205 123 108 152 74 136 163 110 179 105 106 126 123 81 129 92 147 90 116 106 175 122 169 117 164 64 82 64 88 93 194 83 170 99 162 143 178 189 170 171 191 170 159 54 53 154 190 199 187 113 172 67 91 148 97 138 210 219 206 196 148 131 96 187 189 166 179 131 157 85 182 134 56 128 58 62 255 78 137 140 143 100 85 99 194 205 127 201 101 87 98 189 194 100 120 115 114 183 197 150 152 76 84 69 125 150 127 198 192 149 120 83 173 177 146 180 81 191 168 196 186 154 203 143 209 124 192 110 105 122 132 157 155 164 119 212 187 201 96 186 136 201 111 86 160 63 106 160 175 170 193 204 112 212 109 115 194 95 115 168 103 196 102 97 86 142 79 135 75 152 160 96 134 198 128 182 132 161 154 57 82 91 118 67 168 78 101 108 102 152 87 104 151 127 61 159 78 52
103 112 126 136 154 162 167 164 155 155 168 168 169 171 182 191 197 197 188 188 181 163 168 160 184 192 198 201 206 212 214 204 205 202 200 211 208 212 200 202 182 175 157 120 122 126 126 134 166 148 176 158 145 142 180 188 131 140 211 161 195 189 189 175 137 154 176 93 135 131 162 109 109 95 107 138 110 174 199 146 187 125 94 113 86 97 112 121 125 126 140 96 77 80 72 60 67 72 89 105 175 124 110 109 98 133 124 79 76 97 94 161 93 97 64 155 101 76 65 125 105 91 93 77 67 98 62 92 85 102 174 207 199 104 168 211 118 126 109 87 192 144 198 178 206 131 122 126 207 143 91 168 72 147 85 106 128 96 69 87 175 184 176 103 168 150 175 114 183 90 134 159 119 121 96 147 110 199 105 172 102 132 101 169 167 176 165 170 84 183 145 210 159 166 163 148 161 102 96 181 183 68 151 45 86 124 71 93 106 71 98 167 87 162 161 188 121 131 205 241 136 146 98 171 122 178 177 136 127 167 119 80 58 106 148 63 99 150 44 107 150 106 179 102 146 132 164 57 57 104 71 55 147 172 130 130 114 204 168 148 135 131 114 131 181 178 86 71 69 79 84 122 139 178 118 127 70 125 148 125 138 108 54 46 52 109 174 92 182 90 91 122 126 92 137 180 127 119 182 133 160 182 104 160 102 118 68 94 73 83 47 151 77 124 146 218 124 133 171 54 117 94 83 98 97 147 103 71 61 66 149 111 186 196 175 81 81 120 88 148 77 86 86 98 128 166 126 86 168 173 87 91 112 200 149 172 154 141 52 129 103 184 113 147 117 131 59 107 137 193 204 221 140 123 115 180 191 164 184 179 137 182 101 132 170 151 60 100 150 153 150 90 115 65 116 138 183 94 187 194 123 212 98 150 80 178 184 97 158 113 203 147 181 217 130 194 114 176 133 99 94 182 158 162 166 66 90 166 139 174 111 159 200 148 98 193 203 111 193 201 175 87 99 161 123 187 206 208 113 199 104 161 94 179 190 186 137 150 71 126 76 59 85 164 101 207 168 208 195 190 159 174 172 111 132 106 187 143 87 174 137 91 50 114 172 183 154 158 118 170 176 136 72 74 79 142 102 166 156 103 200 193 160 100 170 163 132 70 82 72 125 51
88 97 111 123 137 155 165 163 175 170 164 164 162 175 184 180 182 178 166 179 174 160 160 175 187 189 208 210 217 218 212 204 199 197 197 203 203 199 198 189 188 171 170 150 140 141 146 176 173 177 181 159 188 192 205 175 176 186 171 196 164 146 126 173 154 104 164 133 115 133 140 113 165 87 92 106 149 165 130 144 130 117 116 115 87 94 171 130 138 98 122 77 79 99 75 83 55 62 114 107 136 148 113 100 90 88 101 95 87 125 82 87 90 111 58 137 88 82 75 69 132 101 120 135 74 115 113 112 88 109 117 118 211 151 106 156 216 122 172 201 174 100 113 191 209 113 137 203 174 98 162 165 176 95 77 79 87 85 73 98 87 168 164 133 157 187 124 138 187 89 161 129 135 122 188 102 122 135 212 212 155 137 199 200 186 146 69 152 125 124 159 164 182 160 136 169 181 123 196 99 109 83 161 97 149 149 145 137 139 77 141 91 175 122 158 109 167 229 234 150 228 201 202 113 203 200 123 105 98 146 130 73 170 141 168 163 159 168 69 166 123 84 116 108 75 158 153 112 100 52 59 106 148 157 161 186 195 131 135 135 135 137 96 194 105 150 111 82 63 114 92 201 103 168 85 95 156 172 151 56 84 109 72 134 54 80 91 128 109 100 52 137 141 82 118 122 118 134 131 118 99 141 86 56 46 68 163 81 92 91 73 133 66 83 106 120 129 191 75 63 50 55 123 84 82 121 77 143 56 135 164 104 127 194 202 92 165 76 171 70 69 79 101 92 86 94 136 158 117 152 177 173 186 197 147 155 117 148 137 89 117 193 186 130 75 62 158 70 122 110 185 119 122 152 167 159 148 100 83 92 108 87 148 175 113 89 139 150 111 68 147 137 139 109 149 118 113 176 101 204 173 162 95 146 175 175 168 65 129 77 144 127 207 206 117 206 116 171 125 169 108 99 109 111 169 119 172 85 116 179 162 194 102 119 157 170 173 106 145 132 126 118 170 71 115 170 193 185 185 196 173 178 108 186 85 185 95 83 74 52 118 68 161 126 207 190 164 160 167 117 92 147 159 156 170 184 171 80 74 163 96 149 105 150 90 129 105 107 106 107 107 172 95 181 97 182 95 100 181 189 137 202 192 185 187 89 97 159 112 170 133 77
77 87 100 118 133 151 165 172 164 170 172 170 177 169 179 167 168 167 171 156 173 172 173 169 186 200 208 214 219 216 208 194 178 177 177 183 185 180 192 189 192 181 164 156 142 141 147 167 203 190 174 172 157 196 209 193 210 183 177 190 199 175 177 123 189 157 133 93 52 70 113 156 99 87 81 118 154 109 139 186 166 133 136 90 89 128 152 109 172 105 99 144 112 93 135 67 92 63 120 112 118 127 110 138 142 93 127 128 78 98 95 99 164 134 68 63 75 161 88 88 91 82 106 95 95 83 94 158 195 184 192 213 113 188 101 195 111 203 120 111 140 108 101 138 140 130 175 112 137 104 147 179 170 151 129 85 177 70 57 94 147 81 109 167 138 146 154 134 187 145 81 75 104 93 181 103 107 194 145 217 157 120 201 202 103 79 86 54 65 180 184 170 161 68 67 120 149 115 177 90 181 107 167 134 103 80 106 139 98 148 86 79 91 176 161 185 171 120 226 132 154 135 117 105 116 105 123 165 55 154 151 173 179 91 161 130 170 117 93 166 174 82 178 80 139 166 55 149 149 153 140 90 81 113 129 93 167 96 101 78 153 163 91 116 197 191 168 168 128 94 123 152 202 96 85 134 171 98 122 78 75 63 73 94 129 84 159 119 118 121 49 60 45 167 126 106 99 197 171 157 125 71 148 70 63 66 79 124 140 135 163 55 92 157 120 110 85 148 166 176 98 67 85 78 97 108 81 55 70 91 166 94 210 152 169 119 179 95 88 169 82 95 174 104 190 180 71 109 160 71 124 189 187 209 207 152 83 141 68 145 160 107 199 92 170 67 80 106 115 125 166 107 172 172 133 170 83 155 97 107 182 188 93 116 139 136 71 129 175 165 174 129 151 138 117 121 117 140 180 153 215 121 116 163 77 75 144 53 142 139 180 99 155 216 200 106 160 103 97 168 130 166 183 173 124 155 164 96 212 109 178 148 156 87 170 114 62 101 174 173 129 183 74 75 135 113 115 203 170 153 167 82 123 164 169 126 93 120 109 55 58 76 130 87 119 167 164 179 87 159 112 116 157 98 168 181 142 152 126 102 83 71 148 87 79 142 188 167 173 142 185 140 165 105 125 93 89 99 169 178 132 122 130 94 95 149 84 192 109 139 92 69
80 87 99 118 138 157 172 168 158 157 162 163 171 176 161 165 162 170 175 175 183 170 177 183 183 184 199 201 218 218 202 177 163 152 154 164 166 187 195 199 202 197 187 184 178 160 178 191 193 163 190 192 170 174 190 178 178 191 146 189 177 119 186 153 103 127 107 112 77 129 104 106 110 166 162 121 141 129 168 190 148 163 160 82 79 127 93 144 128 115 106 131 119 133 98 105 125 91 122 152 118 148 124 150 157 96 85 68 110 95 150 112 159 91 87 101 83 107 99 117 110 88 104 185 103 162 98 98 110 107 206 111 115 104 101 111 199 111 165 191 205 141 102 105 113 156 207 103 99 177 67 81 192 191 179 142 174 118 69 127 125 112 137 84 101 137 194 214 169 137 153 84 180 106 151 107 121 144 183 173 140 161 105 164 152 160 135 141 154 78 159 136 172 70 90 100 162 109 186 87 93 85 72 169 149 187 196 199 180 173 68 71 112 138 85 148 121 204 111 111 122 110 182 103 194 86 96 157 46 101 156 138 113 140 95 109 84 94 125 96 96 190 176 95 78 68 119 99 103 92 160 53 148 86 154 148 131 184 118 183 149 165 111 193 207 91 173 82 123 116 221 131 211 170 139 165 130 174 147 157 152 150 87 161 96 88 144 167 98 66 95 50 55 158 81 170 90 160 202 98 144 62 90 42 59 147 165 194 255 92 99 92 60 47 112 60 162 184 185 139 196 95 89 77 82 53 61 54 111 61 94 127 209 124 226 215 108 133 86 112 87 255 137 205 196 173 102 88 170 84 172 116 141 97 192 159 177 149 170 89 137 165 92 105 71 146 91 95 93 132 255 160 110 80 185 99 80 123 167 127 106 118 113 168 142 120 139 79 94 146 96 75 155 73 179 152 203 113 170 135 209 194 197 191 168 165 107 44 56 81 149 166 110 185 102 104 138 187 198 206 194 178 148 117 110 107 120 127 162 208 189 82 112 163 115 71 53 149 161 177 182 178 85 168 89 197 194 198 83 172 113 147 132 146 77 184 93 168 145 149 148 131 165 74 93 133 208 127 153 116 152 178 177 104 176 94 93 153 168 157 141 66 81 119 104 140 179 174 95 114 113 127 96 122 171 114 154 185 195 108 108 187 100 147 174 177 85 106 161 197 108 98
92 94 97 115 142 164 168 171 160 153 150 159 152 159 162 148 168 172 176 186 191 191 181 185 173 178 167 189 200 208 195 168 145 137 141 152 174 199 214 213 208 200 180 169 180 179 165 196 196 190 191 180 175 194 172 174 168 177 158 185 124 114 129 183 172 158 136 95 68 129 146 182 105 97 165 122 147 120 106 175 121 125 85 72 114 71 144 111 123 172 115 107 117 106 98 137 76 84 117 125 137 100 112 122 107 132 77 74 77 107 163 104 155 104 97 107 92 175 96 147 112 95 80 108 107 117 122 112 177 151 100 107 105 204 194 104 132 120 103 203 101 98 208 214 116 177 116 139 170 146 127 158 129 158 99 119 152 142 72 84 93 145 143 95 141 150 211 204 193 118 165 181 95 103 158 111 118 172 145 123 165 139 121 192 112 105 100 117 169 126 108 131 150 81 186 177 100 159 96 182 72 70 74 65 78 91 93 115 92 79 162 172 103 169 166 89 97 185 102 110 93 179 107 148 81 180 99 83 140 142 154 94 84 91 92 153 111 168 193 113 115 147 189 187 144 128 80 110 108 63 150 143 98 148 151 125 137 151 132 183 160 133 127 181 205 180 121 109 101 152 149 188 219 155 146 168 136 108 183 115 176 89 160 69 126 126 117 88 116 74 87 255 61 75 145 86 81 179 184 108 165 50 76 115 79 69 128 128 94 91 113 154 146 117 58 43 75 160 135 125 148 112 97 91 56 70 62 138 60 55 165 127 127 147 213 166 195 92 90 95 158 90 170 106 159 132 102 154 181 186 92 142 97 179 152 178 184 158 103 119 161 154 59 143 153 172 120 114 157 159 131 72 169 81 90 162 177 148 142 82 116 97 83 65 118 76 112 156 153 88 76 140 100 167 89 158 209 128 121 105 94 99 168 149 135 137 64 115 139 98 174 173 150 198 150 187 109 195 130 133 197 167 112 123 158 159 150 153 218 220 203 177 145 59 117 139 143 111 80 175 168 179 80 168 110 147 168 123 92 167 69 110 56 70 151 145 82 66 68 129 115 130 85 93 157 189 188 185 109 176 189 138 144 167 116 103 162 152 159 105 150 121 101 139 140 97 91 178 169 105 153 78 68 107 97 177 141 140 116 199 185 97 139 77 74 73 141 190 146 123 202 184
104 99 99 113 136 164 169 168 156 147 147 140 130 123 143 152 147 168 185 187 178 182 185 187 178 150 159 171 191 200 189 161 142 135 135 159 184 207 221 218 203 199 181 193 198 174 195 162 179 177 139 177 198 166 160 144 138 166 168 184 128 157 157 144 170 150 116 62 89 64 154 168 163 146 92 102 85 147 92 174 100 115 119 64 64 71 82 148 120 119 112 111 92 106 83 76 78 104 83 132 107 117 114 100 116 103 89 88 74 78 105 130 142 155 111 143 151 86 87 90 84 85 76 106 170 205 153 167 88 79 90 131 127 206 121 118 104 90 95 101 184 142 193 213 213 201 95 137 121 166 179 98 186 183 138 133 133 145 101 163 118 108 108 157 80 172 198 187 109 178 181 151 164 109 171 159 140 123 148 178 127 84 108 174 80 171 114 138 80 186 101 132 175 156 200 190 111 124 178 73 139 156 119 84 123 152 135 178 80 80 164 139 184 187 138 171 195 198 131 143 128 75 64 164 165 176 170 149 129 118 53 169 178 147 182 103 207 111 111 220 225 227 114 200 145 88 156 136 72 162 128 119 147 161 151 137 90 115 109 143 84 138 122 149 178 183 170 139 198 118 167 217 197 172 101 155 170 83 157 78 85 98 172 107 141 118 136 160 161 132 103 163 74 169 81 107 72 161 196 187 113 152 71 121 106 159 148 91 102 132 110 137 69 42 78 41 73 113 180 127 223 125 190 142 152 41 51 48 64 54 88 155 176 169 210 209 202 78 104 145 63 88 155 197 197 93 144 91 196 188 103 153 124 93 79 87 161 95 110 93 125 142 100 96 51 141 117 184 164 97 163 149 66 89 152 78 109 114 177 162 167 132 70 139 40 70 141 143 121 164 97 166 104 136 97 135 218 187 137 88 108 182 100 196 98 175 75 156 173 89 136 104 105 159 91 175 72 89 152 117 119 115 124 83 179 152 182 184 154 129 105 179 165 160 90 116 77 136 163 176 161 157 83 69 128 168 141 125 77 178 84 138 53 149 154 70 131 155 135 36 85 70 44 50 79 137 154 162 115 203 200 94 145 149 81 117 255 189 153 163 81 126 130 146 64 74 138 158 161 64 42 68 75 169 131 106 158 190 113 207 106 131 157 79 85 144 173 93 105 179 128 132
113 105 102 110 135 158 167 162 147 142 136 122 106 103 118 126 153 169 167 160 172 167 182 177 164 153 151 156 184 193 190 180 157 153 157 171 183 201 202 206 210 204 188 195 186 187 189 182 151 152 133 159 174 195 184 156 135 115 133 159 180 105 145 152 111 132 91 92 98 63 76 160 137 128 110 81 94 149 127 75 147 73 87 84 115 93 78 93 107 114 112 101 108 141 73 131 97 70 109 88 119 113 100 110 92 134 74 66 65 72 129 117 125 136 134 110 93 102 83 178 118 91 70 85 145 133 187 101 176 140 77 193 108 171 182 113 86 88 122 143 86 110 194 206 205 180 121 83 184 169 127 203 145 193 105 140 41 153 175 153 99 128 170 153 86 158 125 112 179 130 123 179 158 177 88 99 84 114 161 112 147 179 181 99 80 157 109 183 92 179 142 213 176 105 180 205 183 202 134 153 151 138 48 48 134 163 82 83 165 108 115 164 195 188 169 136 163 92 91 122 162 61 150 98 82 107 157 173 157 146 79 71 140 196 117 217 222 125 186 121 167 143 155 194 188 116 158 122 175 152 111 165 187 163 164 149 196 187 196 131 94 152 170 170 118 80 175 127 196 166 186 188 200 205 165 163 156 148 82 150 172 87 165 88 111 193 95 169 149 180 126 86 123 160 142 137 148 84 94 109 130 89 153 86 90 191 182 107 80 158 83 66 88 93 36 59 58 140 174 107 137 147 102 154 133 47 57 151 89 161 146 180 167 225 226 114 121 150 129 104 66 68 139 85 96 137 163 107 136 165 128 140 67 105 171 180 193 164 192 170 162 94 36 129 122 140 78 140 73 78 163 111 134 162 84 73 119 124 182 177 169 130 166 94 63 102 139 148 156 118 149 100 101 86 118 125 212 145 88 120 134 90 112 124 154 136 75 120 92 117 189 197 197 178 113 147 144 171 134 195 213 153 198 115 188 142 99 103 178 165 186 179 178 103 151 68 147 96 77 121 158 162 159 73 139 163 137 132 86 190 175 61 86 47 62 141 80 119 148 46 124 92 45 129 155 94 125 200 166 205 149 156 91 165 88 117 133 182 84 64 163 169 158 92 106 167 177 148 85 127 68 42 150 143 112 184 111 132 125 123 108 112 81 79 151 103 110 84 118 133 181 141
125 119 117 123 145 160 162 159 157 156 143 125 109 111 118 121 139 156 170 148 162 155 177 175 168 255 153 151 178 185 196 189 178 173 167 179 181 191 190 191 196 192 185 187 179 183 157 165 175 155 185 168 197 170 191 132 136 175 167 166 108 154 83 79 161 138 170 107 104 66 140 138 162 104 71 97 137 64 95 136 75 47 99 100 67 99 91 152 97 106 120 111 108 74 118 125 77 66 128 97 105 130 136 107 89 76 75 59 45 121 98 125 114 175 139 137 92 95 101 176 81 170 155 145 174 176 186 73 150 70 74 144 131 123 188 83 185 191 190 190 75 117 82 188 166 106 182 121 80 195 197 210 106 198 172 104 103 159 197 211 210 178 94 168 172 169 124 165 87 158 92 153 107 98 147 153 104 170 144 102 100 112 141 149 92 164 179 186 155 106 208 143 159 209 117 207 124 104 150 75 132 94 131 128 100 106 172 151 125 119 208 167 173 195 186 93 186 104 135 188 171 141 143 146 160 169 90 169 157 79 65 127 140 198 175 212 200 130 159 112 215 214 172 109 191 188 151 170 175 170 146 101 111 205 121 170 144 201 185 93 101 106 112 151 166 78 144 142 101 131 178 209 163 112 184 88 154 62 94 122 91 86 159 99 132 168 167 174 162 201 180 139 192 83 76 71 158 93 122 149 71 98 67 180 91 133 99 186 111 113 169 67 43 64 105 117 161 131 102 126 173 210 194 91 158 66 151 131 109 115 168 173 121 129 223 140 192 125 50 48 103 116 166 152 110 185 192 199 171 110 180 90 149 67 84 203 191 224 178 197 88 158 71 137 44 67 134 73 65 109 121 141 150 52 150 153 116 151 196 122 114 185 169 65 152 107 85 144 141 80 86 173 173 175 164 204 124 145 89 97 113 188 183 115 121 136 159 185 135 168 128 191 92 141 171 56 57 125 179 116 116 135 115 101 141 173 173 184 152 181 111 97 169 67 74 66 116 68 179 82 133 145 77 103 158 81 162 170 91 184 149 161 55 42 57 107 113 51 87 78 126 61 56 65 86 165 162 98 137 104 82 147 177 196 136 183 156 139 80 80 85 84 91 81 122 104 177 176 121 154 135 53 58 119 70 85 140 143 134 116 104 85 75 123 103 116 189 94 159 143 184 234
136 133 133 145 156 165 161 159 152 149 140 141 120 117 122 131 145 150 166 166 154 166 173 180 162 155 152 151 169 183 188 196 192 183 182 185 184 177 174 177 167 175 181 176 152 171 186 183 153 163 189 200 209 205 182 180 114 149 121 137 145 123 142 79 161 90 164 131 127 74 98 161 182 130 53 73 117 99 93 135 53 66 95 54 93 65 93 152 124 162 105 104 97 105 100 78 109 74 107 102 105 127 136 122 101 91 56 41 78 62 96 158 106 107 153 124 99 84 158 166 84 77 80 63 128 85 78 147 79 146 130 90 182 180 176 102 145 93 194 113 176 158 137 106 188 178 183 101 159 115 199 180 182 172 192 174 181 160 122 217 157 195 109 116 160 137 100 116 79 152 90 127 159 98 143 62 158 176 162 185 139 98 137 171 93 106 179 166 100 109 205 120 204 200 155 97 166 87 132 128 119 144 44 146 54 135 69 176 181 135 150 121 159 108 84 177 124 189 93 96 75 123 144 86 151 172 126 117 163 154 56 79 121 91 198 197 150 109 109 125 101 176 106 117 118 200 196 140 182 80 168 121 173 200 208 210 210 143 155 92 179 161 74 101 95 80 104 111 98 205 122 155 193 135 113 106 120 51 67 68 152 96 110 180 110 92 92 96 171 181 172 108 108 100 84 171 170 74 87 158 68 107 179 163 171 102 121 82 80 175 85 152 49 135 47 102 77 131 130 198 176 186 190 152 169 74 76 76 146 178 92 111 105 195 148 202 186 171 63 145 124 128 143 98 91 111 158 110 197 151 194 186 98 178 159 126 127 183 214 198 177 173 122 72 46 150 91 159 106 70 159 45 141 77 53 114 133 181 193 187 102 80 98 122 130 126 136 143 165 109 195 101 99 138 94 134 201 179 193 192 138 177 172 96 173 75 97 131 119 183 89 130 177 133 124 152 77 92 83 175 123 138 175 125 170 132 74 152 157 89 79 159 150 112 139 55 120 77 110 131 153 168 177 84 181 66 91 148 178 180 105 185 85 145 36 41 70 149 146 61 125 166 168 68 92 170 95 141 145 157 73 173 188 108 128 149 93 99 131 88 83 144 75 160 135 83 102 74 110 133 63 159 88 153 69 173 118 130 225 201 103 120 88 72 116 95 98 198 104 164 228 199
143 146 150 158 161 167 154 150 147 155 147 150 141 130 122 130 139 153 156 160 173 170 181 168 159 155 150 147 160 172 185 196 193 185 183 185 179 174 166 169 173 173 152 171 188 178 186 175 189 179 193 167 208 170 152 183 131 160 156 149 140 148 124 101 156 126 144 93 165 112 156 159 178 113 95 63 112 64 149 104 75 54 54 56 61 57 65 146 84 94 124 102 99 123 78 96 111 83 83 119 116 139 149 142 103 73 64 72 50 55 80 87 121 185 182 108 104 130 97 116 94 131 99 141 88 77 59 84 56 101 81 146 164 180 161 92 109 153 89 174 173 147 170 191 155 193 172 177 143 96 169 183 109 184 104 190 221 150 202 144 185 166 212 212 167 202 165 255 141 139 78 149 60 55 133 90 97 100 116 169 109 172 141 92 64 124 75 100 181 179 156 158 130 182 124 113 93 115 167 74 89 161 156 154 149 108 99 126 139 197 187 110 125 89 106 180 99 169 153 145 153 64 147 101 89 122 182 172 119 60 155 67 78 101 82 164 167 96 144 135 117 183 183 159 113 130 108 147 99 108 85 171 183 128 90 189 163 140 182 184 70 155 63 75 160 74 180 174 121 155 191 159 101 99 131 144 56 91 151 120 120 126 145 150 154 151 79 152 166 201 202 166 93 161 95 113 90 113 125 56 65 97 177 105 202 186 107 75 114 154 168 73 113 118 84 139 97 96 162 102 98 95 82 169 117 103 161 80 135 176 111 155 123 192 105 184 169 113 93 96 152 104 79 108 169 80 175 158 131 150 114 92 166 89 96 105 210 223 216 153 202 169 148 155 99 88 138 113 180 145 83 88 50 69 69 157 192 145 103 91 81 92 173 111 161 181 155 165 78 148 139 171 115 197 94 96 179 188 92 189 122 200 110 156 137 83 68 145 100 170 139 168 150 144 127 60 129 83 167 169 138 208 123 185 160 106 109 58 93 129 172 158 57 39 109 127 105 94 103 124 178 74 117 141 173 70 69 74 164 148 133 195 105 111 150 145 82 46 51 162 147 91 173 178 153 103 176 186 134 142 80 160 166 100 110 114 88 137 146 110 145 156 163 74 78 89 168 92 255 151 79 67 87 77 173 89 176 119 227 190 189 179 109 90 166 110 111 194 162 192 128 213
136 140 149 160 160 157 150 143 138 144 152 159 143 147 146 143 139 149 157 162 183 184 180 175 148 144 139 145 154 166 176 190 189 190 183 188 182 178 171 173 166 173 173 174 201 199 192 180 183 158 202 201 197 138 178 183 154 188 168 146 178 100 115 123 135 129 153 134 113 103 126 193 182 86 115 79 54 100 114 85 77 147 135 68 134 65 73 104 84 121 129 114 113 135 139 125 85 82 77 90 133 172 160 151 123 81 92 74 63 87 92 98 112 122 112 187 153 92 86 126 103 125 99 112 96 130 69 83 78 172 103 188 104 185 84 185 110 166 87 145 156 121 122 96 181 171 173 85 83 98 77 151 188 110 205 171 224 190 187 124 168 157 212 195 169 112 168 133 98 87 85 136 143 90 91 142 161 94 125 118 144 187 127 97 126 127 63 164 170 100 193 123 197 174 101 139 149 168 70 173 157 139 91 143 53 47 128 126 141 179 181 182 156 89 93 102 173 148 82 79 73 71 113 94 89 87 159 72 113 100 116 122 179 177 101 170 180 117 182 150 151 118 174 146 99 172 189 134 194 175 64 75 124 89 165 89 137 166 141 180 66 138 96 144 77 143 76 135 117 195 164 204 98 71 159 116 90 113 158 79 130 155 178 102 77 76 69 80 171 99 131 193 107 145 145 108 94 73 71 75 74 142 126 133 125 107 75 69 63 136 75 108 106 134 68 78 105 99 255 140 132 153 78 175 72 105 83 97 182 102 80 110 175 75 141 120 179 144 124 199 164 89 182 115 74 98 156 102 163 90 85 180 129 179 95 187 142 120 133 107 183 101 71 110 66 154 89 117 111 171 93 64 156 153 255 134 149 137 171 175 138 157 77 167 176 181 185 152 174 133 147 216 212 149 164 175 193 186 149 89 97 126 186 178 78 105 54 49 53 117 93 140 96 94 90 132 79 96 157 202 231 230 161 120 143 118 157 145 65 142 72 133 44 38 30 76 97 95 209 133 85 168 100 150 90 136 127 85 60 112 115 193 168 170 75 122 66 66 54 114 73 178 95 183 84 94 177 191 123 183 106 76 127 166 184 178 102 149 100 166 85 160 79 172 180 117 188 104 162 129 136 86 168 97 178 182 178 139 163 225 105 184 72 168 72 77 104 116 165 127 205 155
128 132 141 150 154 148 136 135 140 149 144 150 152 160 150 139 135 156 159 172 179 178 179 160 156 142 145 144 157 154 174 183 188 184 188 187 182 183 181 181 174 174 167 195 201 189 170 167 166 167 174 169 132 172 181 151 133 183 158 188 157 147 143 149 103 163 171 144 186 192 202 200 130 122 73 123 123 98 165 125 109 123 167 86 137 78 97 102 93 93 105 116 100 106 102 101 90 77 68 83 114 166 147 149 123 96 73 77 112 91 100 121 132 144 157 122 114 134 99 126 163 206 128 154 122 107 102 92 144 106 131 209 198 124 156 83 93 84 101 63 93 79 188 102 181 137 71 141 154 92 90 87 159 186 177 94 153 116 118 206 200 159 196 186 162 99 180 86 175 170 114 98 58 131 143 56 139 77 81 173 181 158 87 177 92 161 84 160 102 169 138 143 98 89 157 164 147 141 77 124 207 165 116 105 54 108 90 176 140 103 87 161 155 134 175 123 184 140 168 162 151 102 116 162 174 108 171 154 135 109 159 187 103 94 161 174 166 77 77 169 148 171 143 173 172 186 112 193 110 127 106 111 55 132 56 103 170 161 197 171 171 161 72 153 82 132 147 137 99 178 128 204 91 160 122 108 107 68 96 97 89 127 81 135 119 170 69 92 131 93 102 124 87 166 190 99 126 78 150 147 73 126 220 136 131 189 147 167 122 69 163 104 169 97 81 162 109 176 164 102 121 170 78 172 77 159 148 178 77 79 104 97 147 61 68 76 101 161 125 192 193 194 184 166 65 59 98 81 180 173 184 185 147 92 138 159 87 137 180 89 137 100 122 100 110 108 129 184 92 174 146 176 172 112 199 178 130 127 176 179 79 117 163 157 126 86 111 118 150 176 173 182 156 213 214 118 168 152 184 92 167 116 149 73 154 63 40 85 52 145 171 79 149 123 185 137 195 193 162 195 127 134 137 153 129 175 62 59 152 157 151 161 53 126 48 68 94 92 189 176 99 161 180 178 136 145 47 139 154 123 162 167 113 205 154 185 79 122 71 155 70 87 97 188 184 76 131 182 87 174 132 118 173 109 110 84 148 165 161 150 74 124 142 109 105 150 165 167 66 58 65 145 130 185 116 119 205 113 170 117 96 110 68 90 84 110 148 163 198 200 145 176
115 123 131 142 142 136 133 136 143 156 156 162 154 157 140 138 152 152 154 159 174 177 172 150 149 144 142 149 161 157 173 174 180 183 183 180 179 183 182 188 178 176 181 182 174 186 164 125 120 149 157 107 152 148 116 176 143 191 126 191 168 206 146 95 116 105 153 192 140 148 217 172 111 131 89 138 57 99 174 174 162 93 162 81 76 77 137 101 96 100 107 107 109 117 100 156 104 97 86 95 100 147 133 145 118 145 88 91 116 106 120 113 109 117 112 107 126 108 107 123 116 187 121 88 149 110 139 124 163 126 141 110 203 190 78 85 72 73 110 63 67 178 183 159 169 152 128 29 79 143 125 168 99 181 103 126 181 165 161 126 203 133 194 148 102 154 108 138 100 181 170 165 164 149 123 124 61 80 87 146 168 167 190 181 174 174 162 97 155 171 84 156 157 123 82 68 71 170 170 181 115 120 176 155 72 135 63 71 159 101 111 78 114 158 147 176 170 76 97 158 89 100 98 72 167 82 117 164 167 172 169 174 174 165 174 82 153 152 63 103 67 64 97 100 161 141 188 132 201 120 162 78 128 152 64 172 191 176 201 92 140 108 189 154 120 126 131 158 165 81 140 174 163 88 91 89 177 146 172 79 105 120 140 156 177 79 66 106 116 168 107 99 127 174 139 172 79 162 75 150 153 101 144 212 155 129 103 90 105 69 101 162 71 114 79 107 100 142 109 166 92 119 180 91 91 79 81 170 115 107 62 110 122 151 60 117 184 107 111 122 104 182 101 151 166 149 156 150 74 106 142 163 189 179 112 69 170 180 172 78 89 123 134 146 69 142 143 140 81 128 179 188 192 107 145 165 124 189 158 127 121 171 99 69 84 121 111 102 107 193 149 220 144 124 175 209 195 140 93 156 104 74 141 105 67 93 121 42 145 125 188 102 195 182 194 167 156 133 107 143 119 215 199 128 163 140 66 65 104 170 156 114 155 138 99 112 99 106 135 206 131 188 192 143 103 95 155 114 137 121 117 115 178 146 130 202 177 151 142 156 82 175 94 173 182 90 138 173 179 183 159 122 115 115 121 177 181 157 105 160 87 129 88 66 124 87 121 72 73 56 87 101 103 112 143 202 107 114 188 170 155 66 62 168 73 157 161 84 106 124 231 235
114 123 134 143 136 128 118 137 146 149 150 146 154 149 144 152 158 175 180 178 180 167 167 159 148 148 157 155 164 164 168 167 168 174 169 171 167 171 183 185 174 173 175 174 151 166 135 148 136 156 123 145 136 119 118 182 196 146 193 161 165 143 188 255 154 121 123 143 181 125 153 145 122 106 115 77 156 168 88 89 113 76 79 97 74 62 57 83 67 125 87 87 92 83 88 93 116 84 76 87 103 143 115 117 128 124 109 133 144 146 173 130 138 123 146 113 125 91 97 169 191 102 108 94 141 100 174 168 135 209 196 204 196 114 152 93 68 171 81 137 176 102 177 110 89 126 60 122 32 154 164 183 164 149 144 115 104 142 179 154 204 202 124 172 109 151 95 130 125 104 102 186 105 83 98 135 39 48 109 114 113 185 185 189 165 122 100 168 107 181 126 171 102 157 162 165 180 164 116 98 195 184 184 64 55 82 86 67 110 169 164 101 91 207 208 209 158 147 82 79 153 133 86 61 127 113 166 175 72 168 166 145 60 143 100 163 137 132 56 49 54 115 87 114 75 164 164 104 127 101 80 95 157 100 81 149 196 101 171 109 190 97 202 123 165 93 139 122 123 165 116 98 162 99 172 177 105 97 103 145 58 61 156 159 79 153 80 145 99 210 148 99 90 179 94 102 69 160 138 121 89 103 210 164 201 195 167 167 77 155 101 74 82 71 109 143 89 153 89 98 165 101 177 107 91 87 89 90 152 160 99 62 63 120 68 166 93 171 91 178 91 187 135 151 133 101 78 125 85 188 158 97 161 162 108 91 134 106 81 145 81 72 111 107 110 62 70 174 138 155 82 115 199 195 124 184 169 173 132 178 115 94 124 46 45 132 68 142 139 105 112 157 173 197 165 111 157 121 99 114 79 105 164 161 142 57 104 79 162 132 91 141 120 116 185 101 108 131 134 205 117 109 179 115 96 104 70 167 105 164 121 77 122 80 106 181 93 96 101 179 205 111 120 129 91 84 59 50 58 91 198 206 179 100 198 108 199 167 84 132 173 161 196 183 89 167 128 71 83 127 158 119 178 185 90 83 192 101 128 177 112 125 78 134 71 255 119 72 72 93 117 157 113 111 187 135 97 101 201 121 132 142 73 160 78 174 71 111 103 139 215 118
117 129 140 143 131 119 115 124 136 150 161 145 153 153 155 164 169 179 255 180 170 167 160 165 151 166 169 161 160 160 161 159 165 172 168 161 164 169 167 255 173 177 157 158 129 152 140 158 142 164 132 134 136 129 149 153 198 161 201 155 137 200 170 165 151 88 117 123 124 172 123 195 164 128 174 168 91 95 92 123 116 60 92 96 53 58 54 60 71 89 67 83 89 73 101 88 84 82 79 98 85 84 83 114 143 157 137 162 145 120 139 175 109 135 153 130 86 77 72 71 80 94 76 159 188 140 155 106 107 95 89 187 104 99 143 85 157 153 107 192 147 197 128 161 112 98 137 38 114 164 172 107 200 131 136 52 50 53 121 149 171 110 150 131 159 118 168 138 98 153 104 200 169 120 167 70 61 62 56 88 100 127 128 181 114 100 85 76 157 142 179 166 186 209 210 163 116 191 164 108 178 87 166 77 115 50 105 94 130 187 89 101 101 144 160 138 187 118 134 84 142 80 65 127 55 159 171 94 134 176 161 79 89 91 151 82 172 64 78 103 58 154 145 124 108 150 165 187 108 169 177 137 172 170 105 194 139 176 177 151 186 135 99 198 149 181 173 100 115 143 185 173 153 123 137 126 193 179 184 89 60 60 149 167 72 168 101 179 122 156 134 173 183 183 145 139 71 85 128 78 119 112 117 135 125 214 110 131 114 91 177 90 166 69 115 77 123 79 77 85 170 88 129 187 94 99 174 149 122 137 139 86 157 163 69 83 161 68 66 171 141 183 78 75 156 170 111 182 189 194 109 182 126 176 125 137 132 184 124 152 144 183 154 95 106 167 150 90 108 87 119 116 126 142 124 112 112 89 112 124 167 171 136 94 105 134 58 85 156 83 131 109 107 102 99 184 99 176 66 123 91 129 68 70 107 72 161 74 125 91 162 195 102 154 95 142 202 126 169 161 125 145 98 166 93 61 123 165 181 89 89 72 179 180 179 119 96 121 155 190 152 128 180 111 182 85 80 150 154 126 178 94 156 88 117 186 188 206 96 184 113 82 92 125 161 107 70 75 151 182 97 125 194 182 98 138 187 188 140 197 176 80 100 86 123 114 155 101 161 166 66 126 60 97 95 143 174 114 122 128 90 71 77 104 86 149 161 95 174 111 137 118
127 135 144 144 136 124 115 120 129 148 153 145 147 154 160 164 181 178 182 194 181 178 176 176 167 175 165 169 164 150 146 161 171 174 178 172 166 162 164 180 190 182 163 151 146 154 154 169 173 142 173 165 125 156 171 132 149 168 208 169 201 155 168 114 103 128 94 134 107 124 138 112 114 109 148 129 182 107 116 147 108 87 46 56 56 110 71 83 76 66 109 84 63 81 83 107 92 93 87 128 118 120 95 88 87 109 163 194 193 140 140 130 155 111 140 106 94 129 110 84 91 80 77 82 178 94 174 160 105 76 255 171 160 100 174 61 129 92 178 212 142 181 196 216 105 191 170 61 157 173 152 222 199 171 58 55 57 146 87 174 139 189 196 189 169 160 97 161 176 181 173 187 178 136 180 139 114 120 78 89 112 176 119 147 184 158 184 166 178 76 174 92 161 120 146 111 174 166 139 101 116 104 150 169 78 152 102 134 108 95 150 153 157 76 179 93 90 126 105 97 167 68 158 53 145 139 124 187 90 93 156 74 52 144 149 167 166 90 57 57 63 60 98 124 35 127 69 153 181 173 95 112 184 182 200 150 173 105 144 143 102 138 143 111 189 107 193 182 145 167 190 157 101 168 208 179 142 108 150 100 101 57 152 148 129 84 103 89 108 199 157 143 94 255 158 93 122 180 85 85 100 126 129 112 194 182 157 121 181 87 139 70 106 75 63 46 39 99 137 137 153 117 175 164 126 122 164 131 178 78 155 64 64 157 165 166 110 155 156 69 123 165 171 168 78 187 190 157 104 201 104 206 200 124 118 197 183 91 186 101 88 84 132 175 144 180 151 119 193 198 166 103 168 121 96 194 99 91 177 88 62 134 164 153 132 57 58 138 48 67 178 199 189 184 158 141 171 87 124 165 149 80 156 119 177 80 80 125 86 106 92 168 114 94 169 168 191 143 136 131 124 116 120 113 73 149 109 162 200 138 170 164 95 190 100 125 149 176 130 108 112 181 156 124 117 178 151 63 109 77 177 106 155 141 159 176 129 119 175 189 132 106 84 104 115 146 129 167 76 173 183 174 99 183 118 181 89 131 169 155 165 146 155 144 92 94 134 146 188 185 143 86 135 147 69 83 77 166 113 144 174 177 117 113 199 152 175 86 86 93 71 161
133 137 141 146 142 134 131 122 131 149 161 156 147 151 148 161 175 173 190 204 198 197 181 163 175 167 166 168 166 160 148 154 166 179 183 177 171 163 171 183 197 188 181 164 158 148 174 179 159 164 170 174 173 162 114 122 135 144 162 148 192 185 175 91 169 115 164 166 122 163 92 94 148 169 153 156 105 152 165 134 161 67 61 130 64 69 73 82 71 124 70 83 75 75 82 87 91 140 89 99 119 123 73 75 97 111 174 152 164 176 121 115 107 132 128 159 118 81 71 135 79 57 138 69 122 126 162 63 164 162 63 78 188 174 75 143 55 78 116 123 201 111 198 183 205 175 186 156 184 200 222 194 211 98 72 134 47 63 156 167 125 139 193 147 167 126 138 181 148 89 141 191 184 118 180 111 147 86 128 59 65 116 116 160 70 93 166 165 91 130 167 122 190 127 144 121 179 113 169 173 155 163 101 176 90 153 148 165 140 122 174 92 82 152 156 82 116 170 114 104 167 166 79 138 141 68 177 182 94 173 126 70 101 71 75 70 163 162 162 167 81 142 117 129 47 139 77 85 153 140 172 109 163 194 172 185 134 176 94 162 142 66 79 130 115 194 201 196 121 150 160 216 122 172 126 212 146 165 102 96 110 137 117 73 131 133 77 186 107 121 188 106 116 140 95 199 158 121 177 138 126 175 93 173 178 95 138 168 147 116 120 75 72 129 153 79 61 35 81 70 149 154 112 181 102 151 216 110 158 117 130 64 77 98 77 124 136 171 112 68 62 130 135 154 161 171 170 164 136 97 124 103 205 163 143 140 168 183 163 149 156 98 153 183 151 121 185 188 178 102 95 141 165 93 88 104 165 201 127 107 88 147 133 132 104 97 34 36 119 160 92 180 171 79 170 149 77 124 92 136 165 68 70 180 157 151 106 146 123 177 117 186 185 93 170 167 168 106 136 209 177 217 137 164 171 159 197 204 118 90 144 158 133 91 181 108 169 173 178 105 146 210 206 210 155 74 162 121 109 87 128 137 140 138 143 168 140 152 182 94 255 139 168 81 99 66 84 72 158 96 136 104 177 175 144 173 179 158 90 124 142 148 153 129 147 154 116 79 182 134 195 124 174 104 141 93 103 121 122 150 188 114 91 180 103 176 123 95 53 62 66 71
134 137 142 147 156 151 150 139 139 151 156 162 150 156 154 153 162 177 198 197 215 201 174 168 170 163 166 169 167 160 141 147 157 171 179 175 166 162 167 181 187 199 179 153 158 178 184 165 187 146 135 161 143 155 166 164 115 170 146 199 135 114 169 153 167 126 170 137 166 152 80 79 141 128 146 167 176 107 109 153 88 141 89 83 144 147 150 76 148 115 92 100 131 97 141 93 92 89 97 86 98 112 121 124 130 125 160 142 152 142 149 112 123 106 156 105 116 142 165 79 67 151 56 55 153 61 83 51 85 56 112 148 179 77 71 84 65 181 190 145 121 98 159 191 115 182 190 182 96 200 180 159 205 184 150 45 135 121 144 86 123 177 174 190 198 201 131 109 176 178 173 108 167 178 196 174 86 164 139 132 111 147 84 132 95 162 187 196 141 187 140 148 150 196 140 184 111 198 107 184 165 69 90 126 174 126 91 145 176 160 81 59 59 135 156 109 152 121 113 100 94 96 126 129 148 99 183 85 156 121 179 191 166 189 149 164 94 101 143 140 96 76 129 63 69 144 148 60 166 71 86 159 86 108 121 77 160 134 80 99 161 120 176 192 255 199 114 189 216 229 192 205 143 200 94 95 140 139 161 144 156 53 109 168 75 76 89 138 111 128 171 105 132 143 87 95 105 110 181 86 165 78 73 163 65 128 67 89 94 86 81 81 78 97 141 80 80 40 68 74 83 97 120 105 103 196 159 179 189 163 100 154 151 87 172 153 129 113 81 163 157 91 183 87 143 162 95 193 176 158 119 195 101 149 116 167 184 141 156 130 49 136 148 88 173 140 122 142 162 112 140 78 133 152 189 202 107 184 183 138 65 92 85 104 106 111 136 120 75 146 149 91 143 113 100 88 188 171 98 84 123 83 84 75 97 121 132 132 123 117 205 96 178 93 70 85 88 125 197 196 145 136 204 154 139 153 104 125 177 145 87 176 181 125 93 91 174 179 79 185 168 128 112 182 190 175 129 90 157 129 73 141 51 52 99 70 184 110 132 130 114 79 134 65 130 53 55 154 156 75 128 139 169 146 69 155 140 74 126 121 164 82 63 80 174 155 94 191 106 111 200 175 107 82 97 100 122 66 77 80 175 176 83 88 154 97 166 75 137 56 71 112
128 136 149 157 167 171 172 151 144 151 164 163 163 159 149 158 165 186 205 208 208 201 182 169 153 170 172 172 162 154 137 135 149 158 164 161 153 155 165 179 184 199 167 173 161 188 164 194 184 180 173 162 170 147 128 137 165 175 177 195 153 187 166 113 165 164 168 99 142 82 69 71 139 114 139 157 132 137 175 144 100 80 113 106 107 100 75 71 95 113 175 173 110 147 98 105 134 93 99 111 92 112 103 138 143 105 156 166 130 131 120 164 116 91 81 85 91 90 164 108 66 71 114 51 54 41 142 43 92 56 67 67 79 69 57 81 148 101 147 131 164 115 167 84 137 96 183 187 116 190 184 205 171 128 121 61 61 132 116 88 117 133 125 155 129 115 200 116 164 162 166 178 98 185 172 182 132 81 137 42 64 41 140 64 137 133 159 111 194 174 98 123 155 182 73 73 80 111 141 153 64 79 129 75 73 76 171 88 131 77 97 46 140 80 57 105 122 117 208 119 173 160 65 118 128 177 189 188 79 175 143 202 213 120 132 205 142 120 191 152 104 71 65 68 91 96 159 150 162 71 167 129 183 180 133 140 161 105 64 65 168 154 124 113 115 178 130 207 198 214 220 226 183 98 147 107 189 188 99 76 132 54 57 106 96 125 84 98 114 139 169 110 159 141 157 160 96 108 113 97 80 66 146 74 142 149 87 80 82 171 130 98 82 166 119 88 152 116 80 153 95 149 137 128 177 159 156 123 145 173 159 77 78 96 166 215 208 179 183 150 156 102 180 90 86 114 174 99 92 93 106 181 170 95 131 74 128 75 54 94 68 71 73 93 74 114 180 150 94 120 101 155 126 119 150 92 197 192 112 102 124 68 120 77 76 138 185 171 157 70 93 83 166 182 133 124 114 124 188 85 69 135 145 155 94 99 148 197 122 214 131 148 166 166 95 169 83 131 149 187 191 143 122 166 88 137 189 147 199 190 137 89 135 191 202 161 118 195 108 93 190 159 137 122 83 71 82 94 150 191 84 159 147 64 163 107 190 107 194 175 94 71 74 148 131 94 66 76 61 167 142 163 120 167 70 146 75 85 110 164 137 122 59 135 180 108 174 106 109 106 109 108 203 103 108 84 158 92 157 112 169 80 153 156 124 87 79 109 67 163 69 177
119 132 151 164 176 184 186 168 154 151 156 162 172 154 146 153 161 185 196 200 198 184 164 168 169 176 177 164 158 151 144 144 150 151 153 147 149 148 155 169 187 187 166 156 178 192 197 191 187 164 180 136 129 146 109 122 126 149 137 181 168 182 125 126 183 148 166 129 84 109 126 88 134 82 106 97 180 182 130 146 125 135 76 112 115 141 69 89 95 111 162 154 105 118 104 162 142 101 99 100 96 119 116 155 100 120 133 116 155 182 110 123 128 85 64 92 144 145 129 78 78 117 61 69 149 110 64 54 100 63 63 66 146 145 64 62 158 135 219 176 166 255 175 185 200 196 177 95 151 174 183 167 152 110 151 154 91 190 173 179 149 146 144 123 109 127 130 130 193 124 77 78 172 142 176 135 65 132 105 144 120 43 59 131 161 107 151 118 214 175 166 183 197 91 174 120 73 137 76 122 132 151 98 88 123 172 80 71 76 93 146 140 52 91 140 171 118 204 113 107 161 80 66 84 181 192 96 115 172 79 146 116 191 233 235 137 120 189 103 173 173 80 164 138 59 162 169 120 61 142 107 85 163 174 106 98 148 153 163 117 172 137 141 159 109 131 123 117 154 208 201 192 169 183 188 140 193 187 109 76 80 50 154 103 126 141 182 204 255 123 154 209 172 69 99 62 81 106 115 89 122 88 45 38 55 102 120 118 190 101 162 108 93 99 162 159 161 83 111 126 189 122 175 199 154 114 188 115 182 145 94 83 154 128 172 127 221 164 187 173 73 163 155 172 175 92 137 161 146 163 129 82 88 77 84 75 61 140 108 137 112 105 95 145 82 177 130 106 101 187 143 115 94 97 131 140 176 88 161 100 114 146 138 168 85 173 104 173 181 143 110 169 164 127 102 156 186 204 200 89 60 133 90 134 114 85 114 202 123 197 187 159 150 78 67 84 139 184 127 92 179 99 128 194 147 119 196 105 181 185 174 86 103 159 122 155 113 145 170 85 88 183 188 180 105 182 86 154 148 196 152 92 113 168 151 104 212 154 205 110 81 169 123 65 101 93 73 107 164 121 147 159 154 125 109 184 95 132 87 166 161 70 121 112 186 112 111 170 100 150 106 100 163 132 140 163 96 91 87 182 181 170 96 82 79 121 88 151 132 87 85 85
106 124 146 164 182 188 182 162 152 139 151 158 165 159 158 155 165 175 182 196 184 181 168 163 174 171 168 164 150 145 151 161 162 161 160 154 150 156 160 171 179 178 177 170 172 169 193 180 255 179 159 133 180 145 168 158 163 161 165 185 200 141 125 115 173 134 136 110 125 86 116 131 149 82 91 93 109 87 155 117 72 71 82 126 80 109 111 132 105 116 185 153 105 131 105 105 120 139 117 80 100 145 123 153 96 132 124 99 138 143 115 122 161 108 126 47 59 59 91 68 82 62 68 94 71 68 68 162 158 127 121 70 103 93 158 92 131 185 167 111 97 150 93 116 201 183 80 161 95 152 160 81 161 163 166 172 180 165 143 159 200 151 125 155 134 151 133 149 111 153 160 68 109 81 91 157 151 103 55 136 156 151 86 76 148 170 193 179 154 195 108 110 200 129 88 123 87 130 69 64 156 115 169 136 101 100 181 85 133 57 83 69 85 172 164 153 137 113 127 192 151 66 159 170 188 105 178 130 74 82 125 209 123 164 169 206 167 177 171 160 58 63 128 143 174 86 174 78 152 48 57 157 168 94 101 160 61 93 138 89 150 131 140 77 177 82 141 126 182 92 150 186 176 153 118 193 150 118 199 164 89 63 159 66 94 126 90 164 177 142 203 116 177 148 87 118 169 98 127 116 130 98 106 114 165 124 151 115 143 112 98 128 79 130 58 59 95 66 174 102 93 130 178 144 127 194 116 108 183 161 172 122 107 169 140 227 204 102 110 86 129 98 151 142 144 113 185 125 96 100 157 170 90 94 143 153 122 75 90 82 151 149 103 113 78 171 183 128 172 106 143 201 102 136 149 168 142 159 173 77 255 152 72 170 181 169 130 144 178 121 72 62 170 85 193 196 100 93 185 81 156 146 64 135 142 116 132 186 200 114 97 177 157 56 111 120 95 168 100 112 93 182 95 162 177 141 160 97 194 114 178 139 150 110 137 113 106 99 129 148 111 154 80 104 106 133 101 140 132 195 111 143 104 126 76 103 143 235 131 204 85 92 68 169 144 165 83 154 140 132 161 98 162 105 182 183 81 168 67 160 88 73 86 194 204 213 151 144 83 163 105 159 184 176 214 117 114 149 186 152 121 103 106 193 144 68 50 118 56 168 169 169
89 108 132 149 163 178 181 165 151 137 149 154 172 170 157 158 169 179 187 175 181 161 172 168 172 173 162 158 152 163 171 180 185 177 173 164 163 163 161 173 174 181 165 169 139 174 166 190 155 191 188 186 159 168 151 161 152 168 160 136 194 138 157 166 156 139 71 60 135 133 120 139 155 74 115 72 92 93 82 106 73 66 66 89 92 70 118 126 112 119 111 158 140 110 93 113 104 84 70 88 106 104 112 124 94 92 97 98 104 133 89 87 98 86 73 65 69 83 88 81 70 90 81 181 86 123 108 143 97 112 99 65 141 96 167 167 186 126 173 206 199 119 107 135 211 196 178 163 163 61 65 161 121 73 163 154 178 147 135 153 108 183 175 101 164 118 201 117 144 139 109 121 105 150 122 89 145 77 159 95 147 158 82 171 150 158 153 84 174 147 77 100 100 208 144 101 131 171 161 165 171 114 188 202 141 104 97 136 120 87 86 96 138 91 177 188 103 97 147 117 88 160 108 112 174 125 177 147 70 168 123 202 178 124 188 198 81 144 97 142 53 151 54 168 105 172 182 112 135 118 104 152 72 124 92 101 113 106 156 107 157 165 160 85 91 92 171 181 162 141 68 138 143 119 90 100 157 116 190 168 87 54 74 97 64 69 79 91 105 130 86 76 89 57 58 149 110 100 96 180 159 45 57 60 126 127 168 159 140 126 73 112 71 140 155 155 127 111 175 93 162 118 120 120 122 178 151 154 137 95 109 102 118 121 212 220 167 111 176 135 82 134 65 156 166 97 104 177 159 134 157 89 110 128 97 255 63 161 156 123 73 68 150 105 128 155 172 115 171 131 201 205 126 111 187 82 144 90 134 117 134 69 82 79 89 183 187 167 116 76 130 141 83 84 155 193 140 78 85 140 57 150 142 51 104 174 183 192 151 102 147 82 88 85 120 86 139 111 83 175 169 174 82 190 97 181 189 140 95 87 82 70 150 195 198 144 94 170 114 138 100 142 181 197 214 188 146 188 200 139 195 87 70 107 134 193 164 235 161 108 109 160 111 65 172 173 75 75 133 72 154 144 166 170 116 140 142 136 159 73 115 133 104 212 121 214 165 141 122 110 105 174 94 203 114 148 169 222 124 159 127 131 119 206 142 141 52 66 48 78 76 177
77 94 113 134 146 163 176 164 146 143 137 149 160 160 169 165 155 154 161 167 165 159 160 153 151 148 146 154 160 173 191 206 211 204 189 180 172 177 169 179 180 184 158 162 160 140 173 188 170 144 184 174 139 153 163 167 136 143 155 179 125 100 161 147 78 73 81 128 71 117 65 103 150 91 85 148 72 50 56 48 95 72 63 81 73 81 95 104 109 102 109 131 84 100 120 94 134 128 94 112 84 100 127 101 100 129 111 96 126 154 78 79 71 69 121 61 108 133 95 159 134 78 125 182 183 121 100 114 76 58 111 55 79 175 107 81 180 113 90 152 197 171 213 195 101 180 171 165 152 142 151 63 95 113 175 193 185 115 145 183 177 174 132 98 150 164 186 152 160 167 141 124 148 142 128 128 135 88 120 192 112 175 160 79 159 101 104 56 144 104 131 166 144 142 210 187 184 77 133 127 194 131 143 140 156 107 94 174 66 64 163 141 186 92 123 91 102 100 173 152 140 166 133 139 86 98 78 89 159 175 87 138 113 97 108 106 123 153 66 76 72 97 154 140 127 188 187 182 165 151 71 156 90 151 150 75 135 129 132 156 79 62 105 164 146 133 175 172 87 114 117 141 56 159 75 255 165 91 173 167 58 147 110 71 148 167 74 172 81 134 69 84 87 97 120 156 182 174 90 75 144 52 60 83 197 188 131 117 128 148 66 81 174 88 111 70 93 93 100 146 101 119 168 123 112 190 98 81 122 144 74 101 102 95 110 186 158 91 168 112 94 172 167 151 69 123 135 170 153 53 90 153 72 156 157 138 95 167 176 128 165 88 104 109 101 145 79 110 204 145 153 151 165 207 191 148 80 169 98 84 86 160 154 95 137 70 121 164 137 109 109 101 72 162 203 122 105 149 70 57 146 65 169 255 183 188 135 146 138 159 113 173 62 134 163 172 102 103 177 78 73 137 115 147 108 78 77 112 96 188 174 151 78 101 163 85 78 125 84 110 154 159 83 203 128 128 123 119 100 98 187 159 101 151 58 92 197 123 218 201 101 98 151 141 162 75 98 125 139 108 59 67 66 135 100 121 79 98 74 120 144 194 171 210 128 117 195 98 152 167 114 193 130 115 109 117 156 217 225 134 159 123 126 117 94 103 141 42 46 160 172 88
74 93 111 127 138 153 162 155 149 136 140 163 159 167 162 157 144 146 136 157 164 164 149 146 130 139 145 152 152 174 197 214 219 210 196 181 171 174 178 172 170 173 181 166 159 161 152 145 142 148 177 149 188 182 142 182 125 148 170 153 140 98 151 104 104 97 79 65 120 145 136 132 161 77 121 111 110 62 72 55 86 51 60 122 97 75 126 89 93 111 97 76 76 85 88 84 119 70 65 70 99 123 93 89 69 103 133 121 120 107 120 76 97 112 153 89 83 83 87 129 77 147 89 100 114 102 98 128 80 163 57 49 162 77 90 82 77 176 83 185 106 204 199 105 89 72 159 139 60 90 80 157 140 160 178 98 151 185 175 107 174 147 163 114 94 168 170 136 170 152 154 97 160 150 58 115 66 118 116 171 110 174 108 153 113 63 57 124 134 53 98 173 85 195 98 170 181 79 147 171 202 133 202 153 163 206 133 143 81 90 142 127 100 86 153 103 184 82 158 168 86 113 179 160 155 128 97 64 148 115 174 109 173 178 103 117 147 153 161 163 72 80 129 133 136 124 180 182 88 89 164 175 155 88 77 147 131 82 111 129 69 108 58 147 104 88 198 185 104 161 167 159 107 54 112 80 147 116 77 150 96 159 109 70 81 142 88 143 113 97 136 104 82 109 93 170 114 89 184 89 103 72 67 180 161 155 200 97 72 93 132 116 108 95 93 101 103 93 100 142 215 204 211 200 101 85 119 153 65 152 76 145 76 170 147 153 169 107 135 124 129 68 107 81 90 173 140 61 150 60 147 78 100 121 123 173 175 130 167 86 145 68 115 58 108 74 158 179 103 197 198 195 155 128 152 88 126 60 167 81 166 192 132 194 127 161 142 116 113 75 131 159 138 160 103 106 90 76 164 58 87 155 86 94 96 139 172 110 104 190 180 78 144 170 182 96 89 138 137 164 154 139 81 143 71 139 96 177 100 195 123 75 180 105 120 175 151 78 155 91 159 156 91 186 193 198 174 195 98 178 149 91 156 144 107 73 194 122 156 101 76 127 150 60 135 125 152 65 60 66 59 63 171 137 168 91 152 80 157 144 191 121 134 133 183 160 144 112 158 122 183 198 178 97 106 197 108 213 206 215 134 114 208 209 174 72 83 66 118 76 157 129
91 107 122 132 133 144 149 146 149 142 148 165 178 179 172 159 149 145 133 149 153 152 144 149 137 125 138 138 154 165 189 207 215 213 198 184 174 176 180 190 180 192 161 161 156 152 147 183 183 177 173 174 162 185 171 139 154 149 184 122 166 128 92 126 165 120 110 104 116 119 75 114 96 142 139 134 82 94 96 59 118 97 102 84 134 80 132 150 95 115 133 81 112 82 81 95 126 71 118 89 110 78 114 113 79 88 110 172 121 122 128 160 134 89 122 173 119 150 102 162 96 72 83 94 103 115 103 200 100 141 59 125 163 161 102 187 147 80 167 179 186 104 207 167 183 64 153 135 146 117 80 131 105 99 167 182 134 180 175 89 182 173 105 81 73 98 163 153 170 146 154 120 160 86 65 62 73 172 168 185 164 215 210 98 158 151 115 40 143 143 163 88 179 118 178 178 117 180 184 103 196 175 221 182 234 162 193 191 108 187 189 127 179 88 167 81 177 98 152 112 122 125 106 85 70 119 94 159 173 90 184 181 153 145 153 150 66 117 166 108 116 146 182 89 101 167 117 129 135 81 182 99 96 123 118 156 77 161 120 73 143 74 139 150 66 133 147 203 188 118 141 86 115 118 64 140 67 89 78 173 144 65 99 56 65 171 103 168 136 135 95 172 89 98 168 176 147 130 184 71 58 89 131 122 112 187 126 103 150 73 151 70 97 155 192 209 182 130 212 132 138 127 129 187 167 155 79 67 54 73 95 81 146 166 64 172 158 128 149 86 89 82 126 180 180 142 65 95 45 63 150 138 148 125 140 179 193 205 111 158 107 125 63 121 139 36 130 129 123 167 132 195 143 137 187 155 84 84 160 170 196 183 213 120 109 83 90 56 91 179 81 124 184 174 196 161 107 126 78 69 69 133 104 190 165 115 208 109 151 118 126 133 138 184 120 94 95 179 175 97 68 36 109 135 61 96 82 169 104 173 89 95 87 82 101 84 177 92 176 108 161 118 91 200 113 198 168 136 74 90 176 67 61 81 154 174 88 165 165 185 126 138 138 108 115 132 166 89 151 160 67 81 98 156 185 131 77 79 153 85 174 129 164 151 173 178 103 177 168 255 110 115 114 95 143 104 191 122 149 158 132 120 148 155 147 125 65 102 68 66 136 194
120 129 138 140 139 146 149 148 141 142 154 170 184 174 178 153 135 140 129 143 157 168 161 154 142 149 142 147 152 159 168 188 197 201 194 188 181 182 185 187 192 190 177 147 153 159 161 186 176 169 161 180 136 176 184 166 162 184 205 122 146 140 174 138 145 124 94 124 77 147 145 73 147 147 125 119 94 151 155 162 85 125 155 94 110 122 105 97 105 154 109 105 68 71 93 77 84 64 94 71 116 72 77 60 101 124 107 183 133 187 113 106 109 108 127 127 181 102 89 88 148 129 116 133 99 155 108 105 100 137 111 135 149 94 96 194 171 81 131 98 115 202 140 195 112 159 50 57 147 141 167 132 141 65 103 68 126 86 113 72 137 141 169 167 158 150 117 174 158 82 161 172 158 165 154 147 94 168 111 177 113 152 156 191 97 61 144 99 145 123 108 188 168 177 145 158 164 182 94 112 229 241 189 134 145 140 200 147 110 184 195 102 181 135 175 72 156 65 121 98 190 183 124 80 79 155 87 149 102 166 98 126 167 71 154 109 174 123 92 188 114 100 112 189 138 162 163 148 154 178 85 115 164 69 143 80 175 165 158 113 129 109 86 94 169 97 192 101 197 171 132 184 172 140 41 122 65 170 124 167 161 84 149 59 128 152 176 75 82 169 142 81 182 169 217 200 102 190 141 133 99 49 129 81 126 101 94 85 158 50 63 76 157 216 174 123 161 181 137 130 159 174 210 114 102 89 122 158 121 93 59 85 62 155 61 71 100 184 108 163 134 116 154 176 150 75 48 128 127 79 138 102 154 107 157 179 180 166 102 170 180 169 81 166 121 114 98 146 124 83 171 121 192 107 147 138 137 152 77 87 120 105 123 187 139 120 70 88 118 131 127 190 163 255 180 153 85 174 83 140 71 90 150 188 200 183 109 118 207 115 114 158 154 128 136 198 175 190 155 71 58 137 139 59 60 128 78 151 83 100 160 121 124 92 172 75 117 173 176 115 163 143 168 146 120 181 101 83 170 102 182 97 160 171 156 84 173 174 88 98 157 147 45 48 63 158 184 188 166 169 146 173 184 85 108 138 108 181 139 87 86 128 167 102 115 161 78 83 146 140 212 177 94 72 72 154 82 87 196 129 142 191 155 180 190 81 152 62 72 108 154 150
153 152 147 147 148 154 152 152 152 143 159 165 166 179 167 155 138 144 146 156 159 166 168 163 163 152 148 135 144 147 150 173 184 194 198 199 193 202 200 202 186 184 171 142 159 164 175 171 171 183 178 142 167 162 141 178 189 166 150 169 175 131 174 208 206 180 152 86 136 124 146 121 77 104 77 116 108 89 97 143 106 95 142 139 83 127 106 106 113 112 121 94 79 112 85 88 89 77 102 77 79 113 63 77 83 111 116 142 160 178 158 128 116 100 127 120 109 104 99 148 145 64 164 172 88 97 112 115 203 198 200 180 177 158 106 94 192 172 84 88 103 208 117 140 179 162 158 81 129 90 172 114 92 138 55 111 116 169 167 166 142 126 69 171 168 173 78 125 128 151 106 113 118 175 124 168 165 148 187 146 162 124 191 151 152 139 151 133 55 111 178 180 130 135 177 146 123 178 138 199 129 134 145 111 164 142 103 111 163 148 173 129 138 177 152 97 118 84 82 79 170 96 194 179 132 89 161 166 91 185 190 91 103 154 177 192 123 140 93 134 179 187 177 187 186 178 165 159 63 106 161 154 166 70 150 108 97 96 150 119 189 132 168 103 91 129 178 137 201 202 199 130 138 171 129 76 149 163 140 98 120 122 155 141 167 181 125 140 82 86 100 81 96 103 160 204 103 179 180 128 52 139 69 79 170 102 102 164 65 61 69 124 192 194 159 190 140 224 151 134 232 164 196 163 166 130 125 110 82 55 147 143 78 73 156 88 148 197 173 76 77 77 78 175 171 61 133 92 87 126 159 157 118 157 72 83 130 118 92 187 137 128 184 134 125 101 77 171 169 123 182 99 137 133 152 178 79 167 105 134 172 118 144 180 98 172 168 168 134 208 107 181 173 156 71 75 106 93 111 140 91 92 133 175 116 111 210 109 166 201 117 110 165 96 134 99 126 165 172 126 63 134 77 139 123 173 174 93 177 76 141 93 154 101 127 150 73 90 174 162 168 82 137 79 125 169 104 54 168 131 186 144 98 178 162 186 178 151 86 138 52 141 47 111 145 147 100 143 118 176 174 132 148 77 152 68 80 175 108 141 107 55 77 95 171 181 148 178 201 208 155 170 137 110 120 74 88 77 132 132 80 175 255 163 105 72 60 130 169 137 145 110
172 164 150 149 156 167 166 160 161 152 154 142 156 168 169 160 154 156 150 159 162 159 167 166 167 158 153 148 144 148 157 170 183 194 203 208 213 207 203 199 187 175 168 165 155 174 186 195 198 203 160 163 135 132 142 194 196 182 217 181 140 157 178 218 181 188 133 120 89 60 145 101 92 161 131 255 112 148 167 96 170 106 93 90 109 82 104 105 113 116 149 116 97 79 95 75 68 90 68 78 83 74 85 51 75 82 86 99 102 162 129 89 162 103 123 98 178 165 132 160 71 134 82 175 135 162 168 191 115 113 176 124 226 142 112 200 184 189 155 96 204 143 146 174 184 114 95 164 92 177 179 124 105 161 100 148 96 78 168 160 160 98 161 160 128 149 93 148 94 85 160 97 99 168 154 95 133 173 91 108 81 158 84 181 185 106 68 118 156 171 164 158 161 159 82 178 82 106 126 107 173 199 171 146 64 162 147 164 170 184 127 200 202 201 178 103 56 68 84 145 129 88 84 153 165 68 77 66 157 77 99 145 92 113 150 195 179 108 127 121 191 147 146 162 90 182 70 159 158 158 172 90 114 171 157 188 137 189 193 194 92 183 174 88 144 89 74 78 127 127 163 147 159 117 122 52 104 161 110 133 107 180 127 154 92 95 137 182 144 81 88 161 194 190 164 132 119 148 138 69 104 73 78 106 139 179 96 80 84 96 155 149 106 133 120 166 116 185 179 167 182 143 171 123 182 194 178 96 111 150 167 113 176 81 164 106 122 215 202 108 83 169 92 93 153 161 141 146 121 120 130 72 104 85 102 171 149 159 147 92 82 82 161 173 82 136 138 155 153 206 140 106 129 170 90 154 83 101 133 111 102 172 142 164 151 131 194 170 213 181 123 103 113 91 44 136 133 116 165 161 83 77 135 89 197 128 200 124 114 125 118 175 201 209 192 106 127 100 169 77 145 85 40 155 122 128 175 97 127 91 112 156 195 208 200 185 160 104 179 150 150 96 149 97 177 72 58 75 162 125 170 114 111 255 161 146 129 127 166 113 74 92 107 142 94 91 108 175 89 95 166 86 128 110 93 62 145 96 173 64 76 106 82 124 122 168 90 103 105 185 102 114 56 80 110 61 72 255 137 183 94 156 96 63 74 69 117 61 125 107 142 143
176 164 147 145 150 162 169 163 161 154 137 124 136 147 158 153 160 163 160 170 161 166 156 170 160 158 164 157 158 159 170 182 194 206 211 215 213 210 193 189 178 171 166 166 172 184 188 212 212 203 174 139 157 158 152 146 196 190 200 181 142 177 166 218 183 212 194 127 112 144 149 79 89 88 113 128 113 103 104 87 138 84 143 87 131 100 85 91 96 137 141 144 99 140 84 118 132 73 95 86 102 79 73 51 52 57 98 65 68 97 105 86 62 118 112 95 91 154 78 73 163 141 72 90 98 200 150 106 111 119 208 133 134 123 207 194 181 139 146 185 103 209 112 203 94 163 168 137 156 78 166 184 86 156 71 96 120 105 150 137 115 255 105 91 158 135 156 137 75 87 161 132 170 159 85 173 182 183 184 93 121 104 145 131 164 85 97 156 144 142 194 131 198 107 178 175 84 93 132 108 101 102 134 64 132 57 148 86 94 174 87 121 102 144 79 161 54 61 129 152 62 163 101 152 162 167 161 127 76 115 94 148 155 173 86 114 185 142 148 106 186 106 152 99 184 80 168 87 170 170 121 119 101 93 187 149 174 173 170 120 126 174 182 117 99 129 121 142 192 122 189 217 187 193 128 105 92 144 118 172 173 113 95 105 157 102 162 157 187 106 144 135 132 159 151 204 186 139 78 162 57 80 102 106 201 110 137 92 98 140 162 159 89 138 130 136 117 147 160 196 209 151 120 117 149 98 89 73 158 102 141 163 85 91 106 206 148 117 125 177 150 77 177 142 78 91 180 79 72 151 149 127 145 68 155 152 172 104 147 170 156 170 159 103 158 185 200 182 163 217 208 146 206 178 101 75 143 144 176 81 75 157 142 79 139 169 204 173 131 219 156 183 72 112 40 130 43 45 138 65 72 98 97 115 103 181 186 175 82 98 161 207 129 119 136 160 188 136 83 82 43 132 39 65 142 170 186 146 152 62 139 165 101 207 117 109 123 191 153 117 170 60 64 95 170 79 164 111 148 79 198 107 153 184 146 61 58 70 175 169 134 149 73 116 165 82 164 126 71 86 104 170 130 53 152 85 96 155 168 87 131 109 152 98 188 94 128 161 179 158 77 152 74 58 163 103 120 117 119 111 79 79 84 45 93 61 59 147 111 192 130 155
169 156 139 134 135 144 150 146 146 144 131 114 118 120 140 164 161 176 170 183 192 181 173 159 171 173 168 179 181 181 186 188 199 205 211 207 205 200 188 170 166 151 164 154 178 184 196 209 181 200 159 158 164 198 205 161 175 199 138 121 121 135 158 167 232 176 198 183 147 112 133 93 164 132 123 133 118 140 147 74 98 88 78 119 87 121 77 77 73 74 81 133 91 106 86 99 110 90 81 81 112 89 71 81 70 53 63 62 62 57 49 47 67 113 65 118 84 79 94 116 147 68 73 108 130 159 115 164 107 102 156 217 133 114 200 157 122 79 76 167 183 106 212 134 102 152 163 76 131 81 172 176 176 67 147 140 151 158 127 113 71 104 90 119 112 82 77 71 100 142 153 132 125 157 175 181 150 122 103 127 96 180 124 105 102 177 82 120 150 185 206 193 196 142 162 164 179 120 162 121 73 67 46 41 122 46 71 157 101 147 105 95 139 102 110 87 90 48 149 114 113 86 79 185 184 179 91 176 101 183 173 74 165 137 78 188 94 192 104 189 131 139 211 203 113 154 79 94 170 202 209 115 195 100 92 130 171 177 135 121 85 81 89 62 99 83 66 127 187 126 160 125 125 99 89 159 103 136 69 130 62 75 93 165 102 161 95 114 159 171 193 163 112 172 142 124 187 102 100 91 63 68 85 100 121 116 97 188 173 134 123 132 92 90 120 105 167 113 188 83 150 170 162 79 159 159 110 77 90 84 106 108 189 161 204 131 128 110 164 123 80 78 182 173 101 131 100 169 92 88 66 76 55 147 85 167 170 158 151 140 125 138 102 167 142 138 134 113 166 184 220 219 177 194 148 124 101 170 163 160 95 156 80 169 185 111 202 194 204 224 215 137 150 126 49 29 89 59 139 101 95 159 130 149 153 94 110 91 82 146 107 118 206 164 218 125 154 182 132 83 155 80 153 60 130 110 167 169 155 109 51 164 91 134 207 130 181 174 106 128 154 76 151 71 91 87 80 160 169 168 98 113 126 101 131 64 162 89 152 157 184 101 141 60 153 168 121 103 141 181 155 111 75 115 162 155 183 169 116 122 158 158 114 149 75 139 100 121 170 156 158 125 133 128 98 132 112 191 187 101 84 166 108 88 65 154 62 166 185 153 229 226
165 150 130 115 114 124 123 135 137 138 135 121 118 126 133 148 167 172 190 193 201 187 180 162 169 186 191 200 201 192 198 194 190 193 197 203 200 187 177 159 156 145 166 174 182 167 167 197 190 196 199 205 191 168 201 184 201 136 166 163 166 171 203 213 162 167 191 122 164 153 83 93 141 136 162 83 123 123 65 83 137 134 89 87 81 69 124 72 72 93 80 90 99 96 91 109 92 108 84 86 92 122 77 72 115 65 79 107 49 53 56 78 38 98 125 69 77 169 94 79 91 61 84 94 102 159 177 138 189 169 158 195 141 179 99 170 79 73 119 118 85 101 164 205 205 148 86 108 139 54 137 168 156 155 148 79 99 164 175 182 126 150 88 132 157 129 124 155 89 125 137 86 129 118 151 173 109 114 144 101 134 118 168 164 202 98 175 147 204 144 213 138 199 148 126 192 173 70 119 61 79 89 94 134 57 95 75 124 166 67 177 120 113 77 88 49 120 122 146 159 137 173 143 123 121 172 158 97 161 190 99 115 178 175 171 161 170 81 188 149 170 213 111 200 194 182 81 155 91 192 178 195 122 195 184 131 180 166 105 152 86 173 65 153 131 120 89 99 110 176 173 135 200 108 132 165 159 72 64 96 118 121 159 113 146 104 91 147 99 124 117 157 117 133 156 119 112 111 163 174 103 103 118 146 110 117 105 176 139 83 171 151 122 134 115 200 141 108 69 150 90 93 66 130 158 132 82 85 80 147 73 178 83 103 120 201 106 99 80 79 68 75 109 72 74 164 163 189 173 65 59 146 69 162 173 79 161 167 91 50 106 64 45 68 102 202 138 110 118 132 210 149 124 109 145 122 112 172 87 78 70 59 157 72 181 184 127 196 185 185 198 87 161 105 145 46 60 135 118 63 148 156 192 92 134 112 172 80 75 123 139 110 115 180 110 216 180 130 163 156 150 133 102 82 106 156 170 57 142 81 56 156 116 181 143 107 200 144 204 125 82 135 155 167 123 94 163 114 188 192 180 113 117 173 95 162 158 186 189 149 191 69 106 106 128 112 53 154 138 87 89 180 93 155 90 188 134 124 189 161 119 104 101 169 146 150 100 114 255 84 107 51 123 74 103 90 90 133 189 178 165 111 84 89 104 114 69 80 97 112 172 118
166 148 124 107 103 99 101 109 130 146 139 132 137 140 148 149 166 171 189 179 193 190 181 170 179 186 203 213 212 200 195 185 185 191 195 198 195 177 170 151 144 144 153 181 185 173 187 186 165 200 193 175 173 222 210 208 142 179 125 154 132 189 200 173 135 197 142 150 122 103 149 92 146 100 97 72 94 132 132 54 96 112 138 129 85 67 57 90 56 81 88 255 145 169 109 98 83 111 81 85 82 96 80 80 118 81 107 65 62 55 60 54 81 68 50 87 98 81 87 86 133 73 82 106 171 105 142 171 170 91 145 190 96 90 92 79 96 99 69 171 83 198 139 148 184 92 82 78 65 78 76 67 143 143 164 135 66 173 96 126 188 130 185 164 84 139 176 145 163 96 173 157 183 151 85 131 87 167 76 66 156 96 154 109 122 166 207 199 217 142 213 217 132 186 131 98 90 158 149 144 100 128 78 148 100 201 194 156 78 173 132 148 87 92 147 52 48 57 149 110 184 184 166 148 95 70 176 129 117 100 87 128 177 135 105 126 151 169 184 146 138 173 136 200 182 184 177 114 90 116 179 159 149 79 163 148 90 164 195 152 166 156 73 118 60 55 117 172 155 113 147 150 156 175 92 169 74 170 163 88 143 79 142 90 174 171 145 122 106 138 176 113 109 158 216 188 204 108 118 134 133 183 95 143 83 76 71 85 101 172 99 177 114 172 134 95 112 120 69 52 42 143 42 79 116 118 163 180 75 97 121 89 107 104 108 187 189 68 83 77 165 172 79 146 133 83 178 143 144 76 62 94 114 167 128 169 109 71 145 133 133 46 52 112 113 152 136 145 185 205 208 112 146 201 114 206 213 129 144 104 160 84 76 156 144 71 182 167 181 85 175 126 71 165 128 104 61 72 71 77 181 130 142 84 102 138 85 177 91 116 74 165 162 109 169 141 206 193 207 157 176 99 168 163 189 182 72 72 75 149 79 62 122 88 134 117 159 208 205 208 121 72 76 84 118 120 193 169 206 109 121 198 118 139 81 183 100 190 191 138 138 110 120 85 138 138 128 145 88 158 95 150 80 133 86 111 194 112 207 187 213 117 108 123 152 39 60 75 70 87 84 120 92 98 73 92 92 90 86 180 75 55 138 106 160 73 168 81 110 113 136 185
171 154 130 114 104 95 95 110 127 145 148 154 149 164 168 167 159 155 165 171 172 164 162 161 169 185 207 205 206 188 191 188 190 186 192 197 200 189 168 157 152 161 173 164 183 159 182 255 184 188 168 181 188 200 204 155 195 132 115 113 182 182 153 162 154 177 153 184 178 105 147 173 111 153 113 105 63 100 46 77 64 138 94 135 84 67 59 111 59 92 134 121 122 135 123 130 88 71 101 80 90 107 72 103 115 104 123 90 80 93 74 129 101 82 80 52 88 149 105 90 100 90 179 167 91 89 72 79 65 167 78 102 185 187 93 129 184 170 147 114 178 103 190 148 83 108 82 170 102 144 170 178 174 118 179 140 180 183 133 133 185 129 132 150 102 132 140 166 83 166 145 114 193 181 142 134 111 166 161 57 136 88 91 170 187 201 213 120 219 186 212 193 137 164 139 176 167 67 63 155 166 91 147 220 202 138 120 180 116 93 191 121 183 156 162 58 66 159 161 87 121 202 174 93 156 168 177 193 136 159 166 88 164 140 155 55 63 104 182 183 165 184 171 116 123 168 177 174 150 107 89 172 151 71 152 129 195 215 127 122 205 120 89 161 67 108 178 117 99 151 115 177 179 94 125 110 70 111 73 60 76 114 107 69 166 83 133 161 157 93 83 88 109 99 140 112 156 131 135 101 99 134 144 133 112 96 62 63 63 87 82 85 101 101 121 94 99 126 120 67 149 104 147 68 84 69 123 172 77 100 166 81 95 159 151 107 174 64 159 62 127 99 128 72 86 82 180 91 88 146 149 135 101 111 180 180 165 138 132 72 107 124 67 139 175 88 171 148 158 190 189 185 200 137 170 205 196 156 194 185 126 145 125 87 115 133 171 92 131 74 75 119 80 110 122 110 149 111 64 165 93 159 99 150 157 191 194 154 186 176 144 80 147 143 100 152 201 189 114 182 91 141 175 109 140 147 106 126 112 75 153 184 112 141 175 159 122 150 116 201 198 104 151 134 165 146 176 102 196 210 182 198 179 115 87 183 209 201 200 181 153 60 77 106 45 126 101 163 182 191 138 90 133 176 145 202 178 164 119 208 197 196 206 175 98 134 131 56 101 91 119 100 109 65 75 170 130 94 127 106 138 88 130 67 140 62 138 87 74 155 120 126
172 157 138 125 118 110 111 115 135 143 153 159 176 183 191 174 167 156 155 155 160 154 157 166 184 185 200 206 203 190 183 182 188 192 199 205 208 196 176 161 143 150 168 180 182 188 190 187 189 154 189 173 203 198 167 150 139 172 165 110 153 138 125 177 134 203 137 206 150 183 179 96 106 140 135 112 145 134 59 54 117 79 80 143 154 127 74 71 73 80 116 135 110 132 121 92 105 102 86 71 59 76 87 88 133 162 145 112 117 116 166 104 98 91 130 50 52 61 144 162 147 111 175 101 138 97 150 128 143 153 69 71 182 165 190 136 90 95 180 126 141 179 87 178 173 160 155 161 71 75 166 151 95 97 166 255 163 150 181 174 167 124 142 174 183 132 188 189 178 107 163 183 102 163 172 164 152 89 143 100 134 149 134 91 168 175 150 206 118 213 189 161 209 146 226 150 168 82 167 168 183 126 118 165 218 108 120 161 162 98 126 144 129 141 167 59 128 74 99 181 120 194 184 152 136 84 114 203 189 94 183 100 136 103 105 96 113 155 188 93 104 87 85 126 172 182 169 171 70 97 126 161 71 158 121 178 115 188 217 126 216 115 167 144 109 165 125 91 95 99 82 145 115 159 179 80 87 152 165 85 158 64 98 90 109 152 71 148 166 159 84 116 82 152 189 164 180 99 176 156 165 150 190 71 54 110 63 131 161 153 78 132 124 94 173 92 119 127 77 152 125 134 145 47 145 90 122 191 83 146 79 167 163 118 194 85 174 163 162 92 131 77 176 112 109 167 136 84 175 71 67 152 169 113 135 169 53 144 47 161 175 142 133 176 190 185 127 192 181 100 115 108 89 153 182 91 176 133 180 196 124 144 85 85 83 80 132 82 172 180 188 133 131 198 146 189 101 169 114 158 159 119 195 162 143 201 117 185 144 143 167 168 85 141 163 90 108 150 191 147 105 157 168 97 180 104 105 171 122 123 141 156 183 126 126 91 73 161 153 188 183 129 72 161 162 103 183 189 174 93 194 188 103 74 136 152 101 212 192 183 156 96 99 64 143 43 155 86 154 183 206 97 142 162 192 140 139 127 179 196 183 110 195 187 119 55 94 136 176 88 160 179 92 146 162 90 101 143 142 150 115 116 61 60 145 93 124 135 143 168 148 83
173 159 141 127 121 125 124 136 138 151 160 168 186 199 198 196 182 169 161 169 162 163 168 172 176 190 197 199 202 190 180 178 188 198 204 212 213 201 176 174 156 171 168 153 183 193 176 198 180 176 170 179 181 193 255 180 176 170 122 154 111 99 163 128 204 221 212 206 131 136 128 93 98 114 170 155 109 95 100 78 72 62 66 96 80 158 95 97 116 116 94 104 163 112 96 138 100 69 86 90 90 61 113 95 115 124 177 148 177 162 138 178 148 163 136 73 131 119 51 129 97 162 197 109 93 171 58 96 41 40 48 78 75 135 190 93 90 111 82 150 85 85 82 126 166 58 53 129 129 68 171 139 117 97 178 186 174 164 100 144 129 114 168 157 124 126 183 107 177 156 103 177 141 170 157 72 91 78 138 136 122 83 67 83 164 158 204 195 117 149 194 225 210 150 161 225 111 148 141 106 188 148 101 115 126 164 83 97 83 135 154 113 180 181 162 107 136 159 107 156 140 132 176 83 179 138 194 110 187 123 175 160 119 83 64 102 107 179 100 154 99 134 138 93 95 90 173 108 61 53 69 82 177 172 178 171 203 197 109 182 214 183 191 148 197 148 192 112 54 128 109 133 81 158 173 193 187 143 150 153 82 150 138 135 110 134 146 159 80 91 124 127 137 123 109 91 132 176 160 122 103 92 126 95 89 109 88 166 134 60 114 62 75 85 68 103 137 80 180 81 159 73 134 51 83 139 138 145 97 155 189 156 107 142 91 170 179 112 104 196 102 122 193 180 179 161 71 96 73 124 126 92 166 163 145 90 142 76 54 66 136 125 101 204 164 174 198 193 185 186 113 182 82 104 94 166 183 120 116 223 148 145 188 172 96 164 167 121 101 152 206 212 141 113 189 136 186 150 159 175 93 142 181 189 167 168 142 87 79 172 178 79 153 131 97 149 145 172 78 156 86 77 155 103 93 109 201 133 111 213 170 211 216 127 185 86 119 74 173 153 100 127 94 165 138 157 91 149 81 104 115 173 105 170 160 182 91 181 173 139 125 131 63 90 129 37 55 164 144 172 198 134 143 124 215 179 195 172 139 90 76 130 157 194 174 167 90 69 91 107 99 163 81 90 78 129 99 113 184 120 55 102 60 62 122 143 161 135 81 99 80 139
171 159 142 130 126 131 141 155 151 153 147 150 165 183 182 186 164 156 176 169 177 190 189 188 183 185 196 201 198 189 183 180 191 200 206 207 206 197 185 178 170 171 164 177 164 202 198 197 184 169 164 146 148 177 168 149 117 117 147 129 113 118 151 146 173 195 148 198 138 105 149 157 73 137 74 102 71 69 64 72 58 80 95 115 92 104 114 116 99 110 102 109 122 96 124 86 106 97 71 51 56 59 74 118 102 115 112 152 129 145 163 150 127 166 105 74 86 38 74 68 101 186 205 126 123 134 84 158 113 140 141 71 174 181 87 76 73 87 80 175 185 188 79 168 63 137 99 46 98 139 158 149 120 150 80 116 143 80 154 106 159 159 157 165 184 194 141 194 189 169 72 67 105 88 149 132 100 170 135 71 87 157 96 164 67 167 137 105 100 200 173 183 198 151 229 177 110 139 188 192 190 146 64 135 76 85 97 100 169 120 195 167 101 109 186 141 136 172 110 214 176 187 125 183 102 139 152 172 223 192 191 143 200 120 180 164 123 110 198 206 203 196 171 137 114 119 151 182 155 127 160 107 185 93 199 97 86 166 101 173 106 103 196 143 173 143 195 171 80 41 42 119 168 115 176 128 111 136 122 76 157 107 148 109 103 140 168 128 185 163 75 158 159 101 90 96 148 176 68 92 87 88 152 82 134 103 110 90 115 73 129 164 177 176 144 79 163 110 110 74 97 123 65 60 133 153 103 198 160 188 108 96 117 188 141 158 80 93 186 123 211 176 146 109 177 167 109 171 68 74 90 146 98 52 98 103 126 139 151 78 85 181 151 212 131 184 218 111 195 172 150 79 170 159 65 74 118 196 140 172 130 135 154 156 159 149 85 128 118 196 180 222 221 202 208 142 93 88 145 92 173 137 83 184 168 94 133 174 164 144 102 159 159 162 177 146 156 160 65 133 132 64 91 80 103 179 165 126 145 151 217 128 152 105 169 86 128 70 65 143 115 161 158 130 170 80 151 153 66 66 110 162 163 147 76 78 121 127 112 178 179 148 98 105 136 42 99 140 176 183 166 208 129 228 144 156 103 136 79 113 50 130 179 125 161 105 142 104 159 120 93 89 185 83 81 79 102 197 197 141 73 78 87 116 79 164 157 189 90 108 91 141
169 156 137 124 127 138 149 154 152 137 131 140 151 163 169 176 173 175 171 181 193 198 189 194 187 197 197 206 198 192 189 191 202 205 208 201 201 189 178 167 175 159 172 170 202 210 200 162 177 171 134 151 127 129 157 175 174 118 119 131 158 88 156 110 158 188 149 130 117 134 86 88 132 97 137 93 66 81 111 127 127 84 62 99 105 117 161 117 147 136 109 139 96 109 96 93 125 101 72 74 46 77 71 86 89 111 97 101 106 125 121 136 144 125 126 109 51 67 122 118 95 104 105 108 164 86 88 86 150 53 143 73 79 100 84 113 166 75 182 182 82 158 155 142 159 154 145 125 130 67 120 114 60 64 154 120 90 136 153 135 66 111 164 106 161 160 128 208 175 168 75 125 136 85 66 77 135 81 167 164 152 112 112 66 170 80 90 189 187 194 190 122 142 227 119 170 201 105 149 188 182 165 93 39 139 148 113 176 83 162 94 105 154 163 95 82 89 187 179 205 119 126 160 109 91 201 190 207 215 187 207 230 219 189 123 97 96 182 118 200 147 100 119 205 202 128 155 143 166 167 80 87 157 123 165 174 150 158 96 134 186 159 137 189 183 158 104 152 125 144 81 149 76 98 167 160 101 126 172 103 105 170 173 167 133 204 109 98 111 70 116 84 110 100 189 157 80 165 77 85 128 108 181 81 94 92 181 100 81 62 64 75 128 91 183 146 143 110 85 67 63 146 78 139 186 165 137 158 131 142 106 96 96 156 77 173 87 189 219 191 204 199 122 141 101 86 178 78 115 68 83 178 101 52 111 129 49 74 141 56 169 93 134 217 206 163 233 151 211 110 91 102 152 160 125 91 92 151 112 160 160 128 202 221 147 169 187 113 78 171 168 138 206 110 110 100 161 163 177 117 114 179 87 101 152 137 179 136 136 122 111 131 146 133 153 137 78 160 96 104 145 115 65 146 100 86 160 123 175 160 201 182 113 132 151 90 170 62 69 97 92 152 98 115 154 169 155 54 80 70 133 57 88 65 138 146 147 164 80 96 185 187 84 120 49 151 80 126 80 121 113 122 164 203 223 216 145 119 152 127 83 63 56 94 147 147 152 65 66 73 92 114 96 93 167 83 141 102 136 99 87 88 112 65 129 123 148 159 116 184 77 142
165 151 132 127 129 140 157 155 149 127 117 126 126 140 158 172 168 169 160 183 189 199 203 188 196 200 197 207 208 191 191 198 210 209 203 196 193 181 174 174 164 158 182 194 195 209 187 187 154 176 174 147 104 146 158 149 148 174 172 164 108 125 105 169 116 121 129 157 168 121 165 83 79 121 72 124 70 56 81 47 65 119 150 97 163 128 154 179 112 106 170 125 110 255 99 103 111 112 104 89 51 80 103 115 80 115 93 88 154 131 129 108 141 107 113 137 82 67 44 154 82 94 95 172 139 89 139 103 113 119 160 101 164 88 136 123 132 89 97 191 81 85 149 81 107 93 102 129 134 159 82 87 61 129 82 168 134 182 94 95 155 115 131 171 166 173 142 198 184 128 138 149 89 138 135 120 154 175 175 168 167 147 128 67 109 161 75 162 133 194 100 116 154 155 104 99 145 106 165 176 186 135 83 151 80 110 105 138 162 155 163 122 97 201 180 182 178 123 167 95 162 82 145 172 191 187 125 199 209 204 138 151 219 189 217 205 193 178 84 152 98 97 130 202 209 215 206 123 151 172 195 90 187 83 171 72 168 167 84 92 172 149 106 136 100 167 173 76 62 84 113 66 142 82 91 160 97 91 152 166 169 88 93 101 170 143 209 103 80 115 137 155 95 178 128 186 112 77 127 169 115 82 93 86 93 97 190 142 148 127 168 191 121 136 206 120 201 98 78 131 117 101 114 182 93 94 187 107 194 107 170 149 148 123 94 99 93 179 190 114 108 177 86 151 68 75 166 160 138 145 170 89 109 157 155 129 138 101 99 82 119 180 172 211 218 167 187 209 200 105 198 141 167 146 128 169 180 107 145 125 210 214 126 168 191 211 150 130 136 73 165 108 115 191 162 187 186 190 179 134 148 140 89 133 151 194 170 165 143 117 87 98 127 105 62 159 79 82 156 111 73 51 155 174 158 72 99 102 162 164 160 121 106 159 164 116 144 60 54 59 82 129 63 65 149 150 59 44 68 159 134 148 157 153 160 100 158 73 77 152 100 196 96 146 63 147 144 172 112 176 89 197 192 176 157 155 102 102 165 64 147 49 56 140 152 135 46 76 102 93 114 143 129 128 153 168 200 119 213 166 158 105 71 68 71 81 127 156 95 123 158 141
157 145 129 126 133 145 153 153 149 130 120 103 114 130 160 166 158 154 150 155 173 190 202 199 197 192 203 201 202 193 198 200 212 208 198 190 190 182 176 158 166 164 182 184 184 205 195 179 182 183 184 157 150 114 110 150 174 192 147 126 92 123 170 150 142 127 140 81 169 179 169 99 155 124 80 79 76 119 52 45 56 76 104 112 138 195 148 147 121 103 108 100 116 111 114 114 118 113 92 106 92 65 69 83 76 73 94 110 90 102 98 130 106 104 91 155 85 62 58 143 103 102 140 141 165 156 158 80 124 97 75 114 97 190 148 179 180 114 202 98 84 97 67 121 82 74 157 82 171 161 116 144 101 162 64 148 134 152 150 173 121 151 129 149 181 170 147 117 168 113 99 165 111 71 78 165 110 144 148 174 115 125 116 120 145 164 75 84 103 118 124 145 194 103 173 173 103 164 105 208 105 165 148 116 139 80 120 86 69 140 119 122 204 127 102 185 84 143 173 80 170 76 173 95 90 120 188 171 167 205 147 202 132 182 220 203 197 113 173 197 202 96 90 124 255 212 216 235 202 120 186 194 173 121 123 166 139 181 159 94 124 157 136 168 74 123 114 166 75 171 156 94 96 112 167 105 159 171 175 153 90 123 111 183 189 131 138 101 134 94 70 71 98 153 129 168 134 91 122 181 157 121 136 154 117 132 100 132 108 164 121 200 110 208 132 121 120 126 185 89 134 147 81 119 113 97 101 82 88 103 112 169 141 112 139 176 195 131 189 101 121 125 144 56 137 59 160 163 150 71 145 167 111 153 159 71 65 93 102 141 52 169 150 115 170 157 112 150 202 205 187 202 178 176 94 171 152 161 89 205 112 198 131 173 150 183 185 170 88 86 69 174 80 99 86 102 189 186 78 117 146 73 125 162 108 209 100 147 149 151 116 95 81 169 62 158 69 163 159 57 84 118 143 121 77 165 167 82 124 167 115 186 177 190 123 146 90 63 116 138 152 95 158 116 163 123 56 93 54 155 170 108 52 65 84 138 133 161 172 134 138 146 87 79 74 75 159 71 75 94 90 129 204 185 163 124 107 107 102 165 68 158 108 111 71 66 141 95 75 161 127 96 126 80 91 131 201 211 138 112 166 104 152 163 76 138 105 94 80 74 140 73
149 142 135 135 142 148 152 163 155 136 121 109 100 128 150 174 170 142 127 122 145 175 190 192 187 182 189 190 180 182 185 195 203 194 200 190 182 171 160 166 160 173 182 176 196 198 191 176 172 181 184 148 148 129 115 182 187 188 184 166 131 106 160 176 153 113 118 89 159 118 118 93 107 105 98 147 100 141 63 128 83 142 98 155 108 106 103 92 93 110 125 165 100 100 255 119 153 113 145 117 85 77 84 77 72 105 104 148 108 102 137 99 131 93 107 83 68 66 75 98 86 75 100 166 98 144 181 184 91 80 76 98 183 136 209 157 231 227 174 159 129 65 116 145 51 158 170 113 119 164 183 162 127 148 75 107 171 97 103 123 111 145 94 99 174 210 187 178 155 165 168 127 166 83 117 139 153 193 192 181 105 117 131 83 136 170 139 162 186 156 112 206 165 185 117 102 100 196 204 176 205 164 202 183 122 118 116 182 99 125 93 101 150 123 210 107 143 150 151 69 163 119 72 178 89 165 180 96 131 126 199 100 100 210 162 204 141 188 173 173 207 123 178 196 128 121 143 233 145 151 110 124 98 78 95 178 92 90 171 78 165 101 69 87 131 132 106 109 168 149 160 98 129 141 161 135 160 170 120 134 137 112 149 130 212 113 157 184 110 172 76 154 64 139 92 191 108 188 97 102 86 66 63 255 183 187 109 110 145 113 138 125 174 124 199 141 113 141 101 126 140 75 165 84 158 80 156 97 92 181 156 210 164 106 120 97 145 122 135 95 102 95 85 78 79 93 62 169 78 153 81 118 114 101 134 92 168 160 55 78 53 74 79 133 195 188 96 185 150 160 154 141 172 87 69 104 112 101 174 193 205 111 128 166 192 90 73 57 83 114 66 119 99 176 102 147 89 128 172 167 61 81 155 118 189 121 170 123 96 88 191 143 178 97 58 151 76 78 163 102 151 67 127 158 94 92 97 87 84 117 104 115 118 177 170 71 84 58 125 89 153 105 90 127 89 90 64 142 60 97 111 153 63 110 153 74 89 182 186 168 92 180 161 186 88 181 117 95 162 115 77 159 189 190 207 215 137 109 174 95 171 156 101 164 64 66 110 139 145 166 172 74 85 143 118 165 108 158 206 202 97 75 172 161 158 103 80 77 62 49 121 59
136 137 137 139 141 149 154 163 153 139 124 107 106 128 157 165 166 139 133 127 130 168 187 187 178 185 181 177 167 180 187 189 196 196 198 189 179 161 166 170 174 169 187 184 175 198 168 156 190 190 179 133 126 135 176 156 157 194 173 129 97 112 133 164 97 161 165 152 132 135 181 95 115 92 119 142 159 162 81 70 101 78 114 89 83 112 119 125 120 117 103 131 99 107 162 152 118 118 105 76 78 107 99 89 114 85 108 132 175 181 121 123 94 93 100 78 78 92 86 99 127 148 112 81 160 97 119 168 122 171 79 145 172 157 111 135 148 193 131 206 182 176 130 134 91 158 87 175 104 111 167 91 183 84 170 116 169 166 88 182 90 143 124 141 120 171 213 214 104 105 144 76 69 88 66 127 153 180 170 101 108 151 79 90 177 160 159 163 126 200 140 110 195 131 104 145 118 169 184 183 148 131 118 91 75 181 132 146 128 130 123 116 204 138 146 177 146 106 61 112 148 105 78 178 192 167 72 77 80 103 128 109 104 171 118 103 190 114 158 131 212 210 200 196 170 212 137 124 192 197 158 117 141 183 119 95 77 97 178 165 169 66 151 157 132 92 157 176 173 202 140 160 187 99 98 165 153 185 159 151 161 216 217 198 209 104 117 145 146 105 107 95 67 65 90 97 124 169 189 103 89 66 59 98 80 108 119 111 189 139 162 104 160 90 180 101 89 109 114 88 185 125 133 96 82 85 168 111 178 185 176 181 210 207 199 130 204 100 195 83 168 132 156 65 255 57 160 123 164 135 163 181 199 205 106 146 118 175 143 91 162 77 175 98 109 174 128 170 162 123 150 97 166 167 66 62 49 87 162 102 181 175 198 98 175 92 81 43 137 121 151 134 110 160 83 135 161 169 113 128 105 83 83 118 100 182 169 155 109 103 132 185 125 57 153 156 90 120 73 84 133 86 153 73 89 164 155 174 109 168 76 81 160 158 84 65 72 147 85 144 119 63 169 110 65 99 100 75 72 88 165 144 132 44 151 99 107 104 192 117 160 159 93 182 164 149 94 144 103 117 63 116 157 174 156 171 199 134 98 194 96 176 137 77 162 115 113 171 70 103 111 76 79 88 89 185 119 206 105 171 78 161 100 174 132 114 112 165 73 71 36 116
124 130 139 146 145 148 151 166 157 141 134 111 112 134 172 184 186 167 137 140 145 161 180 181 184 182 171 169 175 180 186 192 198 193 200 188 179 168 172 178 188 193 195 200 201 173 183 184 178 179 140 163 114 130 162 158 218 197 152 114 74 82 100 149 177 131 175 152 106 144 113 151 147 85 86 188 136 115 109 101 67 106 66 89 72 54 86 131 84 96 108 101 96 109 109 117 140 98 110 75 92 88 113 124 93 102 166 120 123 163 157 94 89 83 152 96 128 95 128 109 132 176 122 95 108 93 102 101 199 149 79 64 103 85 104 208 209 129 146 199 189 102 182 168 79 164 163 168 213 204 156 163 176 153 128 175 156 139 167 177 107 62 152 255 96 188 212 141 197 180 100 152 153 75 97 152 67 86 121 158 132 151 171 158 179 104 195 140 69 167 140 184 164 104 96 113 108 194 192 206 109 171 170 151 98 79 85 79 70 116 97 184 221 216 186 189 76 62 69 148 135 75 100 160 174 172 160 79 155 161 183 95 121 145 203 199 185 106 182 196 205 112 145 210 147 212 164 154 112 185 178 184 116 184 144 149 162 157 163 158 157 159 148 100 160 147 165 165 139 194 186 108 109 100 192 132 159 161 147 116 197 148 145 197 190 106 173 98 200 104 183 86 144 125 88 89 203 115 117 191 97 164 77 68 152 89 152 205 176 112 141 88 160 94 132 72 122 145 88 159 167 145 107 86 84 102 81 175 170 130 181 195 146 175 202 158 121 120 158 106 115 70 74 171 103 70 165 110 82 128 165 77 105 172 171 97 81 94 158 173 99 152 85 163 92 184 174 89 60 172 167 150 142 108 145 98 116 156 156 197 204 164 173 85 169 138 112 109 31 73 90 106 129 168 178 128 78 165 138 77 153 107 182 146 112 193 107 113 197 153 132 159 114 88 55 127 121 110 156 117 148 98 83 154 161 83 84 111 97 150 78 148 62 168 132 175 171 64 89 95 163 162 140 81 82 163 116 131 138 105 72 89 132 50 144 129 139 191 184 134 71 149 175 189 192 138 94 107 162 109 164 90 139 170 205 206 147 120 186 188 109 181 156 92 90 103 135 88 174 167 170 88 158 82 178 182 88 135 104 107 167 166 127 99 174 166 86 168 81 88 47 53
109 118 129 140 147 147 161 158 158 148 137 117 120 140 166 189 186 164 165 153 157 178 181 184 191 184 176 167 165 173 188 186 200 196 196 190 185 177 175 189 198 184 196 204 176 172 181 191 172 169 145 180 156 142 185 209 187 168 171 109 62 113 76 79 167 157 141 139 114 145 162 151 81 77 108 182 131 130 114 100 106 108 72 53 36 75 100 114 91 100 138 94 95 131 108 119 96 106 99 79 89 104 113 132 118 111 114 127 149 109 97 107 135 101 77 122 97 159 110 110 186 190 91 95 85 99 95 94 187 97 181 76 70 174 135 93 122 167 102 201 202 195 127 178 177 153 114 184 170 113 102 186 129 158 150 95 88 185 126 170 161 150 132 53 153 170 119 202 148 167 99 132 73 143 154 148 153 127 160 158 137 63 177 125 188 146 155 153 149 120 69 97 162 159 137 191 127 132 159 185 150 146 117 140 57 162 179 167 145 111 129 182 116 125 182 155 111 99 77 150 80 96 181 101 114 166 61 132 170 178 136 93 193 167 120 184 192 179 87 165 197 197 200 199 202 131 195 200 93 131 100 182 160 130 175 159 171 80 172 91 169 157 72 146 152 96 99 192 120 188 97 98 144 87 102 164 108 107 150 181 173 148 139 185 177 174 93 168 97 103 136 100 126 141 101 163 114 181 176 135 196 110 109 58 136 130 182 168 135 85 126 105 92 74 170 112 78 156 155 119 207 127 179 195 151 152 132 167 172 86 140 163 126 213 150 133 186 172 196 168 85 169 93 83 130 84 90 167 165 102 127 180 112 200 187 145 86 89 183 142 188 168 192 146 112 186 148 158 151 130 140 96 162 139 134 128 143 152 87 158 183 158 172 179 118 158 99 130 108 144 75 151 105 190 117 137 154 110 170 176 182 98 129 186 82 175 104 187 97 183 185 159 68 75 45 57 154 96 177 100 127 114 186 176 134 71 161 175 128 184 160 98 69 76 174 164 174 166 153 145 152 63 83 82 80 150 135 121 98 128 83 144 50 150 154 198 160 111 131 163 75 80 158 179 94 179 193 170 157 158 83 168 145 188 128 140 83 129 170 136 100 92 83 180 159 78 175 74 161 178 120 199 126 85 116 106 147 115 133 100 157 157 93 146 108 98 112 109 162 159 145 85
106 114 128 137 150 150 165 163 170 159 141 138 132 144 171 176 178 172 176 173 170 180 176 184 187 180 172 173 166 172 173 184 193 193 197 190 183 180 177 186 184 196 212 206 181 181 161 187 188 154 166 149 167 184 140 169 199 179 141 141 123 110 95 126 127 184 181 178 120 140 131 118 146 77 74 136 118 158 94 136 44 109 110 27 35 85 55 64 76 132 92 83 89 133 80 120 80 140 96 127 85 107 96 89 139 110 110 128 107 145 94 138 97 146 109 91 159 128 107 186 126 164 187 124 160 87 90 176 85 136 183 78 154 77 166 140 181 81 181 159 195 202 109 98 92 92 95 170 182 207 105 174 171 127 165 175 176 166 134 135 90 168 137 82 76 107 193 195 110 114 148 118 145 158 108 100 139 125 92 163 99 71 129 134 156 106 127 148 126 146 116 68 61 85 97 106 203 204 106 130 175 115 52 95 137 145 126 101 110 91 98 126 119 104 141 211 100 139 88 154 179 182 109 121 108 169 146 125 151 93 102 98 93 145 203 113 101 171 84 161 102 144 156 111 93 147 207 135 122 157 176 134 187 146 184 146 145 175 117 164 164 118 114 76 136 192 109 161 157 196 158 187 176 159 165 188 106 162 172 147 193 225 158 171 168 167 88 89 153 203 142 197 103 92 98 97 194 97 139 113 82 93 138 161 75 165 104 189 88 80 146 130 99 107 99 95 90 116 102 124 211 113 155 191 158 133 73 73 75 180 167 159 173 187 218 140 176 139 124 118 96 69 110 120 144 105 167 166 103 155 108 134 151 203 172 112 147 168 143 189 104 157 113 123 157 135 146 69 140 97 160 96 124 129 66 137 97 103 168 118 96 147 101 146 136 83 138 151 130 155 170 149 113 187 94 186 105 173 163 180 98 100 187 86 181 180 84 106 106 118 177 72 55 146 77 140 143 139 103 97 178 158 107 85 78 93 90 107 85 94 167 140 165 125 99 116 168 154 152 152 159 72 153 74 93 168 169 183 112 186 120 106 77 77 96 98 112 140 195 189 165 163 125 146 80 171 143 84 150 81 140 107 210 209 103 89 137 132 132 137 77 91 162 180 173 69 87 172 151 202 189 134 101 184 175 135 95 81 78 72 86 123 56 101 113 173 122 119 180 71 72 128
108 116 127 138 146 150 159 170 176 170 166 155 141 143 168 175 184 171 173 183 176 165 164 176 174 180 183 170 155 155 159 161 176 189 189 189 190 181 179 175 194 197 215 203 203 184 171 187 165 176 182 178 181 177 145 159 176 160 156 92 116 52 114 127 111 133 116 152 148 133 112 95 136 114 93 164 184 168 161 106 101 33 55 43 74 27 56 58 75 75 107 62 115 74 76 76 73 95 126 94 119 131 91 125 129 131 133 121 134 86 121 69 123 100 119 98 81 80 138 97 115 132 98 81 90 108 79 76 178 157 90 156 77 72 68 95 128 164 154 63 176 127 194 118 175 94 191 99 189 200 174 97 116 163 74 151 124 86 140 177 78 157 90 69 92 152 192 125 163 160 113 64 70 159 99 105 184 123 155 166 151 177 173 80 156 172 181 145 86 59 143 159 145 87 90 145 152 215 139 165 76 141 115 62 141 58 48 59 117 67 151 87 151 105 123 152 134 192 129 169 177 147 179 120 142 75 168 164 100 82 152 131 169 155 180 154 125 157 186 151 131 107 141 148 175 107 168 207 186 88 172 182 186 155 182 160 164 182 97 85 168 44 125 81 128 138 127 103 189 131 200 187 100 100 112 171 117 152 93 168 164 203 172 123 116 168 100 143 101 195 136 181 163 100 117 188 96 92 169 93 78 158 129 114 145 73 181 195 109 151 120 181 171 152 92 189 101 108 98 205 134 114 162 180 90 154 52 144 57 170 163 88 127 168 203 158 148 238 121 95 74 85 101 49 70 150 184 145 84 84 174 185 211 219 171 191 93 163 134 188 172 188 209 137 213 163 75 107 105 151 137 150 162 164 115 74 75 144 81 101 101 84 145 173 129 99 154 157 116 81 165 208 152 202 186 103 194 201 121 176 177 195 191 85 162 117 164 109 80 175 151 153 97 150 137 51 79 149 141 75 162 170 155 96 152 187 176 186 90 184 200 203 99 110 192 164 185 96 73 102 147 113 165 145 146 83 167 162 69 161 92 107 102 112 184 102 129 178 198 188 92 140 105 163 166 70 174 88 145 89 113 200 122 138 141 71 50 144 66 78 173 81 90 82 173 64 128 99 112 200 117 149 113 152 86 96 93 132 79 57 143 40 146 116 132 192 95 93 122 61 143 124
124 129 137 140 141 150 156 165 163 167 169 166 158 153 142 149 164 168 190 183 156 145 151 165 180 174 183 165 154 140 149 158 174 186 200 198 189 173 167 180 190 218 232 230 194 188 195 197 165 190 188 187 179 156 130 147 144 148 140 144 125 81 155 94 191 181 194 106 169 99 99 140 68 93 64 110 179 128 99 90 116 49 50 59 79 71 65 67 82 88 75 67 62 88 77 89 96 122 102 127 91 107 108 87 96 89 99 95 156 93 74 74 108 96 102 121 92 145 159 72 162 166 80 119 166 157 64 68 174 96 183 99 82 180 175 123 67 100 102 73 79 81 81 180 82 106 173 176 201 193 189 100 135 91 135 184 174 159 174 161 142 142 82 145 108 108 188 202 124 157 126 111 98 165 186 131 121 145 102 164 170 108 104 125 105 179 101 84 141 104 98 134 160 92 123 209 129 177 110 142 82 67 91 73 107 95 124 117 75 167 133 136 77 175 148 114 185 187 136 196 198 94 178 169 116 86 132 90 175 77 71 168 174 155 205 112 207 114 182 132 153 188 154 178 152 137 206 183 195 112 113 117 131 178 186 111 162 84 149 94 158 130 44 118 99 65 162 123 116 132 171 115 117 142 196 126 145 131 96 142 152 145 214 116 192 187 150 171 87 162 110 101 127 134 91 197 129 101 101 82 90 55 62 151 101 113 108 123 112 78 183 101 177 202 102 92 169 88 150 199 171 166 99 177 100 68 57 70 137 127 163 147 129 93 134 146 154 230 162 106 73 159 74 52 60 179 98 107 113 170 104 108 212 208 187 212 136 176 173 88 158 138 117 122 167 99 163 103 140 68 146 157 129 80 93 91 178 179 115 117 98 171 163 184 193 113 255 142 102 112 167 108 213 207 184 196 122 219 208 157 100 190 158 140 157 134 168 135 100 160 187 131 169 151 69 149 152 65 159 165 169 172 108 162 187 111 105 115 192 179 114 213 204 103 177 180 87 145 168 72 104 148 147 97 111 63 108 132 79 62 140 97 154 64 138 196 105 188 121 203 122 120 182 174 73 114 93 116 164 146 176 206 137 92 142 73 139 42 148 73 165 81 168 185 111 163 55 100 135 107 169 156 145 126 163 145 92 139 155 151 123 39 45 168 132 102 178 65 146 157 68 110
139 140 139 134 139 137 145 145 147 152 164 168 148 142 129 143 152 166 168 176 163 135 148 165 180 177 188 165 156 149 149 163 179 194 206 208 197 178 161 176 192 211 225 221 190 206 198 205 196 184 188 179 167 157 167 112 169 114 159 129 77 149 169 114 180 144 172 165 144 148 79 109 86 91 120 87 99 100 154 124 55 61 62 119 102 63 73 138 96 142 103 112 82 84 82 94 89 118 110 106 88 83 135 96 107 123 119 95 122 118 86 132 73 100 146 109 92 63 131 150 131 70 100 71 102 134 76 151 127 185 95 101 124 88 145 90 145 107 99 160 77 154 142 179 168 148 116 159 180 156 174 149 152 163 82 173 121 139 138 116 165 102 99 181 154 193 190 169 129 105 54 122 82 113 165 138 159 154 166 177 185 91 167 119 124 175 122 146 83 136 159 191 188 124 137 190 168 155 90 145 152 161 94 60 33 113 85 149 176 148 88 141 165 105 195 100 127 185 192 97 144 103 98 126 64 150 129 67 74 160 161 138 170 117 170 207 134 187 94 141 180 154 134 148 113 87 202 191 146 164 111 99 150 178 173 101 72 107 167 149 139 61 103 106 58 56 82 149 194 173 119 196 163 127 120 134 120 139 176 140 116 183 197 180 128 152 81 156 94 160 186 169 83 137 89 90 194 133 93 61 102 143 59 91 60 94 78 77 158 149 95 95 125 169 172 169 160 100 115 171 99 108 139 99 133 67 56 86 142 140 44 97 138 134 208 227 186 134 120 100 71 122 69 159 70 182 195 196 182 97 162 124 139 124 123 217 126 191 177 73 161 129 106 192 168 197 84 86 79 141 103 140 156 162 91 89 182 171 134 90 155 158 177 85 99 194 97 60 50 60 171 200 193 157 106 180 175 218 190 155 129 142 180 115 143 77 159 149 164 139 179 194 99 126 60 105 67 139 67 86 98 189 94 134 101 155 171 111 115 211 214 106 105 130 190 113 102 174 82 138 100 106 133 155 80 130 145 152 49 149 41 60 135 152 79 189 181 137 108 133 216 202 107 170 80 47 113 75 143 128 167 166 164 78 161 77 96 99 117 78 123 115 76 83 184 85 131 99 103 100 129 95 175 97 81 80 79 83 140 130 78 47 119 78 114 83 84 112 41 146 175 146
150 145 135 128 129 133 142 255 133 147 149 148 144 128 128 127 149 159 158 169 164 142 152 149 174 191 190 176 160 159 169 178 188 202 212 207 196 180 169 164 165 192 192 202 183 199 198 206 193 190 194 175 172 131 127 138 165 175 126 146 97 135 144 177 184 204 179 98 129 99 143 171 133 106 120 160 119 142 153 139 64 80 130 105 130 106 88 108 95 97 99 93 137 129 90 111 88 148 101 129 114 96 134 126 95 84 77 116 114 88 64 116 76 119 185 121 101 69 138 88 155 154 95 82 85 170 169 165 98 166 154 182 117 196 195 86 131 171 75 174 77 80 83 159 136 157 58 174 194 109 212 178 91 178 88 181 73 167 132 109 95 175 133 152 141 200 180 159 84 128 85 124 133 165 114 99 104 79 161 135 107 91 89 182 165 169 181 153 191 98 100 153 82 122 185 175 115 98 183 174 140 156 66 126 116 97 85 255 98 206 169 180 133 125 101 100 71 76 94 125 196 195 101 81 68 59 120 115 121 60 158 109 167 77 187 95 105 83 169 85 108 171 172 140 92 86 100 197 189 117 164 166 182 142 83 84 152 97 175 135 56 141 120 58 93 156 155 108 181 131 160 102 171 145 159 123 121 177 199 173 215 188 191 166 140 183 136 158 101 80 105 75 69 63 70 70 161 103 83 142 80 119 101 56 86 79 72 107 76 159 78 92 198 139 148 97 169 190 116 130 118 112 133 77 141 166 58 57 57 61 139 96 71 75 129 126 217 223 130 107 90 73 130 74 179 94 192 121 184 98 104 153 89 183 108 121 126 202 183 70 52 45 146 170 137 119 99 149 84 148 135 159 99 120 173 177 188 130 130 80 79 165 78 123 113 122 164 168 151 132 146 173 144 162 152 130 108 198 192 95 147 105 170 147 113 130 169 105 193 121 141 162 164 75 96 160 87 68 174 139 106 106 136 89 134 113 191 192 169 121 166 131 105 183 117 116 112 88 89 122 82 126 59 85 126 67 54 154 61 120 123 106 108 50 60 166 189 134 200 141 195 188 122 165 137 130 106 128 95 133 89 138 177 132 157 96 133 150 137 172 114 89 162 117 84 158 82 90 136 146 131 104 92 141 83 122 156 91 83 78 128 58 135 67 131 92 159 42 39 57 97 181
148 140 128 120 123 132 132 137 137 136 142 149 140 119 114 129 135 138 159 156 156 160 158 162 179 187 189 172 174 166 178 183 186 190 198 198 184 171 171 168 172 174 190 185 178 164 189 197 197 181 194 156 175 127 133 146 166 171 183 164 160 159 149 161 184 147 185 110 149 85 119 184 161 148 177 105 126 126 109 125 68 95 76 104 105 117 153 106 140 117 104 102 156 112 93 255 102 87 87 108 96 81 94 98 100 99 80 144 107 103 84 57 116 80 106 118 88 71 58 64 85 99 92 107 135 84 74 167 152 74 78 87 176 101 94 120 98 111 189 138 185 189 132 189 94 92 96 178 165 197 209 196 200 178 165 182 152 150 75 113 116 166 122 109 207 198 113 70 94 81 89 135 120 134 118 122 141 132 116 114 89 117 120 132 101 160 89 92 177 173 103 178 104 164 147 108 154 104 95 112 103 255 143 109 120 30 106 121 150 119 156 187 148 179 174 135 105 171 165 96 134 87 170 67 45 128 72 134 53 58 86 67 69 173 172 159 130 107 108 127 81 81 84 113 158 173 102 179 158 133 131 123 167 122 138 135 124 174 163 181 79 90 119 119 142 140 106 163 196 200 202 88 166 162 192 120 167 193 185 91 188 214 196 167 150 105 94 131 106 187 85 105 109 50 119 60 88 89 79 88 83 168 61 114 81 78 84 139 81 159 105 109 117 136 124 95 132 171 170 119 115 93 121 72 76 112 76 106 73 148 87 75 150 119 115 113 136 111 149 159 168 142 83 129 130 153 111 96 146 115 104 119 78 162 165 123 110 114 204 177 150 79 68 135 187 145 102 185 133 93 82 166 57 165 147 98 125 134 113 164 143 105 163 153 165 89 174 136 157 81 79 149 155 161 130 151 176 179 85 112 158 67 68 145 72 146 64 91 215 185 210 201 98 158 130 122 92 102 98 81 150 166 100 153 159 164 122 162 94 187 199 143 117 174 106 127 199 125 173 111 106 152 146 144 154 158 151 87 127 73 148 44 125 82 90 130 183 83 176 157 157 138 174 119 60 136 124 176 140 94 124 143 140 122 158 156 82 129 173 101 115 117 143 133 96 86 103 105 73 92 112 180 191 199 164 157 188 148 79 156 104 155 140 98 154 168 67 132 43 90 172 141
138 131 122 117 127 135 141 143 146 142 145 139 144 125 122 137 138 150 154 160 170 168 171 161 160 172 177 175 170 181 179 179 179 181 185 187 179 181 179 167 159 177 170 184 156 158 177 182 153 167 164 174 176 165 158 150 134 144 153 140 107 162 163 160 174 108 165 155 106 167 173 166 198 112 174 143 120 162 84 106 82 141 83 88 96 98 135 102 119 102 105 132 164 124 97 94 95 98 78 101 84 93 100 130 112 86 115 82 143 89 53 55 79 158 105 163 94 89 72 73 76 110 104 195 103 115 163 148 152 60 64 159 174 111 110 110 119 102 202 203 194 94 114 191 101 158 93 125 173 208 120 215 211 197 160 141 166 70 94 185 179 180 181 114 163 100 136 95 138 106 121 73 179 178 189 152 139 138 68 163 117 148 118 105 125 167 158 182 165 208 119 86 71 73 161 106 91 152 99 104 201 181 123 75 43 121 110 83 125 170 126 107 131 72 90 164 103 168 170 155 138 174 147 61 110 40 137 100 135 109 163 172 99 113 92 81 175 76 159 138 152 164 166 155 84 83 181 180 154 155 173 184 150 66 54 100 99 111 105 180 100 162 70 162 130 71 105 157 110 180 107 86 74 162 177 127 143 113 62 139 92 109 199 195 175 171 193 98 97 126 160 84 108 143 104 146 82 81 107 102 98 173 120 73 63 164 119 202 90 137 58 99 100 104 76 80 168 174 198 117 164 103 96 145 113 93 94 92 161 87 121 83 161 160 100 105 169 92 179 119 172 160 186 95 185 175 89 137 86 116 146 35 122 132 148 199 114 189 172 108 171 131 113 138 172 97 145 118 133 183 148 87 109 131 130 160 151 75 71 68 57 123 145 154 177 178 177 170 74 95 76 66 140 153 96 146 169 131 128 148 136 163 82 114 72 125 81 182 176 142 186 192 211 194 104 142 134 177 82 173 149 192 166 132 70 75 145 81 90 165 107 187 175 96 198 98 193 92 157 90 145 75 174 184 93 78 152 106 150 172 88 138 60 140 172 131 157 146 93 171 157 91 78 87 74 111 104 120 148 176 179 102 103 135 82 63 73 64 70 88 109 176 123 183 112 132 112 123 78 141 172 181 98 143 129 130 181 166 147 164 119 168 72 173 175 96 148 50 142 63 134 116
128 125 121 123 124 138 145 147 154 149 151 143 140 127 134 135 157 154 172 180 189 187 169 157 165 162 166 178 177 182 173 170 168 170 169 175 176 175 186 187 182 178 187 182 146 169 162 136 163 121 153 152 146 156 163 130 170 183 144 182 167 128 99 122 149 122 116 86 161 137 157 117 132 164 162 154 154 104 101 83 71 72 125 154 100 137 114 118 172 112 147 108 158 104 102 107 133 94 80 79 125 255 115 128 109 127 126 105 79 62 58 51 64 166 154 130 89 82 105 89 106 99 148 145 207 174 143 91 156 61 57 75 89 189 139 191 135 117 208 103 184 93 177 191 187 166 158 141 187 164 146 219 210 217 187 134 159 172 132 162 208 167 153 193 187 143 160 76 129 141 159 90 105 189 105 198 112 142 142 85 116 151 158 97 84 146 183 153 165 140 196 120 90 95 179 166 87 122 201 217 145 157 104 133 109 145 152 153 157 133 183 94 178 159 119 63 176 180 194 161 82 127 74 162 166 125 146 53 140 78 150 78 154 103 150 176 75 162 129 83 145 122 169 169 162 175 172 86 120 173 176 123 83 112 145 153 118 92 112 90 164 147 65 162 165 108 98 81 182 74 147 136 113 115 166 94 142 47 56 159 127 170 114 192 126 131 136 177 184 111 108 166 80 136 56 73 112 135 112 136 204 117 80 64 135 152 113 126 109 170 140 152 178 94 100 77 79 192 126 136 123 103 134 105 195 122 112 123 171 189 106 194 168 97 106 184 179 184 158 85 72 163 158 168 110 93 122 132 165 64 107 34 51 67 158 124 95 111 205 202 94 168 143 139 190 124 128 164 123 121 173 134 170 158 80 109 82 108 155 70 149 86 114 84 79 97 138 173 151 157 57 167 179 183 126 180 154 71 67 123 117 78 121 39 82 89 59 102 111 199 227 185 147 151 133 158 191 185 81 173 173 168 97 150 77 30 123 121 166 101 212 171 142 186 105 127 175 74 124 54 62 101 140 161 107 143 148 139 89 94 86 179 78 151 132 181 160 172 94 158 103 118 169 158 150 125 151 90 162 126 191 188 187 198 120 105 143 148 65 84 95 161 186 139 104 91 166 66 89 189 144 166 96 135 183 103 145 72 111 79 161 155 186 94 87 138 56 63 136 69 133 154
119 121 122 125 130 140 149 159 157 159 149 136 133 137 137 143 163 153 179 190 191 191 180 169 156 161 173 172 189 182 173 165 162 167 163 170 176 180 193 198 201 191 177 159 154 155 123 140 146 140 141 141 139 161 120 176 127 179 137 101 147 102 129 168 148 145 171 122 147 255 170 114 92 126 173 165 161 153 98 107 128 140 78 169 113 116 129 197 135 126 139 122 113 149 164 169 137 131 88 101 110 111 81 116 111 118 96 72 81 56 119 56 75 115 130 119 119 172 155 169 175 89 165 101 137 194 175 91 164 153 90 66 183 170 180 174 188 103 101 94 184 93 175 183 192 187 83 143 172 192 161 178 216 234 162 151 121 148 207 180 158 122 137 155 120 140 149 129 102 160 160 189 163 167 169 183 123 145 182 93 167 73 152 152 83 178 193 198 136 200 154 115 179 97 192 87 161 144 158 212 113 165 97 105 98 140 164 172 154 97 108 117 160 171 103 147 126 141 143 95 159 127 168 162 100 87 99 150 74 149 76 68 109 196 161 189 74 113 125 38 130 75 85 147 168 171 169 76 142 132 76 106 139 156 148 95 71 147 100 79 76 81 161 69 85 164 103 99 137 95 149 79 50 96 144 105 112 127 122 66 135 147 131 114 179 108 186 107 142 188 78 133 69 50 86 158 160 188 211 169 121 107 68 68 94 123 119 115 131 83 159 111 139 121 82 126 166 182 158 138 142 100 91 94 97 187 192 165 106 192 128 201 189 100 154 82 85 168 131 77 73 80 85 73 165 166 137 67 169 131 55 122 58 140 92 75 147 137 182 188 190 180 173 188 113 180 154 140 160 133 173 183 119 77 145 108 96 102 79 109 97 173 160 169 97 75 128 180 140 161 82 142 85 195 194 89 137 167 86 150 58 71 112 105 85 77 110 165 118 115 138 121 215 184 117 108 99 114 167 66 83 113 94 150 99 28 39 147 116 180 121 194 164 201 159 105 163 54 137 81 143 169 145 188 109 156 127 115 214 114 113 199 131 92 127 111 116 85 92 186 124 175 111 72 119 154 170 173 144 96 162 165 114 198 156 115 77 160 94 89 104 121 172 99 166 115 122 165 159 173 121 161 94 113 171 148 92 158 148 105 101 112 97 150 133 68 55 71 152 75 108 118
124 129 134 133 134 147 159 172 174 164 154 139 134 130 150 156 162 157 175 183 184 194 187 169 173 174 186 189 188 187 181 170 174 178 175 176 179 187 198 204 207 199 182 161 152 131 146 144 126 88 91 135 152 158 108 123 169 119 96 140 146 167 159 207 212 126 116 151 103 176 160 143 80 103 187 165 121 189 144 87 72 100 77 108 126 113 148 130 191 136 129 127 124 132 124 185 130 104 92 87 106 118 139 133 157 110 97 86 56 62 106 106 92 141 118 117 101 93 92 92 119 87 178 98 105 111 117 101 163 155 68 116 79 185 94 93 182 101 147 176 179 184 91 123 101 89 152 150 70 180 222 239 251 250 204 136 143 198 114 156 111 197 160 168 167 144 146 167 175 149 90 184 94 104 189 184 191 132 191 126 126 145 132 52 150 164 146 104 193 193 190 158 183 141 195 184 72 105 167 141 112 85 83 153 86 78 159 139 104 92 105 174 167 168 111 161 75 105 144 165 175 156 133 93 130 186 119 131 74 103 255 138 84 190 201 139 185 165 149 92 147 155 165 83 133 119 161 151 73 160 75 87 130 83 119 159 107 74 80 149 145 88 126 97 123 75 183 144 160 123 104 92 82 50 121 144 117 116 71 102 176 112 196 112 96 192 185 161 108 172 102 159 63 151 58 137 168 188 104 185 111 87 91 158 160 113 182 98 182 134 109 205 151 109 137 139 83 155 91 162 189 95 89 88 255 116 83 165 180 114 97 170 134 105 177 116 86 122 76 151 84 166 172 88 101 67 131 148 90 155 105 144 186 151 124 171 113 155 119 188 139 152 148 144 150 95 80 153 157 79 186 187 131 167 102 135 115 88 111 84 108 74 124 101 106 110 128 183 104 113 158 131 182 105 163 141 176 133 152 73 57 86 72 53 88 82 73 86 103 155 136 154 179 205 124 171 101 159 70 88 66 121 112 72 73 131 84 51 111 110 204 152 135 161 183 132 139 86 117 128 78 110 187 145 167 128 229 216 232 151 126 178 114 171 89 162 138 85 111 114 117 166 100 176 168 154 70 80 132 158 101 105 158 153 189 90 131 150 169 123 136 113 55 102 97 138 191 184 118 121 158 133 97 119 73 167 152 140 146 169 172 194 177 100 96 162 88 62 152 138 192 143
130 137 142 138 142 146 168 177 191 175 160 136 133 135 144 154 160 167 170 187 194 205 191 183 170 193 203 209 203 196 179 189 192 190 190 184 187 190 199 204 190 193 164 168 161 156 147 123 130 127 118 126 146 156 155 148 144 125 126 126 94 162 185 203 184 189 119 107 116 89 84 44 60 102 82 186 159 100 89 76 154 73 73 88 84 96 143 126 147 140 129 130 112 139 113 155 129 119 86 89 109 110 115 150 118 142 109 48 65 53 72 123 159 117 125 137 101 155 129 70 71 87 171 101 174 103 110 102 94 83 144 71 155 94 150 168 162 82 171 160 164 76 175 185 141 100 102 164 74 136 130 140 150 236 229 197 117 186 178 174 205 170 124 129 173 158 133 122 114 141 180 131 128 76 165 135 192 112 127 95 156 48 86 78 132 126 152 130 174 189 141 136 193 156 102 124 80 62 53 80 158 91 99 89 163 91 189 97 122 101 94 179 189 122 71 146 78 137 175 113 159 104 139 183 212 111 132 171 130 143 160 174 181 191 197 197 126 70 154 62 151 160 166 131 69 157 92 132 148 120 166 62 155 57 109 107 163 176 165 120 128 94 98 137 118 100 103 99 106 130 55 147 106 141 95 112 48 138 73 84 106 114 101 157 104 144 94 173 73 77 78 88 68 101 120 84 97 109 91 88 178 145 69 60 65 71 184 99 108 133 187 118 119 151 189 138 84 96 166 196 145 103 181 91 83 155 114 147 162 173 107 193 125 140 175 167 147 60 119 76 77 166 165 70 172 145 176 111 93 131 179 202 185 169 100 99 89 110 190 83 98 145 188 186 191 162 179 151 86 118 194 176 198 139 109 184 110 113 110 97 88 78 93 167 118 106 189 192 182 201 113 181 86 95 163 108 127 76 163 78 108 145 72 138 66 77 77 87 193 98 179 180 183 88 96 188 169 143 121 153 61 98 138 158 106 161 128 120 77 90 175 199 122 131 73 101 126 128 50 117 73 133 120 174 198 158 148 236 146 141 201 128 174 117 158 107 77 155 92 75 87 124 175 178 141 70 94 157 91 100 115 133 202 113 201 185 175 177 132 98 89 64 89 63 141 92 114 154 219 138 135 182 199 82 166 87 78 92 88 93 88 171 74 138 114 71 80 112 182 98 156 112
143 146 147 146 143 148 167 187 203 190 173 145 125 114 134 132 148 152 188 196 201 208 186 196 192 190 208 211 203 184 190 196 207 207 199 197 190 191 192 181 195 187 176 183 183 156 164 153 128 137 125 154 164 135 127 114 134 139 128 91 163 155 168 138 176 152 140 127 118 144 110 50 85 64 106 147 149 123 131 104 142 75 70 64 68 134 104 156 133 127 131 115 132 113 116 99 85 97 78 119 120 123 124 165 127 111 90 55 92 68 114 119 192 167 121 196 114 109 127 142 150 162 113 180 177 90 107 98 189 84 80 168 74 173 165 164 181 178 72 134 69 121 167 88 187 104 172 162 158 202 232 208 221 224 117 184 120 187 209 155 142 103 177 160 119 158 134 122 120 194 101 142 66 80 81 179 113 130 174 170 108 116 113 123 118 129 82 169 184 151 137 98 119 117 144 148 174 255 120 31 46 112 84 145 179 120 121 185 87 99 101 184 154 91 80 179 146 174 89 163 164 99 172 190 115 209 187 136 134 104 165 162 157 182 131 181 179 89 154 128 160 101 102 170 77 109 127 100 168 145 168 158 52 159 157 103 193 153 170 107 170 130 72 146 103 122 137 112 153 107 113 76 103 163 103 152 160 161 102 133 98 129 175 198 208 156 107 167 148 80 158 173 179 83 58 72 66 177 76 68 126 127 128 65 131 125 116 108 154 143 122 211 117 135 125 118 71 89 180 152 198 209 157 103 159 77 160 161 80 92 99 128 97 97 99 166 151 159 105 120 169 80 139 159 73 167 186 181 91 107 180 122 143 108 186 129 169 153 194 131 166 104 186 147 132 133 102 80 163 139 199 201 208 115 168 123 165 135 202 202 136 181 80 158 97 187 103 119 212 135 185 110 174 72 159 161 149 134 110 103 150 65 126 144 137 70 164 80 126 190 168 72 104 75 175 101 143 137 82 129 56 130 63 147 76 177 151 92 93 128 179 107 184 82 150 84 40 97 62 63 180 121 186 89 97 213 195 136 220 174 145 224 163 148 112 106 167 163 69 52 77 117 81 174 63 105 156 167 96 138 199 182 198 192 190 137 126 109 149 125 66 73 48 85 84 182 213 142 174 234 199 112 132 135 135 170 182 95 192 178 167 137 96 100 103 69 91 129 121 196 190 79
148 146 144 138 141 149 164 187 204 197 177 152 129 125 133 133 148 166 190 200 221 205 199 202 189 191 193 201 191 181 180 194 207 205 199 194 186 188 186 179 177 191 194 196 183 181 174 169 151 109 133 143 172 132 162 138 129 144 157 156 172 190 126 198 150 169 135 177 172 114 72 144 127 79 145 81 138 91 75 131 139 73 64 105 65 80 136 112 118 122 118 102 108 92 84 78 91 101 74 96 127 117 137 142 97 73 62 56 84 79 105 146 106 167 178 102 121 86 56 67 40 129 85 255 101 183 182 105 187 126 81 92 114 169 83 138 85 87 116 141 179 178 179 78 108 183 117 145 108 122 142 222 151 165 186 214 198 184 196 109 204 137 111 154 129 113 120 165 175 140 147 169 158 134 182 197 156 127 101 68 74 76 56 137 51 83 97 79 94 100 203 106 126 120 171 102 167 138 131 108 58 137 155 98 130 85 163 156 104 153 122 197 133 185 165 141 163 103 172 144 114 119 88 84 176 158 180 166 167 146 180 184 183 103 143 162 73 134 84 149 169 181 185 122 56 145 146 165 131 184 163 163 149 167 173 192 188 187 169 84 58 62 107 69 179 145 103 148 168 122 173 92 91 104 122 138 94 130 183 114 108 137 103 191 163 104 156 137 135 90 114 159 95 91 149 114 85 94 173 62 96 83 174 171 82 68 84 189 103 103 138 98 203 106 100 113 153 120 189 113 172 121 165 117 105 117 169 163 176 109 172 116 115 74 156 85 151 68 91 176 154 161 123 67 66 90 128 194 97 174 105 116 115 175 195 110 132 152 180 85 75 64 152 150 185 146 148 86 120 188 135 144 206 193 136 99 112 189 168 140 113 97 82 86 175 102 153 211 198 204 87 164 90 78 75 166 157 155 90 176 79 71 151 90 154 157 145 170 166 153 131 110 124 91 157 76 139 133 104 131 51 115 76 95 148 78 129 104 78 120 185 196 123 177 77 140 78 35 142 119 145 170 188 148 120 105 182 196 125 131 217 219 207 181 255 88 176 152 141 127 59 84 85 156 75 113 158 173 182 210 210 164 194 92 103 177 178 162 114 116 152 74 95 162 113 175 210 168 213 129 211 145 164 89 94 75 147 114 206 141 74 155 137 145 62 90 90 153 108 108 140 100
150 140 133 131 138 147 169 181 205 206 176 146 137 121 137 151 168 182 200 207 212 213 208 190 200 200 199 191 179 167 178 183 193 191 193 192 192 185 182 181 170 191 198 205 208 174 194 152 166 133 150 121 138 173 123 118 123 134 139 156 141 141 151 196 149 131 139 163 100 91 66 130 150 136 185 108 97 105 73 64 71 98 68 114 97 112 134 135 117 169 115 137 96 124 97 96 64 100 80 109 105 149 157 101 121 107 103 78 124 96 93 145 96 126 100 121 101 75 59 125 68 146 102 130 103 153 205 159 163 133 191 87 184 152 176 90 106 111 179 138 113 84 84 181 166 173 175 102 215 140 136 204 194 101 205 204 205 194 137 132 104 181 148 123 163 124 176 166 193 165 191 145 107 151 194 115 124 139 122 34 124 135 55 150 62 169 106 182 155 183 205 211 128 170 213 189 173 48 117 90 95 77 146 167 115 106 154 157 185 103 115 166 141 183 86 141 127 187 84 140 124 164 168 73 174 179 167 119 103 86 153 155 169 178 176 174 88 87 87 79 87 127 96 77 75 46 128 82 187 176 108 151 91 78 144 104 113 108 103 147 136 53 149 80 184 190 114 132 87 176 80 165 161 152 112 176 157 184 186 171 158 98 78 101 88 132 107 199 103 172 158 208 161 110 190 209 144 104 112 73 108 72 175 108 86 88 89 189 204 174 181 87 172 163 129 79 84 88 174 112 142 166 239 223 183 139 134 102 155 172 165 62 148 56 93 49 121 123 112 199 197 191 112 152 65 75 127 133 163 202 102 141 214 115 165 105 103 121 90 167 159 102 133 207 214 179 84 164 119 116 147 132 192 85 140 122 119 155 113 177 165 190 178 162 77 141 171 113 124 182 145 162 169 116 93 186 85 152 77 183 121 70 58 149 77 68 57 64 63 162 77 87 97 104 84 99 66 112 41 136 56 76 140 145 100 125 141 120 89 157 103 109 112 174 60 140 255 145 93 81 95 255 94 168 98 105 112 130 108 214 153 186 164 141 189 130 85 129 110 57 84 71 74 172 166 63 54 116 180 105 202 184 192 191 164 109 120 104 95 87 93 73 136 83 150 183 97 124 199 196 189 149 95 124 128 179 138 152 179 106 96 72 43 43 43 160 88 192 174 170 100 96
255 137 127 125 135 147 171 184 194 194 185 168 142 152 159 176 173 186 187 206 200 188 183 182 189 196 186 193 191 181 170 176 178 178 176 176 189 192 182 169 178 183 194 182 179 202 187 183 188 178 158 138 158 159 132 118 126 129 144 147 188 120 192 123 141 110 149 117 138 107 83 172 188 182 137 133 103 65 51 135 68 69 66 66 97 82 123 127 99 133 89 82 72 82 67 71 68 84 75 122 102 117 105 108 82 128 113 106 76 113 120 92 109 77 154 113 102 70 72 66 66 157 87 100 188 156 184 146 144 185 107 130 191 182 111 79 89 183 177 180 128 176 182 180 189 93 180 134 141 180 168 153 84 143 101 197 135 140 172 147 102 99 147 97 145 98 142 171 132 197 110 120 180 151 116 123 143 86 96 55 32 132 102 65 134 114 134 183 99 99 163 122 204 158 155 184 70 52 148 79 171 159 86 153 142 181 83 165 93 190 99 127 117 70 119 186 108 178 174 162 141 98 136 162 179 189 100 191 169 109 191 144 100 173 170 125 173 178 182 151 192 154 171 165 104 66 59 81 121 113 190 148 117 90 185 188 111 139 100 37 133 50 95 75 75 143 135 107 157 148 134 135 159 208 143 126 204 149 90 139 152 98 66 72 149 91 116 168 168 118 187 145 102 211 191 183 177 209 121 108 80 127 107 109 103 90 198 103 136 140 97 100 141 102 99 188 82 173 82 122 137 147 178 155 236 227 174 156 188 155 70 134 62 32 54 46 76 101 125 209 217 203 195 175 143 153 175 186 176 118 115 164 148 183 114 201 108 179 90 78 151 81 188 212 126 180 187 143 168 168 138 200 192 106 76 92 115 108 103 145 134 179 81 135 149 78 121 164 169 150 79 161 112 160 178 152 93 127 175 160 151 77 77 45 113 70 140 95 52 58 123 114 117 96 159 60 159 128 158 149 134 171 73 138 83 83 63 89 98 96 108 108 115 118 149 54 135 90 60 72 144 87 98 96 121 197 185 140 96 173 208 176 107 96 95 162 168 169 159 157 77 83 100 119 141 75 119 125 75 91 143 95 154 175 107 198 200 178 192 178 152 109 101 88 101 111 101 89 88 95 183 173 192 97 119 174 130 178 158 167 95 105 51 44 106 120 156 187 165 115 118 113
142 255 123 124 133 144 161 182 184 188 181 170 165 162 182 190 190 191 194 190 179 181 184 188 182 199 207 212 198 183 177 165 167 163 169 178 195 198 187 177 172 176 186 185 189 190 172 184 170 189 171 172 139 167 155 166 161 151 143 146 141 119 157 98 156 142 75 84 70 141 94 154 137 152 97 119 72 61 116 82 59 136 75 69 93 130 89 124 112 125 72 119 110 82 132 84 128 87 101 86 84 141 96 90 93 114 137 145 83 95 104 82 99 137 156 108 146 69 81 61 66 80 156 99 183 116 165 219 207 110 138 105 105 127 94 116 99 64 120 255 92 169 171 183 95 183 181 189 197 116 166 152 98 172 101 188 185 157 160 142 133 142 68 132 164 105 126 185 203 143 124 182 145 171 166 182 179 105 92 135 58 83 112 142 132 151 163 127 189 197 121 165 168 105 105 120 122 149 58 72 127 177 80 70 108 181 193 177 156 120 199 110 84 141 99 127 145 201 110 169 155 116 85 78 90 108 96 153 101 158 198 99 132 153 115 131 117 89 162 137 188 105 167 151 87 49 128 169 193 194 188 161 68 111 176 146 76 128 124 75 100 136 139 86 155 87 123 80 112 92 111 187 118 166 183 113 180 89 180 176 135 131 144 167 167 149 183 114 191 170 111 138 90 107 221 198 220 119 182 108 74 80 142 100 100 101 115 211 130 187 95 152 160 211 211 165 126 176 79 99 134 133 235 246 232 145 209 123 91 177 151 61 45 64 35 62 171 104 173 244 239 200 207 82 91 55 172 189 191 134 206 124 200 175 103 122 93 70 129 141 154 80 189 202 202 150 172 121 120 171 186 179 99 197 139 190 191 98 89 69 172 104 111 164 56 72 59 127 114 87 164 164 88 164 112 153 168 170 122 83 96 97 107 161 55 59 61 59 142 39 132 162 120 183 181 117 164 183 183 108 100 190 78 131 53 47 134 155 93 102 142 212 200 164 168 152 78 160 72 174 137 179 137 185 187 137 115 95 189 132 159 94 181 180 111 178 94 115 91 183 83 90 75 88 149 142 95 162 133 87 85 137 155 145 111 128 163 201 175 180 176 182 87 115 119 122 128 186 145 89 175 135 140 113 101 101 197 183 107 203 197 113 149 143 64 86 133 171 179 108 146 64
139 138 138 136 139 143 147 170 177 178 177 187 187 198 191 194 181 169 176 180 180 172 181 178 197 212 220 219 217 191 171 159 154 156 159 175 196 206 198 185 174 178 182 183 180 190 195 182 212 198 140 138 155 156 120 102 127 161 113 157 177 173 176 146 129 123 133 102 83 129 140 162 117 160 159 70 78 88 113 85 103 62 59 108 76 118 82 69 64 59 61 72 73 112 102 166 124 88 70 73 99 82 125 116 102 108 108 112 100 92 116 128 63 66 82 105 110 141 71 73 79 108 175 178 173 87 144 144 201 150 193 103 91 148 167 164 151 50 121 126 69 166 70 117 179 101 152 196 145 183 163 200 96 168 137 154 140 122 118 115 80 110 164 148 125 159 129 141 164 158 153 146 103 93 82 143 179 167 157 155 106 154 111 162 98 152 143 216 193 204 96 162 80 180 169 142 55 123 106 151 80 96 95 150 84 157 135 156 141 108 160 140 170 108 108 180 108 164 179 97 100 80 93 97 150 162 178 179 108 176 191 165 115 170 136 183 87 174 138 179 173 164 133 149 116 115 161 124 164 137 84 106 169 133 121 107 108 135 44 86 103 68 98 137 152 134 135 128 95 124 103 199 131 211 202 179 81 83 147 99 145 114 164 83 142 180 125 85 117 73 172 80 172 103 139 221 118 164 132 124 126 93 85 112 98 101 198 167 165 156 206 108 123 206 164 119 99 87 140 161 114 209 137 130 181 222 164 106 188 115 101 72 80 137 47 103 113 154 228 209 145 211 193 81 101 69 167 165 142 115 118 95 193 192 129 106 167 154 63 153 156 162 135 199 112 138 121 85 121 156 176 141 199 126 145 178 121 150 80 147 109 88 119 160 131 119 54 132 96 161 164 160 87 201 118 153 105 119 95 89 206 205 151 80 125 164 119 95 113 74 140 124 175 103 99 101 193 103 199 206 214 110 176 91 102 105 169 100 114 152 187 144 193 93 139 56 106 169 142 116 180 168 165 117 156 172 97 192 177 108 182 173 119 92 176 80 175 178 138 187 143 172 140 171 151 167 161 173 158 81 85 122 144 179 213 219 215 122 86 176 81 102 124 188 179 194 156 162 144 168 177 170 134 123 179 136 116 113 194 203 188 90 85 111 62 92 72 169 84 157 83 93
134 141 148 147 141 136 142 158 180 186 186 190 200 214 204 189 170 173 172 173 184 182 186 187 203 217 224 228 209 196 171 156 148 157 167 177 202 206 212 189 169 176 180 174 168 169 188 209 209 202 194 172 146 127 141 142 158 169 167 157 169 146 181 128 115 82 78 73 96 162 181 105 171 172 107 88 139 152 138 121 141 121 76 91 68 90 129 64 101 52 255 68 95 98 136 124 114 92 87 91 76 76 98 80 92 138 115 142 108 79 73 58 66 95 77 82 141 105 84 117 119 181 94 167 90 170 164 93 161 195 109 158 95 130 162 60 148 147 125 57 67 144 117 82 136 190 169 182 96 190 158 112 185 117 88 168 142 80 85 152 87 179 176 174 123 69 156 144 145 171 103 76 91 156 85 72 156 87 167 123 128 114 144 88 128 124 204 143 151 109 133 125 159 70 75 64 55 151 132 67 69 156 111 87 168 142 196 123 130 108 138 174 116 153 77 181 101 151 123 94 134 151 64 140 129 116 177 180 90 140 162 70 67 128 178 110 110 128 172 119 60 141 140 152 56 146 178 187 136 115 123 78 112 71 146 127 122 64 135 124 45 89 92 161 61 73 105 138 58 125 186 205 157 136 99 131 123 74 132 141 159 96 137 188 127 135 168 132 76 75 73 84 82 95 200 114 201 133 195 174 100 96 147 105 95 125 120 118 193 150 122 110 106 129 148 110 94 97 91 137 138 171 156 186 100 120 151 125 190 104 85 76 73 85 101 89 88 124 210 137 140 152 108 185 105 120 173 197 115 131 202 116 97 172 142 137 156 135 138 86 78 78 177 92 135 160 186 151 64 94 146 153 107 93 170 155 209 103 86 138 152 68 92 159 125 75 135 64 154 161 161 177 185 176 169 89 86 178 182 135 190 217 144 92 76 146 168 63 106 108 109 56 144 117 108 208 193 188 167 209 163 156 202 150 116 83 89 165 170 143 225 161 207 91 134 71 134 173 90 116 183 71 97 109 160 112 157 187 93 183 104 158 84 130 173 148 87 121 169 118 144 73 171 149 107 125 122 94 183 175 112 163 79 166 114 115 107 89 75 87 145 195 162 208 110 137 127 158 113 179 184 141 174 150 175 182 169 120 115 144 99 134 91 159 176 127 141 114 86 83 82 101
137 147 157 157 150 143 151 165 178 184 180 177 195 203 200 190 166 161 164 179 188 197 194 209 206 213 224 222 210 189 173 160 148 164 177 190 206 226 227 210 199 183 171 173 178 175 197 172 182 188 194 188 141 95 113 139 126 168 170 141 154 120 142 205 189 139 140 165 156 112 118 91 129 111 124 107 145 99 160 79 131 77 108 117 79 134 104 69 56 107 56 68 144 132 127 142 117 96 121 69 84 112 83 101 99 92 159 167 102 127 62 76 82 94 88 104 119 70 63 73 119 148 81 58 69 83 91 160 179 108 196 97 104 113 67 58 152 49 141 98 154 168 127 108 94 176 152 94 195 162 194 197 191 175 185 146 168 155 95 126 166 121 124 120 163 133 67 134 176 118 96 112 75 81 152 81 85 98 173 70 81 92 60 57 144 127 118 108 198 150 131 156 76 149 175 87 69 126 71 99 143 61 144 84 170 163 201 207 113 191 163 186 170 154 156 98 85 166 169 145 79 107 104 51 149 163 106 156 167 104 143 100 98 88 85 195 123 146 162 67 51 120 161 130 178 106 184 193 151 120 177 176 105 93 64 55 62 131 138 104 121 129 103 110 164 85 67 141 107 119 168 103 107 197 117 74 68 101 158 129 107 92 155 112 184 182 95 181 80 176 82 109 90 107 114 141 130 114 102 97 92 179 115 178 171 95 119 97 94 193 176 117 99 90 89 128 189 182 129 95 98 141 126 155 82 168 144 180 94 143 173 161 125 103 109 94 162 119 131 117 126 188 211 107 148 90 137 199 196 163 117 193 150 137 166 66 166 79 178 181 178 118 108 174 113 142 191 169 157 127 67 101 168 99 120 180 192 191 142 117 79 143 167 145 181 93 106 149 85 108 178 120 114 149 77 116 144 91 92 102 189 156 96 117 138 153 132 110 125 153 83 119 92 144 112 202 148 180 93 196 173 96 96 189 140 186 110 186 218 207 242 205 194 109 67 121 67 157 123 107 192 169 72 82 119 141 88 189 141 180 73 67 102 111 82 78 139 177 172 157 104 78 70 172 154 151 124 103 154 144 90 139 103 174 101 99 189 161 147 91 81 132 189 174 162 127 154 101 116 203 131 213 147 212 98 176 164 149 93 92 104 178 163 154 190 185 81 85 142 76 109 184
131 140 149 155 156 154 158 176 186 181 170 163 171 189 190 178 163 159 176 192 193 199 201 203 189 208 200 208 199 185 171 169 167 177 183 208 219 232 226 221 193 184 162 159 165 176 185 192 200 199 191 140 137 102 88 123 122 140 170 156 112 161 172 164 182 149 143 137 113 169 137 128 119 79 115 127 71 118 102 111 95 143 105 79 88 76 81 133 127 61 81 95 98 122 148 124 113 100 82 86 131 91 91 134 89 92 142 142 112 108 97 78 96 112 129 91 82 87 95 101 116 142 66 119 47 74 139 165 151 115 199 185 166 160 96 82 57 59 152 66 161 197 200 97 164 116 117 86 194 113 141 140 169 114 188 157 176 173 136 170 117 146 145 142 162 141 152 161 99 157 154 99 87 132 74 101 82 103 176 77 163 50 74 44 89 126 98 153 126 145 115 102 146 173 182 147 177 175 177 145 134 134 92 156 158 111 161 148 138 101 191 104 94 198 95 101 150 73 162 175 84 143 62 139 68 85 106 137 75 171 163 81 155 164 104 199 112 89 84 132 152 70 179 156 102 188 169 195 180 184 81 161 111 55 119 123 136 65 83 81 117 154 107 128 72 86 135 81 110 111 96 138 142 184 183 117 146 79 124 121 155 119 169 171 132 206 161 169 177 86 85 88 119 121 109 195 166 211 186 102 96 103 181 103 101 162 107 154 86 102 105 82 84 97 94 137 121 86 184 177 101 181 157 89 125 138 124 81 127 165 108 125 75 140 148 95 162 80 82 200 163 123 118 208 145 96 121 130 115 117 112 192 83 64 165 85 163 146 178 179 108 164 118 88 172 198 110 142 175 61 103 78 88 147 99 155 199 196 197 109 94 94 176 135 150 126 126 122 187 173 158 90 71 56 145 147 138 82 150 123 170 82 142 186 111 87 179 74 68 66 68 112 164 167 165 190 91 183 107 168 79 129 89 148 95 196 111 113 189 221 247 221 192 131 61 131 156 154 185 109 131 106 166 76 75 176 184 138 183 74 63 151 54 150 66 165 66 175 90 122 167 68 148 102 96 170 158 164 86 129 108 104 84 146 112 158 86 97 130 92 177 148 156 145 69 101 179 193 107 191 143 136 214 165 170 131 105 105 141 187 118 124 142 150 160 88 76 71 151 178 176 133
122 129 138 142 151 156 166 168 174 173 156 162 152 158 170 162 163 157 167 198 193 195 192 199 191 189 175 189 184 192 184 186 183 190 200 214 223 226 221 210 193 184 179 156 166 145 162 166 185 183 181 135 157 131 138 122 134 114 160 118 161 105 170 127 182 148 165 194 169 158 152 86 70 76 68 81 131 68 75 127 176 120 115 99 127 109 139 74 69 62 94 70 90 123 121 135 109 79 89 93 81 129 102 115 86 84 118 161 93 103 60 76 115 108 115 111 87 101 101 138 161 95 54 47 148 69 62 102 108 119 202 93 108 156 55 63 156 53 55 111 147 204 198 137 87 71 133 183 145 120 101 162 109 123 187 182 96 184 159 153 163 164 134 193 128 150 129 149 155 102 178 162 78 108 84 114 169 97 174 148 184 126 151 100 153 164 135 104 96 128 175 166 104 117 147 174 177 108 165 186 169 63 109 127 92 109 143 126 101 172 136 195 191 170 154 155 151 135 56 99 139 81 59 115 72 170 125 173 111 143 77 130 83 83 154 189 188 128 164 100 130 186 147 213 111 212 130 172 179 79 86 150 94 135 121 91 140 145 136 153 75 109 191 153 163 144 133 100 73 174 163 120 140 103 183 125 120 131 156 108 126 203 210 141 130 174 191 160 86 178 85 94 180 104 193 142 110 104 119 106 115 112 133 83 63 136 63 112 58 72 93 85 116 80 146 143 137 133 130 83 93 95 100 127 136 127 89 76 159 94 73 159 100 107 152 133 163 149 170 165 206 213 120 213 211 202 185 203 204 205 199 164 67 95 76 174 103 175 94 92 108 126 140 112 95 101 121 134 94 162 97 150 149 159 126 198 185 109 185 158 96 118 131 148 202 144 197 190 165 131 154 73 140 92 128 91 133 71 142 63 150 127 152 76 95 126 79 141 114 139 164 157 85 74 103 168 85 148 80 139 87 136 150 107 148 101 132 156 131 180 193 220 183 158 49 143 121 65 164 121 178 76 68 87 79 107 78 162 87 58 147 104 115 139 147 61 88 148 79 85 105 58 76 59 91 87 117 81 141 102 77 166 184 147 134 175 174 74 77 90 122 73 66 83 68 181 194 130 116 112 103 149 194 133 99 152 165 176 101 180 114 134 111 180 189 115 130 109 120 180 159 105
100 107 120 132 140 147 153 156 159 155 149 149 152 146 153 149 142 163 180 196 213 213 205 191 167 178 169 163 178 185 189 195 188 195 200 208 214 208 205 187 175 179 179 170 142 161 153 174 177 159 135 146 136 150 111 129 181 180 163 106 177 176 181 127 173 183 135 180 166 136 78 130 138 105 144 115 64 75 81 74 159 180 152 137 90 116 139 76 86 96 79 79 85 140 115 109 98 99 70 90 81 133 104 125 127 83 124 111 110 94 69 63 77 142 103 93 102 142 128 93 164 78 134 108 59 70 65 173 164 142 102 151 142 142 53 59 68 95 55 154 124 114 130 108 176 96 148 121 87 110 122 135 191 171 195 148 175 190 169 83 85 126 169 107 174 172 158 94 72 92 128 124 169 97 129 255 82 93 93 108 136 175 172 174 79 90 131 180 147 133 126 107 72 88 170 176 97 179 201 127 158 72 47 129 92 123 98 155 169 132 183 190 121 181 183 90 90 46 88 131 71 73 166 62 134 119 188 179 139 183 176 156 168 74 95 197 151 158 182 181 98 195 103 184 159 205 195 186 171 174 65 138 111 117 106 130 99 163 71 87 178 160 185 186 129 147 143 92 106 164 161 186 106 180 186 158 192 204 105 198 174 121 188 140 201 136 154 82 110 173 185 193 196 112 146 139 123 122 90 187 123 116 189 129 156 155 56 77 136 62 88 77 79 129 179 147 175 116 181 79 144 101 192 142 176 210 141 165 123 159 65 108 105 122 78 85 142 94 93 191 129 117 207 179 150 199 179 180 100 182 84 165 134 161 131 195 113 160 154 139 75 118 101 91 173 178 105 161 160 163 54 129 149 102 194 201 124 172 179 178 122 156 171 134 125 162 108 177 152 86 99 105 63 59 70 150 56 151 51 89 42 64 147 117 97 87 140 156 122 74 74 79 158 90 158 81 82 151 82 164 82 152 75 124 133 151 122 180 170 161 197 158 152 112 57 141 77 60 134 72 130 90 110 154 115 159 143 130 60 146 95 26 109 89 35 116 154 65 87 151 136 57 65 91 135 147 166 175 93 183 190 171 168 85 121 168 88 178 183 150 152 135 151 46 155 184 204 128 119 126 172 83 118 170 103 106 173 170 159 118 102 155 154 189 86 180 82 98 173 140 101 117
90 100 113 128 134 140 146 147 139 143 148 151 145 152 155 151 151 156 177 197 223 225 213 198 174 174 161 155 170 178 185 192 193 195 198 202 202 185 186 172 169 176 178 157 151 165 169 155 175 122 129 105 146 109 173 183 157 185 140 185 177 199 200 123 102 135 170 134 150 113 129 63 85 89 143 110 153 118 103 104 91 157 114 99 87 76 82 116 113 130 84 90 107 109 146 132 76 82 97 97 131 104 131 103 80 70 95 89 132 124 119 70 70 90 138 95 77 73 64 166 172 101 170 100 167 65 122 79 168 168 143 91 167 117 134 152 157 72 54 159 82 111 216 106 88 117 144 179 147 173 183 162 157 198 188 182 119 156 94 141 87 81 155 191 167 185 164 157 145 82 155 136 255 93 113 108 94 103 197 201 156 148 135 84 149 105 101 200 149 192 112 103 167 70 98 177 101 128 159 207 175 159 56 139 124 83 80 103 86 94 145 88 145 153 158 141 85 122 94 43 86 171 100 141 104 176 110 99 159 145 166 168 167 94 131 173 160 115 159 191 193 125 192 135 99 135 92 124 172 77 168 167 109 149 121 57 162 106 177 132 93 194 95 146 177 116 76 110 141 153 86 126 160 85 182 89 136 160 176 111 216 153 159 141 221 176 174 166 82 160 132 148 113 137 112 131 126 100 104 153 152 90 148 150 138 162 160 91 60 111 161 75 165 103 101 193 100 181 89 105 172 175 221 205 197 196 106 88 134 166 113 90 97 103 192 93 184 192 99 120 197 202 173 205 170 185 79 176 135 86 133 120 167 177 165 110 208 120 139 103 154 151 144 97 182 118 134 163 160 145 127 163 172 124 137 109 188 183 187 175 99 105 115 155 144 176 180 158 178 134 76 170 83 81 183 174 70 54 136 41 99 70 72 124 141 158 162 167 169 115 189 108 123 157 74 92 164 100 169 170 147 166 173 167 104 187 180 107 190 189 173 91 172 113 160 139 58 148 156 163 62 127 60 158 121 167 137 127 58 124 59 51 62 128 145 62 132 71 105 139 83 97 137 142 128 117 67 165 107 211 111 145 157 81 185 95 167 171 115 176 96 179 141 51 95 84 107 203 188 102 175 91 141 185 170 164 160 93 148 155 101 150 120 77 86 85 111 164 181 89 173 211
88 99 116 131 137 138 135 135 137 129 130 140 146 161 142 150 143 148 174 194 205 219 219 198 193 176 161 157 157 170 177 179 186 193 202 200 194 181 170 154 165 165 152 165 157 154 175 156 151 172 126 128 144 141 162 138 189 190 174 194 184 143 138 161 147 84 118 127 100 121 122 113 126 89 165 156 118 59 62 143 118 163 106 141 72 90 132 135 94 104 79 90 85 102 81 121 73 97 87 91 123 135 130 110 88 121 91 74 89 89 71 61 68 78 88 79 144 137 55 147 108 106 182 127 94 76 52 66 92 186 100 93 187 171 79 176 166 160 60 142 134 199 127 98 117 147 72 163 72 172 177 79 172 122 159 201 164 199 132 179 107 105 139 115 191 142 168 128 117 148 184 165 177 102 184 186 180 109 197 178 130 184 138 153 143 162 122 96 191 146 96 77 65 129 78 160 182 120 164 205 95 128 70 40 116 101 118 117 139 90 170 147 186 154 182 129 102 117 135 132 82 161 123 98 117 94 126 98 108 178 159 152 156 180 158 99 206 186 117 105 96 182 148 161 177 138 112 173 167 159 155 127 155 153 114 68 135 94 150 137 188 88 161 189 178 187 100 145 168 129 105 158 87 88 83 151 145 190 109 107 186 123 199 120 190 114 171 125 108 81 97 121 210 117 178 177 179 110 148 94 116 138 101 88 141 159 65 57 105 255 148 95 184 152 131 112 102 185 137 135 151 228 196 145 231 122 149 79 76 93 91 206 128 163 113 182 108 156 151 125 198 124 142 102 99 87 153 112 171 82 110 96 159 171 137 157 147 143 188 157 92 81 161 104 168 80 158 129 155 151 65 255 178 132 194 140 200 103 178 109 141 106 131 101 98 98 99 134 137 137 160 181 104 100 194 106 133 90 141 85 94 76 69 134 58 69 137 175 140 199 126 200 191 188 188 129 127 95 91 113 135 82 106 174 164 91 149 117 154 137 182 172 155 84 165 166 70 155 158 76 150 162 73 132 84 141 70 57 147 47 84 151 145 80 131 138 132 170 159 150 141 51 113 100 80 172 75 87 161 120 209 193 92 147 186 161 193 136 139 201 184 192 77 157 150 175 96 182 177 136 73 81 148 120 136 111 163 180 145 131 99 96 156 141 97 145 85 112 104 162 141 189
104 113 129 135 138 141 135 139 133 136 137 145 148 155 145 138 141 149 155 180 200 216 220 210 205 172 149 143 148 155 163 159 181 195 205 204 192 176 166 157 149 164 162 160 151 173 197 202 185 164 175 167 144 143 192 198 186 138 130 129 193 255 169 175 123 138 95 120 151 56 89 85 81 162 181 111 101 140 87 68 77 129 104 74 84 92 132 82 90 138 106 96 129 88 84 75 118 95 83 117 106 119 117 129 76 83 59 67 102 100 116 76 133 74 95 159 73 103 60 73 122 116 121 116 95 86 122 129 170 90 180 101 126 93 93 147 150 143 165 95 85 180 96 160 93 134 156 163 169 149 138 161 120 117 169 155 188 163 131 92 106 102 82 140 90 176 83 158 166 182 165 200 114 126 96 147 182 131 192 129 111 78 112 91 125 166 132 169 190 100 188 85 67 144 44 146 73 74 151 112 104 174 128 104 61 30 59 76 60 128 127 98 115 96 99 113 102 141 146 127 111 117 108 95 119 139 179 86 176 76 170 172 109 92 190 103 99 190 115 181 181 91 150 126 114 76 164 127 61 160 158 104 156 127 138 73 81 73 169 166 111 159 181 177 193 170 196 162 178 115 155 107 84 69 159 137 142 95 131 192 108 206 104 152 178 153 116 103 155 88 145 116 108 181 192 220 160 179 121 97 91 132 146 94 152 66 149 153 70 61 72 78 102 158 105 93 125 188 200 125 151 142 210 132 228 166 122 70 169 125 191 129 138 132 144 191 96 89 193 190 194 88 83 79 174 95 50 53 120 170 107 124 175 207 146 124 221 162 101 117 158 115 171 97 148 96 85 115 120 143 149 109 115 96 181 127 125 99 91 111 164 127 173 191 109 182 122 134 153 73 73 165 87 179 130 165 171 92 122 62 52 144 64 102 76 161 80 85 192 151 147 194 104 180 111 194 160 151 177 153 140 174 192 94 149 132 80 142 97 162 122 85 93 152 143 104 58 126 164 123 88 122 63 56 156 73 149 150 100 122 124 137 70 81 129 98 144 157 147 59 59 66 57 87 165 126 169 110 161 196 167 116 163 148 84 171 183 149 173 192 126 105 121 128 74 75 87 188 108 82 111 77 139 181 190 154 189 191 141 133 168 164 185 109 133 177 113 78 149 92 114 128
115 126 139 141 139 137 145 144 155 149 157 155 145 147 147 140 145 156 163 166 192 201 223 229 211 188 153 135 128 146 157 164 173 195 210 204 195 175 178 170 166 158 157 156 172 173 203 208 173 162 192 180 177 181 188 189 166 202 157 147 187 191 117 138 142 158 121 133 132 59 97 98 92 165 107 165 91 109 70 141 95 110 115 40 112 56 69 74 75 97 105 85 99 79 111 104 86 90 90 120 122 113 142 129 82 80 62 72 52 96 63 94 88 103 90 84 162 125 77 102 116 118 125 110 142 163 68 88 87 126 178 205 129 199 184 130 92 168 73 121 123 84 175 94 56 107 135 151 155 147 101 142 150 139 138 69 105 108 115 119 71 160 123 140 162 101 113 59 128 161 119 138 172 190 98 177 182 159 143 130 88 167 180 179 192 170 191 137 98 111 195 134 76 132 42 35 43 66 93 121 198 88 69 135 99 86 79 86 151 90 74 111 185 80 101 179 78 106 86 148 179 175 158 122 101 81 127 122 131 146 168 130 150 142 199 100 189 148 166 100 108 157 44 133 137 69 97 94 66 74 84 133 147 63 137 73 152 62 120 164 180 137 158 160 174 172 157 162 164 211 126 162 85 127 109 107 157 123 162 183 86 101 130 178 118 80 172 113 135 90 129 163 154 120 173 130 200 119 199 168 108 151 120 112 57 93 155 116 167 66 129 70 92 106 109 80 77 112 156 121 155 123 199 212 117 181 164 113 155 157 201 194 135 215 140 128 122 178 79 85 153 147 147 127 80 131 95 141 170 204 255 142 235 223 218 213 198 115 99 181 154 77 96 63 83 80 81 163 153 126 121 135 118 146 162 111 198 175 134 103 180 189 101 95 178 113 133 136 107 128 134 136 99 152 106 133 154 147 175 130 145 57 152 148 176 142 92 194 186 190 184 195 119 168 181 175 106 177 144 176 189 122 198 124 189 86 178 81 91 119 167 171 87 113 151 115 110 164 95 161 97 183 116 145 122 58 114 89 142 100 111 84 102 179 182 176 124 165 128 87 115 128 116 84 66 143 153 255 96 119 125 111 108 114 143 184 134 177 175 141 180 157 90 183 98 160 108 91 99 116 178 81 82 101 131 157 94 126 118 109 197 173 108 127 146 88 123 162 91 121 130 100
126 135 142 145 134 136 142 157 174 168 167 163 163 148 149 135 149 151 182 178 170 185 199 226 219 178 154 138 142 152 156 161 181 202 208 202 191 192 190 178 171 167 170 169 173 195 213 187 205 211 191 143 128 132 182 149 156 151 193 160 176 193 153 180 112 120 163 153 74 64 107 79 94 148 162 137 153 109 127 61 94 42 87 89 72 125 86 94 81 88 96 78 112 72 64 77 93 145 110 142 118 143 97 113 75 99 74 64 84 54 64 146 149 105 109 106 79 138 154 99 149 120 130 183 98 177 86 132 196 117 166 132 198 94 114 103 166 182 86 170 165 168 161 158 155 63 46 142 44 54 141 54 65 148 116 123 153 157 98 120 112 73 120 144 145 158 136 75 135 170 165 195 128 162 176 101 132 86 181 89 163 96 143 106 148 197 139 198 132 212 186 79 139 40 35 88 88 59 83 115 180 157 162 65 65 118 159 70 255 69 175 170 174 79 136 112 85 185 128 122 109 188 192 86 148 110 170 161 88 69 90 108 91 205 117 158 188 172 155 69 70 61 79 131 84 128 157 176 175 78 169 110 101 139 97 117 52 155 101 138 171 161 128 132 82 128 185 189 203 215 142 107 145 125 69 116 94 145 170 131 91 103 93 183 92 117 143 147 162 139 88 88 200 137 231 140 220 110 86 167 148 161 158 58 61 114 174 180 96 71 79 71 86 118 86 70 145 177 109 201 175 105 187 174 172 184 94 134 79 169 98 199 115 202 96 142 155 74 78 99 169 160 169 173 181 182 181 188 184 119 189 136 224 180 152 197 118 161 168 171 158 108 101 95 68 175 154 169 73 69 80 157 95 168 98 159 200 201 134 102 125 95 182 100 184 177 163 117 172 101 158 157 56 64 128 84 85 124 167 119 77 173 95 175 93 140 94 191 132 138 142 171 81 124 181 179 150 115 91 185 175 147 210 130 172 95 170 98 86 128 82 77 124 104 185 94 143 136 127 180 133 102 173 110 154 151 43 101 151 101 119 73 154 81 104 171 71 125 127 114 61 47 84 145 156 153 156 124 140 174 127 102 139 137 159 147 169 139 147 93 108 135 112 133 138 140 185 92 174 141 102 173 82 132 92 84 98 186 125 183 80 102 139 84 172 90 145 105 135 85 111 116
130 138 144 147 141 136 144 168 177 181 179 176 172 158 156 156 168 173 189 169 170 173 191 214 211 179 150 143 154 160 176 181 191 200 204 198 184 190 187 192 172 172 176 194 212 204 223 214 190 199 171 177 131 131 122 176 153 173 131 148 192 170 191 125 155 163 172 117 149 99 112 107 103 103 113 107 111 114 150 134 123 47 46 39 90 69 84 141 85 105 67 107 87 48 86 77 85 106 126 115 139 109 117 84 120 98 75 126 64 68 128 119 111 193 100 119 97 83 88 126 114 131 150 129 199 195 138 103 201 182 180 122 96 90 167 90 97 122 69 97 151 84 142 146 160 155 61 118 130 30 81 73 56 61 71 76 133 156 147 145 81 102 140 96 166 158 155 142 59 116 174 184 185 112 165 166 129 118 154 171 121 124 91 120 90 255 127 212 222 180 170 173 64 88 27 18 16 126 121 173 150 170 126 54 61 109 120 106 175 90 169 83 177 100 115 134 89 126 97 119 125 145 110 113 111 121 85 101 116 148 60 123 150 104 196 126 192 148 119 144 170 139 79 68 140 96 95 87 255 176 137 141 63 128 113 120 76 152 141 59 70 147 87 156 130 78 106 137 179 255 222 178 175 68 110 69 56 53 73 137 115 148 84 81 78 170 88 166 161 128 98 99 101 183 167 182 149 173 59 85 53 68 145 113 59 112 173 86 85 155 138 93 74 152 63 87 108 124 175 92 116 151 80 126 172 94 183 181 93 104 122 89 102 164 102 180 179 113 89 138 70 98 89 129 175 102 199 118 196 103 121 124 146 181 105 129 84 163 89 93 66 61 51 72 148 170 172 84 149 100 181 87 162 158 159 86 130 103 136 163 158 178 118 145 165 127 181 175 183 176 161 159 116 139 67 100 143 98 111 125 97 183 110 89 178 180 162 109 136 61 62 79 58 172 165 140 77 98 178 78 104 155 114 109 185 129 128 190 188 99 195 157 181 194 107 96 102 177 109 197 204 114 100 182 166 56 64 140 155 162 102 153 77 137 90 168 134 68 165 157 52 102 114 109 79 112 99 75 58 155 96 84 156 98 95 141 92 172 89 89 86 186 137 172 175 200 168 132 104 195 121 117 162 75 70 165 138 149 71 103 163 78 170 143 78 155 151 105 163 166 126 101
139 143 148 152 146 145 154 171 178 184 176 169 177 179 178 182 182 191 182 185 173 159 187 195 201 183 162 156 175 179 196 194 194 196 192 185 185 191 185 197 192 184 188 208 221 211 220 177 164 168 145 168 149 116 113 174 165 182 193 169 179 189 150 152 129 116 137 163 78 144 95 94 187 184 135 187 255 92 148 149 98 53 92 51 89 84 120 87 85 85 73 112 51 85 53 66 109 101 142 126 109 115 116 92 86 70 96 93 100 65 68 92 129 118 123 94 91 85 91 119 175 132 142 174 209 145 106 124 113 109 100 177 160 98 86 161 164 66 63 154 162 62 139 167 167 172 152 91 53 75 131 91 151 162 167 152 98 102 129 66 100 80 85 147 148 141 86 106 132 71 163 160 165 101 112 112 183 182 149 66 162 75 103 180 145 197 207 209 143 205 184 145 53 127 46 25 83 138 74 156 180 145 101 106 154 106 91 158 99 78 145 104 173 89 135 117 162 177 106 102 179 114 176 102 74 92 98 179 151 109 101 164 103 189 107 133 158 115 173 71 140 153 125 101 56 87 109 183 140 178 177 74 106 131 88 106 145 144 54 95 148 141 89 57 164 120 188 202 115 190 223 162 164 103 172 136 78 62 60 76 84 79 172 95 71 173 183 169 108 101 153 94 99 168 131 157 176 153 52 98 57 87 47 153 72 78 160 100 155 186 163 182 172 121 63 82 77 153 170 78 177 111 169 126 133 160 131 183 190 153 179 174 158 158 178 174 112 84 80 175 141 110 77 126 96 127 207 140 144 77 180 173 150 177 71 159 58 67 177 166 99 73 112 66 181 110 172 160 97 94 159 115 169 155 151 78 149 190 164 109 105 83 169 128 101 180 115 163 166 93 150 73 101 141 174 90 100 176 111 94 86 88 182 100 168 92 190 111 138 153 76 37 148 95 67 67 125 152 61 93 109 131 194 199 171 183 191 99 189 205 209 124 99 134 112 105 163 101 184 174 154 149 111 173 161 154 128 84 66 70 133 88 84 74 169 98 88 74 175 168 132 112 80 143 90 172 90 113 140 59 140 130 131 176 146 179 104 102 160 180 184 177 102 169 110 133 218 215 195 101 185 91 144 89 160 147 89 126 85 71 157 69 108 165 169 140 104 114 119 184 96 96
142 147 153 163 162 170 164 171 172 163 171 179 190 188 206 190 201 195 191 189 170 170 172 176 184 171 159 166 176 197 201 199 193 189 178 176 177 187 196 183 191 177 197 192 228 225 218 199 177 147 164 131 153 133 112 169 182 193 182 152 116 141 165 144 202 198 139 89 81 130 125 85 107 123 113 115 152 124 89 149 117 66 48 82 105 91 151 96 78 81 87 70 61 37 80 67 97 107 125 119 154 103 88 91 104 79 80 83 93 70 74 124 116 147 106 165 162 117 161 97 107 206 155 148 106 102 152 255 210 209 107 188 117 179 72 130 168 90 162 159 157 162 96 163 143 121 93 158 92 146 69 70 177 153 169 158 82 87 131 132 132 121 77 168 166 152 97 99 150 94 163 165 171 190 126 101 128 152 152 130 76 140 133 119 180 255 200 117 170 183 151 69 55 97 71 115 92 151 160 87 88 94 177 181 109 152 152 185 83 113 102 113 137 179 98 102 99 97 102 202 97 95 77 87 161 178 144 181 113 164 172 68 161 122 190 160 117 173 180 161 100 186 89 173 106 133 77 154 255 134 142 69 145 161 176 165 173 160 123 78 154 51 153 102 125 107 164 197 219 216 190 128 109 122 115 106 94 65 97 139 117 112 153 69 159 185 199 131 102 167 160 107 105 198 88 112 98 137 124 109 100 122 90 64 102 89 171 139 113 152 132 194 186 152 80 115 93 72 112 133 84 137 99 169 179 179 201 193 201 99 124 181 88 116 123 99 186 122 87 155 102 119 86 154 157 174 121 171 69 99 46 159 71 82 153 96 115 145 103 91 84 178 89 119 156 154 91 136 127 133 94 102 70 88 60 76 185 105 187 189 119 131 152 90 83 162 166 191 158 131 179 91 165 105 92 111 110 110 142 104 92 120 117 68 175 161 96 123 114 71 131 31 45 152 160 81 56 153 150 161 172 93 112 146 205 129 84 144 180 161 116 118 198 100 108 101 102 190 182 132 182 171 142 166 159 148 66 60 147 78 137 94 149 114 152 165 91 97 154 176 183 150 169 175 184 93 144 147 59 135 146 85 61 87 176 139 196 101 199 190 177 196 175 101 201 182 182 160 117 155 155 131 87 121 56 66 78 129 151 72 70 124 156 80 146 125 144 125 133 112 131 90
140 144 150 166 169 177 176 181 167 168 153 167 183 192 204 199 203 202 190 188 177 167 161 154 168 152 164 175 194 202 194 190 183 178 172 166 180 189 197 196 193 191 196 207 222 223 207 171 138 173 165 183 157 162 99 164 137 198 159 184 150 158 117 123 125 142 182 103 142 148 148 90 137 177 127 169 165 82 125 102 63 68 114 132 70 81 91 137 97 67 67 75 71 85 45 101 96 123 110 101 106 134 107 87 95 107 105 104 125 100 111 103 96 99 113 151 94 101 168 108 99 196 126 146 112 102 92 104 137 114 208 128 78 82 69 160 70 75 61 161 156 150 114 95 147 180 105 181 119 119 67 177 188 180 137 164 153 188 90 150 158 151 155 114 155 81 91 166 157 170 104 130 167 183 170 132 100 129 108 159 91 165 115 119 209 182 132 203 188 115 121 142 136 72 57 63 144 69 80 100 175 112 107 103 177 144 191 102 88 135 110 185 207 203 103 180 171 97 158 196 174 87 149 85 81 118 188 98 84 154 90 121 111 173 129 189 114 165 185 174 177 168 85 78 132 54 123 89 73 113 137 63 81 141 171 171 79 138 67 150 137 109 163 132 87 93 208 206 188 205 193 99 162 184 162 95 129 126 86 95 138 98 73 133 73 85 142 205 168 99 166 105 160 195 185 95 93 133 52 52 46 130 85 90 119 83 111 177 165 173 157 104 163 182 87 164 98 58 72 72 151 141 81 146 83 168 205 110 140 116 126 178 102 109 140 98 107 199 141 81 158 118 61 160 123 175 172 147 71 83 72 51 91 64 120 153 131 140 71 90 142 101 152 174 163 128 111 97 133 163 115 172 146 168 98 105 99 117 139 171 104 179 160 148 158 113 206 185 184 133 140 144 137 189 120 196 195 104 96 143 169 156 142 118 113 80 190 106 120 133 136 69 141 125 72 119 53 46 133 58 93 188 141 180 209 186 138 171 138 102 128 95 116 184 178 160 132 84 189 176 170 185 180 99 162 149 141 103 155 66 73 90 128 99 60 150 137 181 141 136 192 101 151 87 137 188 167 85 65 105 51 67 72 148 60 136 108 149 141 197 166 181 164 92 206 116 157 150 90 80 142 170 77 75 57 91 140 65 171 166 53 116 154 149 83 92 121 169 111 184 83 135
124 132 140 152 162 172 183 186 174 178 157 152 169 181 199 205 205 196 199 191 197 170 170 157 160 162 169 187 197 190 193 182 173 167 170 176 184 198 203 187 197 188 194 186 190 213 200 174 179 171 187 178 177 168 159 141 161 183 172 131 153 156 145 100 105 158 165 97 100 155 88 152 108 98 100 172 126 71 93 124 60 59 58 82 74 112 131 134 75 67 119 60 115 48 63 108 125 107 95 83 113 114 114 142 95 122 101 114 112 117 108 89 114 103 137 132 134 178 156 152 181 95 109 170 83 102 137 137 116 156 103 85 74 50 153 66 98 155 57 63 168 81 191 122 125 114 191 169 144 67 161 70 172 191 163 142 190 188 141 129 145 104 139 152 83 160 88 118 193 176 130 213 160 118 133 103 161 119 88 114 187 172 198 135 135 209 114 138 72 73 49 138 138 50 155 163 102 147 90 172 165 185 89 181 167 133 117 186 193 201 205 158 159 103 198 88 103 182 174 144 167 177 86 161 170 181 141 112 84 168 108 172 77 93 125 111 107 163 180 76 90 157 174 174 76 144 147 160 56 58 65 61 170 168 141 191 180 169 89 177 150 94 133 80 105 164 182 171 109 181 80 154 90 154 93 105 96 31 141 85 180 161 147 172 146 85 124 113 199 203 122 99 129 156 92 161 90 73 121 58 148 93 65 78 81 83 82 88 162 108 106 188 138 104 86 75 133 99 78 119 130 79 85 78 83 122 156 133 111 160 166 167 163 82 170 97 146 198 184 169 154 150 153 68 78 131 160 131 255 36 48 158 104 114 138 133 109 136 58 140 150 87 165 86 150 71 116 135 149 156 101 101 140 124 171 88 170 110 115 189 91 145 120 173 177 203 152 118 97 96 134 203 205 136 146 83 155 139 172 180 162 164 56 86 152 78 88 130 179 97 56 95 101 68 99 156 149 52 130 86 88 137 99 168 117 188 96 148 108 182 109 102 157 84 177 171 76 97 182 113 182 181 178 117 99 145 58 125 144 156 118 151 71 146 148 81 71 177 184 200 168 175 143 190 136 139 91 73 101 64 146 115 119 112 50 169 185 113 190 88 154 107 79 182 178 134 138 158 104 107 64 127 72 255 120 90 66 169 166 169 104 54 131 97 97 187 173 178 181 94 72 82
108 115 125 134 142 155 169 184 193 186 176 168 158 168 178 191 186 190 204 211 191 177 169 164 173 177 182 199 197 204 198 182 165 158 165 181 195 205 207 198 195 197 196 185 207 201 180 166 156 162 161 189 196 184 152 146 129 187 124 150 135 115 117 140 95 121 87 130 86 76 96 116 80 164 126 128 86 126 78 65 62 59 79 119 83 92 149 90 92 86 141 121 56 102 70 121 114 93 126 84 83 83 255 100 108 129 129 142 108 129 85 72 73 63 62 71 138 124 98 98 128 91 130 128 85 68 73 141 166 161 198 189 115 50 133 55 160 87 89 79 105 192 192 200 114 199 185 179 179 168 148 70 176 184 148 191 154 124 113 93 141 144 130 152 95 102 104 168 203 187 207 216 203 182 161 191 113 158 167 118 100 86 138 133 194 129 189 88 72 49 135 137 144 155 104 78 114 94 88 114 126 166 124 167 99 113 151 181 158 105 164 178 189 204 188 124 174 186 190 110 192 188 116 147 203 208 110 171 85 130 122 85 89 108 155 98 170 81 176 175 153 167 148 82 165 142 68 163 148 139 85 118 171 182 95 126 118 112 107 107 179 102 150 157 171 122 103 200 104 183 166 99 167 82 153 91 57 103 149 99 132 186 187 84 117 181 96 198 152 123 198 166 98 84 96 180 83 80 148 99 74 90 119 81 125 173 115 109 85 87 133 124 132 139 121 58 132 42 91 161 84 133 82 86 119 75 84 93 149 132 142 113 120 68 78 112 136 188 81 68 163 128 137 62 152 77 135 46 42 60 153 152 115 82 74 124 95 77 136 165 172 82 133 130 150 77 138 129 78 102 146 172 174 149 79 80 141 166 65 69 125 87 145 191 135 166 120 108 114 196 103 160 124 173 97 145 138 61 159 92 102 117 85 123 52 88 137 133 190 170 120 79 60 126 140 99 53 132 28 83 53 149 170 121 91 158 104 163 114 76 84 76 181 179 75 61 154 65 156 183 91 85 142 75 73 72 57 43 140 153 76 132 123 73 71 135 53 63 163 188 135 213 131 142 117 105 99 70 110 117 164 121 76 145 83 96 72 181 96 146 79 146 100 112 89 124 191 132 108 132 104 154 81 76 127 91 126 172 186 165 154 110 86 90 104 101 124 136 125 97 96 152
94 106 119 132 140 148 167 183 198 191 187 173 162 164 165 170 189 185 197 215 208 202 199 198 198 190 200 208 212 210 206 185 162 151 162 184 198 209 209 208 202 194 183 170 191 167 150 164 148 153 170 144 161 158 177 153 169 163 133 134 157 134 132 83 79 114 108 81 84 156 78 81 104 112 94 166 106 85 129 65 62 71 66 107 87 150 87 97 102 140 98 131 70 125 83 87 97 94 90 68 77 76 103 122 124 159 140 125 151 93 149 101 75 107 51 123 63 78 90 92 127 80 135 74 159 68 126 181 152 138 123 201 165 147 103 68 173 76 147 170 156 143 209 202 96 96 90 185 100 166 121 80 194 199 200 97 139 90 90 129 154 110 171 146 149 169 158 193 158 195 186 197 203 140 137 190 160 195 164 165 79 150 73 127 174 131 127 159 99 43 142 115 69 68 139 91 112 93 163 77 97 167 121 160 191 97 182 175 124 155 99 176 165 152 132 187 154 167 169 121 109 107 187 176 174 210 186 175 107 186 102 179 88 175 147 102 75 92 177 115 165 166 160 80 184 182 108 128 98 61 77 136 93 98 102 102 135 114 176 203 129 142 152 115 132 130 122 152 164 161 133 81 171 140 82 151 54 147 132 188 200 171 126 119 96 85 169 97 100 178 154 123 97 93 170 128 88 69 155 89 97 90 85 106 70 63 68 70 76 83 91 204 106 166 100 123 128 55 143 118 188 92 100 86 109 154 81 100 134 93 169 101 46 127 162 191 195 145 179 80 79 92 87 119 163 145 123 53 77 101 177 109 161 189 177 129 116 160 158 102 116 70 136 130 125 89 137 139 173 157 93 169 187 173 162 163 147 127 64 152 73 119 118 203 120 130 190 111 90 196 101 202 199 168 122 140 55 53 138 77 84 78 102 50 98 100 89 93 112 109 71 100 94 110 154 112 53 68 126 43 146 115 173 176 180 135 119 85 173 159 80 104 87 166 94 107 154 56 170 175 126 255 127 150 179 82 163 58 151 165 132 86 136 101 77 155 48 53 165 119 197 114 121 111 155 100 105 122 86 181 103 100 125 154 151 77 145 170 76 174 83 156 144 162 165 155 126 87 103 123 101 150 142 169 89 119 191 93 193 141 152 152 90 108 168 218 205 92 84 110 144 166
97 109 127 139 147 158 169 182 198 193 185 180 176 172 175 168 165 173 197 202 188 204 196 209 198 206 201 196 211 208 200 175 151 146 160 182 208 211 216 215 195 189 175 169 171 149 162 153 117 114 166 142 189 185 138 177 149 143 182 122 145 166 155 120 81 103 86 86 132 108 156 89 104 103 96 117 163 153 91 66 98 63 81 72 74 119 120 176 114 105 97 123 83 89 121 84 106 87 61 41 31 75 96 84 108 146 111 119 104 110 97 100 78 80 108 68 70 131 85 115 117 160 83 98 92 117 66 82 107 209 136 208 88 65 91 88 89 191 172 127 188 178 104 154 177 161 169 116 158 154 82 146 201 178 205 176 126 161 163 127 190 163 181 164 101 165 104 168 199 168 209 127 112 122 189 212 203 88 136 153 86 175 166 108 107 70 106 131 94 48 158 69 116 163 117 170 102 176 105 142 57 124 154 134 189 173 139 104 122 99 90 93 165 164 91 102 184 158 110 113 115 194 131 178 225 215 110 109 139 138 193 106 196 189 78 95 164 80 176 67 142 131 71 110 190 141 187 186 87 167 78 80 168 127 204 194 119 151 212 224 174 108 110 123 149 81 108 152 100 172 170 145 107 108 191 88 173 165 171 163 188 146 213 168 84 104 54 52 152 129 148 86 190 171 170 135 76 69 127 123 108 195 93 85 99 122 106 100 64 169 100 182 160 104 156 87 155 69 150 91 149 157 150 130 101 101 88 112 148 102 67 150 120 60 107 157 110 154 194 113 134 98 166 89 175 165 144 105 106 159 111 112 151 178 116 63 53 149 138 140 116 150 86 141 103 97 97 146 70 147 168 179 192 154 109 179 107 71 149 63 148 143 86 119 148 115 145 184 162 122 183 169 178 195 118 157 161 145 164 94 86 94 145 49 148 87 185 181 121 106 87 161 73 54 84 152 77 64 107 147 129 61 66 102 133 149 90 181 88 102 95 172 94 116 173 160 151 108 79 111 169 69 255 183 190 145 138 156 105 148 85 94 192 104 159 77 152 151 94 141 196 116 122 101 129 46 78 156 169 94 154 105 145 71 154 75 59 70 152 177 99 161 70 113 161 80 165 176 137 80 161 95 127 92 184 137 94 110 90 186 128 148 132 114 196 148 171 142 144 105 110 176
112 121 135 146 153 170 181 181 196 192 190 186 182 165 178 157 158 167 180 179 186 182 183 198 197 196 203 206 203 201 186 166 150 144 167 196 213 211 218 214 196 174 168 150 151 128 134 146 156 154 157 166 185 181 187 183 117 162 122 128 144 178 173 137 101 96 152 179 109 163 93 116 68 145 168 195 160 146 147 74 59 125 81 92 79 81 94 167 149 166 114 106 78 73 99 101 106 74 66 83 72 36 58 71 99 95 143 127 127 114 175 91 93 90 95 128 146 76 104 161 114 67 80 92 111 154 79 195 147 179 131 114 116 128 77 106 185 179 96 183 98 101 203 104 104 73 148 172 115 176 142 193 220 126 117 113 164 141 171 157 198 138 129 139 84 159 90 133 110 124 135 188 133 175 105 187 178 170 96 160 167 93 104 153 168 158 57 81 135 75 170 161 169 98 163 142 93 160 123 67 61 56 126 167 137 106 104 167 96 175 90 172 90 119 181 183 112 131 187 211 167 192 200 134 136 220 136 195 150 189 192 198 206 139 153 163 183 184 168 148 151 101 158 132 191 166 146 185 179 180 84 98 128 132 213 200 144 109 216 194 150 176 62 143 109 168 188 161 85 150 75 103 205 201 107 202 122 155 86 180 138 196 178 182 99 110 65 144 141 48 127 111 166 195 89 115 69 81 81 197 182 189 78 163 62 63 145 119 88 98 113 129 132 90 136 125 112 88 143 106 81 107 82 162 121 108 193 203 127 138 155 143 83 138 165 112 194 141 161 149 101 93 144 177 114 79 74 153 150 136 74 173 148 163 173 57 82 110 144 51 113 72 74 86 130 70 149 145 167 81 148 174 149 204 131 100 179 169 123 143 156 129 92 175 132 123 156 178 178 255 190 133 177 180 122 177 71 88 136 192 197 133 68 51 114 161 184 91 157 68 55 61 116 123 171 96 78 84 86 138 124 126 55 158 171 166 166 81 98 105 85 180 167 177 171 159 62 48 62 86 159 97 180 198 135 112 181 119 183 174 163 107 115 137 177 79 157 163 154 93 180 186 127 98 50 89 125 119 188 133 210 108 139 171 117 108 130 79 134 182 84 118 162 70 86 116 74 81 185 90 139 184 108 116 89 84 169 100 121 82 85 98 139 148 159 172 140 123 97 194 121 114
135 138 142 147 159 169 181 186 192 187 182 185 176 180 169 162 167 165 160 161 169 163 168 184 185 187 196 203 197 188 170 150 143 149 172 204 225 222 222 215 190 171 147 150 120 139 142 154 153 169 171 174 180 181 183 175 139 153 143 149 173 145 173 103 150 164 181 147 134 150 142 51 75 87 174 137 168 144 122 53 79 255 88 103 87 81 103 95 116 129 143 68 80 80 93 88 94 79 94 76 52 37 68 49 71 75 114 119 123 161 107 101 119 82 88 96 116 86 75 67 97 66 155 91 153 104 147 110 125 183 141 100 119 76 97 132 165 137 136 171 102 131 126 140 156 157 145 73 70 121 80 178 203 140 137 144 191 182 195 182 143 156 170 150 171 153 90 114 91 169 170 136 102 97 96 166 177 164 123 172 89 200 122 116 174 162 154 110 55 154 157 195 201 183 90 91 180 176 147 148 54 119 100 75 72 156 103 175 99 137 96 139 176 83 145 127 159 164 131 158 198 143 108 178 160 136 136 155 151 83 189 184 102 149 92 90 181 187 146 101 124 58 66 121 149 200 132 182 193 177 100 184 225 127 196 165 143 92 111 200 98 75 137 154 128 125 88 174 109 168 170 113 202 206 186 162 170 132 84 152 117 145 210 101 127 138 156 93 44 147 164 96 113 95 87 86 162 109 178 191 109 183 134 106 148 72 145 89 97 162 76 109 185 89 177 129 97 176 195 100 177 149 92 105 150 180 130 146 205 137 129 81 39 74 93 178 175 198 165 155 106 119 177 75 169 130 109 56 106 163 108 130 164 119 150 75 44 27 117 116 134 169 120 72 169 77 123 167 102 112 168 122 167 119 166 193 128 110 168 93 69 72 102 198 104 119 149 145 98 142 190 105 111 196 194 86 111 126 192 143 107 131 138 152 150 167 120 179 154 156 78 63 108 171 189 176 132 129 80 86 59 62 120 54 68 129 80 89 112 90 178 91 190 152 167 166 107 77 137 115 48 126 151 157 214 186 162 191 176 160 145 62 109 161 72 161 154 100 166 114 173 143 153 79 79 126 153 184 132 202 101 87 91 87 158 107 171 154 191 117 173 166 153 255 102 101 139 176 88 190 96 103 187 182 112 63 83 156 163 112 170 136 85 174 104 201 133 146 160 114 129 166
147 146 143 141 143 160 175 188 186 193 191 175 183 175 178 180 175 169 157 154 156 144 165 170 161 176 175 188 188 177 157 137 141 152 180 207 222 221 215 199 200 189 171 163 150 149 143 151 157 176 174 172 179 143 173 119 154 156 96 118 140 165 161 130 148 116 107 101 173 113 59 73 119 74 164 168 121 97 68 93 138 99 159 117 108 86 151 131 87 108 94 64 69 89 88 98 108 88 93 98 84 69 58 57 94 65 93 99 140 140 128 101 115 118 121 113 101 97 166 90 123 49 55 75 122 88 89 194 115 205 109 95 184 75 95 115 191 154 91 117 196 106 207 100 167 150 152 165 67 143 142 172 173 157 218 205 98 111 100 213 169 201 171 198 151 71 128 82 134 174 101 128 156 118 174 149 127 100 147 112 104 164 141 158 170 158 99 117 159 158 172 177 179 153 164 125 178 85 142 154 154 90 98 53 56 122 69 90 186 202 110 144 165 142 182 177 129 135 211 129 111 107 186 163 156 146 91 82 127 164 147 146 153 95 158 186 176 194 179 167 163 137 75 166 187 193 197 105 194 198 207 210 226 222 101 85 156 151 182 179 88 139 76 62 102 100 114 172 108 75 171 173 94 109 122 160 165 183 88 95 131 201 215 211 104 98 101 51 96 119 79 255 173 175 122 185 97 175 153 193 171 142 132 116 121 81 101 118 100 100 73 107 91 100 92 87 96 112 171 200 191 82 164 62 101 69 79 163 201 156 148 64 130 137 59 117 153 198 192 110 101 139 148 75 56 54 121 129 148 128 93 167 83 167 66 143 126 61 79 66 170 87 182 155 181 183 81 170 165 153 68 152 147 173 224 217 113 152 170 82 129 180 92 203 184 179 175 90 129 83 161 106 203 107 107 185 115 123 196 184 109 190 170 82 96 179 114 172 144 134 152 177 180 106 137 135 119 97 104 136 89 153 125 59 103 175 177 168 132 113 79 173 155 167 183 116 172 123 136 133 54 68 179 206 223 124 115 105 70 162 64 85 175 88 105 67 105 168 187 182 66 142 94 115 34 51 126 176 135 198 173 65 139 148 75 75 135 179 135 152 168 76 77 86 125 142 155 95 168 99 191 171 162 185 84 162 108 75 160 81 182 174 177 88 154 181 184 126 139 147 167 214
142 141 139 139 143 151 167 187 188 191 188 172 162 168 190 186 199 183 161 149 164 148 159 167 168 162 163 177 175 167 160 154 148 166 178 195 211 208 202 194 200 199 176 177 140 161 165 180 171 160 193 181 154 151 146 155 114 133 136 92 170 179 199 118 139 179 127 142 94 159 79 78 155 113 150 104 95 100 89 64 81 137 131 120 129 86 77 94 101 144 86 62 59 60 71 107 133 99 138 109 90 100 64 66 58 79 91 113 131 99 139 109 88 147 93 113 118 110 93 73 107 86 145 89 126 137 84 112 170 215 192 177 82 77 181 187 102 203 191 187 91 120 179 165 91 64 68 112 71 95 78 87 160 197 189 108 90 103 175 197 165 212 164 195 160 151 159 94 98 99 149 166 150 144 166 156 81 89 116 153 165 148 135 85 164 158 73 106 78 181 118 94 198 195 174 154 255 79 151 74 64 139 96 104 90 118 110 184 115 199 177 78 177 180 180 111 188 175 104 127 131 180 157 176 141 97 102 109 148 146 87 172 178 179 180 180 139 174 198 88 86 165 142 103 195 142 117 204 200 116 126 121 172 178 177 165 154 152 80 92 78 109 81 156 83 159 176 80 116 161 108 93 158 137 201 199 96 85 93 183 115 115 153 121 107 150 132 153 46 77 144 192 176 108 198 99 86 94 103 108 146 196 126 87 101 158 93 92 113 116 117 103 176 109 97 168 146 103 110 128 100 117 90 52 66 97 111 142 110 186 152 152 43 64 71 151 190 132 151 96 123 107 150 67 146 53 154 149 89 165 174 142 179 89 118 141 130 105 77 116 112 97 89 146 135 155 141 177 142 62 163 177 168 118 121 131 170 95 109 93 82 94 181 112 112 187 76 151 169 153 159 97 107 158 204 167 140 150 181 207 180 109 86 152 66 90 92 145 184 165 162 203 122 206 220 163 138 93 84 148 165 125 120 116 95 164 85 100 126 74 94 87 183 125 179 83 163 157 48 114 110 137 156 187 208 137 173 111 172 169 77 130 186 116 164 165 168 138 180 137 147 135 107 140 119 132 158 103 105 168 81 106 127 77 124 159 134 191 112 143 133 140 88 112 67 54 97 170 180 90 100 123 113 102 102 145 92 107 159 87 151 151 105 156 156 180 92 192 190 116 119 97
120 125 133 142 150 160 171 188 196 183 179 163 157 165 179 185 200 192 175 157 166 152 152 166 162 151 142 151 169 179 178 172 165 171 177 184 190 185 183 190 185 190 200 191 178 175 152 178 158 205 201 175 143 179 142 164 125 89 90 144 149 184 171 161 168 88 135 146 159 114 145 158 162 139 163 149 168 139 82 109 74 168 109 129 139 87 73 70 113 69 74 61 63 255 78 118 105 101 122 117 123 90 86 60 71 112 94 84 146 95 110 95 89 76 132 168 147 104 162 70 136 87 122 72 78 74 151 103 193 215 149 96 166 167 88 121 112 104 194 168 83 99 96 183 170 164 149 64 76 188 116 172 88 194 146 120 175 145 133 204 154 215 125 101 108 77 109 63 117 120 105 131 154 98 85 77 125 176 167 158 163 172 100 168 125 58 87 76 97 150 95 188 191 158 105 142 149 91 106 114 150 109 97 106 137 187 114 162 144 110 182 166 166 75 85 181 154 95 189 172 186 94 118 141 210 180 186 179 146 103 107 137 79 80 175 102 107 124 119 95 181 173 78 178 168 190 192 196 199 105 108 202 147 197 107 120 149 146 59 143 154 86 87 152 163 66 178 85 94 180 129 174 124 189 199 160 185 137 189 142 109 201 124 120 161 111 76 110 145 50 108 93 206 200 155 182 101 102 89 199 125 92 99 103 169 125 98 90 78 62 118 118 100 133 91 93 184 141 109 94 86 153 159 103 111 136 101 135 73 125 80 112 97 67 121 124 113 104 205 198 94 85 71 61 61 71 54 144 140 140 120 191 174 189 115 158 60 77 175 168 176 201 186 164 165 113 112 107 86 140 68 178 183 144 146 104 138 167 148 88 121 159 117 141 112 135 147 128 161 72 161 188 197 154 138 185 197 147 190 168 153 170 156 105 161 74 92 80 90 194 113 151 229 152 152 124 206 185 167 125 162 68 145 172 94 81 101 70 128 145 73 80 114 179 177 134 175 161 137 120 122 111 105 83 159 212 115 116 165 165 90 115 120 145 179 165 136 80 150 82 76 137 167 156 135 132 128 79 172 162 80 156 144 121 94 71 145 193 129 98 91 159 96 115 62 100 158 77 174 143 191 142 207 170 198 95 102 115 160 102 179 187 113 68 168 86 171 155 154 103 82 65
100 113 128 146 162 169 184 191 188 170 159 146 135 138 154 182 187 184 180 173 152 152 154 157 154 150 145 146 165 188 202 197 189 178 167 162 168 173 170 179 186 188 200 191 165 177 187 176 193 156 198 194 165 167 180 175 160 83 86 105 114 171 191 177 153 92 120 83 108 157 184 160 85 118 118 94 155 159 144 89 148 84 91 118 93 82 91 93 75 133 63 130 78 76 92 95 110 105 80 74 113 102 80 85 76 73 76 69 110 71 103 74 104 94 102 129 135 103 83 121 138 43 89 133 101 86 160 167 145 106 128 100 166 109 192 112 195 198 191 128 114 87 86 174 185 157 131 109 138 192 178 144 187 106 185 134 85 80 183 106 166 165 158 143 158 119 88 86 168 171 113 125 119 180 83 170 74 171 123 170 161 127 96 160 146 129 164 149 200 205 105 141 92 145 126 91 100 171 166 187 172 184 130 158 159 145 130 159 131 172 158 100 140 57 172 144 125 180 107 97 144 166 164 191 187 207 209 139 97 157 113 128 138 146 90 99 133 222 215 189 174 72 158 68 169 151 171 157 108 100 161 146 196 189 163 163 114 151 137 160 108 144 80 140 169 113 112 94 94 103 142 132 154 94 183 151 171 100 132 89 179 204 115 195 128 201 137 69 62 55 70 142 109 131 110 146 110 177 93 94 102 118 141 98 120 98 120 181 105 113 81 132 200 135 89 147 159 76 70 52 68 46 52 151 59 45 84 104 58 73 94 112 66 114 159 173 85 194 208 255 198 195 84 166 163 169 139 123 146 125 166 197 109 133 113 168 66 97 75 158 98 151 180 115 176 181 108 145 158 103 155 104 176 201 173 181 155 86 73 155 154 167 105 194 96 189 115 161 146 140 73 181 135 161 121 193 113 142 167 127 174 75 103 83 156 68 67 96 92 135 150 202 195 157 149 150 104 165 155 97 185 80 179 98 158 94 178 168 82 165 75 82 152 89 140 112 183 160 99 110 52 139 71 76 145 165 173 131 157 98 180 189 179 101 158 149 155 120 153 104 134 155 88 149 147 145 106 156 97 175 82 165 115 119 160 85 165 90 187 169 153 186 112 100 175 168 150 156 87 124 159 119 172 160 136 182 200 118 120 161 120 172 106 99 102 104 148 157 114 162 84 126
96 108 126 148 160 173 179 183 172 157 150 131 137 133 140 155 174 177 178 154 159 145 141 140 139 151 148 147 177 197 219 218 205 184 169 160 165 170 181 181 179 187 188 173 187 179 166 162 153 171 186 166 179 154 176 142 146 142 147 169 157 137 146 161 156 112 73 139 123 130 139 172 177 101 154 93 96 82 115 70 78 145 136 111 83 114 79 75 77 121 79 83 80 86 91 73 66 61 102 103 73 84 129 85 76 106 67 57 54 49 58 97 91 91 98 86 142 161 100 76 51 52 77 106 140 95 102 119 157 198 194 90 190 116 124 162 164 196 89 180 175 169 79 110 165 148 105 74 166 196 200 197 144 169 99 116 97 150 194 147 195 172 70 80 122 137 79 157 117 172 195 200 195 137 112 143 93 150 133 163 143 123 74 139 159 83 135 87 175 118 158 135 101 187 173 162 117 112 124 194 140 84 178 89 134 118 173 95 78 124 101 135 125 116 70 142 121 136 115 140 88 155 196 197 147 155 202 198 182 156 42 114 51 59 79 196 123 154 197 154 159 59 132 133 67 98 154 139 154 147 209 217 142 175 171 160 116 116 147 157 125 138 166 133 103 180 114 195 181 184 177 166 66 114 95 182 186 137 115 169 119 167 188 102 129 105 114 106 150 89 69 134 167 111 200 175 87 68 91 76 73 79 95 175 153 178 82 116 105 176 125 103 178 91 91 73 63 63 154 139 42 45 52 68 71 138 45 127 149 123 174 84 158 148 173 156 178 129 205 128 120 138 197 139 163 162 172 164 157 103 152 170 197 165 119 98 169 77 68 98 124 110 144 168 131 186 150 136 134 108 61 155 103 117 184 143 117 88 125 129 123 90 133 86 89 186 150 84 125 62 101 76 106 167 136 126 162 95 100 94 183 96 157 71 114 123 133 73 92 121 168 140 129 212 156 174 91 201 175 130 141 151 86 179 99 173 82 69 168 175 148 73 97 113 133 154 118 142 169 119 163 87 168 140 164 202 168 181 193 198 165 109 187 128 77 69 157 77 70 76 98 200 177 195 171 132 157 158 109 182 178 173 100 147 106 172 132 170 101 171 150 94 180 121 149 170 137 149 135 169 115 177 75 79 167 72 88 211 219 149 168 152 132 167 138 91 84 78 114 110 140 44
105 112 125 140 156 163 167 167 152 150 134 129 124 134 146 162 169 178 172 158 147 127 131 138 143 161 147 162 185 205 233 232 217 188 172 159 164 171 186 180 173 171 173 169 177 176 168 163 162 158 139 127 145 187 162 179 165 135 147 118 133 98 92 161 79 118 139 119 178 161 196 104 95 129 172 87 106 131 147 116 73 124 135 117 101 79 129 77 92 72 78 116 128 111 67 49 44 83 67 70 74 99 114 103 91 91 74 102 103 72 106 109 99 134 118 96 88 112 117 50 107 88 98 100 179 102 121 99 154 167 118 82 121 109 105 102 100 153 194 115 81 174 180 93 187 174 111 133 185 122 166 207 196 181 116 161 212 208 168 197 92 84 116 68 103 104 140 127 137 133 125 144 157 187 95 85 105 133 111 167 143 67 168 164 118 148 156 157 136 108 172 134 138 78 161 190 124 120 117 109 183 178 152 159 170 142 154 182 178 117 82 160 95 150 62 166 128 121 149 89 108 184 190 189 186 208 198 135 157 100 79 108 35 72 146 181 175 171 124 68 149 51 93 129 137 64 74 120 108 98 117 196 216 171 125 154 167 62 143 56 52 128 81 178 98 200 202 197 130 120 94 174 99 65 153 73 153 135 162 164 128 88 110 177 151 113 207 164 103 183 82 106 97 103 164 108 115 60 90 132 55 153 139 80 131 144 117 171 93 171 91 190 173 100 82 145 94 168 133 80 87 112 90 63 80 53 45 141 141 61 68 101 118 123 127 140 128 90 198 201 212 198 141 178 139 103 169 74 106 91 148 187 124 143 135 138 115 141 54 134 150 198 137 184 181 168 101 194 117 165 96 98 90 84 183 164 132 174 123 134 86 174 96 109 119 195 83 71 153 67 146 181 147 96 167 127 147 101 140 89 168 74 147 82 183 189 147 113 164 152 178 115 178 182 97 67 104 102 115 178 148 176 180 185 126 198 145 170 73 146 104 172 255 160 69 173 103 143 105 180 145 117 165 87 80 192 96 125 189 171 132 175 84 104 158 139 156 176 81 151 150 170 212 113 145 141 177 181 161 99 179 78 187 132 114 195 175 99 168 137 72 174 92 122 189 121 120 71 77 85 80 173 67 65 152 84 89 107 185 129 222 126 133 171 156 79 180 124 161 148 39 92
114 117 127 138 147 147 139 137 141 137 125 128 134 148 145 155 169 166 156 139 136 142 141 146 155 165 174 178 181 214 231 230 211 196 171 164 175 180 199 187 159 149 153 161 168 178 172 176 170 156 127 160 179 187 172 148 106 125 111 142 93 124 130 110 162 155 146 133 111 117 182 179 109 127 142 94 156 96 90 99 155 94 107 88 127 117 124 82 120 100 78 131 91 67 107 33 30 55 59 72 100 108 88 77 65 82 62 103 123 93 87 107 172 210 192 103 78 59 56 59 64 113 160 151 114 75 66 69 108 171 141 72 79 156 151 167 110 211 177 145 110 150 182 182 147 89 173 124 161 184 207 175 107 150 160 211 109 118 184 191 150 178 124 150 51 151 117 137 176 176 113 112 203 96 99 148 145 155 163 97 123 113 136 165 162 176 150 136 82 100 142 180 123 170 169 201 213 124 130 111 175 142 107 91 189 185 189 139 92 136 127 163 66 116 136 86 197 186 202 190 86 157 171 161 167 108 107 124 149 157 139 39 49 152 134 101 93 139 136 124 49 154 99 56 68 150 101 159 87 180 203 141 212 109 196 93 178 79 158 53 115 150 170 104 122 185 186 164 159 105 82 173 145 169 163 176 97 102 150 114 92 152 96 97 102 124 121 194 145 114 191 90 151 141 90 88 81 132 119 124 39 73 102 151 99 131 89 66 159 126 173 121 104 140 62 55 61 105 146 84 93 54 49 98 69 78 121 52 41 47 87 115 73 181 86 144 182 170 184 154 101 153 87 124 131 59 117 76 157 171 82 104 157 94 154 111 63 144 80 122 173 100 123 111 82 153 175 155 148 102 138 143 144 178 184 126 92 82 153 180 184 103 150 129 168 196 180 160 90 103 111 116 125 158 180 182 189 174 192 178 158 126 154 149 177 91 116 81 81 164 174 150 199 98 82 133 69 128 94 182 129 110 151 107 173 180 142 160 140 177 83 126 158 155 172 179 113 111 85 162 166 162 165 85 165 187 195 187 129 140 154 151 158 167 176 165 170 140 106 100 195 117 203 99 94 142 94 130 133 139 171 76 185 116 171 255 185 167 120 73 149 166 139 123 154 77 85 108 176 91 255 80 96 66 65 72 161 119 114 168 219 129 113 137 79 109 183 99 143 87 80 45
112 117 130 140 144 130 122 115 123 121 129 136 138 146 156 178 159 154 139 142 142 146 153 167 167 178 182 186 194 210 220 222 216 196 182 172 183 196 193 186 166 159 151 157 154 156 193 195 178 149 155 154 160 161 178 160 145 102 134 160 148 148 172 143 110 166 103 133 168 137 97 166 89 116 163 169 146 175 169 148 143 139 154 125 94 128 92 120 96 86 75 116 135 69 76 57 73 85 102 80 131 88 88 85 97 80 68 71 117 79 98 176 144 148 136 109 149 88 100 66 82 186 119 195 103 93 87 127 66 86 77 101 167 163 173 154 213 224 217 175 145 114 82 158 170 120 139 69 140 123 126 196 214 204 204 214 196 110 120 163 109 137 155 156 156 117 104 174 100 148 198 138 198 169 169 113 168 61 117 153 57 128 167 162 163 138 177 177 88 78 94 138 77 153 89 131 127 165 118 160 168 95 136 138 186 104 192 169 114 140 161 86 179 76 153 139 177 196 106 168 118 156 150 171 110 112 179 94 172 135 70 133 54 126 154 57 83 113 141 145 139 69 167 183 88 128 107 107 181 194 203 108 187 172 157 107 184 85 65 142 61 121 117 182 202 223 183 177 184 177 166 129 175 145 122 157 130 169 164 143 141 100 114 170 171 116 152 191 170 132 89 191 100 147 140 99 90 86 154 46 66 118 131 161 136 78 156 55 159 88 186 92 94 115 136 52 80 88 147 103 104 107 103 79 77 91 58 85 97 88 56 63 70 154 182 86 130 165 70 75 105 79 161 75 31 138 98 144 75 85 106 82 169 177 99 155 161 69 105 135 112 186 95 118 178 167 188 149 185 71 115 117 162 163 158 139 177 170 149 102 123 176 151 176 180 141 149 168 147 158 155 173 187 119 150 97 173 158 117 123 129 145 66 170 173 171 149 177 106 86 105 111 157 205 131 54 56 142 167 143 176 65 67 161 162 90 135 176 77 147 132 126 117 175 78 101 114 166 170 179 89 128 100 167 124 94 165 178 83 174 165 92 153 107 139 192 183 198 157 204 106 175 177 156 86 115 106 91 95 158 69 163 147 177 163 100 151 169 93 132 152 160 168 156 189 80 173 140 114 137 134 191 191 111 117 169 88 81 76 171 98 194 163 117 147 84 85 191 117 94 50 98
111 122 142 150 143 127 115 107 122 128 139 144 139 156 156 163 164 144 139 144 146 161 168 173 196 201 191 193 189 203 210 211 197 190 178 185 195 203 204 196 182 172 163 153 165 187 201 184 200 172 160 149 157 171 132 172 133 151 127 163 168 152 130 194 194 195 133 115 105 105 134 125 140 154 192 114 138 112 96 141 166 104 91 141 102 99 136 141 91 110 85 130 75 83 76 68 64 73 125 82 80 104 115 77 84 80 113 119 76 74 103 101 155 133 164 128 94 85 64 88 172 187 137 164 112 103 161 155 81 129 183 90 172 111 86 195 201 124 136 205 173 196 178 65 149 115 111 145 172 174 165 194 188 218 185 184 186 93 154 96 130 176 144 81 101 147 110 164 82 186 183 191 124 188 179 166 112 164 161 129 164 174 186 183 191 165 176 106 100 78 166 68 164 121 176 132 189 136 121 80 172 78 78 181 138 198 114 116 181 181 116 162 255 154 90 133 87 156 114 171 90 78 148 167 68 161 154 179 176 163 162 114 94 87 75 78 128 56 99 156 164 176 101 117 158 177 190 185 123 197 95 194 102 166 108 158 157 121 130 64 130 168 81 201 157 146 109 155 98 132 78 111 177 189 93 128 139 118 100 185 137 119 165 96 184 190 172 175 127 92 83 186 110 170 148 183 111 174 93 140 72 97 105 187 143 75 51 54 152 68 134 93 116 106 84 74 129 144 123 108 151 125 132 113 80 115 159 75 82 66 80 115 165 170 152 159 155 56 129 62 146 132 59 80 61 122 67 105 146 139 76 112 77 134 86 108 149 70 113 138 175 172 197 169 193 182 96 106 119 115 127 62 83 168 99 123 150 169 183 94 116 184 103 170 76 94 91 177 164 117 180 93 153 101 100 71 159 111 73 106 112 93 66 106 184 140 137 158 80 87 142 198 211 126 100 70 48 108 100 91 166 94 71 175 153 82 141 89 153 190 108 103 163 124 187 107 178 77 144 93 114 124 77 171 169 156 84 76 84 158 55 98 84 168 180 180 111 193 203 204 107 170 81 118 81 153 188 158 187 175 132 128 61 59 156 166 95 134 79 163 75 165 87 166 92 170 163 107 141 107 114 136 208 204 197 92 141 87 68 120 161 93 173 99 168 120 102 181 162 86 54 45
124 140 157 162 150 123 115 106 122 142 150 142 150 141 154 165 154 161 148 155 154 154 168 192 194 206 201 193 189 185 193 194 184 175 177 188 198 215 213 206 195 178 174 161 160 180 174 172 200 175 179 137 161 128 159 155 161 170 103 160 152 171 145 186 148 156 182 172 122 93 141 126 96 186 156 137 114 180 96 96 133 162 87 109 141 103 101 94 100 83 81 97 81 98 87 84 96 70 111 78 80 80 89 121 87 136 123 82 73 70 65 114 126 132 101 107 93 87 117 81 180 107 92 168 85 103 124 94 103 207 153 97 168 99 98 176 100 207 220 118 110 183 162 128 150 84 156 154 177 182 200 160 174 200 210 104 130 160 112 163 174 91 148 153 107 112 60 142 135 162 184 115 104 93 175 118 176 171 140 101 101 162 178 159 225 140 213 171 178 168 69 154 149 69 115 122 115 171 181 104 136 130 148 194 102 126 169 138 104 94 166 130 107 185 135 175 130 87 170 177 185 178 94 137 73 93 77 125 172 174 81 170 125 139 49 78 35 49 102 101 88 129 93 165 195 196 195 199 184 193 130 105 193 181 191 139 194 160 110 113 118 84 158 171 213 210 189 115 167 110 114 103 162 169 136 191 96 138 94 171 101 82 114 129 188 95 88 82 167 168 169 92 178 109 107 133 141 105 82 176 181 103 195 124 165 59 53 53 73 87 66 108 109 141 67 69 54 55 126 88 134 120 63 56 153 59 96 64 86 127 128 126 62 66 163 109 98 108 54 141 154 109 110 69 34 33 138 120 173 176 75 74 174 178 102 75 165 157 165 152 92 140 204 188 197 183 171 176 75 80 128 59 94 124 180 130 169 180 144 187 168 182 160 85 138 159 87 177 168 83 139 166 124 63 158 113 149 132 82 73 49 71 78 104 192 83 83 115 87 102 125 166 233 144 99 108 146 130 58 158 160 79 169 188 148 153 191 127 188 119 109 208 148 122 159 177 155 90 170 134 114 142 87 97 90 103 68 73 68 51 53 74 82 99 191 181 200 203 171 112 199 89 81 158 97 255 84 134 176 142 95 71 71 88 131 113 169 135 163 100 181 133 94 180 194 90 148 163 153 133 163 137 172 209 162 142 98 118 89 51 142 112 85 147 157 74 188 159 103 85 73 75
155 167 177 170 151 122 109 110 127 138 156 159 149 150 155 164 168 152 155 160 156 162 172 183 202 193 195 182 173 176 174 172 172 168 175 191 210 221 229 222 195 171 158 160 156 174 192 181 194 203 192 160 113 102 100 134 167 166 150 162 130 127 148 174 157 122 188 179 103 90 139 91 105 140 133 119 170 103 138 86 94 154 80 153 149 156 91 87 86 79 107 72 128 89 132 87 106 99 68 67 73 78 92 126 104 92 131 88 83 64 70 83 93 124 165 95 153 158 88 118 110 89 66 77 87 98 116 113 115 125 105 91 88 65 66 70 145 93 103 200 179 101 165 162 158 150 165 105 83 92 127 204 159 184 111 92 162 72 91 98 108 163 115 165 116 108 153 66 140 158 168 117 167 91 185 160 170 161 179 174 118 189 111 204 181 196 119 176 119 84 114 101 172 171 127 147 194 96 189 78 162 96 164 92 105 194 100 189 139 106 177 94 144 205 116 190 162 153 156 190 178 83 88 186 93 142 85 168 178 181 113 92 158 146 58 136 135 126 156 160 159 185 133 101 94 182 186 132 168 98 153 136 171 118 187 189 203 139 129 180 110 164 180 180 198 191 95 112 107 177 99 123 140 151 99 109 103 198 160 179 94 118 110 91 87 175 113 76 170 167 66 174 87 83 181 132 166 110 123 202 116 255 149 127 103 77 62 149 152 63 75 92 80 124 62 60 82 101 79 86 104 98 158 55 56 130 150 87 176 128 117 91 125 166 105 121 157 153 63 152 113 125 151 124 137 132 143 156 134 82 91 78 165 175 184 173 176 173 154 123 181 210 189 128 168 196 186 143 104 108 168 168 102 128 163 112 90 102 119 183 113 99 163 164 90 174 146 170 89 118 81 146 132 59 71 127 61 65 154 164 66 153 107 128 179 160 144 85 186 155 98 145 171 137 105 84 162 155 155 132 147 74 93 189 189 151 96 115 165 172 111 211 181 210 130 97 172 99 125 140 102 197 134 154 123 150 108 66 138 65 57 147 138 147 133 170 200 179 144 124 112 133 188 191 160 133 129 93 111 147 58 85 36 132 135 78 64 91 172 177 183 82 77 89 167 129 132 173 134 144 106 190 199 158 98 93 96 146 64 50 40 146 63 83 100 176 175 121 143 122 159 186
181 185 184 168 145 124 120 117 127 125 139 160 157 160 255 172 174 171 167 158 146 151 156 180 198 191 179 162 168 165 169 165 158 159 167 194 212 237 237 231 205 181 157 134 144 159 166 200 191 208 203 155 158 142 126 116 95 154 172 171 112 104 150 95 101 104 148 128 105 127 98 181 114 144 122 119 170 127 166 85 108 143 94 77 89 113 151 90 79 78 101 72 66 77 88 98 99 76 113 83 113 65 72 127 104 94 110 91 121 97 85 118 88 145 84 102 143 160 78 92 70 55 58 109 52 85 100 204 117 106 178 98 161 158 103 121 121 121 118 130 99 169 83 158 152 166 104 153 85 128 94 160 85 84 173 78 91 94 107 155 147 144 168 125 138 166 88 144 127 75 157 136 142 189 144 196 176 193 109 189 145 91 183 139 144 192 141 108 118 165 163 136 169 79 68 79 181 110 126 169 86 63 72 107 101 135 139 113 89 97 120 133 95 167 190 173 165 70 111 133 172 106 93 104 95 144 178 105 160 72 141 152 84 48 129 141 85 59 130 105 120 101 194 178 129 146 161 193 172 169 92 176 186 126 217 178 197 109 143 106 143 188 186 192 163 125 83 153 175 175 168 163 199 191 173 199 192 154 88 84 123 71 169 91 81 101 159 86 99 128 112 129 66 97 58 69 155 64 99 192 224 146 125 136 91 161 56 60 125 140 70 70 72 80 70 68 162 70 80 189 205 202 161 81 58 71 77 90 125 75 172 123 137 169 182 168 168 69 165 167 85 159 92 105 125 150 127 165 100 157 160 165 71 102 184 184 106 152 83 165 179 199 130 175 206 162 183 175 143 194 183 98 101 143 107 171 203 149 156 178 114 171 158 80 163 185 171 175 148 153 80 151 120 167 90 167 108 113 59 161 174 101 179 203 134 199 159 102 172 181 85 201 113 161 195 120 165 96 139 128 160 90 115 185 148 157 161 179 191 106 169 100 125 190 201 139 155 102 182 209 114 184 170 180 136 123 72 66 69 170 159 113 160 158 91 192 205 211 148 205 201 181 149 201 137 198 103 130 195 158 135 84 134 88 66 141 98 133 157 82 105 79 125 127 110 92 87 125 168 171 131 115 206 202 202 116 114 169 104 155 56 44 134 108 145 192 94 126 186 170 97 96
189 187 177 154 138 123 124 130 124 120 139 158 156 159 176 176 174 164 170 144 153 138 160 168 191 186 161 165 163 164 162 156 147 151 168 195 222 232 237 213 197 173 149 137 140 135 181 161 206 211 191 148 155 140 87 91 140 163 153 128 155 164 148 158 99 108 156 115 92 111 158 132 155 160 156 82 81 132 88 79 87 89 124 62 96 101 86 66 68 90 73 59 84 131 140 100 79 81 96 101 73 108 79 69 122 117 117 112 129 73 88 116 89 131 132 131 69 145 109 106 60 98 58 55 143 60 169 106 100 96 192 96 103 152 157 63 87 160 118 111 133 124 183 176 169 174 119 139 90 177 162 179 100 68 60 146 112 64 81 83 137 171 179 187 149 150 99 112 135 149 162 99 149 150 147 181 133 115 182 89 159 175 154 107 182 171 180 169 95 118 148 172 121 58 156 163 80 98 255 159 77 90 171 192 117 151 158 162 141 80 168 138 86 174 116 67 55 135 106 169 77 175 84 149 145 186 177 157 165 90 141 82 122 139 115 133 58 82 131 184 194 198 100 152 134 59 136 189 103 155 175 173 173 116 146 178 123 138 171 163 202 191 152 134 154 255 116 132 170 96 173 165 215 182 117 165 154 111 162 173 100 102 78 115 82 185 140 108 151 128 125 59 136 150 126 44 74 139 164 125 129 106 199 184 95 149 135 92 174 166 73 69 71 153 76 72 91 145 97 148 106 117 173 94 73 114 126 174 109 179 174 161 160 173 90 115 80 173 188 153 137 90 92 129 179 135 169 103 138 171 71 84 137 124 134 147 148 87 171 128 172 177 159 128 112 127 154 177 210 120 167 112 141 164 145 144 141 122 134 120 161 181 103 81 177 171 132 124 150 143 141 143 139 79 177 116 65 122 66 67 75 171 88 195 98 163 193 83 161 114 169 83 112 98 172 138 116 168 137 66 66 88 166 134 174 173 87 184 192 152 105 125 141 94 97 115 132 176 116 136 206 110 106 190 173 81 163 157 172 183 139 65 164 159 91 198 171 184 195 166 156 164 105 203 194 198 121 159 124 188 128 102 129 72 82 66 90 111 79 187 136 160 104 132 65 57 124 97 159 120 211 141 193 199 133 130 172 120 166 97 45 62 109 89 186 158 89 110 175 115 189 92
178 172 158 132 123 122 132 132 131 128 129 149 159 171 168 159 161 157 161 159 149 143 165 171 183 176 164 164 170 171 171 157 148 146 169 195 215 224 211 203 181 166 160 152 138 151 177 192 183 193 167 163 98 136 136 141 112 139 163 187 169 162 144 104 119 150 126 111 157 157 152 117 124 83 83 140 134 117 143 94 73 66 54 100 255 55 69 64 70 56 66 76 116 82 85 109 96 115 119 125 103 98 69 76 114 88 89 116 111 90 87 101 97 84 72 79 71 90 62 87 69 49 37 35 94 67 74 72 119 86 94 113 161 90 148 151 153 177 166 170 200 105 131 183 150 182 180 183 109 87 88 156 64 102 135 145 164 155 134 109 156 162 114 183 188 110 114 101 63 152 82 171 129 209 204 231 138 209 94 106 167 191 156 123 184 131 182 173 169 167 85 139 82 153 123 105 145 117 193 156 168 127 189 194 191 209 101 103 186 114 141 156 96 83 113 133 133 63 60 97 108 75 102 95 169 133 172 144 90 128 107 48 58 81 90 81 171 134 144 178 134 197 195 181 138 111 113 169 173 88 170 172 175 124 184 196 84 162 165 145 110 118 159 145 86 88 152 113 155 162 160 123 187 117 198 137 146 119 178 131 132 161 153 174 102 77 81 83 79 110 71 149 74 96 123 48 113 94 94 114 102 175 173 137 141 104 182 101 76 70 157 82 112 73 67 69 77 172 86 144 174 151 191 140 170 157 103 145 148 132 114 151 193 105 98 184 130 171 101 187 202 184 99 106 109 102 136 179 118 74 148 161 72 146 172 117 184 127 126 172 158 72 164 130 187 122 165 140 156 186 110 114 143 152 206 121 104 116 195 157 138 140 168 153 140 152 92 130 154 80 70 129 85 90 118 123 62 152 65 81 162 169 135 178 184 121 105 178 62 117 148 148 171 116 158 152 93 170 163 76 95 167 95 124 134 87 69 177 184 119 169 118 134 147 93 143 95 191 204 205 144 205 125 192 102 152 82 97 140 185 176 160 80 166 102 91 128 118 151 142 116 106 160 115 95 116 135 215 156 101 188 156 102 135 158 156 165 76 84 94 101 142 178 70 148 87 139 156 199 118 210 135 185 99 213 186 214 205 133 136 62 125 51 169 151 167 175 97 170 92 115 105
168 160 141 114 107 108 126 135 129 126 135 139 154 154 152 157 154 140 147 168 170 157 168 168 168 162 166 172 182 187 191 174 160 158 172 189 205 205 199 188 185 176 172 176 179 189 188 190 175 155 119 121 103 90 143 132 137 187 176 143 170 165 124 86 143 99 178 160 120 166 182 155 114 125 93 87 59 65 112 58 59 63 90 41 49 59 127 114 60 115 97 51 93 77 97 94 97 118 128 100 76 91 63 65 99 117 76 69 129 72 100 99 103 158 69 54 49 53 59 91 104 43 72 80 98 100 144 173 139 92 91 83 174 106 183 85 176 78 158 154 187 120 91 137 181 154 88 74 78 121 134 148 160 161 162 165 132 133 89 155 128 126 89 172 113 130 144 106 97 169 142 82 173 179 124 168 221 110 144 136 177 172 158 146 216 199 189 97 255 72 97 80 140 127 143 109 101 179 127 183 97 110 105 125 109 109 116 120 151 102 140 105 92 153 54 52 136 113 176 143 135 145 133 140 82 179 160 140 141 159 165 111 158 149 176 110 83 168 107 74 182 183 99 89 80 112 172 182 167 119 166 149 125 110 195 173 150 83 56 163 148 111 134 182 163 100 135 123 79 100 148 123 102 164 124 190 93 151 194 196 214 142 197 153 111 147 67 56 53 57 135 99 112 168 80 69 74 69 75 85 74 144 84 90 177 156 190 117 157 73 174 89 101 156 58 119 90 152 136 80 184 144 145 68 163 108 157 149 189 201 98 86 182 177 90 96 91 154 107 255 195 192 197 196 203 210 95 181 80 174 152 87 151 97 111 201 99 146 185 88 179 73 88 166 144 143 154 119 159 160 107 140 171 175 185 177 193 191 123 189 169 173 114 182 109 121 93 139 59 136 92 173 86 187 92 140 156 99 139 89 106 159 105 165 132 173 126 111 58 138 104 165 161 106 123 169 101 86 179 164 169 96 174 97 155 177 87 72 137 86 164 187 168 105 114 173 89 184 94 201 110 211 187 202 205 103 194 199 138 162 178 84 133 74 128 181 187 162 95 128 76 169 86 160 83 92 167 118 131 104 186 88 158 56 151 73 129 172 101 139 108 105 155 143 107 161 94 117 121 126 147 84 116 117 107 161 154 202 123 99 42 127 46 56 164 73 82 53 141 84 73 99
162 150 127 97 92 97 121 129 128 120 117 127 143 150 149 149 131 143 155 172 180 179 168 171 164 164 159 179 197 212 207 205 189 170 168 175 184 192 191 187 183 161 180 185 194 198 196 187 137 161 106 104 90 144 138 158 168 140 210 213 157 107 134 133 114 106 190 184 144 170 142 165 86 100 67 130 54 134 102 78 74 51 60 40 80 69 127 78 123 40 42 31 46 76 86 101 96 93 111 98 125 88 85 70 103 78 74 67 103 137 106 82 163 99 81 66 117 150 164 75 150 122 85 51 61 66 124 171 190 86 127 77 95 149 99 198 96 145 121 139 89 182 137 179 142 176 82 162 145 169 181 106 179 172 94 191 202 142 110 143 87 45 136 147 182 199 157 167 187 163 144 183 182 142 192 203 112 163 188 148 167 98 173 123 150 125 86 115 68 170 78 127 127 145 132 109 163 142 200 118 215 185 117 199 201 173 102 125 82 164 146 179 171 96 48 86 68 119 100 189 114 54 138 72 71 119 198 202 203 159 82 87 175 132 172 153 182 123 106 135 163 64 159 150 119 144 73 105 87 125 162 138 163 95 100 86 152 81 103 54 165 170 166 107 98 134 174 165 140 113 137 121 116 78 82 169 83 150 115 151 220 143 115 111 118 155 93 58 43 126 169 155 95 107 103 151 164 74 153 124 71 113 47 74 74 99 126 111 66 62 151 103 165 155 85 58 156 165 84 111 86 176 149 74 145 96 92 197 188 101 89 161 62 157 75 174 189 200 215 135 191 124 89 163 206 185 150 132 169 74 169 135 130 147 163 109 132 101 156 120 173 146 106 125 171 105 107 152 189 173 180 73 142 145 142 176 131 172 177 168 183 184 170 112 194 126 178 110 96 67 66 172 83 137 182 166 137 172 161 59 111 151 139 201 209 119 158 76 162 124 165 140 132 176 93 142 131 107 174 178 170 255 172 81 181 115 139 166 73 84 113 163 161 152 135 164 80 119 162 125 105 201 106 209 178 158 197 128 188 118 95 169 76 160 85 70 156 104 86 78 159 172 99 81 175 188 198 142 135 106 123 120 147 47 129 116 131 165 178 157 170 140 97 193 128 145 123 116 148 122 160 127 84 146 100 194 113 93 165 138 123 26 74 139 71 85 140 66 58 136 160 180
161 148 124 95 87 96 122 136 132 117 110 128 142 160 159 146 134 133 149 168 184 175 179 176 156 167 171 174 198 211 220 219 200 176 161 159 171 181 194 191 187 173 178 180 182 195 191 169 145 141 131 116 147 163 151 127 137 203 162 159 145 116 108 101 113 165 140 183 163 173 168 136 162 111 132 89 124 107 140 80 138 138 59 64 86 75 84 92 90 67 31 40 37 71 88 127 97 94 107 120 137 92 71 79 60 59 118 74 92 107 124 73 148 109 92 114 131 101 90 83 78 99 109 143 140 93 125 82 179 189 171 81 115 155 176 139 107 180 171 163 78 77 148 141 176 175 159 136 153 99 181 129 152 169 135 199 204 119 189 154 139 89 123 166 185 198 181 176 120 173 115 191 100 160 96 161 180 179 185 184 179 170 153 147 119 199 126 158 69 166 176 100 106 174 166 71 92 143 193 136 137 192 198 108 92 162 167 107 167 91 129 130 159 77 51 121 71 188 149 119 183 60 61 148 87 255 108 210 170 103 104 92 119 133 160 110 83 81 173 70 156 52 113 129 51 152 86 176 136 85 174 117 170 96 125 183 160 145 144 145 132 178 142 188 176 134 87 255 120 157 60 72 54 159 99 68 153 135 91 142 113 140 178 106 139 134 55 50 149 131 82 175 95 150 89 85 163 139 114 76 73 82 105 106 98 188 153 85 123 63 89 70 143 60 132 70 78 137 82 126 170 104 81 82 84 79 135 101 103 103 150 111 138 49 73 90 155 124 210 149 152 76 85 194 145 156 148 75 169 73 99 119 150 208 142 108 185 176 178 92 123 199 188 86 95 203 114 159 189 154 89 150 128 140 159 91 147 81 74 175 144 99 196 202 204 151 189 97 167 86 146 127 119 176 139 178 125 134 91 74 82 88 170 172 146 114 102 181 83 165 173 130 82 83 129 115 149 108 122 88 119 110 97 169 169 75 86 122 171 89 115 105 163 124 100 123 141 156 183 120 197 96 158 212 208 189 132 106 185 170 174 148 149 53 47 82 171 84 187 96 155 86 76 148 167 92 147 118 114 98 176 139 68 144 113 106 71 82 168 164 173 173 115 159 175 178 180 134 91 169 70 152 98 121 87 109 169 89 76 51 75 108 30 44 69 72 158 93 76 86 113 181
152 140 121 100 91 104 120 142 137 125 116 123 144 162 152 146 140 145 155 172 182 179 189 179 175 170 179 179 191 217 222 206 188 161 148 148 163 182 195 195 169 162 162 169 180 160 152 165 146 127 124 130 146 142 147 185 168 156 192 166 166 165 152 169 186 169 197 135 170 159 180 130 107 100 124 100 77 120 110 98 130 152 163 152 89 83 88 111 134 59 101 43 57 66 82 100 118 115 143 112 108 113 117 109 67 64 89 104 97 142 94 78 74 119 137 166 123 120 116 105 172 157 70 66 118 59 52 60 169 176 125 72 142 162 172 108 195 85 79 86 176 82 183 101 154 160 167 62 148 169 167 166 173 84 114 198 126 166 112 151 161 157 167 182 161 177 151 158 144 201 129 124 102 98 99 109 188 198 195 119 91 187 116 137 125 146 100 89 148 166 107 196 152 179 130 63 62 86 111 158 170 195 112 87 134 137 110 108 171 150 174 187 171 120 128 151 139 106 107 197 82 70 146 82 168 180 105 202 155 152 93 169 179 181 151 170 95 121 90 69 157 149 72 88 93 165 187 195 157 183 84 157 157 127 101 119 148 79 152 114 72 181 153 142 189 82 88 125 106 49 99 61 87 87 53 156 155 130 153 112 96 138 94 99 139 62 65 59 131 85 103 166 148 149 178 162 128 150 131 107 82 151 105 157 183 128 138 185 105 66 155 144 81 55 57 86 102 105 145 163 80 91 129 91 91 72 166 176 101 113 89 161 152 148 66 98 188 184 121 89 80 102 150 90 114 149 88 143 89 172 165 174 93 200 196 196 178 109 94 131 186 174 103 129 175 108 150 155 121 105 139 170 138 139 114 143 163 169 90 127 76 88 172 162 202 176 128 129 176 123 105 171 98 162 116 148 186 184 194 124 82 82 175 204 125 132 192 159 80 73 145 147 170 74 65 79 61 155 140 117 143 113 73 153 162 173 175 77 112 127 136 181 121 158 72 147 97 80 87 181 106 138 94 101 114 116 211 186 98 191 192 89 77 62 37 59 170 143 182 92 84 137 164 154 144 101 77 102 87 192 188 136 108 141 124 134 104 159 162 125 191 162 105 106 96 175 107 88 132 92 132 114 48 52 83 83 127 117 162 159 44 103 100 87 153 85 112 65 118 175 178 99
146 141 130 111 101 106 124 141 144 143 137 150 157 159 160 152 144 131 142 152 179 197 176 186 184 187 186 185 195 193 198 192 175 154 142 140 152 174 187 187 174 164 151 140 163 166 147 155 141 140 167 119 149 159 179 176 152 205 210 171 162 140 179 142 174 220 210 154 185 132 171 114 112 129 94 86 125 83 114 109 101 105 147 120 123 129 95 96 87 78 68 75 47 120 95 142 128 125 148 111 112 133 100 78 85 83 108 123 164 88 81 100 64 110 111 149 156 132 122 125 128 95 159 72 79 123 111 39 83 154 124 63 66 71 81 85 180 71 133 165 134 193 191 94 92 176 87 137 136 174 159 182 179 173 180 98 190 134 130 84 125 185 180 192 192 216 153 132 206 119 131 118 108 143 161 169 110 134 175 154 145 92 183 187 113 123 99 64 139 120 96 135 92 82 167 161 63 146 88 134 92 174 168 163 195 211 143 199 139 177 81 96 148 172 88 91 162 80 170 180 134 157 118 165 77 92 195 176 159 157 94 93 181 180 177 81 149 82 156 175 167 67 90 116 97 119 147 205 112 111 102 127 142 186 146 108 163 126 123 164 89 81 164 123 192 181 145 131 109 98 138 112 148 103 128 53 68 152 149 148 84 140 80 106 99 117 152 87 121 94 90 160 96 141 98 110 110 69 160 76 141 163 79 79 180 107 133 187 118 95 128 71 143 86 102 86 96 103 183 92 70 74 68 159 94 158 103 153 192 178 204 95 106 167 142 71 177 90 139 170 73 73 155 161 171 128 171 76 79 173 179 175 111 135 192 113 134 99 160 162 82 189 111 169 159 158 186 178 184 91 167 134 71 123 80 140 83 157 100 102 72 140 151 167 108 126 136 202 194 126 140 79 97 152 65 106 145 97 180 188 125 123 140 183 103 199 179 117 165 156 156 94 170 153 122 101 72 160 168 149 104 182 119 112 75 146 155 87 123 131 181 181 169 75 105 100 116 127 123 101 176 136 139 159 203 208 203 106 194 194 139 186 136 146 138 51 70 138 177 152 175 151 76 76 95 145 140 118 167 119 191 92 178 128 77 93 128 81 186 104 139 162 157 114 113 106 111 182 148 171 69 73 45 60 67 104 117 203 137 174 89 62 153 81 96 92 81 174 90 180 90 156
135 135 133 123 115 113 126 142 144 154 148 161 169 162 155 156 134 123 132 146 167 186 181 171 173 174 178 174 177 184 184 175 163 151 141 141 150 168 174 171 165 149 144 155 158 157 155 141 141 185 172 163 143 148 170 172 191 153 206 176 195 125 181 201 166 176 174 147 161 159 118 112 103 80 73 77 151 75 133 108 142 156 116 107 104 92 119 105 123 87 99 46 97 71 107 163 136 133 114 117 91 93 127 78 82 131 100 101 153 107 64 83 78 85 175 137 191 142 221 119 119 97 130 81 83 55 28 37 112 122 38 126 137 64 168 158 63 54 96 167 136 133 110 132 187 75 124 173 90 113 168 174 171 85 95 173 97 133 169 165 124 180 186 115 202 204 217 215 143 153 138 99 154 163 102 90 183 174 152 88 183 160 175 163 138 158 129 62 82 102 144 91 133 152 83 63 83 78 103 82 107 159 167 90 205 218 178 172 104 80 74 74 126 104 255 108 134 177 185 128 81 140 96 115 83 99 140 203 188 178 90 160 176 104 170 170 162 156 171 172 89 84 184 138 194 202 196 171 203 203 205 176 206 133 156 155 84 118 96 65 143 82 162 121 172 137 158 70 76 122 255 80 111 66 83 89 106 161 110 108 129 91 83 126 99 178 95 115 148 92 91 98 158 130 136 178 169 109 123 163 168 111 78 74 94 84 126 138 164 111 125 68 162 87 145 138 80 186 83 106 150 78 60 153 186 197 142 148 185 150 171 169 159 125 132 118 140 144 154 121 146 180 185 107 88 156 118 122 157 132 171 182 98 144 160 188 90 117 86 171 150 81 180 170 76 161 139 168 156 86 94 87 97 163 124 81 74 169 156 163 75 178 182 195 153 98 96 169 108 215 114 133 163 54 113 158 142 88 178 104 121 185 102 97 177 110 120 162 81 120 154 98 110 90 169 83 84 97 89 140 153 182 181 183 156 90 101 95 172 191 174 177 172 110 78 171 78 68 117 163 124 158 88 157 184 100 147 118 206 158 147 122 178 59 48 142 160 172 92 152 151 84 106 165 161 118 115 80 156 107 131 123 185 128 111 99 71 127 113 139 136 101 124 100 98 126 102 107 140 186 78 61 63 145 71 72 99 202 115 112 90 83 146 59 79 115 88 175 92 101 118 92
133 135 134 131 124 115 124 141 145 146 164 170 171 164 157 134 136 126 116 144 159 177 172 157 159 163 156 155 158 162 164 161 159 156 147 145 144 162 172 157 156 141 150 154 155 135 145 170 184 146 133 157 164 164 193 155 138 166 149 188 143 185 197 187 205 161 178 159 255 148 142 117 57 52 97 96 70 127 77 119 94 158 111 165 96 100 103 120 154 100 110 99 97 115 120 146 129 155 108 149 110 88 89 76 89 111 118 96 117 150 75 73 117 80 132 184 143 187 217 159 183 102 95 183 69 66 48 77 89 123 28 26 119 132 56 48 84 113 145 94 181 91 107 90 79 69 174 96 190 123 199 188 132 139 160 108 79 60 159 159 148 176 162 192 197 198 155 171 188 138 196 145 127 159 90 171 88 186 167 192 188 179 156 136 173 80 168 164 97 167 171 126 155 147 148 162 75 127 133 74 67 163 86 184 107 206 123 189 134 157 76 147 148 181 148 89 153 106 132 129 164 137 107 178 107 117 201 136 112 171 96 151 165 135 66 100 91 64 103 148 86 92 95 196 107 197 166 169 151 142 194 210 136 210 195 137 169 158 121 154 120 170 188 132 106 98 148 154 145 80 152 112 89 154 143 141 112 183 141 109 107 149 99 163 108 144 141 119 86 185 188 129 138 107 88 86 98 66 85 66 99 136 101 126 87 91 109 110 101 190 104 65 106 112 71 67 154 180 152 71 100 126 67 158 177 194 213 229 232 224 197 199 127 140 108 192 153 123 163 185 178 85 123 82 81 154 193 130 216 224 190 156 115 166 183 101 193 189 255 168 127 143 148 177 168 89 58 161 118 169 163 115 94 141 160 90 151 156 119 122 86 136 145 196 180 149 146 158 163 110 214 152 104 134 71 170 88 107 67 164 165 103 119 136 102 194 85 161 124 118 146 78 98 194 189 101 97 121 188 102 163 147 90 188 111 126 162 132 160 185 82 83 169 87 117 84 77 156 157 102 160 114 159 167 105 143 188 139 176 223 222 195 90 71 114 167 69 137 89 170 171 179 182 192 107 162 104 105 167 169 89 187 94 173 105 112 124 157 181 108 117 182 201 208 195 168 99 87 139 135 158 175 75 70 100 70 80 101 99 172 131 77 80 80 93 134 202 112 153 187 154 106
133 133 131 125 124 131 141 148 152 145 157 167 170 175 152 143 137 130 118 133 151 153 161 151 135 127 135 128 125 146 155 165 162 159 152 146 159 171 174 172 160 151 156 166 164 144 158 173 162 191 142 132 148 179 198 170 158 151 168 108 179 166 173 155 157 131 111 124 84 155 147 59 88 117 60 131 55 62 103 111 91 157 143 99 97 98 158 130 180 106 131 93 50 108 112 101 120 146 115 95 127 119 80 62 94 86 91 85 86 96 119 55 105 84 152 173 140 194 137 128 164 112 172 146 94 174 117 69 122 27 19 24 33 74 129 54 94 47 137 97 78 83 93 161 174 108 136 195 206 152 203 128 79 74 137 126 114 144 169 171 76 143 189 154 128 179 92 116 116 188 133 189 157 91 150 148 121 192 125 143 111 186 79 127 178 77 100 107 56 75 161 102 184 173 186 140 87 78 150 172 78 155 183 92 126 98 90 125 170 133 160 137 161 91 153 144 124 77 187 195 173 112 162 192 126 193 141 179 166 171 122 154 123 154 54 92 132 155 125 159 151 110 174 109 174 188 187 198 112 170 201 189 131 209 202 158 76 122 99 53 59 168 172 149 187 129 164 110 85 173 193 118 182 179 156 93 114 193 105 163 169 103 119 200 168 153 95 120 185 194 198 189 181 91 85 175 91 60 154 55 66 166 175 79 167 158 135 112 130 182 151 91 126 73 71 99 73 84 74 147 161 57 150 98 175 209 144 133 147 193 207 102 136 205 114 196 121 179 150 123 179 161 137 178 180 179 91 130 170 140 158 126 166 171 111 155 92 145 90 101 111 179 158 114 166 57 148 129 109 173 158 150 161 100 116 162 167 147 84 178 196 196 172 107 198 92 187 94 147 147 165 187 96 81 78 154 128 72 66 90 153 92 191 208 101 160 84 182 145 156 155 255 148 94 108 184 89 114 129 192 157 187 148 115 145 152 118 157 180 174 118 181 146 157 187 82 171 81 76 70 79 135 162 101 156 172 93 110 156 143 209 203 175 167 161 74 166 145 71 160 171 170 175 192 202 94 175 136 144 169 140 113 120 180 182 162 83 174 184 189 185 216 130 163 109 112 116 179 141 140 177 115 173 165 90 100 122 87 120 176 177 67 140 178 186 219 255 238 172 203 97 100
143 138 129 117 120 130 144 153 152 148 155 167 187 182 166 129 119 134 142 138 154 160 158 137 139 128 124 122 133 143 157 165 163 159 156 155 162 173 179 172 165 165 156 183 180 177 174 188 174 162 153 146 159 149 189 185 159 152 120 140 179 174 142 166 194 154 85 129 136 99 99 138 69 64 66 50 111 55 66 77 86 111 94 122 83 112 133 164 150 110 93 96 80 58 77 255 83 136 100 105 112 100 96 99 107 113 113 74 110 72 72 73 126 73 90 127 185 197 144 122 148 146 110 135 126 135 100 87 78 51 119 40 35 48 48 58 158 87 89 175 183 97 75 163 161 115 166 107 138 195 190 203 97 159 60 132 59 169 139 160 63 170 94 198 118 185 156 181 108 93 111 177 104 175 147 89 100 117 138 134 201 196 154 179 84 76 164 124 71 143 84 124 148 188 197 140 174 175 177 82 130 85 179 149 173 76 145 72 152 79 186 141 162 141 132 114 140 172 178 124 194 90 106 120 133 206 127 202 160 136 160 129 117 50 144 47 54 156 110 151 145 153 204 113 212 205 214 204 184 188 186 106 120 208 163 171 128 127 45 130 52 139 173 166 92 98 132 162 125 96 134 137 211 112 175 116 127 104 103 181 174 205 108 162 100 120 147 119 120 148 110 108 90 72 63 159 136 53 133 146 150 73 113 109 95 94 120 108 167 91 184 88 106 106 146 129 74 111 132 70 153 147 117 80 180 161 202 217 127 102 106 193 93 199 115 164 125 156 86 102 97 95 173 167 130 162 88 184 128 154 187 190 194 197 156 172 90 163 97 151 122 162 189 149 163 63 91 104 149 180 148 184 98 116 163 112 134 153 159 142 175 197 181 158 158 97 176 168 166 181 195 111 187 156 147 179 87 161 65 55 175 182 212 203 115 109 182 184 162 111 103 91 113 125 138 100 95 106 178 149 166 89 175 209 181 192 193 185 139 154 77 77 170 86 103 181 178 168 66 73 127 79 81 81 179 144 156 114 149 215 143 222 168 187 117 161 158 69 88 71 136 156 162 255 179 89 183 119 122 140 157 193 111 189 166 69 161 103 125 154 132 163 129 171 194 154 97 190 90 105 130 103 89 109 162 100 171 142 172 102 89 70 89 149 206 207 172 150 157 113 94 77
146 135 119 107 108 121 143 154 149 141 144 168 182 183 167 135 137 135 152 167 156 170 151 156 146 141 132 126 139 150 159 163 160 157 154 169 179 187 175 176 161 167 178 195 183 180 181 181 193 181 168 129 144 171 154 135 141 115 132 131 176 211 185 179 142 85 153 128 155 118 149 103 102 150 56 122 40 57 78 80 115 153 85 75 117 145 135 133 103 105 108 113 107 46 62 111 99 77 124 109 111 117 134 117 87 112 115 105 60 94 56 53 57 111 169 179 117 181 100 92 171 98 160 138 159 218 207 129 91 166 73 58 145 159 67 73 176 182 85 104 176 175 60 143 155 74 154 125 172 189 200 207 160 81 58 57 79 105 137 149 165 142 197 186 203 125 191 117 101 114 86 101 110 183 180 145 170 146 220 219 195 180 164 164 175 142 77 151 103 149 58 82 157 95 112 126 113 123 130 103 173 155 85 114 106 75 64 157 166 85 148 136 108 115 142 86 170 114 81 144 167 167 161 123 182 170 158 100 107 137 120 115 80 57 98 129 143 80 175 96 187 181 213 221 214 154 209 203 189 84 155 166 167 189 135 79 95 99 116 49 147 84 71 255 137 173 84 53 119 133 141 133 208 161 112 199 105 180 89 86 84 192 104 101 102 171 122 137 139 130 157 116 120 63 78 49 65 73 150 69 50 72 151 106 129 150 47 58 80 120 97 83 187 191 142 143 94 83 132 174 132 150 147 78 88 86 134 191 120 92 175 86 117 142 190 86 76 74 255 193 195 169 137 172 160 175 186 107 192 255 138 160 186 181 191 89 107 105 112 85 94 166 83 89 131 46 139 49 89 183 180 139 183 115 185 115 100 116 154 189 189 120 188 89 88 177 165 150 157 176 88 164 89 121 74 78 93 58 102 121 183 119 122 124 116 188 196 192 209 123 200 181 87 138 81 62 136 134 79 62 109 153 107 195 173 176 178 158 133 137 97 177 175 174 98 169 164 92 153 93 129 103 104 184 187 170 160 136 187 121 166 137 119 105 194 95 100 133 147 105 129 173 92 148 81 128 144 84 179 104 124 200 104 96 97 86 100 166 158 134 178 202 161 176 115 156 104 138 149 179 88 174 133 140 71 157 122 84 179 77 85 173 86 147 122 153 222 223 138 153 162 80
147 135 114 98 96 112 127 145 146 138 149 170 195 190 177 141 146 147 160 176 172 163 168 156 154 154 146 153 150 161 165 155 157 155 165 178 194 201 191 187 185 171 193 176 178 192 178 169 176 140 171 144 161 174 140 112 157 99 155 147 139 201 160 104 142 149 89 141 110 176 132 149 120 111 145 96 93 60 113 106 146 81 108 78 88 110 114 130 112 94 82 64 59 100 88 68 102 73 81 99 106 97 132 129 103 130 105 82 96 64 57 68 57 97 84 106 101 186 177 92 115 101 129 169 219 199 108 145 120 85 119 145 126 74 183 82 135 175 194 187 184 70 62 47 153 161 175 136 159 197 172 182 184 159 147 128 152 125 65 78 175 191 126 192 187 132 180 180 107 168 159 124 87 128 126 255 123 179 147 219 214 106 93 141 129 166 106 108 157 155 77 76 151 115 158 178 152 176 135 188 103 177 176 156 98 66 93 96 152 122 91 193 172 153 132 150 99 89 101 158 120 78 177 102 164 197 159 179 98 176 164 86 165 68 167 174 181 89 150 147 191 203 109 120 163 217 127 143 110 164 112 167 64 120 73 104 155 142 57 137 152 155 149 152 63 101 64 87 143 92 188 120 188 222 135 126 106 139 91 93 90 90 140 167 98 179 162 122 196 128 155 185 111 162 69 125 98 62 107 69 45 83 83 162 86 75 144 61 126 75 111 81 91 109 100 102 89 90 172 79 135 103 134 180 90 77 186 169 190 181 141 90 77 100 171 143 80 167 152 175 179 146 183 167 62 164 96 195 181 132 192 213 200 255 107 99 133 176 181 162 148 161 93 138 135 130 132 137 152 86 138 159 117 197 111 91 172 189 142 195 158 133 151 79 141 167 100 162 152 148 102 190 184 115 146 85 158 137 144 88 196 111 142 182 186 100 147 114 122 120 149 104 124 157 71 150 80 61 92 62 70 134 110 201 208 121 147 83 93 74 169 83 166 67 171 182 188 136 115 201 139 146 202 107 195 74 97 95 129 203 170 216 140 192 98 91 78 115 77 144 162 97 145 119 142 123 173 177 157 193 204 120 115 176 95 72 165 148 142 122 217 197 166 60 156 180 155 112 80 157 158 160 71 86 188 119 196 103 168 191 98 181 90 84 178 112 155 128 156 105 195 192
141 129 112 99 98 103 119 135 144 144 153 169 186 190 185 169 144 165 162 172 179 167 173 159 173 160 167 153 167 164 166 166 160 167 182 201 209 208 196 190 184 191 175 185 154 152 162 164 178 163 170 163 147 148 158 122 149 171 150 115 180 185 172 94 71 149 154 151 117 113 155 140 206 165 131 74 72 129 85 138 118 130 68 146 66 144 75 101 124 84 87 75 79 99 136 83 73 83 76 105 73 78 131 100 107 128 123 119 54 91 60 86 75 66 118 179 130 145 93 106 89 118 186 116 117 108 194 145 178 123 137 111 172 130 104 89 123 94 102 189 134 167 147 57 104 143 102 94 111 136 192 208 127 176 161 157 88 142 106 76 165 175 198 149 155 148 195 146 111 159 92 145 80 174 96 93 137 149 167 214 110 126 164 85 66 152 166 157 97 167 114 84 85 76 69 77 156 127 169 157 103 137 179 124 98 168 136 140 135 120 186 95 178 159 144 165 197 104 154 109 168 164 176 95 139 115 182 103 113 106 170 181 99 190 126 148 194 163 194 198 192 196 188 125 108 215 198 176 203 169 73 135 150 149 118 62 109 110 121 155 60 119 65 69 112 149 109 83 105 95 177 116 126 166 150 193 128 162 158 131 255 60 165 146 171 97 149 105 157 155 184 137 168 75 95 76 78 122 81 96 37 51 127 152 170 159 92 68 115 101 64 82 110 107 194 158 89 139 122 94 179 169 186 112 84 174 85 118 140 75 69 169 72 119 159 152 93 70 74 99 138 125 92 158 63 153 78 184 207 203 217 223 118 142 173 192 189 156 88 175 115 130 110 146 88 131 54 25 142 155 78 128 185 113 136 174 119 155 159 163 127 160 162 100 152 119 152 159 155 133 181 172 176 177 168 107 67 129 177 115 198 184 182 160 152 174 119 199 191 114 132 118 84 76 140 155 95 166 92 83 79 183 115 168 154 123 148 148 67 107 109 160 97 83 172 177 98 175 188 96 194 182 195 115 139 181 77 72 186 114 129 207 129 150 133 84 176 93 179 128 169 87 79 63 50 152 164 178 132 196 166 187 222 130 148 140 164 181 162 110 145 145 108 147 149 142 129 122 172 57 31 39 66 180 196 110 109 99 184 194 133 150 165 126 169 183 111 130 115 130 165 115
134 126 114 106 110 121 132 135 149 151 154 173 175 181 187 165 166 161 177 182 187 178 167 173 166 173 169 170 172 173 173 171 166 180 199 214 211 212 193 196 190 183 180 172 138 163 155 135 173 135 151 186 163 183 157 132 183 181 124 185 175 139 148 134 124 128 107 172 109 173 148 185 194 161 129 82 85 130 120 118 137 124 109 109 107 131 73 75 145 123 83 88 158 155 126 105 80 122 94 56 49 62 79 129 106 142 87 131 63 52 47 66 72 88 123 98 112 118 91 105 82 95 99 123 104 163 183 83 134 65 64 175 111 91 104 81 113 126 180 81 79 162 55 152 67 79 179 82 163 178 195 104 93 125 89 154 137 134 143 104 205 144 128 146 142 144 179 175 139 65 148 106 125 170 172 78 160 114 154 196 183 86 80 104 146 88 72 85 163 151 106 188 169 69 56 156 76 120 130 134 185 136 163 100 96 102 166 141 166 80 130 157 139 84 180 193 207 199 175 180 78 104 159 123 91 78 148 180 205 122 188 108 130 201 147 113 126 121 102 196 133 125 178 103 159 113 166 210 178 199 113 158 101 40 95 112 144 97 63 109 157 70 101 67 76 156 166 197 139 181 102 178 173 136 115 195 115 122 86 110 64 103 61 86 152 143 157 156 137 99 183 146 74 77 151 149 144 112 55 130 141 73 76 66 136 75 72 81 71 107 113 148 97 147 92 87 184 108 124 86 177 82 189 191 87 93 182 89 82 81 71 130 92 143 139 99 116 67 163 162 82 169 92 115 148 106 72 179 142 129 180 212 128 134 206 130 140 152 94 112 123 124 166 140 63 69 110 67 137 149 65 113 148 187 197 135 181 146 189 207 127 103 152 111 156 92 69 45 128 149 160 184 109 198 98 127 132 107 109 189 111 90 128 127 172 188 184 200 103 126 98 141 78 103 107 167 103 81 112 129 115 133 130 91 189 151 99 89 162 160 180 184 108 148 87 180 173 81 178 94 183 82 119 101 98 182 179 178 147 102 107 119 171 136 92 188 103 142 181 150 144 180 154 84 66 79 98 168 146 103 174 159 145 220 131 147 78 113 190 103 108 91 144 101 130 62 166 126 101 137 65 82 117 90 175 118 177 91 94 163 149 94 112 153 70 79 87 130 88 96 159 143
116 112 108 113 118 131 132 140 143 137 146 148 161 178 183 179 155 155 175 185 187 174 155 157 176 176 169 154 170 176 170 176 178 196 213 220 211 201 191 189 175 184 174 165 160 158 132 149 159 158 182 175 183 161 144 199 190 138 186 135 122 95 143 141 117 61 103 114 154 201 162 123 144 90 111 143 127 176 158 115 91 88 98 94 83 97 105 69 115 74 141 151 127 130 118 111 84 123 76 53 55 59 116 115 79 126 79 113 119 66 49 78 119 104 107 104 117 106 105 92 90 75 76 171 80 183 144 144 124 147 61 143 92 179 114 111 80 182 165 90 167 61 126 159 90 164 79 74 147 182 176 181 158 155 180 128 138 83 176 94 153 157 174 177 150 109 124 114 77 71 67 151 162 68 76 111 166 181 149 114 85 107 145 81 71 132 80 154 169 189 112 125 175 161 133 57 92 87 115 86 151 151 118 216 171 181 164 153 97 173 158 177 147 126 170 108 118 196 188 110 102 179 161 162 148 139 132 100 206 166 206 179 193 132 205 197 105 181 164 143 116 186 87 172 137 202 171 180 158 133 180 167 128 100 102 107 134 141 107 172 75 77 138 103 106 181 99 111 193 114 98 175 137 191 187 155 146 163 71 154 47 93 116 116 140 152 70 150 112 94 86 103 67 69 136 37 40 50 59 145 53 76 77 164 65 70 170 62 62 108 126 109 89 125 191 180 155 143 161 78 145 182 114 101 98 167 184 157 146 171 98 152 110 63 120 154 95 106 163 68 153 187 133 178 128 126 73 125 209 205 140 131 215 211 118 164 146 148 84 178 170 151 97 171 168 108 79 92 98 155 149 75 159 172 135 197 168 126 157 164 166 109 148 145 116 156 63 77 25 46 90 128 159 102 175 144 66 116 100 93 167 141 109 75 169 139 99 89 130 184 105 197 181 97 60 116 86 88 120 57 135 115 161 75 77 144 140 122 159 128 115 119 79 99 142 184 80 95 97 117 99 181 166 192 194 191 132 121 108 92 123 135 185 150 171 88 178 184 148 104 160 188 106 148 145 120 131 155 131 163 216 201 135 144 108 152 104 160 123 89 114 90 123 140 134 53 121 128 153 124 36 53 120 182 175 106 177 181 83 143 168 84 98 68 74 93 111 170 173 88 171 204
92 94 100 112 123 139 141 146 142 127 128 128 141 157 166 162 157 161 168 174 184 170 166 158 175 174 164 158 159 164 165 171 178 197 211 214 209 204 188 190 193 192 187 166 165 145 167 165 144 155 175 171 186 192 197 181 201 172 169 181 110 124 107 88 83 134 110 95 137 133 174 189 78 65 93 138 154 168 74 134 115 51 143 97 80 75 111 136 74 78 145 130 135 120 118 106 89 109 103 115 92 119 85 98 110 66 47 55 96 127 112 74 61 105 130 161 144 92 77 69 107 90 62 153 159 158 125 117 66 119 95 179 122 140 129 86 86 91 116 187 146 152 97 91 160 177 165 167 172 158 89 176 105 171 152 166 131 143 182 132 180 183 173 101 180 93 94 136 81 70 79 88 123 85 124 140 161 134 182 122 138 153 172 81 128 127 183 89 191 118 103 131 154 71 114 177 156 190 98 115 142 117 197 229 143 81 55 67 50 156 73 104 187 109 96 92 113 106 169 113 183 160 139 80 59 65 135 180 210 163 124 180 200 98 129 175 158 167 161 87 191 129 187 198 201 211 139 193 199 91 105 104 48 124 33 119 138 87 92 168 127 146 93 146 161 182 190 178 152 212 124 80 148 169 165 102 124 143 103 255 59 158 65 164 141 148 165 116 114 97 86 110 95 114 66 89 47 86 88 56 113 154 64 119 136 157 58 67 150 141 160 87 131 199 89 182 91 129 84 132 159 141 100 102 91 108 190 170 147 159 152 132 85 159 96 157 103 121 62 63 70 134 193 138 94 88 176 131 103 100 194 112 186 149 161 162 81 92 86 112 180 103 191 149 77 99 81 145 132 109 150 180 104 145 111 171 205 159 179 127 215 155 101 153 111 174 128 68 102 137 173 123 202 97 145 63 84 72 122 165 170 146 158 80 156 93 137 91 176 102 119 104 93 98 165 94 98 179 168 96 110 93 73 119 119 154 174 166 175 111 91 114 123 156 170 177 85 113 64 172 149 107 107 137 178 82 105 95 169 155 172 142 116 157 151 135 158 82 171 82 182 186 174 163 127 141 164 72 165 198 171 131 182 92 158 69 92 161 104 138 184 196 166 85 70 91 50 110 86 137 54 89 148 164 157 86 175 112 79 174 84 101 77 155 60 152 155 93 118 146 147 179
76 83 93 105 122 131 141 138 137 127 121 127 129 137 150 163 147 149 159 172 179 178 167 153 158 165 160 138 149 140 151 154 171 184 195 203 200 202 203 187 197 204 202 185 171 187 161 151 160 166 184 177 183 148 181 144 201 192 186 149 121 118 129 106 62 110 65 90 159 107 173 85 59 45 132 129 155 100 151 135 65 86 67 123 67 70 91 102 99 97 149 120 162 138 96 82 68 86 103 113 79 86 89 95 89 77 73 61 58 64 60 58 255 75 89 175 136 141 128 98 151 56 71 50 96 86 93 89 135 76 179 90 93 120 177 185 100 144 95 184 72 158 166 131 76 172 142 63 141 142 176 170 163 179 161 102 201 191 149 100 162 121 180 153 144 161 131 50 88 60 131 107 155 129 154 149 169 100 145 177 158 182 185 173 91 193 132 191 94 183 187 167 181 169 189 194 197 120 189 83 171 160 124 165 179 148 143 56 81 163 76 100 148 160 160 108 185 94 195 177 123 172 122 78 83 74 127 152 213 125 220 192 154 184 130 171 167 144 179 188 92 108 184 188 157 210 207 203 175 174 79 154 72 132 84 82 162 176 154 143 143 99 92 128 143 151 151 210 207 117 180 91 76 170 121 172 155 82 66 152 71 136 85 95 153 162 113 93 167 101 98 169 145 49 97 108 42 33 98 48 69 65 59 137 41 106 57 61 140 86 93 168 190 196 189 115 88 105 175 177 82 154 183 101 95 145 125 123 110 109 166 90 175 105 151 80 126 156 65 135 175 156 193 114 123 97 189 95 111 165 171 168 78 169 164 77 80 118 86 196 190 115 195 189 105 94 113 169 124 168 89 193 110 147 175 118 211 217 141 188 203 132 128 146 90 158 144 126 137 106 146 118 118 195 176 92 120 146 135 106 64 64 161 93 106 207 216 120 166 124 107 102 193 76 169 72 121 97 80 114 138 57 52 86 167 81 178 168 172 123 161 155 139 60 70 101 117 75 104 141 119 191 152 174 120 107 79 140 64 164 79 179 182 131 88 162 166 86 102 73 174 116 77 74 96 169 160 94 119 98 168 126 159 68 146 124 63 77 175 183 95 95 189 146 145 160 93 65 161 163 130 157 89 133 126 160 89 125 166 135 97 145 184 84 61 115 100 72 83 156 122 222
76 87 101 116 130 137 144 145 129 121 126 118 129 136 150 150 152 148 150 164 176 173 172 157 156 161 152 134 144 132 139 139 149 169 178 180 188 199 202 205 206 255 210 208 203 255 176 174 149 187 197 192 179 159 194 199 173 192 131 159 171 106 112 84 56 104 137 71 84 162 119 95 75 44 44 80 106 149 137 93 97 78 114 76 56 61 81 124 109 119 124 160 131 110 112 113 70 73 110 86 100 91 93 95 73 61 103 65 65 255 88 119 65 138 160 95 143 138 112 95 87 107 56 41 127 59 72 81 107 88 101 82 96 79 91 92 140 92 156 175 77 103 78 163 173 150 138 131 138 170 97 167 92 148 171 110 97 100 156 145 128 172 147 184 177 177 70 121 141 58 98 103 96 162 176 175 122 110 148 167 101 176 186 187 110 202 203 159 128 162 96 174 145 178 148 103 199 172 113 138 96 102 140 130 200 127 184 101 89 79 169 162 188 178 112 152 98 111 97 106 148 126 128 83 113 179 89 195 221 214 155 118 172 187 178 79 139 130 121 192 124 143 141 92 105 209 188 142 184 169 141 120 122 120 97 85 174 188 80 103 114 101 151 79 173 130 119 165 190 139 102 190 179 107 123 172 191 154 81 66 140 96 97 170 153 118 181 92 193 100 177 87 80 75 73 163 146 67 109 103 121 60 109 35 59 70 112 71 109 74 106 96 98 90 184 183 182 132 156 144 85 92 166 86 97 129 87 113 177 128 127 169 118 155 145 89 168 177 74 142 183 180 124 201 110 106 123 177 155 177 62 57 75 140 119 154 161 171 126 184 107 109 100 90 119 172 132 73 94 133 168 190 157 122 202 182 157 132 124 207 203 215 203 97 184 121 71 156 168 172 206 214 199 169 83 169 142 123 92 148 70 175 87 166 208 139 233 186 172 108 198 177 119 170 77 178 179 161 86 86 68 83 82 139 113 168 85 180 125 108 97 70 146 93 138 161 169 168 88 172 169 93 131 116 96 107 99 156 58 140 168 109 105 117 180 73 64 51 155 73 102 185 100 140 73 101 146 147 185 192 184 179 146 77 133 79 144 72 133 173 156 87 108 170 140 120 135 70 160 124 142 143 151 185 176 186 148 93 111 176 96 159 133 132 92 145 72 134 120 115 123 143
94 105 120 126 136 146 144 147 142 130 130 128 138 138 153 166 158 159 158 166 196 180 174 167 146 141 147 142 138 137 133 124 141 152 163 169 177 173 184 174 188 194 193 191 181 174 168 167 132 144 174 175 160 153 149 145 144 167 142 168 152 121 66 121 105 126 120 135 100 141 104 162 56 39 45 78 108 80 168 162 103 159 104 65 61 65 107 107 102 175 123 121 152 89 72 87 84 88 117 112 120 99 103 107 91 105 84 84 128 75 76 121 85 110 124 136 150 182 130 93 136 137 47 57 131 109 77 79 94 91 86 162 84 85 143 197 107 115 140 168 158 113 167 84 180 165 82 55 63 158 74 73 177 152 183 198 182 177 143 62 150 100 150 139 99 85 100 93 103 67 60 90 121 81 178 159 120 77 120 113 170 154 106 176 172 206 212 211 138 208 157 207 164 207 110 193 84 159 80 138 156 169 156 158 163 124 133 166 136 154 68 171 106 127 191 187 137 72 106 98 73 86 103 189 173 122 185 200 227 215 219 118 206 112 129 172 100 114 95 193 187 175 142 185 195 206 211 171 94 172 157 142 155 142 194 197 143 167 173 164 110 135 96 94 129 90 87 177 118 93 183 98 91 96 117 157 91 163 67 129 124 99 150 154 126 134 103 85 175 183 94 158 85 94 105 171 108 101 74 140 105 39 47 90 65 163 118 134 107 90 188 153 120 88 129 184 93 138 121 148 139 179 90 153 144 77 91 183 151 142 183 91 192 103 100 135 123 183 181 100 97 129 132 129 107 185 170 178 150 162 107 166 58 71 84 144 146 80 86 90 185 97 72 110 159 73 70 75 102 108 180 198 184 164 125 142 221 188 203 110 175 142 115 118 139 118 70 120 178 165 166 185 128 182 172 155 164 99 130 152 153 90 101 112 205 212 235 168 125 182 109 137 101 129 145 176 148 84 163 102 165 108 117 72 158 92 194 146 152 78 154 157 146 52 118 78 116 93 183 180 185 154 78 88 149 150 101 152 66 110 78 85 196 201 88 71 124 140 53 129 71 145 156 83 162 182 110 160 85 162 97 155 157 114 108 128 138 167 167 159 167 154 140 138 163 75 78 157 85 146 106 115 116 161 216 196 165 94 182 109 137 86 86 100 49 55 47 96 125 201 128 229
255 125 137 138 147 148 156 153 145 148 144 155 148 153 162 175 167 167 179 183 181 187 180 157 155 151 150 152 151 138 128 124 136 151 166 165 167 167 158 166 165 156 165 164 162 155 152 148 155 158 182 203 185 213 149 176 159 175 132 177 112 99 146 146 75 129 85 121 136 137 133 105 112 55 64 78 125 85 123 100 102 120 83 106 111 66 86 136 149 110 171 119 99 75 66 66 92 105 135 113 140 108 105 144 135 135 114 118 113 94 112 126 107 68 79 138 188 123 99 133 66 112 42 142 43 60 127 66 87 98 82 163 173 182 108 153 134 108 135 167 77 106 90 161 182 152 111 102 67 71 167 168 180 138 132 182 170 174 132 144 68 144 173 175 187 157 163 77 130 64 75 73 87 90 173 111 190 123 177 168 168 184 138 192 103 194 190 125 144 122 123 193 118 195 153 99 173 81 62 128 76 181 159 179 154 121 197 150 158 100 170 147 98 107 191 186 129 71 161 142 100 121 187 198 111 195 176 215 225 206 203 182 130 138 113 117 156 205 199 191 170 147 166 184 138 190 164 213 118 193 182 181 150 102 110 196 143 203 190 131 74 90 91 119 89 170 168 115 102 181 193 187 154 90 87 113 114 139 125 73 101 80 133 85 186 119 179 77 140 106 122 113 141 112 98 191 182 77 156 106 94 56 48 76 96 92 103 120 105 169 105 145 189 98 167 157 94 184 187 187 155 73 70 106 108 75 86 148 125 191 118 104 192 184 102 185 96 152 100 109 149 129 237 168 151 133 62 156 152 169 145 92 84 154 88 145 88 178 141 190 106 150 172 75 166 99 158 77 156 160 154 192 172 189 114 146 222 114 148 179 155 175 169 167 166 125 174 170 117 164 154 129 181 120 92 108 94 149 109 80 172 193 163 163 104 121 114 138 125 128 109 189 152 170 84 85 140 165 97 129 175 130 64 70 172 189 188 202 128 95 178 105 62 80 147 128 148 126 183 118 203 111 179 174 95 145 172 161 102 95 82 80 90 103 126 175 154 158 100 85 142 145 190 190 152 111 159 185 148 136 96 97 141 116 61 64 73 67 129 149 52 151 94 143 71 79 84 166 88 134 127 115 172 179 131 181 87 149 113 183 103 131 130 63 49 133 62 72 80 97 153 194
141 143 144 143 147 155 150 150 147 159 157 170 167 165 170 173 192 188 174 179 177 161 157 153 156 154 162 161 144 133 121 124 141 157 174 174 169 149 153 147 144 129 140 145 144 146 144 142 140 124 147 166 205 207 198 133 119 135 123 168 96 146 146 122 96 101 75 137 152 87 165 162 165 109 81 115 141 134 160 107 126 144 122 150 97 63 71 96 94 108 103 156 90 64 118 68 79 85 122 99 113 121 92 101 106 135 106 118 149 97 86 87 146 100 81 169 153 152 97 92 92 54 65 100 154 110 60 138 161 106 80 71 90 86 166 120 98 182 158 131 165 90 113 87 153 140 114 76 167 171 140 91 173 156 96 90 183 101 149 163 154 142 173 154 177 127 169 105 88 79 78 122 116 157 178 178 116 167 151 83 167 160 128 107 183 211 216 174 124 192 154 167 193 203 107 92 72 67 116 106 81 113 141 166 186 202 206 205 117 184 107 67 150 86 183 114 83 153 155 137 142 149 138 191 194 156 200 191 225 212 95 153 113 200 216 134 107 201 192 184 89 70 170 88 191 209 110 110 151 158 190 152 130 192 178 206 120 177 185 141 76 152 153 74 137 112 123 84 157 126 111 128 176 80 94 138 82 68 79 90 154 75 79 135 85 68 110 105 179 114 170 81 80 111 150 117 151 146 171 181 171 98 41 50 134 142 96 138 204 194 115 207 206 202 156 122 112 189 88 86 87 72 64 155 70 127 133 165 110 173 184 162 101 162 78 119 138 117 205 142 183 213 238 198 175 104 64 60 162 148 180 121 134 108 154 162 161 164 192 191 125 186 172 125 65 70 137 138 95 143 114 88 151 177 145 133 170 106 138 118 70 165 110 81 124 114 97 117 132 136 95 163 179 97 126 92 120 117 103 84 189 122 190 123 174 138 169 91 190 189 187 103 188 117 94 90 150 178 178 187 175 97 160 162 91 117 135 179 119 213 187 75 139 65 165 77 114 172 132 170 137 185 77 82 97 86 180 174 95 119 68 172 194 198 119 200 96 151 91 182 96 156 188 173 92 165 96 127 92 157 105 110 156 156 64 173 172 134 136 137 116 51 72 57 94 159 67 86 186 132 209 179 232 135 168 114 149 77 134 196 192 144 116 154 61 111 112 156 80 167 196 204
161 157 148 143 142 145 151 142 143 156 170 169 174 163 171 199 206 183 178 154 144 147 160 152 158 168 175 171 151 135 119 131 147 161 179 178 176 167 161 142 143 136 138 143 152 144 124 132 144 151 125 174 201 188 142 162 172 101 155 154 95 163 92 169 88 88 72 125 99 166 184 111 136 97 109 73 71 65 78 92 96 164 81 71 71 143 78 89 164 95 93 85 77 61 67 69 83 124 96 126 93 121 98 97 119 153 108 95 124 141 83 85 94 83 164 120 134 101 146 130 57 102 76 121 72 162 65 77 159 139 156 163 172 183 102 196 195 156 174 95 89 78 181 98 173 150 106 83 102 85 75 164 66 155 149 165 112 195 129 187 112 136 125 150 129 141 160 85 166 142 97 146 104 90 76 176 87 194 191 195 101 119 173 99 106 173 220 114 111 109 139 183 108 105 168 190 177 127 157 76 98 104 118 80 118 102 189 180 208 152 103 90 67 177 161 83 177 64 76 62 50 255 86 122 180 169 164 181 181 209 174 168 182 141 197 202 178 183 175 68 70 137 150 167 180 189 95 179 152 145 110 190 104 107 153 155 94 194 204 93 139 73 146 145 174 182 101 158 103 83 79 152 174 92 105 93 63 125 161 92 135 87 84 129 116 142 151 68 175 177 88 79 62 61 99 125 125 125 95 116 158 162 148 50 152 71 93 160 130 145 101 169 209 168 165 108 109 157 143 181 85 104 109 135 255 75 80 112 91 128 123 116 190 125 132 180 194 124 137 199 142 221 223 217 110 141 117 146 140 122 87 198 109 207 97 150 171 109 121 200 195 81 112 125 135 112 119 94 137 60 156 128 198 158 192 158 204 106 110 147 164 102 90 71 178 157 176 147 166 91 131 173 79 59 75 120 81 132 80 87 182 176 125 68 128 83 64 121 119 78 81 139 154 171 143 112 176 100 117 144 99 105 122 99 161 110 215 137 158 123 188 94 153 76 167 121 130 185 192 208 196 182 177 175 120 181 92 181 146 115 107 94 198 116 160 148 202 169 133 108 122 113 135 89 105 96 115 197 190 146 91 170 109 173 136 135 120 90 107 73 96 98 75 52 122 76 159 131 96 178 106 139 217 202 195 196 138 174 158 158 140 186 197 163 60 53 96 80 76 74 130 89
168 161 151 143 141 140 141 141 146 147 154 162 165 169 193 210 198 190 169 139 136 151 159 165 166 179 187 181 166 139 139 147 156 169 172 174 174 177 172 163 152 144 135 151 134 164 153 137 136 151 130 170 159 140 165 180 145 143 147 112 136 91 123 182 175 95 161 168 168 176 149 110 145 161 93 134 144 109 69 79 85 98 137 80 107 133 93 137 134 139 101 83 112 87 75 68 58 55 54 75 117 104 146 129 133 99 89 104 84 77 117 122 122 102 114 159 96 82 69 69 76 142 87 171 121 173 162 87 94 86 168 65 72 159 86 189 115 178 168 135 74 79 79 80 119 176 96 97 147 127 154 155 131 138 64 71 159 182 208 164 206 185 130 123 171 89 180 110 193 157 132 181 117 74 155 131 172 116 108 203 156 136 168 191 205 204 174 212 135 187 170 91 174 198 143 145 99 88 107 77 164 120 172 163 106 158 207 162 105 122 96 139 157 87 148 86 85 93 64 57 126 112 151 169 168 165 206 216 117 162 189 100 169 137 102 200 105 73 155 141 130 139 64 161 167 78 71 97 126 108 171 166 170 165 63 58 76 144 174 101 143 125 81 180 135 205 205 137 133 125 179 70 151 164 69 68 100 91 124 169 80 171 68 155 108 129 59 87 100 129 72 63 58 85 158 85 89 196 152 114 96 148 82 52 66 156 93 179 152 173 103 147 103 155 108 106 161 126 92 90 144 163 101 69 70 158 93 101 173 87 163 107 107 108 152 154 102 133 232 142 198 101 142 97 186 182 75 154 78 84 136 98 96 195 166 119 76 87 146 157 161 139 147 128 111 125 168 172 85 55 105 167 113 149 200 199 94 173 141 88 127 123 142 114 123 160 100 97 186 94 191 114 88 59 90 63 42 64 99 76 84 158 181 138 63 112 76 108 168 149 76 125 105 150 114 121 84 91 94 110 179 121 123 161 171 91 143 123 155 123 108 172 156 131 160 124 183 184 148 100 184 124 159 165 180 180 104 88 80 171 175 97 169 222 128 167 103 196 181 121 96 161 167 85 185 174 130 179 98 152 155 189 106 183 152 184 147 187 158 73 98 86 65 120 74 127 102 166 125 121 102 104 214 216 163 205 198 148 95 114 146 217 232 114 178 255 172 113 179 114 104 158
160 157 151 148 141 139 138 139 140 133 142 137 159 182 188 220 204 187 160 155 136 158 167 170 184 187 188 194 188 177 168 153 161 160 163 164 168 169 176 165 160 157 145 159 159 151 122 129 140 118 136 163 139 136 184 184 167 172 111 119 137 119 168 126 197 110 116 158 117 149 139 129 148 163 138 102 134 67 131 117 141 137 133 137 130 95 100 116 91 95 130 78 69 82 59 62 65 57 55 92 96 103 110 154 100 105 110 114 71 89 104 114 92 105 93 87 81 111 67 56 80 76 150 111 106 150 142 151 118 125 80 81 126 75 180 174 95 154 81 169 91 107 76 172 165 187 117 92 186 150 87 109 37 92 116 137 77 189 158 196 195 207 131 120 153 107 189 194 133 155 148 186 105 146 152 155 141 176 145 157 182 140 119 175 177 112 216 191 124 125 171 140 108 200 199 187 86 168 150 127 180 145 191 91 179 99 187 93 80 121 50 84 53 67 79 75 180 152 169 62 141 57 53 103 92 171 205 103 148 167 112 116 173 140 197 165 83 158 107 94 92 114 127 148 73 165 105 173 185 150 150 163 166 62 128 61 73 165 162 142 104 169 169 152 207 158 170 136 211 174 175 95 75 154 62 143 78 164 107 145 153 78 60 154 144 95 125 62 143 109 75 128 49 92 77 130 146 187 189 114 96 186 120 161 85 145 163 99 191 105 93 162 184 86 186 95 188 101 113 116 204 105 173 101 186 103 94 90 95 178 183 104 117 194 152 81 105 185 124 112 85 93 61 152 178 178 74 95 69 121 95 75 140 113 143 141 175 175 175 139 151 92 128 77 134 136 138 142 71 134 158 165 135 151 154 184 185 161 83 92 170 201 187 169 178 170 179 139 117 176 159 186 125 153 91 54 145 160 124 151 80 138 126 87 132 93 167 98 100 103 73 168 174 186 170 116 171 179 173 149 202 176 166 149 160 172 99 105 185 186 118 160 182 99 123 106 202 149 196 185 134 161 79 128 124 104 186 88 187 186 135 168 131 142 213 187 198 152 101 119 198 164 168 142 177 107 151 123 95 164 134 176 192 188 181 217 173 176 82 165 152 68 141 84 54 41 130 120 172 139 102 101 182 185 132 207 143 128 153 117 200 142 240 200 173 201 151 98 136 177 74 126
134 140 151 154 152 145 141 143 139 134 129 129 141 163 187 199 206 197 175 157 167 189 199 195 196 187 203 209 202 204 190 175 166 157 161 162 165 173 174 174 162 158 154 148 135 128 149 143 120 149 152 136 143 135 189 192 122 134 175 174 179 148 140 179 193 159 148 102 135 174 121 112 155 145 121 76 154 161 149 118 78 128 96 81 79 82 146 81 121 82 138 80 72 118 66 65 63 74 88 91 74 135 109 105 108 91 86 79 75 72 125 69 102 103 149 100 129 92 107 64 63 167 192 115 199 176 95 100 193 133 175 182 152 180 134 180 68 155 60 170 140 89 78 77 126 120 181 177 84 159 102 74 138 96 144 137 150 163 160 195 191 130 187 150 130 123 122 168 207 203 163 186 138 126 163 167 151 100 148 116 196 137 115 197 162 110 156 184 169 80 159 165 163 103 174 112 96 83 154 141 87 106 170 158 98 160 153 135 124 56 45 38 144 130 132 180 90 80 72 67 135 53 50 142 76 89 154 176 137 96 196 141 140 185 184 95 113 137 139 103 78 129 69 38 92 74 171 98 97 166 107 160 173 165 77 139 51 68 85 87 156 121 181 138 195 213 135 200 115 131 172 154 107 153 79 133 137 86 138 72 105 151 88 117 46 83 65 68 72 99 126 68 134 166 178 173 190 147 129 92 143 152 86 136 74 88 88 96 152 122 183 83 93 113 127 74 91 99 102 111 201 193 208 112 205 103 198 149 168 112 128 177 120 135 166 162 90 109 178 99 127 56 140 114 160 70 150 54 42 128 49 48 138 157 136 159 176 125 87 136 63 72 154 79 96 184 144 141 90 104 149 144 136 220 154 149 145 102 135 96 197 133 175 114 142 177 84 186 212 124 192 105 181 127 142 91 134 98 172 174 171 198 153 206 115 83 116 178 73 133 73 128 91 87 73 91 83 93 163 127 202 104 191 129 82 146 104 161 87 160 116 168 189 112 97 197 203 191 118 169 157 161 67 86 185 192 110 90 158 190 98 103 133 148 119 203 91 91 97 124 169 183 183 115 118 167 139 120 110 130 107 138 181 141 166 176 214 131 164 139 166 71 157 79 96 87 54 108 160 194 197 132 110 165 201 202 195 116 128 110 209 214 132 134 180 175 211 195 139 149 147 58
113 129 153 165 164 151 150 143 144 135 132 129 139 160 175 180 189 197 191 175 183 193 215 207 199 209 209 220 222 219 200 188 174 167 167 165 163 168 168 160 163 154 144 152 149 145 141 109 108 141 151 159 139 173 187 155 183 164 169 118 156 210 205 177 174 200 132 126 176 168 143 135 142 69 66 78 172 138 119 104 161 120 103 69 130 129 115 71 54 89 108 68 59 61 92 103 89 111 105 96 62 99 78 96 118 123 89 93 133 95 60 62 61 69 76 87 151 64 68 75 87 99 110 110 97 100 181 112 91 142 107 109 162 148 114 86 101 139 72 95 139 113 111 145 156 54 161 107 169 163 121 138 135 96 59 80 72 167 187 178 97 189 176 147 182 127 201 215 220 213 205 193 101 100 183 114 101 95 112 158 153 136 125 151 112 196 145 190 152 150 120 176 184 113 126 203 200 171 127 154 135 115 96 196 123 193 81 119 150 132 137 48 124 167 133 92 184 160 147 111 56 132 130 78 74 71 129 159 151 97 137 149 114 168 165 189 194 160 174 158 100 129 124 58 157 89 136 186 88 95 184 101 185 109 69 139 146 153 175 118 84 147 155 160 182 216 216 108 92 84 75 69 152 96 95 74 177 88 87 148 133 87 65 54 81 74 134 100 113 91 181 87 115 116 193 101 110 125 88 91 84 82 89 89 90 139 67 70 162 99 117 177 60 120 68 83 169 175 174 200 136 228 220 175 161 108 201 100 158 72 83 134 202 115 122 83 184 173 133 102 87 60 73 134 59 130 155 141 58 73 141 103 143 136 84 152 168 187 133 108 171 166 99 179 103 179 202 151 190 86 147 109 130 135 141 178 87 110 173 134 125 151 171 167 94 177 131 188 195 218 199 125 91 153 92 98 104 78 79 125 103 129 115 197 122 184 198 171 92 80 148 168 132 180 171 70 162 69 118 156 123 124 91 95 186 177 105 133 73 75 161 152 98 192 107 137 150 187 113 143 137 70 165 108 139 138 134 149 106 146 152 202 172 169 104 106 166 107 196 131 190 196 94 143 180 137 84 162 74 125 89 157 181 94 106 168 112 198 186 119 73 117 140 172 143 104 98 130 124 81 85 162 210 198 204 200 212 163 185 93 148 104 110 218 120 216 161 99 83 66 58 42
98 121 151 166 169 162 156 158 160 151 137 133 135 150 158 156 172 169 178 186 194 195 200 212 210 205 200 215 218 218 208 190 186 180 175 173 167 163 156 164 165 159 155 136 155 159 159 145 150 120 151 145 153 163 123 175 166 171 150 139 215 229 209 158 141 196 153 112 136 171 160 112 141 143 157 167 121 129 144 88 98 88 83 149 63 85 33 68 39 112 93 81 84 97 68 126 111 74 62 89 84 77 68 66 121 91 126 101 119 86 91 118 89 66 95 73 70 74 125 121 86 115 159 153 101 106 151 184 83 131 94 194 93 169 179 159 82 80 176 112 185 157 121 133 149 83 58 58 174 141 150 96 99 147 150 103 186 190 99 157 121 145 162 127 130 90 183 165 212 191 182 166 200 210 196 171 169 173 138 195 202 146 158 174 105 175 89 139 91 123 69 169 184 102 155 156 199 117 187 170 95 84 164 181 190 92 125 173 156 154 51 60 127 146 127 96 102 161 140 71 151 54 130 46 140 144 107 152 148 178 199 144 110 190 156 122 192 107 160 145 126 98 128 131 152 95 140 130 92 88 129 150 198 205 119 124 164 77 61 147 122 81 93 177 172 149 187 137 157 111 151 147 98 120 72 109 89 120 179 141 135 92 130 98 68 81 94 121 98 150 129 108 100 100 116 108 92 142 80 74 70 70 183 188 104 153 78 88 159 133 96 113 61 86 71 84 70 109 89 111 145 146 143 122 207 101 191 147 90 64 159 95 123 172 95 109 98 195 147 108 110 138 138 78 67 95 156 135 130 98 151 106 94 145 92 112 167 203 104 116 153 91 92 169 96 177 186 190 110 139 162 180 155 125 133 146 123 153 92 101 78 59 158 93 130 97 166 181 214 204 131 164 72 149 143 61 72 178 187 115 102 154 163 109 119 187 121 169 192 108 149 142 182 101 125 115 136 82 84 143 177 186 101 118 129 112 185 87 163 171 174 184 188 181 113 94 110 125 79 153 56 135 63 117 161 116 126 167 83 115 104 147 208 206 193 176 63 170 165 205 219 118 106 164 173 166 92 87 155 91 171 185 184 162 208 200 149 91 180 76 93 191 178 115 153 87 55 111 56 86 86 185 212 221 208 108 168 179 182 185 131 131 104 193 95 127 115 188 90 127 162 69
98 122 151 165 162 165 167 170 169 168 144 145 147 149 150 153 149 147 163 174 179 173 180 197 198 204 196 203 206 206 209 201 193 186 184 173 162 159 165 161 165 161 167 164 165 147 141 162 157 128 162 118 126 120 131 112 159 164 120 200 187 160 195 233 216 171 120 86 131 85 94 135 144 77 93 113 189 158 176 95 157 94 167 78 107 93 27 19 41 55 94 69 62 58 84 118 91 84 79 87 42 44 57 88 78 124 80 140 111 96 133 76 63 128 87 94 75 70 70 77 84 92 87 100 89 93 190 183 83 132 98 101 102 94 177 124 88 88 191 192 122 94 83 159 161 61 151 99 112 188 181 121 113 172 104 206 142 187 130 105 144 134 146 183 150 84 132 171 210 193 205 136 156 219 212 215 209 168 148 151 161 197 91 160 119 187 175 150 111 154 148 177 77 100 175 195 116 108 164 139 93 162 168 125 168 97 168 171 103 165 146 146 133 114 85 105 124 84 118 98 174 135 59 57 58 97 43 136 51 167 87 196 191 138 97 180 130 151 190 136 69 148 69 40 67 118 191 105 161 170 126 104 194 129 212 101 159 141 125 81 111 45 110 59 165 170 63 114 131 100 117 111 166 100 147 98 169 174 180 75 121 48 46 57 135 137 173 93 184 210 116 162 111 182 103 96 150 79 96 89 112 96 120 88 95 123 112 157 118 105 182 78 107 59 119 89 148 109 181 189 147 162 127 110 186 131 170 161 78 119 84 139 169 117 141 165 101 151 162 189 108 88 178 171 73 70 85 161 90 138 62 109 78 136 162 209 163 173 175 210 204 191 118 102 178 79 128 180 97 95 152 185 98 182 147 174 185 90 93 99 89 72 109 118 162 193 197 199 156 145 164 86 142 107 145 124 167 174 164 102 127 206 125 194 126 189 107 189 201 196 180 142 104 106 96 87 166 118 147 156 140 184 118 117 197 96 168 63 144 95 167 87 183 98 173 123 88 98 154 150 60 53 52 157 160 71 168 114 141 148 94 177 159 178 175 104 71 102 87 200 208 208 102 182 124 164 119 95 149 99 173 169 148 185 103 131 194 115 63 143 177 150 106 97 87 95 71 138 56 94 70 85 115 151 125 159 130 70 106 125 168 172 162 105 107 73 158 185 184 142 88 161
102 120 143 156 158 159 168 177 174 164 136 138 131 151 158 143 142 145 155 152 161 167 177 192 209 194 194 193 189 213 216 212 204 197 181 173 157 155 170 187 192 188 178 155 166 164 176 167 162 129 120 157 144 137 123 133 96 123 193 200 148 175 162 197 186 181 172 171 89 166 96 123 176 101 177 193 150 180 97 174 104 93 107 102 73 98 99 32 36 54 68 93 66 97 127 92 88 80 72 57 84 60 83 93 92 93 108 73 79 109 91 75 110 62 72 155 78 90 93 90 157 95 148 98 97 116 198 169 169 148 187 167 153 104 177 129 82 195 98 189 182 189 86 87 176 172 74 192 106 172 132 169 143 191 121 116 153 118 104 187 124 113 117 184 171 178 184 150 227 231 192 185 173 154 148 188 156 100 128 144 152 186 99 205 204 147 184 164 93 118 75 108 144 179 165 114 211 190 134 109 98 75 84 182 107 124 84 130 127 92 255 89 122 133 193 161 101 173 146 178 168 167 174 161 149 47 115 136 136 157 103 87 99 130 138 170 162 138 193 195 160 150 142 142 60 167 82 160 187 194 203 185 190 151 128 119 193 117 168 99 135 83 114 45 84 130 84 35 89 83 155 141 156 173 165 106 188 107 178 143 70 152 163 81 69 146 103 101 147 195 184 215 218 201 100 147 86 67 115 127 117 80 125 115 120 160 105 77 79 91 84 74 158 75 96 122 120 177 178 80 152 200 136 128 100 151 119 148 75 148 78 71 127 62 102 171 115 210 145 217 115 103 161 185 181 178 74 91 63 74 151 82 173 188 153 129 180 195 205 195 196 178 121 88 69 171 109 86 165 130 107 195 166 173 114 156 94 186 136 152 75 112 113 165 173 103 100 96 187 108 190 173 147 72 158 128 127 152 97 191 216 160 190 122 127 106 160 181 185 113 119 179 181 117 101 121 179 119 211 106 147 182 122 156 181 186 176 72 97 120 141 179 91 86 101 82 167 85 109 86 53 128 91 61 49 56 73 99 139 173 159 79 127 140 155 152 78 68 163 109 195 101 116 162 133 146 148 157 150 97 151 101 105 147 145 182 176 119 118 104 183 154 117 111 88 123 59 93 73 148 126 89 103 101 149 145 60 152 144 124 91 97 174 82 90 66 77 75 162 124 172 133
113 124 135 143 141 152 163 173 178 165 147 145 146 158 165 167 159 154 148 143 155 160 166 205 204 215 198 193 197 210 219 218 211 201 188 169 160 162 166 194 205 196 179 169 171 178 172 152 163 127 160 141 134 132 109 108 93 146 114 191 133 189 202 165 194 156 163 154 107 92 104 184 116 184 137 110 181 163 99 177 95 90 139 124 85 100 121 81 98 47 119 68 122 67 69 118 88 101 94 75 105 71 79 117 83 119 78 63 78 84 127 66 62 85 80 80 168 179 129 101 109 174 119 131 97 182 111 171 111 77 189 112 110 175 62 159 147 189 103 103 134 190 190 107 189 135 104 196 212 132 103 71 167 95 181 137 170 176 132 191 132 195 131 112 140 178 166 195 182 220 220 132 211 147 186 171 148 96 128 88 154 187 145 146 114 191 118 92 139 76 122 117 87 164 129 111 214 199 185 75 67 169 88 141 124 86 85 81 82 100 124 117 184 139 169 191 101 201 131 148 171 75 161 155 123 80 158 83 66 52 55 90 187 200 173 166 179 112 119 182 131 119 158 96 150 57 105 175 185 119 103 123 103 121 192 175 193 180 89 90 169 151 137 42 123 120 54 122 73 88 102 157 174 190 210 199 199 136 82 169 115 111 100 99 172 100 184 157 182 215 191 226 196 125 114 146 75 129 50 57 111 158 76 143 99 154 85 116 143 96 82 169 122 141 72 88 63 166 72 99 157 173 214 143 182 108 97 70 69 168 76 153 162 55 55 166 130 124 115 203 111 120 175 93 87 88 75 141 141 151 45 65 78 97 159 222 139 151 211 190 180 108 129 89 84 118 167 160 121 88 194 191 141 112 184 138 165 193 90 173 255 86 96 139 116 175 184 98 118 109 167 177 182 143 123 144 176 94 183 153 187 186 154 157 117 69 148 133 164 164 186 109 183 177 167 128 210 209 136 173 171 96 198 127 150 128 88 151 142 149 92 89 162 132 129 143 75 72 145 62 138 36 44 68 67 158 174 103 128 184 110 99 153 69 165 155 161 126 103 90 128 179 179 115 182 135 91 138 97 139 113 147 148 164 186 105 119 158 161 133 174 129 196 161 92 159 142 132 117 150 192 196 147 126 162 56 76 67 100 80 66 112 113 170 163 58 78 135 87 190 142 237
122 126 127 126 127 138 159 166 170 164 147 160 164 171 180 162 151 153 151 141 153 158 186 212 217 221 202 198 196 205 209 219 213 204 190 176 166 161 174 177 182 180 171 149 176 154 166 179 165 173 154 139 117 103 139 101 127 117 148 114 140 186 142 177 155 101 171 128 164 158 117 142 170 155 138 133 147 100 102 170 102 150 168 169 175 109 95 109 54 85 64 75 101 78 92 134 97 97 112 110 106 88 90 88 125 116 59 90 63 78 95 121 67 80 77 122 100 128 116 180 104 79 158 84 190 135 176 81 118 83 104 203 133 134 95 112 162 87 124 104 154 123 90 125 89 131 95 113 132 187 171 131 160 179 166 198 159 87 118 146 105 149 170 82 102 144 175 180 190 164 130 136 204 185 130 122 73 146 142 145 74 134 219 196 138 196 155 97 131 119 172 181 119 125 194 121 136 167 101 175 94 162 80 158 166 137 141 88 85 171 200 172 175 178 196 169 199 115 179 143 170 159 64 75 147 152 85 100 66 104 123 98 177 103 102 189 147 84 186 207 211 144 124 139 104 152 152 158 121 177 187 186 163 169 98 204 200 99 96 181 132 95 126 132 103 70 23 91 40 145 104 214 124 214 137 119 202 178 174 130 187 199 161 169 183 130 167 93 142 143 128 160 132 126 154 183 126 72 102 69 92 166 175 70 98 112 79 119 81 82 126 179 171 119 136 62 134 94 54 70 144 204 177 203 154 152 124 169 85 87 109 109 150 83 55 170 156 108 211 215 139 200 154 106 136 158 79 89 55 65 54 114 67 179 108 137 127 156 168 158 181 185 184 82 162 167 104 166 169 128 200 154 130 203 97 155 190 185 173 171 166 171 132 119 118 202 192 181 175 147 170 80 133 82 69 69 103 153 168 129 102 197 197 201 95 105 145 56 154 108 169 91 96 163 130 192 212 167 159 152 168 158 124 217 162 170 107 199 175 149 132 100 117 114 181 103 76 85 76 146 52 34 55 134 155 167 157 201 180 189 187 120 162 114 116 189 183 186 96 66 73 167 73 166 153 120 102 162 109 94 123 127 60 125 97 176 143 136 76 153 157 215 111 99 156 170 157 190 183 159 177 212 126 177 169 63 63 106 158 157 105 81 127 76 71 69 62 62 80 108 155 161
129 128 123 117 120 133 150 159 160 161 169 170 175 188 176 163 149 147 141 144 155 161 180 206 211 222 210 201 191 196 204 216 207 203 190 178 164 158 165 171 176 158 164 177 169 171 181 181 186 190 141 152 119 107 141 135 130 154 99 103 150 176 156 112 88 90 165 181 177 110 123 214 212 138 179 165 105 135 100 106 119 99 102 166 110 137 107 89 65 54 127 115 100 85 81 81 110 95 95 83 255 104 119 86 70 69 63 77 62 61 55 62 138 78 77 89 165 117 201 181 175 168 90 77 150 148 159 59 136 79 103 111 112 159 50 144 59 82 188 91 119 180 178 172 172 153 132 173 97 135 71 98 57 171 196 210 177 179 86 75 108 149 121 91 96 165 77 132 151 124 126 216 153 175 144 109 104 60 65 96 123 92 116 221 162 189 101 115 162 127 161 188 101 190 108 111 203 151 197 139 70 105 160 87 120 90 121 109 128 176 194 107 172 161 86 187 120 146 188 176 154 58 36 120 108 81 149 94 125 51 96 151 167 199 152 118 98 92 181 127 193 108 89 103 142 58 156 85 76 158 80 106 172 103 177 160 93 167 121 97 94 187 186 141 84 105 137 35 135 135 187 170 213 109 129 122 175 130 171 166 151 122 197 170 153 172 117 86 162 116 131 116 214 157 194 187 142 161 62 175 87 88 118 107 60 99 152 71 171 126 194 94 176 90 106 144 45 90 47 66 145 196 116 118 122 178 129 152 67 77 77 142 79 137 158 165 102 187 143 173 140 191 196 177 193 154 146 105 98 127 87 71 94 148 157 174 195 201 200 125 126 189 185 163 120 140 74 87 142 185 210 162 192 126 195 195 193 190 89 130 91 144 158 197 151 192 162 78 132 65 164 66 157 151 153 66 165 158 108 172 112 173 114 144 179 84 89 152 53 85 165 78 79 124 178 94 133 164 117 147 158 130 116 175 145 159 176 154 196 182 160 85 175 173 152 166 175 90 126 166 113 63 68 100 138 169 165 175 142 213 199 88 102 94 183 121 214 178 176 134 139 65 124 155 104 142 160 125 201 94 134 165 164 157 155 204 127 150 116 105 131 140 208 154 96 140 190 125 158 157 203 125 192 136 64 56 149 57 114 87 160 83 93 151 112 120 65 156 174 143 154 141
131 127 119 113 115 129 147 156 162 169 185 188 187 176 172 165 150 145 133 130 149 163 167 194 198 207 195 194 184 194 204 213 213 209 199 187 171 167 164 164 165 175 177 195 187 168 186 199 201 198 189 161 169 137 115 155 112 166 109 169 158 162 170 122 151 168 171 140 85 91 113 121 208 115 110 152 76 161 127 160 105 180 173 171 184 118 163 97 92 67 72 84 112 108 92 91 79 100 80 80 108 70 102 70 71 85 68 81 73 67 65 73 118 76 79 98 141 171 137 110 102 100 121 77 127 97 75 51 132 86 163 106 165 91 150 58 165 175 81 81 175 172 120 166 170 138 125 110 170 65 84 59 123 149 112 113 143 85 113 93 139 134 160 84 120 98 87 84 82 179 144 137 162 209 181 139 80 140 125 72 168 190 129 181 194 183 164 110 61 112 73 188 202 109 148 185 182 162 85 77 168 147 164 158 122 117 111 79 164 107 104 184 171 118 138 176 192 117 183 156 149 97 134 50 151 86 188 188 129 117 66 109 145 193 182 177 163 187 164 215 232 220 96 171 73 111 168 171 165 77 175 131 175 140 112 145 76 148 174 159 137 255 121 164 104 91 77 139 159 143 134 198 112 149 87 168 102 83 153 77 155 178 126 143 192 122 173 119 83 71 122 121 191 111 105 182 85 98 73 91 172 95 161 124 92 95 78 72 175 117 107 151 108 180 170 88 60 76 146 163 80 128 196 107 159 172 55 53 121 66 160 140 181 80 99 165 78 100 186 172 101 187 185 186 134 192 137 156 90 147 144 102 145 80 87 193 162 115 94 141 143 77 164 133 151 129 88 98 88 180 166 127 155 223 178 126 196 187 192 123 198 206 141 210 113 133 138 113 94 119 96 86 111 76 112 124 57 106 122 112 165 152 125 182 111 170 81 162 122 99 92 165 104 163 141 107 152 143 119 110 179 154 161 138 112 140 191 185 85 170 132 83 130 170 118 93 161 142 103 152 145 102 152 108 71 164 115 205 194 175 162 145 96 189 226 235 228 139 94 140 108 61 70 147 90 181 189 202 142 144 184 145 171 122 164 108 175 189 138 130 123 185 214 108 186 136 188 206 157 184 150 175 181 95 66 84 87 137 130 79 151 85 120 118 164 86 64 80 139 199 185 128
138 135 124 120 122 142 152 158 171 180 183 188 183 186 175 187 169 156 143 141 143 153 174 170 170 171 177 176 179 191 199 213 220 222 212 206 186 176 177 175 181 175 173 196 196 165 193 165 181 187 186 171 174 135 170 145 197 145 178 164 163 152 167 164 120 99 154 161 141 85 150 136 152 103 163 89 72 142 109 97 183 156 134 178 102 143 162 132 89 81 85 91 112 112 121 137 118 90 123 73 123 65 71 61 84 69 131 99 136 90 92 137 155 94 73 96 92 105 153 145 92 172 138 105 80 91 62 60 110 181 146 199 177 171 131 66 127 98 177 76 76 142 64 158 153 168 75 171 183 79 161 179 153 103 150 157 118 104 166 137 158 102 105 49 139 65 82 145 148 184 131 197 107 183 115 142 139 177 104 97 101 101 154 86 86 154 163 63 145 138 158 87 103 130 74 149 158 166 99 121 112 70 62 68 255 73 142 53 59 80 114 87 130 144 168 161 159 90 120 160 90 138 140 128 183 129 134 119 113 66 95 68 85 91 111 93 183 185 104 216 191 143 215 106 192 191 152 97 181 176 176 116 134 120 121 136 58 145 55 59 132 74 138 127 178 129 153 126 158 124 159 185 94 78 80 111 75 149 113 106 185 133 144 200 101 166 75 147 124 67 154 148 145 187 158 188 99 176 121 150 104 95 89 74 92 105 96 96 144 88 207 218 172 175 82 64 56 59 51 155 90 151 103 176 183 101 146 123 53 77 78 142 175 78 113 163 89 195 207 126 92 86 179 105 138 189 101 60 89 160 175 172 108 120 87 169 159 187 94 166 102 74 163 168 138 156 70 99 65 72 128 203 207 220 128 186 131 194 100 131 145 108 184 115 154 139 152 171 70 134 153 152 97 149 98 142 81 139 147 163 107 158 150 175 181 91 77 161 91 158 176 181 166 186 142 110 130 193 110 113 189 180 118 80 116 186 88 179 139 131 108 111 139 155 167 66 63 83 54 55 59 141 161 162 58 63 106 132 204 161 101 136 105 159 125 239 216 114 182 159 91 79 150 170 139 87 166 159 109 177 102 89 176 143 159 100 144 162 167 124 213 202 160 122 131 92 120 184 206 193 164 126 213 96 80 156 107 67 114 75 140 97 181 100 123 84 92 94 185 119 210 205
152 147 137 132 135 144 147 159 162 169 182 186 171 184 185 199 193 173 157 146 156 167 178 160 164 163 153 154 169 188 202 210 224 231 231 221 207 199 194 193 192 192 197 195 178 168 180 187 193 212 213 188 184 178 151 183 178 212 193 165 167 167 174 168 146 169 106 130 142 110 119 165 109 147 157 135 66 144 144 90 168 108 128 166 99 107 102 149 122 82 120 148 108 141 101 109 90 110 88 86 65 82 105 96 113 92 106 83 88 97 120 183 176 93 92 91 91 93 144 103 92 98 163 87 69 68 115 46 157 89 121 104 187 75 112 72 190 136 93 158 82 70 63 139 110 119 101 138 189 167 207 216 123 215 204 94 193 147 177 161 90 65 116 152 73 106 89 76 106 145 135 142 144 175 171 142 130 135 187 182 141 177 176 78 89 152 180 160 101 87 167 150 184 173 145 47 144 148 76 61 138 151 123 86 92 130 111 47 110 152 167 76 114 158 92 158 98 92 84 163 51 135 143 172 191 201 102 101 180 107 165 85 181 150 165 178 179 163 98 172 209 199 141 178 128 198 194 181 187 192 192 186 128 174 166 121 151 129 132 151 150 57 153 117 148 111 168 72 84 191 202 112 179 115 98 117 130 66 81 83 174 111 107 153 173 66 161 87 71 79 57 127 82 152 104 99 82 81 92 168 99 101 132 183 132 90 81 117 101 182 171 117 212 103 184 124 59 136 54 69 147 183 172 113 133 85 67 71 147 65 117 107 78 181 121 111 75 97 188 182 154 118 163 168 103 87 88 100 146 125 195 93 109 175 137 147 179 173 84 66 147 60 126 162 70 70 74 142 116 81 173 171 206 115 158 103 180 95 154 158 169 198 166 129 203 97 173 83 111 158 74 66 62 162 72 143 95 77 151 124 59 147 155 149 69 165 109 76 76 176 139 106 102 193 189 168 173 186 199 152 121 89 165 164 85 110 144 165 164 106 70 149 129 62 125 70 66 154 140 146 45 87 92 126 156 111 144 121 89 124 96 177 105 139 110 223 172 202 175 119 105 107 122 68 180 178 106 145 151 171 139 95 68 108 148 159 132 117 127 200 129 221 196 131 184 157 150 164 144 157 164 135 166 115 94 128 113 175 133 171 71 173 155 140 120 170 74 88 136 108 190 140
165 161 154 145 136 142 138 137 151 159 171 173 167 173 190 207 192 188 167 150 150 169 178 169 157 156 149 147 161 179 195 211 223 230 232 225 215 208 196 194 196 201 185 177 172 175 178 189 190 209 212 207 193 151 185 202 200 178 196 114 124 136 157 104 136 114 89 104 82 88 153 83 143 126 126 75 63 109 71 88 161 137 102 158 92 109 94 117 135 76 121 84 109 108 126 98 120 86 133 66 101 65 93 78 99 118 91 123 120 148 106 143 120 92 156 132 113 175 87 79 84 85 91 92 161 112 64 150 125 131 139 161 121 97 168 176 111 148 204 98 112 115 147 99 153 88 153 164 84 90 129 210 209 174 126 135 151 165 96 129 160 134 69 102 144 111 62 128 156 176 114 79 122 165 72 105 157 99 123 128 190 163 99 176 118 157 157 79 124 165 106 178 106 62 64 143 162 97 101 94 83 149 108 23 114 50 114 114 145 117 170 151 113 197 124 134 135 142 144 175 72 74 167 97 94 139 188 178 106 112 166 138 139 128 144 169 132 165 87 83 177 135 122 127 219 117 100 96 97 108 111 137 108 81 151 81 132 164 151 58 147 112 130 162 93 90 93 82 157 121 167 99 109 166 81 129 49 88 69 107 118 132 154 151 88 141 161 169 65 104 63 70 94 185 101 96 87 76 183 97 106 107 106 171 151 88 100 170 139 196 206 207 147 99 98 71 60 89 145 91 112 211 154 137 165 81 127 122 71 73 87 143 97 123 119 68 139 153 76 105 131 48 80 72 141 83 71 66 110 140 202 199 85 140 83 165 79 66 89 128 70 93 69 172 147 175 96 139 139 105 164 141 126 109 166 167 118 173 104 84 83 162 188 187 102 188 89 189 154 147 184 88 132 120 135 68 163 77 68 149 54 111 152 150 71 153 71 181 90 164 109 173 194 199 169 173 125 127 120 115 209 186 169 106 179 86 168 86 141 87 158 157 105 82 176 78 112 117 152 118 141 120 142 86 101 107 153 135 119 170 116 140 84 75 93 180 203 89 70 43 40 58 52 124 130 198 116 191 156 190 159 123 153 51 68 130 208 130 142 114 165 221 163 142 126 95 105 159 206 108 110 140 130 146 198 127 80 177 82 169 117 113 71 134 151 82 118 67 74 100 124 116
162 162 158 149 143 135 129 124 138 151 170 155 161 155 181 201 204 193 183 169 161 164 187 188 169 162 145 153 170 177 191 207 209 224 220 225 215 202 188 188 191 203 202 193 181 146 153 179 191 218 177 186 196 148 152 135 178 145 149 141 134 192 134 128 115 85 154 103 174 122 125 107 168 138 155 104 80 140 133 174 179 106 130 125 92 92 88 75 65 66 60 61 84 132 121 155 96 138 114 105 80 70 99 108 100 102 129 91 103 121 126 141 104 157 109 126 171 159 97 106 98 97 114 100 183 82 66 71 114 144 176 81 178 168 173 90 202 177 208 153 200 193 180 97 57 107 58 69 74 152 131 112 211 112 181 170 125 123 123 157 96 99 144 162 113 155 103 113 102 173 174 151 164 81 85 139 168 155 187 107 139 157 84 189 126 145 146 129 80 179 170 77 171 142 80 78 75 177 136 72 143 145 75 109 120 41 53 109 152 103 77 185 159 122 201 203 210 151 198 187 167 164 93 123 102 183 77 95 80 96 140 84 155 146 155 103 179 171 163 165 179 133 115 155 190 212 153 187 97 178 163 95 89 184 102 88 162 174 164 167 105 85 151 167 168 63 83 97 97 149 107 169 145 129 113 126 141 102 152 143 170 165 138 165 70 81 167 173 78 101 163 70 107 88 101 82 65 69 145 87 76 97 118 97 121 120 173 108 108 181 155 175 193 181 171 54 145 85 96 94 193 132 160 209 152 102 108 146 78 82 76 255 117 132 184 120 93 54 152 161 59 67 63 126 145 181 255 166 96 145 110 193 83 121 62 145 157 73 155 156 177 161 182 81 156 149 155 56 99 152 78 171 122 164 90 117 173 168 81 96 120 126 153 104 156 103 83 160 129 174 105 112 255 131 62 97 87 148 126 87 156 63 161 137 97 144 91 89 93 180 163 136 123 195 107 198 201 200 118 208 214 143 129 187 187 190 88 80 164 153 175 75 162 85 174 173 79 101 159 149 115 128 134 67 145 131 67 60 71 178 132 168 80 136 183 188 185 146 67 55 131 107 49 76 94 98 109 155 125 176 94 118 46 121 52 144 180 152 214 196 205 204 191 196 140 113 202 158 172 182 177 200 179 116 209 110 157 110 139 172 99 108 94 76 71 61 159 101 119 165 101 88
150 154 153 149 142 133 123 126 134 156 163 164 143 154 161 173 192 186 184 170 175 183 193 185 182 164 156 165 183 192 199 200 208 219 215 219 202 197 187 182 193 186 202 174 161 160 185 181 199 179 214 188 171 175 118 163 145 149 144 148 197 168 193 163 182 141 155 143 155 107 165 162 116 125 118 116 67 122 103 137 182 127 172 141 172 92 83 91 112 63 51 61 62 73 128 118 121 82 87 70 111 121 85 137 148 112 112 119 82 109 86 111 103 98 79 92 91 110 112 99 185 131 187 122 128 184 161 156 147 159 163 146 87 178 159 180 114 113 127 195 200 135 139 150 145 139 40 60 57 83 178 126 199 158 116 156 169 107 150 163 146 167 135 113 150 110 162 188 106 191 182 155 160 181 97 155 143 101 160 156 197 134 118 192 113 95 91 154 131 132 123 168 77 132 160 175 187 180 99 154 121 153 148 141 108 143 69 167 100 124 160 140 183 189 240 138 165 215 121 92 169 159 152 102 99 177 71 63 84 86 70 161 102 154 118 173 118 163 87 69 82 100 107 181 154 96 187 113 176 180 115 88 123 157 204 133 204 99 193 125 153 158 163 78 95 134 161 131 255 165 190 136 79 79 184 157 78 76 128 129 172 141 119 164 85 80 89 89 95 115 160 79 67 84 103 154 52 56 56 58 62 99 255 83 100 130 179 125 195 201 142 112 148 89 77 56 50 53 170 157 169 162 111 164 105 175 92 170 157 151 147 154 88 105 162 66 122 60 164 164 83 130 138 128 148 173 75 169 177 204 195 102 113 156 113 115 86 144 89 93 86 255 186 122 170 147 110 87 100 65 103 89 121 155 176 157 141 97 166 69 134 164 153 121 125 133 165 157 176 127 159 175 176 166 151 139 110 97 74 166 97 150 91 148 111 103 120 187 113 81 173 185 167 169 151 142 98 89 100 122 111 112 193 201 157 107 115 109 168 95 174 131 143 111 97 191 137 102 147 136 113 161 129 113 150 93 79 165 175 122 80 164 135 98 168 98 192 76 99 93 33 93 146 66 171 99 96 180 106 101 151 96 130 58 122 183 108 205 214 124 206 145 151 144 177 146 115 153 110 115 135 121 149 121 143 109 141 96 157 77 161 92 189 100 75 74 82 152 155 70 79 161
138 144 148 148 149 140 128 122 129 150 163 168 155 157 168 161 180 184 182 177 175 182 181 189 172 167 163 161 185 196 201 212 215 218 216 209 205 192 178 183 182 197 195 184 173 168 188 177 210 213 199 171 149 179 127 152 160 177 179 183 187 134 173 193 191 182 154 127 125 180 110 122 116 131 161 68 125 115 149 130 207 116 184 108 144 103 123 83 75 68 108 56 70 57 61 106 66 83 82 83 77 97 125 96 138 142 150 115 122 73 75 94 92 143 115 92 112 108 98 173 149 173 120 123 103 94 86 95 178 95 176 95 112 174 159 95 202 142 115 197 140 181 181 114 163 137 123 155 134 102 157 184 96 99 91 149 168 122 145 111 157 113 158 91 105 164 151 187 118 200 133 99 102 115 101 183 123 195 114 224 205 159 91 92 179 118 119 167 96 116 89 75 137 174 171 129 172 120 168 104 123 157 77 65 119 164 170 76 92 112 107 164 174 174 193 209 198 179 175 174 185 81 100 160 113 81 159 135 137 81 155 118 146 151 159 169 176 91 173 108 182 111 117 166 181 185 82 171 69 78 79 149 109 125 213 183 207 112 197 174 178 171 65 114 57 86 81 159 147 168 133 135 131 179 181 170 137 145 89 169 125 134 132 185 157 184 102 197 109 200 165 69 92 75 59 58 51 120 85 96 125 126 159 88 116 80 92 179 87 186 98 175 83 88 66 121 46 96 86 173 181 148 104 164 177 72 107 167 83 133 154 143 144 127 170 116 150 176 96 180 125 161 75 58 160 70 77 183 139 193 162 195 79 170 162 80 143 146 93 167 173 93 75 163 177 183 139 171 119 170 174 150 128 99 172 113 147 59 131 122 88 96 79 101 151 172 76 94 150 130 124 173 174 127 163 157 89 113 115 171 158 160 203 112 145 152 162 126 117 170 73 74 109 177 116 110 184 129 167 68 157 182 187 112 211 115 143 150 199 168 126 101 185 154 185 103 192 102 103 196 108 104 141 131 132 153 163 129 177 158 123 115 119 151 121 146 106 139 158 144 102 54 116 130 164 86 152 177 133 165 93 130 135 53 155 79 145 200 208 129 126 218 203 132 114 179 108 161 175 88 86 86 73 170 94 199 144 99 183 126 111 183 180 191 77 116 109 79 133 85 76 81
136 140 145 148 151 144 139 128 138 150 161 167 158 160 164 170 177 186 200 183 185 181 174 184 179 165 159 159 166 189 198 215 224 226 213 203 197 188 182 180 172 187 186 172 168 156 192 180 198 199 178 200 154 181 180 128 167 133 157 109 179 165 183 126 169 170 134 111 100 116 181 189 126 182 121 81 91 102 161 152 123 141 113 132 137 158 168 105 164 92 131 65 113 61 82 45 103 65 107 93 122 119 96 118 95 122 88 117 93 95 76 68 77 83 161 110 101 139 97 116 146 150 132 133 124 104 190 102 188 177 205 166 203 107 197 135 100 201 206 184 109 103 97 140 171 65 138 125 135 123 134 176 134 166 153 183 159 162 156 128 160 168 87 159 113 104 86 109 163 187 144 137 95 172 168 171 113 189 154 216 221 201 160 183 189 128 109 138 189 183 142 168 108 157 80 73 169 80 177 90 95 108 137 80 67 172 104 82 183 175 127 146 176 179 159 229 193 194 113 98 108 162 181 83 88 183 155 109 121 130 67 125 113 71 102 159 116 79 138 88 186 182 158 180 75 89 105 79 86 65 148 85 152 161 162 184 192 101 180 157 88 125 121 152 70 128 83 175 170 187 181 151 103 87 146 189 97 86 81 84 109 178 159 105 176 158 96 98 195 187 90 154 143 125 45 70 78 93 85 85 101 147 110 159 167 78 71 127 95 92 89 84 79 90 71 105 81 108 171 79 102 77 94 121 76 150 110 169 164 171 70 131 85 179 168 145 146 160 108 198 202 91 179 163 98 159 170 97 119 100 92 148 164 107 151 109 93 134 109 147 117 170 167 161 161 122 188 85 98 193 108 201 112 115 179 79 76 94 149 161 88 78 164 142 92 176 71 108 53 71 148 109 128 131 114 162 125 166 138 149 94 109 186 127 125 133 217 133 152 162 155 105 145 165 100 129 87 82 63 65 152 159 100 181 198 110 154 142 167 159 135 202 206 207 158 127 104 204 196 210 194 123 74 166 164 111 176 135 174 95 181 200 194 161 131 128 212 200 86 85 108 117 158 74 163 189 174 133 165 131 108 47 44 60 80 139 145 190 189 123 153 164 132 138 176 180 97 164 137 180 116 142 90 118 177 122 109 108 180 157 84 130 158 97 86 255 83 72 116 74 99 172
135 140 145 147 150 147 145 146 147 158 162 169 168 168 161 163 166 179 186 193 188 177 184 176 179 171 162 156 165 176 195 211 222 225 212 198 184 176 160 175 180 177 161 175 166 180 196 189 196 182 193 183 179 178 167 155 166 170 125 179 180 158 132 115 147 164 114 156 96 173 119 157 175 192 144 136 83 144 194 118 109 107 110 127 123 145 129 116 115 110 93 71 98 62 49 40 37 50 56 107 131 109 71 69 57 85 103 81 109 111 85 55 65 124 112 94 129 182 156 186 182 146 190 200 154 124 131 198 203 111 159 119 113 137 128 142 154 169 164 180 93 90 185 185 80 69 171 78 183 194 184 187 153 120 178 102 85 136 115 62 131 179 172 156 86 151 95 100 138 135 162 118 157 137 193 175 98 104 125 224 206 193 179 138 113 184 189 124 174 180 106 128 68 160 161 73 140 164 89 106 105 191 83 180 108 177 127 131 97 90 85 103 168 123 206 184 198 115 109 173 159 82 95 104 89 144 134 183 81 129 56 143 150 101 155 145 81 92 180 185 104 165 172 170 175 77 115 107 176 139 119 148 152 189 165 91 113 184 106 141 187 160 116 56 78 159 155 111 115 169 103 153 170 76 118 169 174 171 161 124 64 116 100 175 212 109 112 184 123 196 186 96 66 55 79 121 155 103 76 106 149 184 114 135 181 81 125 181 192 180 99 190 184 91 107 153 166 255 156 145 149 56 66 160 114 112 81 77 142 94 98 101 73 185 142 93 90 136 146 103 202 104 184 163 95 59 159 78 172 177 148 187 175 153 129 182 169 115 100 190 169 101 169 180 136 123 127 177 92 130 116 131 143 140 180 172 63 75 167 75 106 95 117 189 186 187 179 162 56 145 48 137 163 140 181 151 169 171 157 158 170 145 91 105 173 238 135 118 91 162 68 124 109 141 187 202 113 78 153 76 139 89 166 154 115 187 210 112 172 134 138 181 226 157 192 172 135 198 122 119 217 202 147 147 97 171 183 129 139 197 129 193 182 206 149 117 204 194 164 128 145 90 162 168 94 116 119 166 161 66 129 63 137 123 71 87 111 82 191 173 115 181 150 95 178 135 159 104 111 177 168 133 169 160 109 122 204 129 156 103 148 148 139 126 102 95 135 88 71 83 112 144
138 143 146 143 146 147 153 150 160 166 167 155 145 152 150 147 168 169 179 191 189 172 182 175 186 178 168 157 166 172 182 194 206 212 255 195 181 170 169 160 159 168 165 180 171 199 193 194 188 187 181 171 155 172 184 139 195 157 197 177 161 111 157 113 160 163 110 111 141 169 117 209 196 177 94 158 137 145 167 153 98 103 134 160 178 154 113 107 109 144 107 94 94 71 82 65 94 58 54 77 90 124 76 70 52 61 56 118 48 73 51 65 72 119 95 130 154 148 141 128 176 113 171 125 124 154 100 157 125 105 108 176 101 90 110 80 81 86 183 192 188 81 177 179 162 81 114 159 176 169 107 156 196 185 196 95 177 162 119 79 163 179 126 121 183 92 184 99 178 157 144 145 136 185 140 118 169 186 131 144 200 103 168 171 89 102 178 94 85 175 117 105 60 134 136 160 67 122 193 156 115 106 152 131 130 108 89 112 168 160 101 194 94 171 152 131 95 165 125 177 180 139 140 85 181 124 175 151 187 174 134 102 69 91 122 148 83 183 85 134 93 151 94 162 168 83 106 193 97 144 171 155 86 163 82 122 140 90 135 185 179 124 158 154 139 170 82 114 158 122 171 120 131 73 84 80 94 134 69 121 102 80 118 202 113 152 216 107 98 89 174 176 74 177 112 86 89 138 100 153 84 151 155 180 75 81 95 201 140 113 203 184 140 145 92 180 155 106 112 163 105 62 126 129 112 87 166 154 101 188 147 113 178 91 111 133 170 166 93 197 167 163 116 115 105 116 142 162 162 118 166 126 106 155 151 147 170 170 198 129 117 153 175 144 108 210 210 196 170 90 174 156 163 104 108 90 97 126 125 181 190 151 192 149 127 149 156 116 129 143 134 158 164 112 166 186 161 167 97 91 149 92 172 153 111 231 138 187 125 72 72 74 129 190 171 114 184 98 158 89 53 115 169 191 128 223 138 121 128 104 182 126 155 228 117 174 147 182 105 147 214 207 89 147 169 176 132 140 135 170 151 112 192 99 89 129 108 193 207 185 186 84 140 104 102 123 122 101 69 105 51 137 56 51 81 123 129 68 82 113 140 100 139 67 108 91 83 151 187 124 192 87 91 98 100 106 164 103 122 52 53 103 101 101 174 149 160 100 115 100 123 111
142 146 146 139 137 141 151 158 164 164 167 153 140 145 151 152 156 165 172 176 190 183 188 186 186 179 170 167 165 168 167 170 190 203 207 196 186 175 175 172 171 166 162 178 183 202 191 161 156 139 142 160 127 161 174 162 217 169 168 200 128 159 172 134 148 112 174 110 106 121 167 129 212 175 185 162 140 140 146 156 130 97 94 154 114 117 108 99 99 141 100 111 78 86 96 94 75 76 65 76 101 103 105 68 59 60 101 92 64 100 52 84 129 74 91 92 109 94 164 133 107 165 162 70 149 109 107 108 178 169 170 190 92 180 78 65 166 171 175 183 177 87 145 73 173 164 100 159 137 160 62 171 153 126 185 102 138 172 74 94 85 113 139 116 157 183 183 117 153 164 117 166 188 173 147 177 186 152 118 118 118 126 107 180 185 106 93 88 132 102 147 124 98 68 114 62 152 184 190 171 96 160 101 179 128 164 200 142 147 133 143 154 163 164 160 95 174 118 185 162 91 133 86 162 77 104 108 107 185 111 84 167 124 173 156 186 159 181 79 96 91 154 153 72 172 183 140 101 199 140 174 169 156 87 168 117 183 111 94 78 79 133 141 99 71 168 138 157 74 140 145 81 119 146 138 47 46 97 69 139 149 92 88 203 132 115 172 175 136 87 75 81 106 87 106 199 98 166 106 133 84 104 168 99 144 77 122 126 176 137 142 152 120 108 175 99 102 185 78 127 128 54 58 87 104 87 187 182 122 180 124 105 102 149 104 126 137 147 117 159 95 125 96 161 145 128 141 88 161 145 137 167 177 147 69 57 75 166 168 103 146 90 139 105 195 198 139 159 179 179 110 155 197 212 150 111 171 131 117 191 177 198 157 158 190 93 95 152 61 87 96 118 172 141 132 161 148 84 136 139 156 72 143 179 124 216 206 202 83 90 147 161 81 177 100 212 147 173 168 120 91 134 123 176 124 211 226 211 157 184 151 137 120 186 218 101 83 135 136 116 114 193 166 169 67 163 178 154 107 170 176 197 78 65 70 175 170 145 113 165 145 107 109 132 112 98 83 94 88 152 123 53 132 56 48 98 139 103 134 154 166 136 162 162 132 103 107 78 84 87 116 127 195 128 134 132 166 161 124 43 123 105 86 108 158 113 73 172 149 91 156 64
146 146 138 130 128 133 145 157 170 161 161 165 147 151 167 153 161 163 163 180 187 191 175 182 176 171 163 162 165 166 161 169 180 192 197 201 194 192 191 189 164 164 151 179 189 191 155 137 125 145 152 155 127 165 168 179 205 196 158 184 189 163 139 171 174 152 130 127 123 158 171 195 201 147 184 118 69 67 79 98 120 90 121 90 167 138 103 138 109 115 96 136 133 114 131 91 117 74 76 95 82 99 111 108 82 59 80 105 255 38 42 118 111 84 81 79 77 151 85 148 100 96 79 136 120 119 105 107 175 81 84 162 176 79 121 81 141 148 166 174 178 141 148 163 156 80 82 160 113 136 142 85 138 132 170 116 169 183 105 147 127 194 145 153 130 170 143 121 93 110 158 151 103 157 101 90 130 167 190 137 121 144 86 127 136 89 160 157 170 73 139 98 111 88 164 109 95 96 185 189 87 139 116 178 190 142 174 131 134 218 134 187 101 106 110 81 90 174 168 153 106 192 163 158 131 180 104 118 150 175 99 129 89 101 173 196 111 189 178 162 162 155 59 160 88 95 189 179 177 184 100 69 138 169 177 107 88 106 126 143 59 153 105 67 166 164 153 179 176 134 155 161 147 145 58 78 152 154 101 151 170 81 79 141 131 126 167 102 93 169 105 105 95 196 207 214 159 155 80 160 164 97 171 66 156 96 124 158 220 134 118 198 114 204 192 79 84 130 255 153 72 142 55 152 99 94 153 151 180 102 99 129 191 111 86 86 151 153 64 63 161 114 111 67 173 81 98 95 140 148 141 168 108 147 51 128 139 154 126 101 142 109 184 128 115 157 188 148 180 105 142 95 100 135 203 255 144 177 103 190 110 202 189 116 185 98 168 170 71 148 167 189 172 79 158 170 175 79 182 86 186 183 130 191 108 196 194 184 137 143 70 70 78 187 173 113 207 147 111 255 114 85 149 126 154 228 208 189 113 203 156 182 195 165 112 113 166 70 105 155 80 158 159 67 78 114 117 178 213 152 107 181 160 122 149 81 156 163 120 159 170 205 155 111 197 101 120 164 164 57 138 152 67 139 144 83 106 127 59 140 156 86 66 67 103 91 137 87 84 133 140 172 191 99 195 194 144 138 96 85 62 165 191 162 112 176 175 72 121 93 111 178
145 141 131 119 114 127 140 152 162 161 178 177 176 170 180 175 255 155 157 184 177 192 172 160 172 163 166 163 167 176 177 182 194 203 204 199 188 199 201 198 167 161 156 152 175 168 166 117 150 138 128 143 135 176 148 207 218 164 174 152 168 193 149 125 143 151 109 158 99 147 109 107 142 128 151 108 101 90 78 118 115 121 92 142 167 106 154 95 90 88 101 153 95 106 130 86 76 99 61 92 90 107 72 74 44 46 53 109 57 75 70 72 77 84 163 116 85 92 131 56 61 108 58 79 66 147 132 89 182 78 171 75 180 118 102 85 56 164 147 99 119 163 69 145 126 98 165 138 112 79 92 145 117 131 139 166 196 164 187 121 135 183 181 170 102 125 132 105 182 179 186 108 166 140 119 173 185 150 177 104 174 203 137 184 181 111 179 127 139 74 154 173 146 121 89 147 175 98 190 194 106 113 102 166 112 203 219 236 163 107 144 148 79 110 73 125 76 141 95 117 90 186 192 141 75 157 167 91 138 83 182 125 179 180 132 90 179 186 155 129 152 64 136 137 160 139 78 181 121 147 144 117 143 164 142 119 166 109 175 109 164 68 158 146 131 189 166 188 104 158 123 159 159 149 90 133 110 114 171 165 123 73 72 85 81 86 142 140 161 117 104 182 139 184 105 191 218 111 100 73 140 255 71 167 163 75 199 170 166 156 156 159 146 165 116 118 73 110 134 135 83 128 88 133 95 142 195 106 110 100 99 133 183 100 161 133 77 56 57 80 156 158 75 68 176 148 127 138 96 95 78 130 153 63 85 59 175 190 195 115 113 117 190 96 130 81 81 189 149 149 212 186 179 107 113 106 152 131 192 182 197 113 110 89 157 97 171 79 173 109 93 156 185 176 168 89 93 175 172 87 196 106 144 117 166 190 179 117 135 152 162 114 124 142 99 140 126 136 131 161 78 65 167 88 160 213 161 149 113 118 176 207 120 152 174 188 132 51 135 156 100 80 176 99 103 177 191 152 208 180 191 175 169 54 83 83 114 180 178 126 224 124 201 167 120 102 165 89 169 134 103 98 96 91 105 68 49 125 70 165 80 80 85 171 120 99 192 129 159 122 135 104 136 178 152 155 96 166 177 87 135 100 132 87 85 159 149 78 145 172 84 86
142 139 130 119 118 126 137 138 150 165 175 179 185 186 188 174 171 159 168 179 175 170 172 159 165 158 168 175 181 192 198 204 210 206 204 196 188 190 200 199 187 173 154 161 160 166 147 145 150 131 155 157 158 166 137 177 170 183 156 180 172 126 144 108 102 171 141 100 119 62 73 175 118 113 114 178 93 128 131 91 170 90 147 95 165 115 115 125 98 129 103 122 98 88 111 113 73 65 77 87 117 122 60 47 32 29 44 86 80 88 80 106 93 91 92 91 118 110 62 53 41 132 81 95 90 110 134 135 153 74 161 90 141 178 118 62 141 134 74 120 176 174 172 123 164 91 122 86 255 97 55 127 93 118 89 187 170 138 181 157 90 178 142 137 105 173 192 194 105 146 184 184 127 146 78 127 90 92 97 199 118 210 164 197 201 134 134 78 142 151 77 132 125 178 157 98 118 142 115 166 110 106 94 127 119 143 234 187 177 191 81 68 59 70 70 139 75 154 76 152 165 186 105 181 142 166 160 148 163 173 124 182 169 176 74 160 161 88 122 103 162 152 148 175 154 118 107 132 155 98 169 52 146 55 80 107 153 178 255 176 83 175 158 100 166 195 131 135 114 67 100 160 141 67 147 74 141 160 118 187 88 88 48 95 86 115 88 78 116 143 146 86 157 103 147 176 121 144 98 109 88 76 148 76 76 74 94 120 195 201 132 190 136 202 88 170 131 76 86 81 158 82 71 105 142 94 93 168 188 88 152 160 139 75 155 173 125 170 78 110 123 92 118 174 180 94 91 181 169 152 157 160 87 159 82 94 106 103 95 187 82 186 181 190 100 81 162 120 198 133 196 127 175 98 140 123 194 124 162 173 152 145 177 152 182 80 83 159 163 255 154 169 159 143 109 83 153 169 77 97 150 155 182 161 199 196 121 86 68 118 103 148 158 120 129 125 142 83 94 167 63 74 140 167 154 174 206 111 198 181 193 112 131 145 96 184 82 58 74 89 143 181 179 77 80 95 126 115 213 212 127 99 85 82 74 121 171 171 132 178 176 186 205 118 133 104 152 93 84 163 157 115 79 123 146 112 96 146 58 136 73 93 120 121 147 158 170 174 100 92 103 127 92 150 77 85 182 180 113 93 184 122 189 189 102 93 173 70 169 153 113 95
133 138 139 136 132 131 134 144 149 150 158 162 172 174 170 160 148 158 157 178 172 178 165 166 166 175 174 186 196 208 209 221 225 218 206 191 188 188 193 193 174 179 170 167 160 148 146 154 129 155 160 114 165 151 149 160 139 161 171 131 129 147 135 169 159 85 106 68 99 59 84 153 173 183 202 170 147 84 151 160 126 119 91 149 143 158 90 149 118 106 164 104 157 116 99 111 134 113 93 129 91 101 57 71 24 26 49 124 146 87 108 94 136 107 90 95 90 72 61 55 46 156 95 131 126 116 109 160 169 97 169 152 130 160 162 62 57 72 174 84 77 169 144 163 70 59 52 147 132 128 81 55 142 177 92 108 197 186 92 124 99 71 89 88 94 124 140 122 157 95 169 102 77 113 126 140 117 129 186 183 166 208 202 181 191 186 192 179 179 172 153 184 91 97 157 194 169 190 120 97 123 174 114 107 157 205 123 180 178 164 133 155 49 62 143 143 120 118 134 129 167 175 195 102 100 162 134 80 125 169 154 159 158 170 114 167 142 120 173 172 171 150 184 149 86 130 119 157 166 168 107 59 117 98 71 81 177 96 147 178 183 134 168 135 174 166 169 89 128 98 61 136 96 99 113 80 196 116 215 123 171 73 48 73 64 73 64 125 176 167 161 114 159 140 143 149 131 135 104 90 77 78 85 175 120 98 92 100 124 94 147 191 194 176 83 144 66 94 191 192 183 94 148 89 93 167 154 143 86 71 83 112 69 73 172 81 85 115 88 165 160 108 141 136 168 187 185 168 95 166 97 176 162 142 69 83 71 183 125 178 86 101 163 147 83 176 100 200 118 168 165 140 173 154 123 97 105 149 148 184 143 72 167 181 130 87 148 206 209 103 86 86 169 134 130 156 156 164 75 181 95 111 212 170 124 196 194 118 87 93 118 130 77 166 182 104 153 73 81 62 157 138 70 103 183 160 92 193 93 127 131 117 186 129 184 158 162 90 64 127 175 123 86 156 77 179 155 202 225 148 143 103 113 186 100 165 140 186 137 158 182 123 126 202 127 171 167 203 94 164 104 158 170 148 148 167 165 111 68 117 149 48 129 107 196 214 223 158 200 100 81 73 90 148 141 136 116 100 98 138 158 88 116 108 119 185 161 116 149 138 79 92
132 144 156 162 155 149 142 142 141 146 156 152 155 166 149 158 153 147 163 174 162 158 166 167 170 174 186 180 200 207 213 217 213 211 202 191 193 187 191 182 175 176 183 181 145 158 145 163 160 164 167 133 170 159 161 139 160 154 115 169 192 145 123 176 167 150 100 120 148 84 127 158 120 180 144 165 135 127 86 144 119 118 125 166 129 81 73 94 90 101 95 113 155 139 102 78 123 98 99 99 97 64 44 69 31 36 69 69 84 132 108 155 165 105 108 111 105 99 73 80 100 122 189 115 151 117 135 102 198 191 108 176 89 158 124 159 58 168 168 88 182 104 88 156 169 157 57 53 57 142 114 128 130 164 138 164 197 130 77 160 126 103 139 151 61 134 140 115 184 175 103 69 101 140 167 124 100 83 187 142 159 141 145 183 170 189 186 151 183 116 151 120 125 176 173 139 145 99 147 87 116 179 130 183 107 204 208 113 172 105 154 146 118 87 117 151 66 72 146 48 102 92 133 206 189 84 63 60 159 159 153 167 119 83 84 142 69 168 176 183 174 195 157 76 92 159 122 174 117 180 139 61 149 131 90 90 102 169 165 165 153 161 88 87 173 153 174 171 130 152 159 85 73 76 122 89 121 186 110 115 129 133 141 76 148 61 107 125 72 125 159 156 174 72 78 88 139 118 196 177 170 73 111 153 138 95 142 103 117 186 168 86 84 88 176 153 177 190 200 210 136 157 91 92 135 120 110 81 101 110 124 137 149 73 173 86 190 110 185 173 132 87 170 120 79 115 145 162 86 59 137 152 107 91 103 165 109 109 99 164 181 194 178 189 133 95 159 115 145 202 156 168 120 173 121 200 110 110 187 128 89 164 85 80 88 131 134 196 186 136 162 148 139 173 89 71 159 129 143 152 125 162 201 129 102 171 187 137 70 154 69 42 56 162 83 85 77 151 145 99 157 146 116 159 122 115 111 99 191 157 89 82 160 152 126 72 67 72 73 141 108 184 119 112 96 95 157 204 175 196 112 163 169 96 91 95 177 138 184 181 122 127 143 205 161 128 134 165 175 186 171 154 69 156 92 171 112 113 135 127 127 133 96 161 144 210 214 122 193 80 105 110 81 83 134 82 103 166 134 111 138 158 168 119 159 219 156 108 107 60 158 80
137 151 167 173 169 160 147 141 140 148 151 158 149 143 141 140 150 160 147 163 164 158 160 165 174 170 185 186 194 197 214 210 199 197 195 199 204 209 200 189 163 180 188 190 180 152 142 141 136 166 136 134 177 169 144 165 138 113 160 172 198 157 190 133 143 87 101 148 100 180 110 137 138 157 127 147 101 77 94 98 108 170 173 107 119 83 84 62 121 107 94 109 110 156 94 99 86 102 91 82 79 81 80 49 68 112 90 72 98 104 104 113 100 133 136 125 125 160 174 59 73 76 174 104 107 111 105 126 101 139 175 124 94 166 165 117 99 131 153 188 162 192 91 79 164 165 63 155 147 100 133 56 102 74 97 94 196 126 136 132 191 163 141 168 151 133 158 174 98 172 137 154 110 88 135 164 167 95 110 109 199 101 190 183 174 173 135 176 128 82 171 78 168 70 100 149 129 94 146 98 106 178 148 185 165 195 149 172 112 72 62 50 44 65 85 72 84 125 157 80 114 180 156 105 102 164 167 161 64 168 84 127 97 82 111 173 170 167 176 186 190 201 185 176 71 74 91 80 92 156 66 139 95 128 119 97 150 101 57 116 161 129 172 86 60 56 54 61 140 80 124 147 78 169 117 108 180 104 191 86 168 63 158 141 141 137 140 126 99 113 108 176 70 109 82 80 99 158 95 87 91 138 168 122 157 102 197 114 178 162 75 153 141 84 99 159 90 107 112 208 119 138 98 104 106 97 97 125 159 92 121 165 80 122 101 140 92 95 172 175 131 83 156 82 82 157 93 129 156 72 95 83 132 109 118 66 65 180 167 128 119 110 169 134 172 109 122 180 151 104 127 180 143 151 114 198 108 157 129 181 101 168 160 136 171 174 179 162 177 156 146 144 93 91 69 133 142 92 80 187 106 168 255 146 87 188 172 172 123 83 122 53 72 88 95 174 164 100 145 83 162 133 102 99 178 181 172 177 180 177 73 103 152 153 80 158 88 78 186 127 165 133 187 129 154 63 163 83 121 164 155 120 85 97 113 187 135 115 127 134 200 158 159 128 135 184 209 111 108 145 82 175 169 86 130 134 93 180 123 189 69 140 69 69 171 219 152 202 175 72 79 95 201 108 203 93 151 108 83 79 96 165 96 121 232 200 213 142 162 134 140 94
150 161 173 177 180 171 161 149 144 156 167 162 156 140 139 133 161 159 154 144 155 161 176 181 177 188 175 175 191 196 203 196 182 185 191 203 214 218 204 168 167 171 175 180 183 168 143 144 179 189 149 186 148 158 179 132 140 152 172 164 187 213 137 139 151 150 117 141 132 189 152 142 160 173 166 83 143 74 156 140 125 143 153 146 140 159 75 73 76 95 107 132 125 107 157 122 116 101 71 61 94 56 50 57 82 104 79 122 96 133 135 108 113 105 103 169 165 138 101 90 55 46 104 150 110 115 98 102 99 133 189 97 184 127 92 82 84 182 137 151 171 146 99 98 170 74 78 89 162 68 117 92 148 164 137 191 175 148 186 205 169 194 161 114 81 86 77 152 159 120 169 85 161 88 118 94 133 139 99 145 201 166 143 160 77 125 69 95 86 177 172 119 139 146 121 135 126 121 141 87 89 69 115 131 187 192 91 170 112 167 147 82 119 160 152 175 94 131 104 77 150 147 162 113 174 183 169 121 139 85 184 91 181 150 82 182 177 166 171 114 197 97 148 125 163 187 168 176 105 162 137 43 159 124 188 255 160 104 95 51 103 77 171 67 113 139 85 71 75 163 156 125 147 144 100 188 88 177 101 169 64 115 97 162 77 93 143 73 111 150 105 85 168 134 98 139 155 90 159 72 79 114 105 134 148 182 109 128 87 149 137 146 106 76 88 94 173 120 112 105 85 61 60 162 101 104 86 75 85 151 91 153 175 183 167 255 121 139 80 143 76 147 171 182 176 129 112 133 154 154 134 71 136 73 67 145 66 165 151 119 106 201 197 124 125 150 202 148 168 176 95 97 178 102 147 159 183 164 160 101 89 174 177 136 83 143 148 95 168 146 120 99 91 96 87 143 118 149 79 102 189 90 169 73 145 182 92 176 79 90 73 161 175 86 170 110 179 95 164 89 75 167 138 168 136 141 184 153 201 94 90 76 57 58 150 160 164 191 118 122 216 200 93 95 77 53 109 112 88 110 178 86 144 85 186 171 103 188 157 160 131 116 169 191 174 140 196 142 195 164 159 162 186 118 189 147 107 192 102 109 187 167 131 160 129 108 106 142 154 126 138 143 147 126 209 115 188 182 137 143 93 140 79 201 123 217 143 99 91 56 127 167
152 159 166 172 172 167 162 161 161 177 171 174 162 146 130 147 156 153 147 147 147 166 179 182 201 199 183 177 182 184 195 187 180 188 198 215 222 219 197 172 151 154 147 179 178 165 176 167 161 166 160 145 176 133 157 165 165 158 157 129 126 162 161 182 135 110 105 106 185 163 130 164 192 124 163 154 143 74 117 115 163 109 134 122 160 136 128 75 79 86 162 136 133 135 166 152 121 66 58 106 81 57 54 87 77 81 78 133 134 166 124 132 146 105 118 104 117 117 145 79 74 120 42 78 109 101 111 185 181 102 142 105 136 204 194 156 170 134 97 145 150 161 92 172 167 170 189 90 80 148 168 70 160 120 150 118 150 215 206 219 162 174 126 184 97 132 144 167 140 176 79 85 121 146 143 161 92 162 171 126 185 134 169 105 176 73 156 174 76 87 131 145 145 109 109 165 68 154 150 108 177 151 143 103 145 188 95 82 168 99 151 91 147 71 157 100 102 75 144 80 177 162 255 91 112 103 99 69 63 152 158 85 156 144 85 161 186 84 97 81 158 192 192 180 186 196 199 135 178 97 47 139 156 102 158 187 83 108 51 51 143 137 82 83 95 64 33 35 134 159 76 74 86 152 176 176 155 73 110 79 86 255 168 77 88 107 158 78 76 166 78 131 71 94 92 71 167 78 128 99 108 54 68 128 89 196 183 118 136 147 78 89 49 148 84 186 100 204 125 125 141 122 62 129 113 88 159 178 181 181 89 177 85 182 173 174 170 70 103 169 92 171 170 139 152 90 79 47 142 118 163 78 97 54 60 84 49 69 101 140 130 204 124 166 122 158 198 191 197 140 203 155 98 106 136 185 187 158 122 116 176 119 97 122 69 100 160 165 68 126 74 130 148 175 80 74 135 149 168 178 147 145 89 118 170 182 180 84 159 95 94 116 187 89 118 142 97 103 87 164 100 117 107 139 79 105 95 169 162 101 169 179 165 80 70 73 82 89 198 185 182 96 189 81 163 73 70 64 95 166 82 175 183 169 106 177 95 162 89 173 150 172 159 138 201 125 181 148 176 110 125 94 158 121 155 108 142 120 200 171 194 104 175 81 83 96 116 88 175 167 89 166 163 115 190 99 81 83 65 68 158 140 99 186 112 134 150 93 64 55 160 77
139 146 157 158 159 162 162 164 162 180 191 184 167 151 154 159 156 149 139 144 147 175 178 191 198 192 182 176 179 184 189 191 189 195 211 218 218 210 188 159 142 135 141 172 177 174 185 190 205 210 187 154 154 151 150 136 88 149 142 120 185 155 150 156 119 165 124 189 147 177 123 202 141 121 94 79 159 140 148 94 99 110 99 113 139 156 90 90 106 118 124 187 169 159 115 160 84 72 116 59 57 67 89 114 96 112 95 116 173 137 139 140 94 84 85 101 146 101 146 74 76 82 76 156 77 108 134 211 189 203 117 171 118 255 187 80 123 80 183 193 113 107 161 74 155 86 102 92 134 172 140 173 174 186 172 194 174 174 211 129 118 137 166 117 164 194 180 151 166 82 141 157 170 175 158 100 90 167 155 130 152 135 111 159 139 159 147 182 170 186 157 169 129 142 165 121 163 66 80 173 146 78 144 87 78 89 150 71 118 89 197 124 180 149 135 70 120 69 124 180 178 73 136 174 179 180 171 110 159 154 154 162 73 111 90 96 191 148 172 152 164 117 172 103 193 174 182 144 113 145 65 56 156 105 145 204 160 140 121 152 115 183 144 159 176 134 78 32 130 73 102 83 144 160 166 100 96 174 174 121 165 82 135 101 79 161 71 53 102 68 101 84 163 160 76 152 111 156 179 85 80 164 86 173 106 120 179 104 145 136 42 140 57 53 92 182 166 90 93 172 59 47 150 89 164 95 178 143 135 133 103 105 170 99 168 118 161 164 255 69 151 173 172 105 157 75 137 42 151 134 130 94 137 128 54 60 41 70 153 67 185 106 193 167 218 172 206 105 120 192 117 149 161 123 168 96 176 167 76 94 177 131 141 155 104 88 75 100 125 65 132 52 70 132 88 143 69 89 121 99 138 169 104 84 120 144 165 172 171 159 185 166 122 102 95 80 95 130 154 99 150 104 121 82 68 77 86 163 108 101 116 125 84 143 61 66 167 189 172 84 173 82 128 125 170 165 64 166 174 88 90 101 87 153 154 98 127 165 110 197 133 175 216 163 106 185 142 101 148 132 187 111 175 138 201 104 128 102 198 182 110 193 135 86 146 167 86 86 159 86 183 193 118 201 94 139 155 131 126 153 104 172 82 119 165 113 95 176 119 138 142 141
112 122 135 141 144 149 154 159 164 166 191 191 181 176 160 169 166 160 150 139 169 183 204 190 196 180 163 163 150 157 174 185 203 216 221 214 203 190 165 163 141 139 151 148 172 181 167 210 199 209 207 155 136 135 140 103 92 104 119 103 133 123 130 124 111 104 134 104 166 193 131 152 137 83 81 77 156 145 146 95 151 151 97 94 124 118 161 148 110 117 134 135 149 131 116 97 135 82 67 72 73 75 78 107 119 154 109 139 121 169 125 107 124 72 75 66 76 106 147 142 77 121 156 99 140 112 199 119 114 119 166 188 211 111 98 88 146 79 169 188 141 104 76 155 59 116 174 157 86 154 117 109 185 122 194 193 208 194 235 189 140 85 133 145 202 149 109 147 156 94 96 99 140 181 181 130 73 162 162 178 100 165 135 143 127 152 187 132 118 101 99 152 206 101 173 109 55 149 101 57 67 143 154 166 72 94 123 132 154 117 217 186 208 168 85 71 87 149 74 79 137 117 78 83 111 92 71 154 141 56 135 57 77 184 141 193 117 164 88 144 157 68 169 137 192 191 140 88 98 104 147 157 88 120 124 202 92 156 173 89 176 181 93 106 138 161 100 117 132 103 97 113 63 173 153 189 109 177 147 157 96 117 139 172 166 122 60 110 101 134 78 82 162 108 114 77 95 172 161 92 81 128 90 177 93 99 194 105 67 94 82 114 53 123 59 167 171 153 151 91 64 123 67 76 131 166 73 74 74 84 158 197 140 78 163 74 74 72 77 75 82 163 182 82 61 69 129 138 133 102 102 128 91 105 126 39 141 79 76 129 169 99 192 205 204 197 173 94 111 112 220 120 207 111 144 86 127 163 160 68 142 182 160 141 180 76 170 164 178 139 55 152 119 148 196 155 74 50 93 79 114 133 176 174 98 118 152 78 133 129 109 189 107 164 99 103 147 185 189 192 110 123 107 80 159 75 147 123 106 121 122 191 153 154 76 82 126 105 183 108 119 92 69 167 134 93 166 177 81 101 172 103 79 166 108 193 140 146 138 144 222 143 116 162 148 132 183 154 157 205 150 134 113 134 122 165 148 179 255 202 108 122 91 122 67 142 180 170 91 186 104 140 71 122 170 169 53 53 144 62 122 122 195 179 185 102 86 164 156 98 183 114
91 103 121 132 138 145 146 154 156 159 186 204 199 180 164 164 174 160 157 162 170 193 209 188 189 174 153 149 145 147 154 182 209 221 222 208 187 175 165 163 152 145 148 170 177 177 180 221 205 185 204 142 150 114 120 77 73 82 71 151 176 185 157 189 161 164 158 166 114 140 110 111 120 67 142 74 86 91 98 146 109 100 157 96 172 97 112 136 120 125 145 204 157 132 118 96 126 78 73 101 129 85 110 120 115 117 123 138 125 149 147 153 108 107 68 59 75 79 74 152 166 151 148 139 114 165 123 144 139 128 113 128 215 214 202 82 144 141 59 142 169 88 168 150 145 68 101 83 141 157 173 190 206 188 136 201 194 213 235 137 187 171 92 170 132 167 164 109 166 105 129 173 191 199 163 150 124 105 82 161 149 197 203 212 109 182 167 180 186 148 184 176 151 208 190 60 67 57 100 47 121 97 147 158 149 66 65 169 97 113 159 229 196 209 182 74 80 114 79 76 151 79 135 120 102 175 135 124 109 131 92 148 78 155 196 184 174 87 94 57 127 162 75 192 142 90 66 54 101 120 77 135 137 175 198 161 157 85 175 89 99 190 145 179 184 81 120 83 99 125 56 160 116 143 180 144 119 119 103 124 106 151 186 99 165 52 95 70 131 122 154 87 136 167 119 136 189 120 133 132 85 174 168 142 91 181 126 136 80 130 115 255 143 139 149 106 156 89 159 76 111 131 143 66 122 154 63 72 78 175 181 162 89 175 107 79 153 81 182 183 90 187 185 182 123 55 40 48 158 54 123 128 97 91 101 139 115 167 76 151 86 112 159 178 142 121 162 80 114 205 128 142 140 111 103 151 171 163 56 78 104 192 209 143 93 141 105 89 85 177 84 164 75 196 153 93 151 47 105 129 47 95 119 255 142 195 111 90 75 79 139 193 177 106 178 144 78 98 132 110 111 135 147 84 51 52 90 44 133 107 114 155 123 85 169 102 204 107 144 118 146 69 125 114 108 158 167 175 187 190 180 151 166 168 115 210 231 187 221 201 150 218 188 112 181 162 186 124 145 195 213 187 177 126 162 227 157 119 205 206 173 202 172 82 51 114 79 189 134 164 103 90 59 127 64 60 144 127 39 61 120 110 192 186 115 112 57 132 123 127 115 156
