P2
512 512
255
107 113 124 141 149 149 148 135 119 112 109 128 146 139 130 133 155 174 198 199 210 200 202 196 191 165 175 176 186 185 190 173 161 167 185 202 215 225 221 204 191 178 180 162 171 177 182 179 152 149 159 170 126 173 168 129 145 157 195 154 160 161 160 100 97 115 159 73 104 169 115 115 123 33 46 29 116 56 92 93 62 44 66 55 62 133 94 100 139 106 108 168 120 184 140 137 143 123 124 126 136 118 163 107 119 117 147 148 156 95 84 60 48 41 70 107 87 93 171 89 139 99 185 189 114 113 142 28 53 92 22 109 162 85 156 198 134 229 137 100 97 176 202 205 125 234 150 160 151 183 157 95 195 184 197 169 171 165 152 156 217 223 211 150 143 145 187 212 218 148 223 233 236 144 158 126 89 85 135 92 0 58 39 20 55 140 132 159 154 105 162 149 29 122 92 107 162 145 159 66 159 169 70 47 124 107 69 181 91 91 109 144 125 136 100 134 186 138 167 86 72 111 93 134 128 125 104 117 200 109 143 198 143 110 176 180 74 83 148 147 162 134 128 98 199 183 101 176 164 203 151 162 107 140 77 115 99 151 126 95 117 137 124 95 201 191 158 121 194 117 142 99 76 103 221 215 140 231 208 194 201 93 100 151 255 174 73 127 71 86 46 76 80 184 188 184 65 65 81 111 147 112 180 157 208 126 147 43 166 142 135 118 117 196 83 161 116 138 114 165 76 140 90 83 59 73 88 141 168 54 76 100 137 104 82 166 97 67 47 49 39 148 61 175 120 120 75 142 45 136 100 152 131 56 147 58 47 151 165 128 81 199 231 139 193 149 80 121 164 130 142 173 153 116 192 190 123 121 70 189 140 122 141 223 198 191 199 166 153 129 225 122 182 110 132 233 248 183 165 143 146 106 181 237 241 153 148 190 105 136 170 142 105 87 170 57 133 70 138 108 173 209 186 152 191 185 176 162 68 142 140 150 155 60 109 146 196 217 153 221 141 122 208 222 128 188 112 199 170 172 68 134 86 102 144 98 54 117 116 74 149 139 142 101 159 123 103 144 122 172 90 127 111 141 174 90 196 223 183 152 126 113 182 219 145 181 96 82 163 158 164 121 109 165 170 80 90 52 108 54 119 169 168 62 170 101 97 150 31 56 55 117
117 121 128 137 144 149 152 138 122 107 108 128 135 120 113 123 131 148 177 183 195 196 211 198 186 174 166 161 173 175 176 163 151 157 171 188 196 199 191 174 181 163 176 167 154 183 192 194 191 183 169 147 174 175 149 141 111 181 196 144 169 176 117 136 181 171 109 156 116 84 149 167 80 142 39 39 69 147 116 131 86 79 124 120 76 76 97 87 113 92 128 108 120 147 142 131 144 255 144 100 111 142 120 109 105 135 138 107 103 106 62 44 48 50 47 128 60 109 94 121 118 96 117 108 141 86 152 25 21 21 90 140 152 84 150 221 159 231 111 134 177 178 186 203 210 130 117 195 127 114 184 156 98 204 185 135 153 93 173 115 135 136 209 154 207 123 164 145 153 199 176 171 141 160 153 98 179 176 140 78 66 27 113 104 53 104 116 61 104 152 89 128 74 42 71 102 76 142 59 146 161 106 158 125 49 77 150 172 73 178 125 51 112 41 164 152 142 163 162 90 176 183 91 151 73 138 87 173 185 149 123 184 105 255 164 184 73 176 138 146 152 104 181 119 187 180 135 84 118 88 193 191 191 115 168 143 72 79 111 135 91 95 162 189 209 227 203 186 96 55 113 132 97 139 219 140 122 203 116 123 157 195 141 167 78 76 162 119 158 145 66 162 116 88 184 95 79 119 255 80 132 151 107 221 121 120 87 66 110 89 109 191 134 91 72 132 125 171 182 140 119 129 113 148 97 100 121 170 169 100 94 27 137 154 152 94 172 55 56 142 59 48 155 147 99 175 146 157 60 141 66 138 116 153 80 129 41 134 74 144 128 131 218 237 180 152 180 165 174 120 108 189 109 126 170 114 176 161 70 173 108 213 188 187 187 104 119 113 135 186 163 144 90 88 103 218 243 173 144 166 183 142 144 188 147 128 138 125 102 83 88 114 171 188 150 168 169 64 183 145 210 189 204 108 168 151 66 113 127 182 161 185 63 116 65 142 190 151 170 214 195 219 121 211 152 107 176 96 190 89 133 81 163 158 88 130 92 155 139 137 165 109 183 151 125 140 98 95 125 108 163 134 58 172 112 179 192 163 163 115 93 171 110 203 179 161 75 172 173 76 73 65 87 63 147 166 53 48 52 63 68 100 79 139 110 81 79 149 100 97 39 82
121 125 128 133 138 149 151 139 118 107 108 131 130 125 125 125 135 149 161 167 188 207 195 187 179 162 155 150 159 166 162 149 149 148 160 169 161 154 155 156 156 148 174 179 186 166 180 166 192 184 145 151 161 164 166 178 165 187 174 117 128 151 176 134 100 141 255 122 118 69 114 76 73 85 77 146 65 118 140 116 90 124 128 104 85 80 144 85 82 85 112 168 122 115 114 115 105 145 90 114 134 102 101 125 108 154 142 117 93 124 45 34 25 35 53 139 81 117 107 130 209 190 180 194 108 163 38 100 125 138 52 105 136 151 176 106 120 162 107 94 162 96 173 181 102 131 199 188 129 198 147 165 173 97 134 174 161 99 114 176 77 114 114 197 148 100 177 171 187 157 228 203 217 186 114 165 80 167 174 120 78 135 116 103 56 119 150 126 76 137 156 53 102 102 56 171 176 134 91 86 159 70 169 117 164 166 174 176 121 89 55 42 138 53 54 170 76 149 178 172 138 125 136 136 135 33 115 127 173 152 99 198 138 104 190 182 95 176 90 158 136 136 97 177 124 115 73 155 165 122 142 179 193 90 68 147 70 176 81 162 147 160 72 121 97 109 219 121 96 158 92 170 132 111 124 120 119 99 162 146 192 142 103 89 140 110 158 138 49 118 101 59 167 88 180 102 116 105 184 74 123 164 94 183 170 93 75 88 59 155 154 110 99 81 84 102 77 160 110 93 93 91 104 131 167 139 115 178 82 141 47 33 50 149 83 70 85 106 98 130 46 100 164 170 172 95 58 156 152 63 121 144 93 145 97 132 39 148 95 89 175 135 205 189 115 184 132 78 170 202 213 212 194 149 172 159 167 168 79 191 195 195 151 162 161 94 161 178 186 162 91 193 128 129 134 214 147 144 186 186 183 163 204 204 120 120 109 123 169 107 131 178 183 111 81 122 76 184 165 93 172 93 86 111 180 159 166 156 133 171 87 171 75 115 63 145 87 176 194 102 210 134 110 206 141 167 197 191 103 161 98 177 118 107 141 102 175 129 117 149 206 175 220 193 129 142 101 134 204 164 208 103 65 170 64 123 90 121 105 142 180 90 202 136 109 173 66 120 153 148 75 128 65 143 90 118 153 39 46 47 104 136 173 177 142 132 172 78 122 128 137 77
118 119 119 124 133 150 159 151 128 126 120 150 157 140 134 119 142 131 153 173 181 207 202 194 171 154 137 142 147 158 150 154 144 152 152 153 139 132 129 129 137 146 162 175 184 183 196 199 158 173 127 111 127 129 170 137 143 189 187 168 147 157 165 173 178 150 75 134 130 70 121 147 168 174 177 149 148 131 179 177 127 120 164 107 93 126 103 107 89 150 90 255 117 160 104 149 104 64 79 66 88 123 137 138 113 139 106 128 153 70 48 87 76 60 77 80 135 145 116 119 165 117 139 146 84 79 49 65 93 160 79 142 76 101 183 180 213 141 154 68 174 185 199 203 138 120 110 101 205 186 125 72 133 71 142 64 68 151 147 163 60 106 101 177 138 148 117 132 113 131 209 155 202 181 166 164 177 163 92 96 154 162 151 129 103 94 48 99 146 137 156 117 70 74 149 70 131 174 142 89 173 103 144 147 132 118 177 96 166 66 160 155 46 73 103 100 156 93 167 194 200 143 184 60 123 108 62 153 162 101 179 112 193 88 117 146 125 65 58 51 60 138 145 156 134 61 103 62 161 63 64 178 81 92 188 108 178 165 161 81 105 127 150 104 178 93 203 103 168 159 148 136 188 171 150 189 138 124 95 195 113 72 136 74 171 67 63 108 141 62 127 54 158 171 93 123 173 108 178 127 151 79 125 198 86 84 49 69 142 140 131 120 103 102 46 126 43 120 79 145 93 119 95 103 88 84 179 145 96 166 169 160 145 113 120 78 52 148 155 158 144 157 76 62 90 155 45 138 110 83 82 141 178 66 76 147 81 156 136 84 181 170 162 182 156 131 123 167 165 201 184 214 117 94 93 101 70 173 185 179 183 155 103 126 74 159 144 157 163 172 113 119 149 129 182 177 115 208 123 94 127 144 94 124 210 184 198 190 158 70 159 101 165 153 203 186 109 117 162 103 96 173 161 81 100 93 85 72 113 78 150 111 63 69 167 167 139 169 81 143 104 135 202 96 188 183 132 83 188 97 113 163 58 86 68 90 91 102 150 155 169 160 183 144 190 80 111 154 190 128 133 174 169 171 167 71 157 132 170 82 95 66 91 146 169 65 161 54 169 180 93 82 103 170 65 124 158 58 107 103 51 125 69 100 109 186 106 163 113 73 179 97
114 112 110 113 125 149 162 156 135 127 140 158 178 165 154 153 158 164 172 172 202 197 186 177 171 161 152 154 148 163 159 160 163 162 150 143 134 120 121 113 114 117 155 169 181 165 176 187 175 151 88 84 129 94 119 174 168 193 180 129 146 144 150 164 92 123 66 60 139 123 49 128 92 147 111 191 141 162 165 140 107 106 121 100 173 124 72 71 116 76 113 134 102 120 122 76 65 45 67 77 73 89 102 141 115 110 95 143 84 130 62 43 62 50 146 134 115 135 126 209 154 194 191 101 77 71 141 147 157 95 79 182 78 75 165 159 93 188 120 57 173 192 204 151 96 143 160 92 131 180 189 172 170 161 70 112 80 135 164 164 100 122 121 128 111 98 174 163 181 118 139 200 151 135 122 170 104 110 89 110 184 112 127 126 143 104 161 57 52 162 107 148 182 129 61 152 156 73 69 169 176 189 148 203 113 144 177 78 147 177 170 159 167 135 88 111 138 175 91 181 192 212 175 102 108 115 54 60 157 153 176 163 172 109 119 142 163 108 52 155 152 119 112 163 64 130 146 149 50 90 118 168 142 192 193 199 123 163 151 92 185 130 69 85 153 176 198 196 191 140 149 202 98 180 200 140 112 176 145 174 159 115 126 89 181 135 67 65 49 155 153 151 134 97 84 103 96 100 80 107 75 84 130 197 85 137 53 50 84 87 177 80 80 58 68 56 35 71 96 89 182 108 122 180 157 168 146 100 94 84 122 159 101 180 78 160 86 49 104 69 76 102 162 169 115 96 144 46 151 184 89 147 92 183 89 140 54 102 178 173 156 150 173 111 88 190 117 174 170 167 206 115 95 142 117 124 101 154 101 176 96 108 163 153 174 121 94 98 162 108 105 169 112 91 118 188 117 165 157 203 154 115 195 172 95 158 154 149 73 132 160 118 127 204 114 197 197 126 218 150 177 91 169 145 152 132 90 163 177 85 188 122 87 50 57 116 149 144 158 174 105 115 135 173 182 86 180 177 102 107 96 121 122 64 127 185 203 132 190 185 123 201 207 198 131 80 106 183 208 164 120 164 175 165 155 178 125 98 75 169 106 151 117 51 164 151 123 146 92 96 94 136 81 86 69 136 63 91 47 68 150 104 160 105 85 82 80 77 85 97 111 151
120 113 104 105 118 143 163 159 141 129 139 161 182 181 163 167 173 172 193 199 193 198 199 180 169 166 158 158 163 175 179 181 175 170 158 150 143 139 130 126 123 109 122 156 150 162 136 134 155 116 120 101 72 115 134 127 192 163 190 159 111 148 104 134 118 132 150 87 53 125 103 89 158 130 187 142 184 163 91 73 85 125 93 101 88 76 132 91 104 121 82 79 91 95 103 63 102 79 67 46 102 125 126 139 96 102 98 137 83 100 69 144 140 104 72 137 154 161 182 117 150 101 83 177 136 66 138 148 168 153 147 66 119 140 174 182 93 64 107 64 183 172 205 105 107 82 141 135 113 140 160 157 180 155 176 173 80 82 157 140 98 167 70 174 109 85 165 151 156 144 185 183 123 125 110 91 85 103 163 138 110 170 180 110 160 82 140 55 107 101 109 191 175 176 143 68 140 70 129 174 83 100 189 208 202 109 166 158 82 140 86 190 116 164 92 136 142 168 198 116 225 166 200 80 128 123 100 63 103 146 84 64 141 84 163 125 149 84 49 49 78 100 83 162 66 150 100 41 124 161 170 120 128 164 199 178 172 152 191 176 180 171 127 157 148 123 163 116 114 214 169 135 144 133 139 73 138 73 117 111 129 120 151 164 165 86 76 166 63 80 65 124 141 82 76 167 181 86 72 74 181 126 108 106 90 112 145 137 106 80 75 62 94 45 60 29 108 16 39 55 156 90 184 111 125 141 89 100 83 82 172 133 114 92 90 112 95 56 72 198 100 101 187 144 57 130 124 55 76 92 173 205 153 115 66 64 103 171 103 113 111 117 90 177 166 142 160 91 67 177 89 121 94 139 153 117 146 183 198 174 164 185 170 87 184 202 210 162 94 118 129 147 155 102 164 142 94 162 192 219 187 181 191 154 109 191 90 100 103 173 191 193 164 107 197 228 143 144 115 200 167 88 122 98 161 190 178 166 103 104 134 170 135 58 110 156 94 158 133 131 167 171 82 179 184 182 176 157 155 174 107 69 139 184 97 121 113 103 160 186 176 212 150 127 132 151 140 74 86 175 149 170 130 110 106 71 130 58 58 82 76 45 29 43 114 154 155 88 88 174 182 88 124 159 173 93 168 76 74 146 143 110 159 150 97 70 59 162 125 134 122 136
128 121 106 102 111 135 159 156 141 133 143 163 174 164 178 185 201 201 195 212 207 197 184 182 173 155 159 155 169 186 187 190 184 178 160 161 157 157 154 138 132 139 147 145 153 152 145 122 142 110 122 97 126 120 157 167 148 197 195 126 171 117 167 169 150 136 150 129 140 51 138 80 140 96 110 179 131 172 120 69 75 106 89 165 146 129 61 135 75 78 102 101 92 125 115 59 32 44 60 83 61 102 134 119 75 123 89 98 70 135 126 98 142 63 69 83 93 101 180 93 166 121 80 72 171 133 121 103 66 64 121 100 57 168 176 75 73 63 131 102 189 218 122 114 195 193 168 93 123 190 138 191 79 173 161 132 89 162 155 164 94 168 114 134 176 173 91 151 170 154 156 188 97 102 99 124 73 173 175 188 187 88 165 135 155 156 181 169 85 129 85 195 105 198 121 96 151 170 149 86 188 100 201 199 102 89 94 104 117 72 187 185 153 166 81 158 175 86 194 178 149 133 113 96 168 59 67 178 165 179 110 135 172 172 72 86 151 117 143 159 145 92 92 172 75 62 69 110 139 144 178 103 109 158 171 128 209 175 154 146 178 71 51 60 170 139 178 201 199 186 210 194 92 96 69 123 60 142 73 106 110 109 98 162 178 90 178 160 80 173 173 101 159 133 158 136 75 82 116 109 74 189 138 113 174 96 171 84 131 171 121 67 54 38 24 48 106 5 96 65 73 124 111 133 135 103 185 77 118 138 170 117 186 100 199 116 105 69 84 111 175 145 191 177 176 162 105 160 255 103 207 103 134 172 62 71 104 179 93 200 110 177 154 136 85 79 114 92 78 69 174 189 186 98 152 76 161 185 171 122 183 171 127 160 194 109 188 207 169 100 198 198 98 101 125 170 120 155 189 175 119 117 125 166 121 188 184 188 84 149 128 94 97 187 208 239 156 138 200 178 119 185 90 196 150 98 193 191 217 134 204 145 154 45 145 140 141 83 139 147 55 136 169 173 186 191 98 158 174 122 100 108 163 189 124 114 181 103 126 75 183 108 164 135 152 124 162 155 74 120 97 196 188 191 164 127 133 70 72 126 52 79 77 80 56 124 94 91 98 117 179 107 77 160 134 70 173 61 120 70 159 200 92 144 78 169 73 119 56 164 152 83
134 130 118 112 112 129 148 151 138 133 146 159 155 167 174 198 204 210 213 190 199 183 172 165 162 151 154 172 185 191 186 184 173 171 165 171 173 180 167 151 154 141 159 131 141 113 130 127 97 133 128 84 128 136 123 118 139 161 134 128 173 128 159 110 162 171 121 137 140 145 150 139 70 131 133 169 153 125 110 83 138 95 163 88 83 52 55 107 124 81 103 76 86 129 80 100 31 42 84 54 79 92 117 109 91 53 62 74 118 68 94 64 68 77 137 83 125 130 96 157 89 55 154 66 73 159 131 76 72 173 96 91 69 173 80 158 176 66 111 180 199 138 118 209 103 145 136 196 183 180 187 188 184 82 172 144 119 60 85 126 157 163 168 178 108 154 100 160 168 154 172 185 143 169 159 149 84 159 120 116 168 120 148 137 131 124 139 175 163 70 145 204 103 202 102 150 91 89 122 187 150 186 185 69 133 93 67 94 99 164 169 82 180 183 154 72 169 103 190 218 173 164 126 156 71 74 165 151 189 193 92 179 183 139 91 144 118 67 58 168 127 181 182 76 99 157 159 154 104 164 73 167 178 81 185 118 158 211 154 155 141 117 138 160 161 114 120 206 214 100 153 189 182 69 97 51 47 104 69 139 180 71 91 96 137 183 74 119 144 153 106 153 137 90 109 94 124 77 67 149 87 133 202 107 177 191 117 106 145 144 101 92 170 112 135 60 10 58 52 93 128 94 111 114 136 151 148 180 155 74 121 84 80 122 113 92 169 169 190 101 125 218 194 105 107 84 178 172 151 198 140 174 185 255 105 51 169 151 160 178 105 69 105 61 105 112 113 133 88 146 58 81 85 173 147 158 94 91 200 105 191 167 124 191 159 163 193 201 106 122 183 166 185 72 147 68 101 181 184 114 159 200 80 138 88 147 93 110 177 91 130 77 95 199 111 207 209 106 137 172 66 141 186 125 86 188 145 132 197 209 129 170 111 50 138 255 122 159 96 128 164 71 169 172 92 175 168 93 139 126 161 138 171 75 186 162 192 182 79 113 173 119 149 73 143 64 121 159 143 153 77 123 80 161 173 82 134 133 156 51 57 126 112 113 143 142 85 162 99 164 99 84 115 173 136 112 98 145 69 157 103 151 191 89 160 141 107 51 64 45 48 96
137 141 135 127 125 135 141 138 130 146 147 157 155 166 175 194 201 197 185 179 162 166 163 158 151 152 162 178 186 191 171 169 164 165 167 170 185 183 180 173 165 156 171 165 162 132 131 128 132 133 135 128 102 126 144 161 127 123 189 177 118 164 179 109 107 97 79 88 81 147 139 153 155 82 93 155 112 168 114 98 104 177 181 87 60 87 102 137 105 123 77 128 78 78 82 107 53 56 43 70 81 93 120 72 80 61 54 82 50 49 100 51 100 103 112 86 167 102 88 103 76 121 62 55 65 173 154 165 84 86 158 86 86 85 86 80 100 80 72 171 91 206 98 159 82 116 134 187 145 159 171 124 183 157 115 130 150 135 113 84 115 151 155 72 79 92 153 161 161 63 107 163 115 69 130 57 77 100 87 100 144 147 153 82 139 95 154 71 117 85 182 111 158 175 79 179 93 83 178 207 177 97 172 71 139 54 147 88 148 137 94 68 107 146 76 163 124 84 192 139 123 128 144 111 122 158 107 163 191 142 198 180 205 160 200 95 140 171 177 80 91 82 79 92 196 186 200 160 169 170 157 74 173 144 98 155 189 185 125 130 106 162 44 133 168 106 101 175 125 167 76 94 145 152 49 50 105 90 125 139 102 102 111 173 189 87 133 105 97 89 187 121 80 92 129 128 191 86 113 98 54 158 170 143 186 183 140 178 123 118 123 202 96 81 147 124 13 16 63 52 98 106 128 115 173 91 177 164 142 105 150 152 118 78 161 188 122 128 163 103 191 119 122 190 142 127 194 149 90 125 208 124 94 88 113 150 147 95 132 104 124 124 54 63 54 139 141 148 42 85 145 83 145 103 141 84 141 171 117 118 189 183 150 93 124 180 204 90 93 82 87 107 132 114 58 79 62 67 83 151 174 146 177 79 160 63 162 98 107 173 135 65 76 101 204 100 195 192 179 173 153 94 72 86 114 175 188 149 209 187 185 171 168 121 109 58 135 106 55 81 169 166 120 186 147 110 197 165 190 83 84 96 61 102 80 152 164 58 126 100 161 61 56 129 107 157 108 169 89 162 156 69 156 150 157 162 117 58 52 123 106 68 87 154 59 62 89 123 151 173 141 171 110 90 90 117 77 69 125 102 199 164 118 94 95 78 71 145 58 88 145 83
142 150 151 145 135 133 135 127 134 147 153 152 153 158 164 177 172 174 154 151 147 139 154 147 147 152 161 186 197 188 170 154 145 151 163 177 185 191 189 182 156 172 171 170 167 148 132 123 118 114 109 146 145 131 156 122 111 128 161 179 134 149 140 131 136 164 90 109 141 112 133 173 76 143 141 164 133 153 123 187 206 181 119 167 80 115 99 117 100 85 89 71 94 76 83 77 61 60 97 69 83 136 96 108 110 76 55 72 53 65 48 55 124 149 87 168 81 169 83 53 73 53 49 52 156 167 98 175 147 113 125 143 111 100 188 185 161 88 169 98 132 83 90 69 171 66 174 81 172 154 135 194 167 87 152 129 92 119 152 70 154 154 78 160 164 100 166 159 69 60 132 56 117 160 152 69 140 132 170 192 120 109 129 134 50 113 82 167 164 58 113 161 147 65 62 63 99 151 189 130 111 100 131 78 33 111 41 64 143 104 130 68 152 47 86 76 143 140 184 93 208 141 123 118 188 84 182 204 200 174 135 198 204 173 90 93 196 186 86 175 135 82 91 192 191 221 217 89 76 166 173 158 159 80 166 181 178 181 104 100 180 64 47 135 52 129 80 136 104 163 116 73 66 61 126 118 111 147 185 135 105 120 175 110 195 141 72 148 98 154 167 143 155 188 108 204 166 108 145 102 73 126 120 71 192 161 223 179 174 205 133 159 195 76 59 44 82 19 132 62 172 99 168 114 193 159 108 133 178 123 138 148 48 69 174 181 91 171 172 175 108 118 210 146 204 179 142 133 96 188 114 137 190 72 110 167 100 109 124 149 87 161 81 102 83 109 158 157 144 138 95 67 121 121 158 113 67 149 92 85 88 96 110 108 94 152 166 167 76 182 91 166 108 103 133 160 63 125 177 163 212 147 139 72 157 131 174 81 80 80 58 117 159 81 191 113 170 172 143 176 171 149 108 62 154 183 186 114 190 139 166 159 167 92 165 172 63 139 110 94 128 167 113 182 173 194 187 155 90 172 171 109 98 143 107 70 112 55 146 152 82 62 120 34 70 101 56 115 150 116 145 106 129 106 87 171 92 64 153 102 62 75 177 95 120 114 82 70 167 145 147 138 187 115 101 82 133 92 171 196 94 108 125 97 152 81 102 71 175 101 95 77
138 150 158 157 145 141 127 124 119 144 156 156 161 162 156 157 153 166 158 139 148 156 158 147 153 161 165 192 190 183 159 141 131 144 158 181 195 207 195 186 167 159 162 172 167 139 155 157 154 117 146 110 139 149 148 123 160 157 119 153 132 171 159 115 162 125 97 182 99 140 95 170 97 117 143 85 163 135 124 126 191 132 166 117 99 71 92 65 75 93 83 76 72 78 137 96 121 103 80 85 114 99 127 104 81 69 78 61 103 91 128 74 78 115 113 149 142 63 141 70 80 65 55 60 165 111 80 76 152 182 196 105 211 130 184 135 98 59 153 166 87 87 174 63 168 149 163 179 188 179 92 132 95 200 117 184 156 72 76 162 154 155 86 127 156 119 93 119 144 149 146 119 83 164 162 148 116 131 110 136 109 186 67 169 162 177 96 109 163 56 56 167 158 155 147 62 97 152 190 204 156 106 70 41 39 43 36 107 55 124 53 95 117 144 97 124 82 87 90 179 147 126 210 111 138 190 192 186 97 114 217 210 89 156 104 189 138 86 103 70 152 122 187 196 207 185 185 198 79 176 122 102 162 145 63 174 186 93 128 200 184 175 108 47 124 160 107 149 99 146 155 72 164 112 166 90 173 85 121 164 66 93 75 137 81 85 44 133 138 111 49 62 127 123 151 195 175 104 123 104 70 35 37 69 169 110 136 100 111 148 199 188 91 120 161 133 126 93 36 41 131 147 169 165 135 64 62 135 117 78 51 73 68 51 129 169 92 85 177 144 175 198 120 179 131 199 194 145 126 199 97 181 86 183 185 89 170 213 104 166 83 123 77 132 87 159 160 65 145 150 45 106 54 168 152 94 184 150 112 179 190 118 136 114 84 132 111 89 114 184 77 186 79 93 51 153 83 171 194 198 184 181 108 94 78 62 168 127 121 73 148 104 102 81 164 88 164 183 93 112 168 66 95 126 64 170 87 198 88 127 66 81 93 98 135 75 175 180 147 179 106 82 80 193 201 201 93 194 120 141 66 72 158 104 89 64 116 54 120 165 85 159 76 51 64 152 115 64 90 149 116 116 121 173 134 137 161 158 58 137 127 95 121 149 56 50 65 55 59 152 75 77 153 83 149 111 82 141 84 186 149 255 72 128 56 128 170 157 98 124 66 155
128 142 153 158 150 132 125 118 120 139 153 157 142 145 153 154 150 147 152 161 168 169 165 163 156 153 174 189 187 177 148 142 131 134 158 180 208 215 211 190 189 175 168 170 181 162 170 170 165 109 102 141 145 170 162 173 114 163 159 138 142 178 180 109 151 110 180 185 105 105 168 183 108 117 101 169 129 117 158 169 151 118 185 99 83 71 62 65 81 87 75 87 70 94 77 87 87 84 140 96 133 137 103 110 92 88 85 90 128 72 86 67 79 80 88 136 61 76 65 162 72 99 85 176 90 101 110 71 166 156 84 103 97 94 80 157 68 122 62 46 61 106 72 155 120 155 151 70 106 96 176 121 114 195 114 182 139 95 67 142 118 155 112 112 143 119 92 97 164 115 160 94 89 121 161 150 89 161 101 104 155 191 74 177 194 151 206 133 171 86 161 89 63 52 143 49 95 146 146 87 181 179 65 49 94 25 74 49 131 76 177 141 162 71 118 91 58 169 84 134 87 126 86 178 86 100 137 180 108 118 169 198 81 65 125 72 165 105 179 164 88 163 184 192 198 182 203 192 174 165 89 175 166 177 158 131 91 204 165 213 156 187 79 169 76 164 164 144 114 84 161 183 143 173 177 117 142 184 101 166 88 60 176 90 85 121 40 110 24 135 109 55 83 112 169 150 77 116 172 134 149 142 39 82 62 103 111 92 79 106 122 178 93 172 95 74 111 147 55 36 124 150 192 160 70 118 124 155 86 92 123 92 35 47 116 164 82 87 138 78 79 88 106 101 164 201 118 169 83 177 137 82 82 179 101 187 146 118 207 152 161 151 71 112 113 162 147 90 134 48 101 143 160 187 180 157 103 131 193 171 101 185 170 151 129 97 149 162 97 92 170 116 177 90 149 101 172 127 133 118 223 117 105 169 135 86 175 77 142 138 102 166 81 97 115 93 153 117 67 136 110 129 83 59 140 121 139 168 123 134 165 119 140 142 166 84 92 197 174 191 117 145 181 190 99 195 160 202 183 132 182 174 161 167 117 154 46 158 170 186 92 190 129 101 106 145 173 150 168 141 115 106 171 80 128 155 80 163 120 132 149 96 138 156 94 46 121 119 123 76 62 117 52 146 152 46 151 92 79 96 82 107 99 95 89 119 73 91 98 137 91 52
118 132 146 150 143 132 128 121 120 135 150 154 151 153 144 143 125 143 147 159 187 183 170 153 145 149 162 179 180 178 161 146 135 142 154 182 207 211 206 186 190 192 188 194 185 202 190 175 148 151 131 111 127 156 174 182 177 165 126 161 170 162 151 136 148 115 159 130 181 99 160 152 146 126 86 162 99 146 114 132 177 172 83 86 66 105 61 65 84 78 74 124 127 74 100 85 147 98 106 152 105 102 139 95 114 81 76 64 63 62 115 68 68 84 44 47 65 72 127 82 85 183 149 164 99 107 84 63 137 58 163 94 81 183 91 46 124 90 63 144 144 50 85 79 163 81 75 95 190 210 207 181 145 181 171 90 126 146 163 117 173 174 171 100 179 162 162 163 145 93 137 104 150 64 163 78 138 183 192 156 185 80 175 191 132 196 144 121 145 81 154 54 154 151 255 76 140 170 152 168 181 162 60 42 43 37 134 45 58 103 86 151 106 71 84 143 152 157 184 170 182 66 150 167 149 130 127 162 83 116 146 94 78 169 77 136 187 108 74 142 165 111 113 81 91 164 162 184 78 190 95 174 193 184 184 113 152 207 197 174 128 127 161 141 166 86 147 85 131 153 95 178 173 87 150 75 106 124 102 170 120 160 160 190 181 74 108 92 51 75 95 147 111 150 125 123 120 92 186 162 62 130 83 110 93 66 160 97 165 74 60 107 60 69 152 96 95 76 110 47 141 150 111 105 70 166 151 125 100 133 166 101 117 37 97 132 108 83 160 128 189 86 145 95 163 92 194 112 183 83 149 138 150 109 154 185 203 209 118 92 104 160 155 147 135 173 178 107 88 107 94 113 175 167 177 190 167 104 203 121 100 85 123 150 107 152 128 172 111 171 177 163 169 172 54 132 152 168 120 200 107 192 99 109 153 143 123 191 177 70 163 178 90 155 120 179 161 86 67 70 103 160 110 62 122 63 174 94 108 78 175 162 154 184 125 148 98 123 187 204 94 161 96 92 101 163 214 130 194 196 188 86 81 83 107 131 166 109 94 206 141 181 189 174 117 134 171 197 155 96 149 122 80 79 180 202 194 75 131 173 90 92 97 121 77 126 109 81 173 139 66 80 125 78 132 27 66 87 62 132 174 59 144 92 60 147 70 89 114 169 93 131
128 141 154 154 152 142 139 137 125 136 136 145 159 148 140 134 133 132 150 171 188 198 184 154 255 147 163 180 185 176 169 161 149 147 152 174 188 187 186 180 174 195 198 215 218 212 187 186 167 138 127 125 148 165 132 178 181 159 171 129 177 144 149 128 110 105 107 95 83 67 156 133 82 114 80 83 164 159 183 116 114 152 68 63 112 105 50 62 78 116 64 69 113 83 94 151 114 138 131 111 156 136 123 92 111 84 102 63 57 59 58 69 106 53 51 47 126 68 95 181 93 96 198 118 212 208 85 152 160 71 107 76 123 179 91 62 91 41 143 75 38 118 155 128 113 187 92 170 119 189 110 189 204 155 113 142 99 150 177 110 179 165 157 169 186 144 135 99 127 94 178 173 107 69 159 110 159 104 192 180 121 85 169 189 180 132 176 87 255 52 150 131 114 72 70 78 126 70 70 63 57 113 140 107 131 34 112 148 89 136 196 187 170 125 149 180 80 79 157 179 156 129 101 46 61 140 73 124 184 111 187 101 83 82 125 129 189 149 77 138 117 158 76 169 139 193 191 140 90 90 171 126 217 174 194 119 102 129 157 110 114 139 179 182 86 106 100 147 61 73 161 86 129 147 96 75 157 157 130 119 114 147 185 163 171 83 68 62 40 116 150 153 98 114 86 97 132 182 194 94 143 129 109 92 81 99 74 128 66 92 139 55 76 66 88 86 83 62 49 117 91 125 177 172 87 139 160 129 191 103 84 65 93 32 99 119 153 119 68 186 193 190 175 65 81 137 206 101 192 80 152 47 149 116 134 180 191 102 143 195 73 93 152 159 62 170 136 155 79 107 75 157 175 121 182 100 138 97 199 153 184 175 175 160 46 64 105 124 200 142 158 176 130 134 143 118 61 129 105 197 165 89 71 53 81 137 164 143 180 156 108 125 184 172 143 175 68 83 48 42 152 71 144 113 64 75 149 72 88 174 146 164 126 128 164 105 148 142 146 142 165 157 91 186 124 218 202 110 168 196 152 85 164 105 171 165 159 97 160 221 169 163 167 126 169 183 203 175 219 186 204 91 83 133 114 196 112 121 149 115 103 183 138 119 150 72 93 86 68 78 138 97 28 65 94 119 128 40 49 144 144 47 68 133 39 57 139 109 157 91 94 146
145 157 166 168 166 163 160 143 139 137 146 147 160 154 144 141 128 143 150 176 187 194 173 153 150 147 158 176 183 184 177 169 160 159 155 171 172 172 169 170 168 190 192 214 223 189 168 167 176 151 164 149 130 119 182 134 180 159 158 177 126 150 179 178 119 125 167 166 140 121 59 130 100 174 106 94 175 121 119 176 121 142 71 62 96 87 106 59 66 86 71 72 150 104 118 156 129 120 116 107 100 135 128 93 65 68 89 94 92 81 82 119 77 117 50 101 136 88 144 174 115 179 140 131 161 159 99 72 92 59 69 176 80 177 136 64 159 54 147 159 91 145 45 59 176 164 151 153 144 114 108 99 120 148 172 73 102 121 145 181 182 187 179 196 152 175 118 131 94 162 85 85 82 153 110 176 124 187 94 167 145 155 101 186 74 102 93 128 118 61 118 81 88 104 81 130 154 61 61 145 144 136 143 42 112 115 142 140 71 117 187 202 209 157 185 173 192 165 83 183 166 53 116 113 152 98 176 177 179 96 196 144 81 73 110 75 101 151 92 74 79 83 61 101 103 191 173 137 88 121 98 146 186 106 159 167 69 94 184 116 131 153 138 160 198 80 127 102 87 95 155 143 170 56 77 93 175 205 170 187 168 186 85 99 110 102 196 78 61 164 128 174 187 123 120 132 124 201 160 130 194 178 97 84 111 94 175 75 72 75 182 75 105 82 146 186 168 142 60 158 63 106 90 81 114 109 121 121 140 176 101 74 98 43 47 50 151 140 126 180 173 85 152 104 132 78 195 167 121 116 171 151 141 114 148 93 94 127 195 82 167 122 135 106 71 87 179 75 172 144 107 96 108 152 125 179 157 172 174 181 94 193 149 125 57 156 112 93 205 221 129 111 201 154 169 67 109 54 64 140 101 143 120 85 154 158 109 175 99 72 170 108 207 193 185 88 127 113 58 62 135 67 141 100 98 119 170 154 176 195 160 150 188 78 161 157 64 177 166 136 93 111 183 181 210 113 218 118 191 131 171 129 134 186 73 162 87 205 189 187 171 176 255 95 97 206 133 217 221 213 114 104 169 184 183 156 188 202 123 188 123 106 184 135 70 160 76 171 142 73 81 51 139 48 95 48 25 34 85 104 99 55 32 41 124 133 74 80 134 120 49 42
163 173 181 186 183 175 170 158 141 139 144 153 154 160 164 160 159 160 160 168 187 188 184 175 165 166 165 162 163 169 170 168 161 161 167 169 174 164 168 175 183 191 207 193 200 178 182 196 188 188 177 179 132 134 178 163 148 179 158 160 115 112 109 154 137 100 124 92 123 93 143 95 91 125 93 148 179 116 114 102 84 77 148 91 60 52 55 76 50 77 115 127 91 97 137 122 131 168 107 124 92 76 63 59 92 63 88 95 90 89 65 148 113 67 48 123 113 64 81 75 107 116 202 116 193 123 161 116 148 161 180 149 88 94 93 177 183 177 181 132 90 133 146 158 94 155 141 209 150 136 186 112 147 160 55 107 87 167 109 182 195 184 178 191 198 192 102 156 149 146 88 152 107 104 172 106 191 189 171 121 91 115 146 137 146 79 159 160 175 69 159 173 168 82 151 176 74 93 89 138 111 145 145 47 57 136 78 155 171 128 186 166 179 217 191 192 205 178 141 153 182 154 148 124 75 109 183 90 193 99 193 96 172 88 86 69 88 77 166 178 76 75 162 58 152 89 166 165 196 108 136 203 101 185 161 130 72 176 183 103 106 85 157 110 121 140 132 97 157 119 174 108 145 76 169 190 112 108 100 165 105 80 147 176 144 126 120 142 105 183 131 155 148 125 109 94 179 150 216 122 196 132 183 70 173 88 152 132 104 124 113 104 169 145 195 181 97 85 158 99 97 99 93 138 91 67 187 204 141 131 185 140 70 70 56 68 138 85 52 162 90 81 165 135 110 106 138 104 109 174 105 177 155 150 77 70 151 188 91 87 166 103 116 162 161 179 157 186 89 165 180 82 130 165 95 176 98 202 189 124 146 122 118 183 78 121 74 173 106 204 195 112 101 108 76 166 61 94 62 152 157 44 141 47 46 85 150 96 161 77 76 85 118 169 162 174 170 169 136 79 144 53 52 90 150 68 129 66 81 133 122 87 177 104 165 129 50 59 177 134 139 81 128 124 164 212 183 201 188 109 158 133 162 177 187 178 85 92 192 178 99 115 165 155 144 83 139 108 212 173 184 133 190 152 88 148 167 222 224 237 199 132 150 88 130 149 178 117 157 125 69 66 44 104 36 71 44 156 125 77 50 146 110 50 64 128 121 123 86 167 127 93
166 175 184 185 185 177 174 155 141 128 140 152 153 158 179 179 178 178 167 171 196 209 194 177 182 170 168 154 155 151 161 166 166 166 173 181 183 181 188 195 195 196 196 200 200 192 162 192 183 172 188 160 185 204 159 189 184 187 139 147 158 112 120 106 127 70 69 141 77 124 96 105 127 122 101 188 184 191 100 155 109 80 78 91 134 56 30 26 41 107 88 90 90 103 103 117 145 120 93 88 74 109 100 39 44 33 48 84 72 82 106 80 128 125 45 69 42 79 59 85 89 91 101 108 220 129 197 98 83 91 90 94 201 215 114 111 96 91 191 101 71 67 64 153 63 80 172 147 116 217 181 165 165 148 146 154 105 138 147 201 129 106 146 141 126 164 81 128 115 80 144 96 73 96 177 137 160 164 89 113 177 207 205 195 180 140 110 79 79 173 128 182 181 173 176 193 153 115 183 132 63 84 162 105 136 101 75 96 75 147 190 96 200 143 227 131 101 86 183 84 91 98 195 156 173 135 171 79 120 177 172 203 102 177 144 169 168 154 143 195 169 129 162 52 61 191 211 166 201 105 194 152 124 174 169 149 141 185 113 200 91 150 169 184 103 111 166 126 102 176 145 93 197 84 98 124 94 187 98 78 104 138 172 157 93 200 205 127 161 124 96 179 213 181 192 112 130 127 220 195 156 111 111 86 81 83 147 95 90 176 220 176 129 132 122 167 175 83 160 168 155 108 160 177 178 151 69 177 114 120 101 76 124 59 82 169 78 40 56 106 181 114 166 152 143 57 81 189 163 179 194 180 171 174 122 171 154 143 147 172 67 103 142 134 77 85 138 143 189 184 103 117 84 101 174 172 134 135 138 190 134 185 93 115 95 162 129 82 188 170 104 182 91 161 121 179 154 87 99 116 130 136 31 126 142 142 81 103 159 88 149 167 83 101 143 141 176 74 175 72 124 80 95 106 83 167 71 140 176 166 169 158 57 140 100 134 75 53 134 105 175 100 103 176 112 99 206 193 210 172 222 218 211 172 152 160 116 148 60 126 51 132 146 58 78 162 168 183 189 204 205 178 195 131 70 190 186 175 191 121 212 192 129 92 150 139 97 93 69 158 59 61 163 125 153 56 170 71 154 68 64 56 55 55 161 62 129 73 98 137 62 56
166 173 176 177 172 168 160 145 137 126 138 142 144 154 162 180 186 182 188 195 198 206 213 207 191 166 156 142 141 134 148 149 163 170 175 186 187 192 203 212 210 201 184 181 182 180 148 184 174 155 159 201 155 169 203 219 198 180 179 179 170 127 142 143 67 59 78 107 73 165 150 154 179 118 127 128 90 98 136 153 104 69 99 81 70 48 36 43 75 66 89 130 102 88 90 127 99 122 92 83 65 98 67 36 28 39 60 75 70 83 113 80 81 53 54 55 65 53 110 58 65 93 97 166 216 144 158 107 89 183 187 205 109 112 209 202 97 116 195 109 136 162 137 136 168 173 212 226 209 196 167 164 59 149 57 115 180 167 114 146 143 154 66 144 177 86 87 67 149 146 55 80 142 100 175 180 177 101 133 133 193 144 199 120 199 188 199 120 151 169 178 158 188 174 201 162 201 195 100 93 175 122 119 94 175 73 111 77 96 78 136 155 158 105 178 188 179 178 73 179 179 197 199 133 148 173 105 71 146 110 103 145 105 81 73 167 175 109 115 159 202 80 164 57 101 159 99 193 200 183 119 125 138 184 171 76 151 155 110 155 211 165 204 201 127 75 165 145 76 99 180 197 175 92 147 74 81 120 63 67 74 131 66 102 115 177 146 141 123 111 120 160 102 199 199 126 208 146 111 117 212 108 108 79 118 110 66 169 119 99 221 155 187 144 136 106 139 61 107 55 83 85 119 137 90 172 164 169 96 85 92 61 153 151 69 81 98 113 139 160 167 155 134 70 56 163 153 81 186 173 107 176 140 99 143 85 168 174 171 158 162 68 71 102 167 193 101 186 182 104 166 110 154 167 188 120 182 208 138 173 201 197 206 197 191 108 184 186 106 128 169 146 111 139 107 150 191 98 163 117 44 39 89 47 124 50 123 49 159 155 121 132 62 160 144 58 127 83 87 173 170 80 152 150 69 167 76 175 171 167 86 149 146 114 109 142 89 54 134 175 88 171 76 82 189 187 199 207 216 168 128 158 211 152 140 76 72 167 73 62 100 74 61 129 153 109 72 142 126 91 190 134 113 81 79 167 93 104 108 204 195 161 107 85 189 111 91 82 78 97 98 82 71 173 138 72 132 103 110 105 162 79 163 153 116 167 71 126 179 117 165 137
161 165 164 164 164 157 160 147 145 132 136 133 131 151 161 173 180 187 193 205 221 216 219 199 189 166 154 134 136 143 153 165 174 176 179 181 182 185 197 200 195 198 183 156 148 143 156 164 163 164 140 195 189 211 223 209 201 153 159 150 169 110 107 67 144 91 134 114 68 134 154 175 138 176 102 131 94 121 105 82 155 118 104 63 100 80 49 31 76 140 99 111 103 73 96 93 87 88 93 92 63 77 51 88 50 72 44 72 109 120 76 118 130 119 73 85 68 51 73 130 79 55 65 177 120 147 198 96 196 199 182 199 137 95 190 94 94 193 118 180 123 161 104 57 93 213 128 229 118 96 80 93 58 121 79 113 170 174 158 190 147 174 141 96 82 98 92 151 140 84 141 151 144 167 173 83 141 148 153 132 104 186 206 210 203 210 121 201 87 85 167 148 155 188 211 116 121 197 154 153 95 82 168 101 156 173 73 169 132 90 177 100 83 108 176 197 96 90 89 137 195 111 114 121 146 94 129 115 186 195 202 137 207 202 110 174 103 99 169 112 213 91 106 128 169 177 178 181 83 168 104 160 192 104 190 182 95 151 171 194 110 215 108 163 135 153 127 65 156 181 99 189 138 99 85 147 100 51 129 135 161 105 148 174 85 165 142 156 177 134 149 173 84 138 136 176 124 111 213 192 125 136 192 122 115 148 145 60 71 95 147 157 139 124 90 71 110 103 62 159 68 156 189 147 158 67 90 166 103 101 110 115 151 47 143 153 61 41 45 145 129 68 72 162 161 67 80 61 162 78 184 184 116 185 147 90 154 80 101 87 121 117 102 129 189 101 179 105 130 154 171 178 82 98 86 179 183 186 110 151 139 198 138 200 205 135 132 95 149 84 178 97 118 129 99 191 202 183 160 155 67 86 25 125 79 79 66 133 146 96 160 159 104 164 77 102 141 181 190 86 162 168 120 123 127 80 190 172 202 99 129 140 77 105 158 97 168 168 171 77 151 79 94 171 113 186 113 111 222 162 223 143 206 90 76 85 170 129 83 65 159 71 141 66 85 152 123 98 191 195 184 182 101 98 159 80 79 90 123 146 160 143 129 182 144 205 133 136 95 155 84 107 76 144 101 75 131 98 120 142 74 153 126 172 184 92 167 118 144 189 95 118
154 156 154 160 163 159 161 155 158 148 255 130 126 141 142 158 162 182 193 214 215 222 212 205 193 172 149 140 135 144 155 172 180 180 178 171 168 170 170 186 198 193 166 172 155 165 151 117 143 137 172 183 201 218 206 153 165 175 106 172 111 154 79 107 117 137 88 79 106 76 123 126 113 155 99 136 148 123 109 150 89 68 138 63 69 135 57 118 86 114 111 116 88 69 90 99 94 88 91 85 68 85 78 65 49 57 79 71 74 80 92 76 98 129 79 60 67 69 76 54 27 71 43 112 107 137 183 178 153 190 92 87 87 67 157 185 150 103 112 76 174 68 54 164 109 221 237 128 206 84 82 81 154 74 55 105 135 121 150 144 171 85 142 144 164 105 163 111 151 64 149 65 150 108 151 159 141 127 139 132 128 125 174 173 204 199 171 180 140 82 75 89 98 161 171 163 186 138 111 216 119 203 129 112 150 83 119 121 135 111 133 95 71 164 161 121 133 152 123 180 197 155 143 202 196 91 139 134 83 88 171 170 124 208 187 175 91 152 208 119 168 137 185 106 130 105 111 137 114 169 135 108 133 121 182 103 172 195 142 207 210 192 101 176 174 85 140 179 167 196 92 127 98 153 106 137 54 128 72 42 59 72 131 96 84 142 145 76 76 110 104 118 120 72 90 84 115 198 128 200 162 205 113 211 127 180 159 74 96 91 103 119 80 94 80 90 156 73 82 127 67 99 92 196 104 175 139 141 118 154 87 75 126 109 69 64 139 144 144 49 83 138 124 80 179 93 158 128 57 123 188 110 124 199 102 101 98 71 178 164 174 167 102 202 142 150 172 178 188 177 171 167 165 170 131 134 120 194 197 199 101 154 148 100 193 210 156 178 168 133 146 184 116 177 197 197 114 93 103 99 144 71 69 140 40 84 112 42 40 52 122 152 106 137 99 158 191 109 188 168 161 169 137 165 176 131 128 104 192 189 92 68 149 114 60 60 92 148 169 170 87 100 99 105 137 172 131 199 111 107 109 188 184 172 184 164 71 139 109 183 165 150 119 94 90 147 191 182 196 93 171 197 195 118 138 176 92 168 90 84 194 159 101 161 153 136 221 201 163 184 165 162 77 139 100 162 92 125 145 59 134 96 173 146 92 125 173 139 169 116 84 73
141 144 150 161 170 175 167 171 160 152 139 141 129 138 145 143 155 156 178 202 200 203 192 204 190 165 134 127 134 149 165 177 186 177 180 168 161 156 154 161 182 184 174 171 162 158 154 135 163 169 166 161 195 163 180 182 128 168 163 157 94 147 136 134 120 162 148 128 89 108 91 141 95 173 145 108 99 104 90 142 164 82 103 76 87 74 109 114 94 113 125 122 84 71 56 90 76 99 105 125 94 42 57 54 54 80 95 86 75 82 110 153 75 80 92 155 164 141 119 40 16 10 37 69 68 90 129 76 190 130 121 178 62 113 81 82 190 179 182 175 74 155 83 156 209 151 242 182 129 173 91 169 160 154 120 109 112 97 65 91 123 165 77 90 130 59 155 130 67 136 76 123 151 93 73 139 118 172 190 208 125 107 140 182 104 212 200 191 147 171 75 182 107 170 135 204 107 209 118 116 187 196 130 180 167 59 111 60 115 172 147 85 92 113 163 117 177 118 110 136 190 184 209 192 148 110 109 115 124 168 174 188 138 197 100 95 127 121 150 136 125 201 112 153 78 155 51 138 126 157 168 167 152 192 181 173 146 148 192 193 129 197 106 132 137 161 93 129 168 131 105 119 171 159 155 165 168 69 75 57 162 159 112 175 82 175 129 121 94 72 185 179 186 85 103 64 95 91 85 78 200 153 124 163 157 87 171 108 93 86 114 147 62 79 155 91 91 87 134 81 118 103 89 147 187 148 99 184 99 128 138 151 59 52 32 52 119 64 148 55 172 145 191 93 145 109 69 121 148 171 191 144 176 103 87 70 129 175 177 163 101 177 85 156 196 109 132 167 78 94 170 85 146 138 206 164 107 196 192 118 115 110 199 98 199 110 172 142 131 161 193 104 114 178 213 180 128 142 120 181 101 164 144 114 165 154 147 94 100 63 92 143 153 187 209 175 185 187 128 186 85 128 102 167 173 125 120 111 109 148 100 79 63 130 153 75 120 71 110 151 157 108 173 173 137 204 139 167 151 175 185 92 110 165 178 71 123 167 158 210 203 198 178 119 101 151 147 189 195 92 194 170 107 129 153 73 112 169 166 110 122 178 91 184 189 181 116 127 199 215 135 183 62 83 120 183 142 112 133 178 57 102 77 157 195 94 94 187 200 133 118 126
128 132 142 156 174 178 171 171 169 151 135 128 142 157 164 152 138 152 177 179 181 184 186 179 190 162 149 132 131 146 152 169 178 180 175 166 159 151 150 155 169 171 169 166 160 161 128 178 173 165 183 181 190 203 190 179 162 154 156 87 106 85 144 145 109 140 121 168 133 138 85 107 107 84 110 113 129 156 108 109 182 104 118 148 139 103 95 116 111 127 113 107 74 56 71 60 90 99 130 78 44 45 42 28 81 59 73 77 97 104 113 153 74 137 84 106 94 84 49 35 31 53 24 53 55 163 77 155 175 186 183 139 98 65 78 192 89 128 182 83 190 192 89 124 178 214 129 159 109 195 122 91 147 150 123 159 99 67 69 97 164 164 183 162 167 109 151 94 90 133 115 142 55 143 156 158 142 172 149 182 110 129 95 120 118 179 188 152 149 142 163 130 104 107 101 194 97 167 109 123 128 183 134 72 136 116 50 57 63 67 76 167 126 121 137 64 160 165 197 139 92 84 181 193 90 134 169 170 116 167 166 67 128 118 123 130 93 193 133 143 96 130 138 130 155 61 134 103 40 91 160 168 126 95 66 167 127 77 82 116 75 117 174 89 153 188 202 217 160 130 151 164 64 162 108 171 78 63 160 157 77 98 141 113 153 96 149 133 79 103 75 114 115 158 174 71 115 97 142 76 81 163 157 113 255 79 76 63 150 76 94 87 67 91 214 204 153 124 146 138 172 136 91 110 154 88 189 129 120 115 93 168 111 62 144 32 45 42 95 69 169 87 91 93 178 112 110 62 59 127 174 153 228 107 134 164 82 160 160 65 135 103 148 175 176 139 160 165 135 128 119 86 122 196 169 156 125 93 86 161 178 141 82 197 116 129 176 162 208 131 151 167 190 161 215 228 122 114 200 120 115 159 174 95 137 182 173 141 145 83 113 64 180 171 197 135 144 162 197 145 118 155 163 70 72 102 97 115 152 154 64 169 75 82 159 168 157 71 138 78 89 94 115 211 212 154 94 65 153 77 77 117 120 122 122 118 169 189 181 187 200 171 161 155 108 120 112 193 191 108 156 134 101 189 108 174 71 130 71 171 179 177 126 88 200 186 203 164 99 135 116 81 78 64 91 96 103 112 178 103 175 128 113 141 103 121 100 150 132 150 121 143
128 134 143 157 164 171 163 168 169 155 138 148 162 160 170 162 142 149 155 160 176 159 175 185 190 176 153 129 137 148 159 164 162 175 181 179 174 147 144 151 155 163 163 162 140 135 147 184 173 193 189 158 153 157 175 140 151 125 111 99 97 143 150 92 173 177 103 103 126 134 154 148 165 166 149 100 174 164 109 174 96 147 108 99 169 108 125 140 120 183 97 118 111 94 116 92 80 112 109 73 65 54 31 48 36 49 55 64 66 73 68 108 136 77 102 103 126 72 127 43 32 121 52 62 71 59 87 77 85 93 132 64 90 87 186 104 99 188 170 169 129 159 91 121 201 208 207 210 118 163 187 128 70 136 143 158 184 107 144 139 121 129 110 148 167 66 91 93 70 136 53 108 94 145 69 146 177 139 168 181 202 210 194 183 187 120 176 150 171 84 112 93 193 181 122 123 151 83 148 101 133 196 110 71 81 149 98 130 83 104 178 92 87 100 110 161 171 178 94 182 77 135 78 104 114 176 72 71 64 68 137 156 59 76 151 142 186 143 119 177 197 211 206 130 72 78 99 95 120 167 71 150 78 173 61 108 165 90 141 89 114 89 97 138 119 96 218 154 124 185 119 49 87 63 153 101 148 165 161 125 117 96 114 93 150 174 150 117 148 77 158 102 110 87 86 81 113 136 37 117 90 110 97 179 91 123 78 64 167 72 151 147 164 185 168 148 145 87 155 123 168 187 158 168 71 92 160 83 176 157 75 105 188 79 178 58 59 145 100 180 115 109 187 171 95 78 147 127 65 176 192 193 123 173 181 145 160 136 100 110 137 145 88 102 139 94 164 84 161 92 176 186 109 200 187 195 134 180 173 104 102 165 72 95 159 125 108 182 185 165 186 150 189 255 206 198 130 184 109 90 169 126 67 171 191 98 96 162 162 174 94 176 189 140 148 162 126 104 145 75 167 80 53 142 171 126 96 191 158 158 131 154 159 164 66 170 179 109 82 83 146 183 108 152 111 95 79 91 112 47 47 83 134 78 166 71 166 167 205 206 128 170 153 192 110 95 176 67 143 117 189 100 184 188 76 175 74 96 158 77 121 61 124 71 184 126 116 84 184 176 131 87 81 136 79 187 96 203 204 105 113 100 175 92 137 113 163 202 169 184 115 166
130 138 147 156 155 156 150 149 150 149 144 146 162 175 167 150 136 151 171 171 173 175 173 167 183 187 165 158 151 152 144 144 154 163 180 187 186 176 159 155 148 160 154 159 137 163 176 201 215 192 185 151 131 143 196 150 179 131 115 134 111 112 146 168 129 146 178 110 92 99 152 74 125 112 178 104 151 92 144 76 133 126 169 159 116 143 171 187 120 122 90 132 63 114 110 143 81 98 110 87 88 102 81 79 43 98 62 95 94 128 79 56 71 61 84 168 99 170 66 61 57 67 94 64 66 173 83 115 102 194 73 152 144 94 122 179 195 180 106 132 197 189 133 74 130 100 98 198 197 196 173 184 170 80 183 184 178 81 129 173 142 182 101 180 82 109 156 145 99 66 108 173 162 168 159 255 157 86 202 210 175 111 134 179 184 179 73 139 78 191 199 145 179 91 127 130 185 137 101 175 196 195 102 149 164 139 171 64 101 128 205 181 206 177 124 132 146 162 77 131 165 107 79 113 105 95 128 174 161 123 151 135 63 160 80 88 191 187 154 82 103 205 100 86 81 164 145 150 167 168 82 89 169 86 143 150 188 105 157 147 174 190 202 96 191 138 114 150 111 73 130 115 107 42 56 155 78 97 159 155 139 110 120 90 136 168 100 172 57 145 123 56 108 73 72 64 110 32 63 49 143 93 120 79 82 77 176 125 176 99 108 175 82 95 100 162 111 59 70 58 148 155 95 74 96 157 80 165 170 72 89 85 172 180 195 170 89 165 189 176 101 84 104 95 119 151 167 138 65 180 186 96 176 134 154 106 90 61 118 55 129 122 18 96 138 153 167 170 117 109 193 127 101 192 193 174 96 61 55 62 145 135 103 163 98 83 144 188 197 193 164 150 165 100 130 207 207 132 134 137 168 167 77 99 86 105 177 151 112 159 188 174 118 113 205 179 101 174 87 156 125 62 61 65 151 186 191 92 75 69 67 87 154 134 71 73 166 190 171 156 136 97 165 192 132 86 78 156 47 160 135 117 162 70 88 90 196 202 180 119 197 187 118 117 122 181 74 87 144 119 167 115 185 77 134 71 151 151 106 121 143 138 162 133 85 71 61 154 80 184 117 82 159 103 100 127 158 98 86 161 132 182 164 194 93 160 171 148 192 158 80 137
136 146 157 159 147 140 134 132 138 151 157 169 181 175 165 148 148 160 176 177 183 181 159 169 187 183 186 172 165 159 152 141 147 158 176 191 202 196 180 165 157 156 146 150 151 154 186 176 217 207 180 106 133 161 187 143 141 152 155 112 141 158 187 187 189 116 172 96 166 178 113 113 118 185 145 136 126 155 99 147 96 102 176 116 97 158 115 110 175 158 128 127 53 60 76 95 116 98 132 116 107 82 66 55 57 53 48 59 105 87 81 59 109 73 78 148 163 160 77 81 62 67 116 153 153 119 122 107 102 135 171 65 67 85 172 192 167 176 179 171 158 187 105 152 79 141 150 158 161 124 122 194 172 191 189 155 129 175 169 81 126 83 188 187 183 124 81 143 74 137 141 142 179 171 178 79 142 106 152 152 169 198 171 135 98 95 126 171 125 195 188 105 101 148 103 101 100 156 159 159 103 143 135 142 179 71 82 76 183 110 161 142 113 115 134 152 90 88 84 69 109 53 163 174 79 184 182 101 127 126 46 127 123 68 165 149 181 173 85 82 191 113 94 78 133 168 67 112 102 147 111 141 172 162 178 101 213 123 169 155 135 205 164 191 184 101 135 162 133 151 131 43 70 137 84 124 159 105 102 161 61 178 118 124 90 177 82 77 116 58 93 96 125 99 176 130 41 49 66 87 55 59 46 75 161 68 181 195 204 110 82 158 69 72 184 98 177 159 120 130 104 91 179 74 70 88 94 167 173 171 186 85 159 209 208 143 181 98 100 172 193 255 91 112 73 171 97 155 62 139 84 92 182 60 48 127 136 64 117 152 89 68 95 94 108 41 173 187 166 106 194 169 179 122 174 67 49 39 138 104 47 108 174 189 185 78 157 71 132 88 182 153 140 71 151 188 189 143 176 114 104 142 134 62 183 163 110 106 174 99 102 93 185 153 185 179 94 127 96 87 169 168 144 68 160 80 91 158 84 112 157 67 143 83 145 71 178 180 93 186 184 174 164 79 89 122 158 163 155 157 172 161 178 164 103 189 108 191 145 197 182 165 125 190 172 77 141 33 34 48 122 71 125 86 121 77 127 162 81 60 74 173 113 86 91 125 143 166 194 102 123 120 118 56 67 114 134 85 60 155 159 181 125 94 102 105 221 225 127 146 46 33
129 144 157 154 143 127 119 130 142 147 168 178 180 173 161 146 138 159 171 189 182 179 169 172 191 196 186 192 180 157 157 152 150 159 169 187 202 204 199 168 169 148 144 134 140 130 156 204 210 192 163 157 159 145 132 118 137 140 156 115 182 174 182 151 138 159 139 187 149 178 154 197 142 199 118 181 80 130 150 90 126 113 155 92 96 72 79 89 111 100 87 83 106 66 141 87 104 106 129 147 131 122 129 63 104 61 116 86 78 106 75 109 43 64 85 65 80 83 165 92 76 67 145 129 106 153 100 108 124 85 118 165 84 166 99 79 82 150 167 113 92 86 166 141 80 71 109 151 151 151 197 161 206 185 148 122 125 184 101 96 173 172 105 168 157 164 109 166 175 185 191 137 114 193 93 135 132 126 104 191 190 116 107 145 98 191 134 194 183 169 201 178 160 211 123 197 141 190 103 56 47 74 120 176 74 145 86 133 141 81 110 173 96 77 142 127 117 173 95 142 131 128 149 107 112 183 102 106 177 166 148 69 100 161 86 93 139 181 85 183 180 174 127 69 155 77 109 174 147 165 171 177 121 191 109 209 232 201 201 101 140 206 172 154 94 145 137 172 55 53 35 124 133 93 102 114 255 145 136 52 104 93 102 148 81 147 146 176 117 164 154 127 78 190 89 138 104 154 53 62 138 97 90 106 157 65 81 147 162 116 83 162 75 113 126 101 65 97 166 164 112 96 186 135 113 29 76 120 183 200 96 191 93 134 98 99 204 113 103 193 101 147 197 195 162 123 150 133 79 63 135 104 108 160 125 137 57 135 181 67 74 119 84 15 41 76 141 148 128 126 85 126 149 172 102 154 43 126 43 36 47 129 160 158 98 153 141 124 98 79 163 73 108 79 104 177 171 154 172 180 181 111 101 85 145 127 150 146 98 117 109 205 109 125 199 145 190 191 141 182 83 104 86 125 86 178 116 105 190 134 171 58 103 61 130 88 66 173 175 163 132 167 90 157 193 113 164 114 162 178 110 204 148 134 96 142 211 109 125 155 123 70 77 101 139 86 37 52 130 48 151 140 152 118 107 145 140 108 153 131 150 170 181 255 138 119 85 143 190 185 99 130 52 98 131 68 88 96 103 125 75 95 86 132 191 117 128 178 147 95 51 26
123 138 149 148 133 114 114 255 141 152 166 177 183 180 162 148 145 155 154 174 177 169 162 160 182 203 204 185 190 183 175 165 170 174 177 179 193 198 198 190 179 154 159 142 137 149 164 192 167 162 170 188 141 135 141 96 102 153 127 121 152 139 162 135 125 160 168 142 135 145 176 213 148 200 104 105 79 102 100 65 148 77 102 105 115 56 59 70 82 98 126 74 94 135 124 104 95 113 104 160 110 142 87 81 70 82 132 100 121 110 94 101 57 43 124 86 80 147 86 157 70 87 82 134 117 120 192 130 139 173 156 118 173 181 152 86 88 167 88 178 182 155 159 119 148 41 30 136 153 122 205 176 138 185 168 70 131 128 171 136 160 156 141 148 192 138 112 166 129 109 192 137 100 186 86 140 77 176 140 127 132 200 198 124 140 148 127 89 178 90 170 102 208 159 213 194 233 99 151 112 135 137 124 154 144 141 71 86 169 185 77 169 140 150 46 155 64 141 75 51 127 154 73 83 92 178 124 93 166 79 42 89 103 164 93 92 152 178 75 164 172 169 68 67 171 88 64 130 160 181 90 99 127 211 124 234 154 193 107 130 200 105 98 118 189 147 103 167 149 72 127 39 140 60 133 65 183 167 179 169 139 65 170 75 74 126 146 152 90 102 162 152 170 204 117 89 160 155 142 109 81 89 174 71 76 83 95 198 127 160 166 63 59 154 125 89 133 135 85 110 181 103 84 72 145 24 63 91 186 210 124 157 190 88 173 87 143 97 153 193 172 128 113 188 88 149 126 109 84 48 63 74 107 76 72 152 151 156 195 184 62 49 21 59 21 137 91 123 165 160 136 147 86 140 90 154 130 38 114 93 58 131 115 166 80 139 33 117 68 181 137 88 126 168 161 72 158 97 92 138 172 102 130 170 162 105 90 166 188 164 152 187 178 135 96 195 122 203 188 179 99 177 99 97 167 77 175 117 126 105 84 128 167 57 133 116 108 91 149 183 94 196 131 188 155 132 193 96 81 143 117 189 160 154 203 160 159 105 200 186 135 152 158 81 125 85 89 128 120 76 37 135 127 130 128 97 96 121 162 197 97 144 119 102 164 104 199 111 109 156 143 180 77 142 161 176 155 109 60 122 86 107 181 154 138 187 211 132 196 83 78 115
119 130 136 133 119 110 114 118 138 157 163 178 176 169 158 152 137 152 154 149 163 153 151 158 183 203 209 202 200 195 189 187 184 182 179 175 186 200 203 197 170 184 180 152 154 160 175 187 200 173 186 159 171 173 117 110 96 98 148 113 139 205 136 125 160 93 162 157 104 150 168 161 166 174 148 122 81 99 72 135 75 65 77 94 91 83 106 73 72 145 124 131 79 82 107 117 88 126 104 99 108 103 90 62 71 90 84 115 117 104 117 90 72 58 84 145 157 77 92 105 73 162 87 75 166 138 100 106 187 149 120 167 169 124 186 200 177 171 184 170 102 70 62 71 54 57 113 29 151 159 104 112 217 181 86 90 177 174 177 97 62 82 147 177 165 108 145 97 136 82 79 126 129 157 73 131 143 159 153 112 133 141 176 205 97 96 107 88 116 85 160 198 102 123 182 219 204 86 127 120 102 30 145 100 150 161 144 168 89 118 77 255 59 119 65 71 144 149 161 136 151 107 157 85 190 91 81 169 112 150 123 138 60 102 163 168 124 78 182 135 110 74 161 179 91 155 94 146 167 195 106 192 223 175 153 130 124 213 160 147 202 92 164 143 189 77 111 96 84 157 135 51 138 123 155 76 184 189 120 80 125 79 139 88 167 135 121 73 56 139 73 166 110 120 108 100 188 175 98 120 105 101 168 104 213 145 105 191 118 151 180 90 136 111 84 181 112 154 98 165 148 122 138 47 36 41 97 119 112 111 108 137 85 167 172 75 81 155 89 92 149 112 198 143 199 171 62 60 70 136 111 69 164 95 171 162 117 138 103 124 177 132 100 103 126 135 45 83 104 144 117 172 84 82 169 87 42 56 135 56 109 78 94 122 47 137 99 47 70 103 94 86 89 178 162 132 153 89 179 209 211 188 163 97 133 95 122 155 75 104 148 218 172 169 207 161 200 132 120 107 146 108 165 81 107 81 200 120 104 111 128 131 168 138 52 164 138 100 72 75 181 124 109 196 173 105 125 112 105 176 221 129 128 200 143 154 88 91 114 112 73 69 107 150 82 161 163 162 96 161 123 49 140 69 138 77 143 150 161 153 106 119 140 171 215 205 114 180 113 207 123 176 131 162 87 188 206 149 133 89 60 75 164 143 151 126 197 199 141 63 55 81
120 124 123 122 111 110 106 112 121 140 145 142 157 162 152 159 140 140 135 148 149 134 130 146 169 208 211 222 205 207 196 185 187 186 179 179 180 193 194 189 188 185 187 165 163 154 176 189 165 215 186 202 165 182 145 138 145 141 157 171 117 194 193 116 140 155 91 93 89 107 75 117 104 81 166 91 147 155 76 255 93 138 52 116 68 112 48 99 103 84 89 62 100 133 118 94 82 79 114 89 80 74 92 88 91 74 109 158 100 104 101 92 93 108 65 90 84 159 151 119 106 175 82 93 183 187 141 98 168 63 91 74 199 113 171 118 209 200 186 170 161 67 70 155 153 54 48 38 82 70 178 163 138 125 156 182 158 84 177 134 49 158 147 191 116 183 131 159 77 89 151 139 150 148 117 96 161 99 92 176 186 173 131 128 175 197 171 143 176 175 134 168 164 99 157 236 221 99 51 91 127 79 48 151 99 144 67 73 156 128 174 96 131 57 58 70 123 122 120 123 118 181 112 194 150 159 54 65 68 72 50 151 150 73 108 104 170 88 91 190 98 96 194 185 134 87 145 59 163 198 216 164 123 177 112 174 152 198 94 255 106 110 92 156 103 134 161 135 154 67 119 62 114 75 55 95 110 165 191 173 179 109 180 168 92 74 124 79 125 142 113 106 126 133 108 92 89 186 198 214 125 116 170 160 198 185 155 159 123 157 185 160 168 101 129 112 179 178 157 182 74 163 56 91 48 122 163 97 114 116 126 155 96 111 79 106 149 81 144 83 126 111 207 133 196 182 74 154 120 109 70 75 129 152 125 74 108 99 102 137 160 115 113 30 93 26 138 119 119 126 140 98 158 129 128 105 121 50 160 160 136 65 126 128 132 126 81 102 89 160 186 150 193 155 103 88 255 77 92 95 100 204 129 185 146 49 44 132 79 180 212 165 189 154 201 199 134 94 186 150 83 94 167 100 136 143 129 195 216 113 206 84 128 79 176 109 172 98 185 145 182 98 198 184 190 155 157 197 162 121 216 130 201 172 77 69 128 113 188 145 104 175 181 84 85 77 135 161 169 86 171 73 127 148 93 171 86 156 73 82 141 158 99 100 149 154 225 169 204 107 150 161 152 141 99 111 153 85 149 176 80 104 172 77 69 181 159 101 173 159 70 65
123 123 116 111 104 110 109 114 134 132 131 129 140 140 154 141 136 133 134 138 145 132 125 146 170 209 223 211 214 204 191 176 174 175 176 175 184 181 171 174 183 187 194 180 170 184 168 195 192 213 192 175 149 192 171 158 151 137 115 155 173 124 170 128 133 86 150 138 126 71 80 137 133 97 61 65 141 100 123 99 88 109 84 46 43 119 50 120 79 95 109 53 60 104 95 137 87 77 96 135 77 106 109 71 60 100 123 97 95 109 124 86 72 72 89 85 79 76 88 84 152 126 118 95 112 168 114 71 67 68 92 195 171 115 171 215 108 104 126 173 70 70 78 136 169 104 133 32 131 94 165 94 115 178 118 91 194 163 168 118 68 164 151 195 176 146 150 126 151 145 127 88 126 101 67 165 105 123 72 164 94 99 177 191 126 132 175 140 90 52 146 67 150 161 109 181 130 180 141 36 34 114 61 60 175 137 82 177 92 196 197 185 182 86 164 145 92 97 140 139 141 158 149 155 169 62 34 125 129 98 164 150 138 134 69 175 102 177 182 208 157 215 198 96 152 94 183 121 95 110 216 127 180 168 187 154 177 189 168 92 77 125 97 146 107 127 169 72 168 66 90 74 159 94 115 60 177 126 170 162 98 205 197 84 137 52 141 30 101 37 98 153 164 82 88 91 100 94 120 106 187 205 155 216 230 127 123 128 216 116 135 132 169 177 156 107 136 160 148 76 135 143 97 120 92 170 179 102 145 86 191 79 90 136 51 113 98 151 60 179 196 104 111 144 135 103 153 97 166 152 175 167 90 112 145 163 91 143 117 143 180 185 158 93 134 98 57 135 154 131 118 106 91 82 144 98 155 124 166 158 77 79 63 156 129 63 112 255 161 141 168 105 124 166 80 169 147 85 155 129 99 177 197 153 175 97 70 255 179 145 178 194 133 163 98 103 88 76 72 82 157 160 201 104 172 177 208 220 163 225 215 126 184 130 84 112 86 92 112 100 174 101 148 126 61 170 85 194 115 151 144 163 194 175 88 152 171 153 164 76 178 94 162 184 128 71 98 165 142 158 189 132 115 152 152 91 141 159 53 122 111 162 140 187 110 162 115 200 134 77 78 58 57 179 92 200 177 87 86 164 90 57 136 167 79 175 160 88 101 63 78 129
117 116 112 109 103 111 119 138 147 141 133 125 126 142 153 144 136 118 120 134 119 110 131 154 176 200 205 202 190 192 182 177 171 171 176 181 180 173 163 161 168 166 185 175 180 162 172 172 195 207 187 197 202 165 171 141 120 118 150 152 114 117 133 99 78 92 84 147 81 113 84 76 76 86 77 130 108 92 123 136 73 143 53 74 47 74 101 51 69 88 96 46 114 129 121 153 120 88 100 113 102 118 125 98 70 93 73 115 98 114 82 71 69 129 149 92 82 130 86 69 151 79 142 127 84 79 139 100 166 168 181 184 169 118 158 130 205 94 194 196 107 193 199 193 105 79 137 107 41 133 119 184 102 182 188 206 110 115 152 102 173 126 111 117 101 122 183 87 84 146 74 44 122 78 69 122 155 86 93 165 184 90 108 189 176 180 182 133 100 139 36 72 145 161 141 202 120 156 66 68 58 148 152 113 99 131 167 159 89 191 199 157 94 98 164 102 69 69 166 91 92 110 94 185 161 142 33 60 136 80 150 179 141 142 165 166 144 155 182 127 112 112 130 200 92 131 112 178 152 182 157 203 195 88 90 158 76 74 140 116 158 128 133 115 154 150 116 163 150 77 95 128 86 152 157 96 116 142 74 163 193 111 121 150 156 125 153 65 46 69 127 51 126 155 167 140 91 109 100 95 101 127 112 211 115 190 203 156 135 209 94 99 74 118 118 201 143 177 103 98 89 110 106 177 167 103 181 140 184 71 134 79 86 169 90 31 117 40 141 60 94 97 114 91 167 93 76 153 75 83 186 189 120 151 118 171 152 214 216 118 190 92 142 113 70 92 44 167 192 141 199 109 123 129 159 128 158 99 105 149 165 80 91 65 76 52 144 124 134 168 180 176 125 154 182 177 75 108 55 134 158 81 78 190 171 132 63 173 92 152 142 214 212 191 118 184 140 86 148 78 83 100 101 119 114 191 204 139 167 187 229 202 180 183 123 113 190 97 183 129 98 113 93 98 116 134 80 185 136 181 92 167 121 178 150 173 124 106 139 164 77 69 181 142 75 120 82 140 103 132 176 100 176 152 114 55 53 125 75 60 149 161 99 161 158 170 172 123 76 84 94 39 140 54 120 165 87 95 99 57 71 86 73 112 135 80 112 97 158 115 68 154
107 108 108 107 109 114 130 149 172 166 154 144 130 131 148 147 133 132 137 123 125 107 121 146 182 187 187 178 171 175 173 169 171 171 178 180 175 160 150 151 149 172 174 172 165 164 144 181 174 198 178 203 186 145 154 166 182 189 154 132 146 165 95 76 105 143 72 165 169 115 99 151 74 82 51 128 76 141 68 146 138 139 132 88 57 69 83 87 63 51 71 52 72 111 80 149 153 95 100 107 115 112 118 101 255 85 109 116 88 82 150 67 84 75 95 102 88 85 104 90 76 65 121 179 87 159 91 56 49 104 72 93 209 114 206 104 150 119 110 186 210 123 195 201 85 162 63 125 54 105 70 176 185 166 200 216 152 209 168 119 201 185 140 175 145 128 126 134 166 123 70 76 138 75 169 165 108 160 174 86 116 78 124 187 99 198 110 121 131 38 37 36 50 166 130 176 148 91 68 137 137 114 146 77 160 85 108 172 129 139 161 97 109 132 70 172 158 143 158 102 69 149 180 170 55 135 131 82 50 167 170 156 95 59 166 129 179 180 75 160 192 122 187 186 206 123 155 205 94 81 157 152 168 161 116 112 174 115 154 104 128 162 104 80 65 150 167 144 54 111 122 145 178 112 153 143 45 92 167 109 122 185 205 156 145 77 156 110 145 71 93 56 101 63 79 144 91 85 81 88 123 142 203 104 102 81 181 99 87 181 146 109 75 129 90 141 103 111 74 68 66 70 106 119 194 117 172 88 153 133 83 76 138 52 142 55 13 97 80 136 74 141 176 88 178 170 86 113 94 86 115 183 118 74 59 181 135 132 182 181 115 112 120 183 167 99 64 122 167 191 148 187 65 144 130 164 171 137 124 97 160 163 172 128 168 143 126 148 142 117 180 125 83 85 186 180 165 174 107 117 148 66 83 135 82 115 108 104 116 132 223 134 208 144 196 255 163 152 155 60 181 99 191 112 89 117 201 216 161 188 173 101 195 178 195 161 82 100 141 155 187 103 59 73 127 86 81 127 129 97 84 113 81 190 125 168 173 181 188 127 174 71 140 126 98 123 51 90 127 157 171 167 184 120 80 134 163 121 138 127 78 156 73 111 69 147 68 69 83 116 77 123 100 46 155 167 173 63 75 47 143 40 147 71 85 157 101 136 131 70 59 116
93 100 108 113 120 128 139 165 186 184 176 158 156 162 147 148 139 145 155 147 129 104 117 149 183 186 173 159 157 162 169 173 176 181 184 182 170 155 146 148 156 165 154 153 145 130 156 155 181 145 164 172 166 190 167 165 139 193 172 142 119 117 94 81 139 86 164 162 148 163 75 154 111 137 127 53 127 65 62 82 78 111 99 73 107 72 66 100 57 68 81 77 69 76 93 132 111 130 156 133 92 126 77 94 121 79 120 70 97 88 107 125 92 61 140 76 146 165 103 78 58 74 69 81 91 197 173 72 150 101 73 108 206 205 201 161 179 179 182 199 163 156 178 187 96 162 149 37 146 145 85 154 145 194 201 199 216 140 179 201 186 112 65 58 137 147 99 142 92 86 71 108 147 73 188 208 119 212 91 176 68 177 114 90 183 160 91 62 143 147 141 86 159 147 131 180 102 117 135 44 50 118 40 50 164 112 170 179 167 115 129 108 127 118 63 166 158 125 108 106 67 83 67 134 50 140 65 42 96 107 136 121 58 110 116 74 81 124 79 178 153 91 140 201 130 120 153 215 117 188 183 79 74 98 146 162 144 128 105 52 90 67 134 100 70 112 155 162 131 71 93 150 129 105 141 111 102 125 162 149 195 128 156 186 96 185 174 123 68 75 88 163 160 136 95 150 188 185 77 175 72 117 100 187 97 146 95 86 86 176 97 114 70 88 115 88 96 147 113 166 129 171 106 185 155 88 179 168 77 76 87 119 72 58 140 122 12 22 94 114 74 179 139 73 164 171 111 157 179 160 89 90 66 80 53 169 93 197 147 114 64 255 156 84 143 86 135 181 134 161 186 96 171 163 148 134 179 101 158 94 154 67 125 104 136 97 61 137 97 156 83 167 70 74 147 105 149 135 111 80 138 156 89 72 92 95 83 140 201 126 131 146 219 113 193 83 76 120 89 91 157 91 145 198 109 111 111 217 136 228 207 200 85 80 95 78 82 175 77 141 98 189 144 105 58 151 119 103 105 115 113 175 166 177 198 91 194 106 102 155 110 104 120 113 142 125 59 82 76 171 205 169 81 150 103 72 151 99 179 175 105 55 44 54 77 150 124 136 82 76 52 92 82 77 38 136 56 144 156 115 68 51 128 71 67 174 156 165 138 162 153 60
87 97 109 121 128 134 142 164 182 189 177 174 164 177 171 154 158 173 170 164 151 138 129 156 180 185 176 161 153 143 158 166 169 181 187 181 175 161 154 156 160 162 139 143 152 134 154 163 156 184 167 177 181 186 138 188 188 132 121 196 194 118 118 150 122 92 177 176 122 166 127 109 126 89 126 78 85 109 73 106 80 89 67 127 144 96 72 66 143 88 133 87 106 87 104 158 153 103 159 104 97 78 66 54 85 61 120 137 122 126 128 96 108 131 90 142 92 168 145 97 68 60 76 83 117 103 142 96 154 78 177 80 119 90 175 167 111 82 119 92 170 182 80 156 67 98 42 91 52 118 167 145 180 139 169 197 200 214 202 119 159 127 123 83 85 173 160 116 87 156 69 68 133 88 166 221 192 188 194 182 255 137 125 186 180 76 156 140 100 83 160 167 69 129 79 195 200 181 62 136 101 40 108 139 147 73 78 73 80 77 112 182 180 158 161 79 61 62 72 90 58 133 153 73 100 78 152 94 65 152 80 52 146 143 138 68 177 108 190 76 71 165 182 99 136 218 221 219 166 189 181 189 165 141 167 124 56 139 157 142 107 123 75 185 143 133 167 162 145 51 60 130 116 100 116 129 67 60 149 125 113 128 198 110 166 103 158 126 141 176 118 75 94 166 152 161 104 175 155 58 166 178 173 96 198 159 88 178 69 119 79 102 178 77 184 100 115 133 165 76 161 132 134 67 96 152 78 161 105 179 196 124 148 170 153 84 110 35 129 146 62 72 181 179 168 160 170 129 177 84 84 143 133 142 129 71 169 88 159 62 103 146 87 68 138 120 167 113 153 200 117 173 86 99 170 172 151 188 198 152 150 147 118 50 126 171 176 136 171 155 144 62 115 114 107 198 117 137 181 171 142 140 171 136 168 85 112 182 179 134 163 221 112 124 128 85 159 122 80 87 183 162 196 191 95 161 89 133 163 183 217 160 165 162 70 75 90 167 171 94 192 136 120 123 85 157 176 84 83 103 160 179 78 177 86 146 80 181 184 80 178 182 173 171 165 129 57 69 179 169 129 109 181 98 127 71 168 94 117 111 63 116 123 109 71 176 100 64 35 58 96 91 154 110 52 159 88 65 50 61 47 106 71 81 164 136 161 63 168 89 80 43
92 102 117 133 143 145 141 160 177 177 180 179 173 164 162 156 162 172 196 188 179 159 155 162 179 175 179 176 164 149 151 157 170 180 194 195 187 174 171 170 166 165 158 146 159 129 145 165 173 171 157 178 127 181 141 160 152 131 130 158 183 177 169 157 190 126 192 171 173 152 141 125 93 139 124 126 135 89 96 97 122 87 99 151 73 104 70 71 147 105 109 101 145 78 102 102 100 142 114 109 103 52 61 36 60 97 140 118 140 153 127 144 95 60 47 57 68 118 84 96 96 65 95 81 100 120 110 100 153 151 152 137 130 84 86 168 64 40 93 65 77 63 168 152 130 136 109 144 49 86 87 152 177 172 172 86 145 148 178 148 115 167 147 146 118 175 110 123 164 95 84 178 180 191 200 149 199 159 105 170 189 152 90 82 120 155 99 153 51 60 60 135 73 170 72 128 185 70 137 38 53 22 32 146 154 72 171 101 179 76 161 79 144 177 66 150 62 149 144 120 161 120 58 84 54 157 154 101 44 43 44 42 92 135 93 159 170 207 194 180 172 75 95 101 195 156 159 109 115 148 110 196 97 170 71 74 44 146 142 152 79 171 155 186 133 151 64 150 61 114 121 179 136 147 110 108 181 183 164 66 99 142 138 194 215 201 120 111 107 175 129 135 78 82 91 86 86 115 58 129 79 74 89 116 146 207 255 103 72 58 83 135 171 80 86 85 173 157 90 39 68 49 54 56 81 65 75 110 171 163 127 186 108 146 175 140 166 55 138 59 74 79 78 140 166 165 156 160 88 83 135 97 170 65 110 137 163 185 151 100 109 128 44 64 171 178 182 255 103 95 102 97 185 192 111 121 99 99 114 94 161 43 59 62 60 81 106 156 182 92 162 84 128 82 79 104 120 169 109 84 146 192 170 101 82 192 96 200 106 202 106 108 162 195 162 96 88 74 142 147 87 174 102 135 176 179 79 192 209 210 160 187 184 156 172 158 82 153 159 117 184 84 150 100 141 124 131 93 88 187 187 88 145 163 124 105 63 158 172 79 100 82 102 143 160 130 160 110 179 121 94 142 90 92 75 158 185 194 115 158 93 113 83 87 106 187 154 61 66 124 153 110 78 101 167 169 97 139 76 50 48 65 88 130 80 46 144 46 129 58 80 133
110 121 138 152 155 147 139 152 167 170 175 169 170 153 143 136 154 171 184 210 200 202 186 168 173 177 183 183 172 163 148 159 167 185 197 202 197 185 181 170 167 171 149 170 172 167 159 141 160 160 168 121 156 120 152 119 103 163 173 197 188 201 132 195 183 212 174 172 98 116 106 76 90 70 82 65 68 106 69 76 79 167 139 87 89 150 127 132 156 100 155 124 89 120 84 91 128 100 128 131 64 52 69 35 66 66 108 128 142 177 94 75 54 58 41 74 65 87 100 94 189 161 118 87 97 147 130 168 142 75 156 72 119 90 183 64 84 91 34 92 44 76 134 115 97 152 63 115 166 154 162 94 74 150 138 101 127 170 166 166 79 163 145 73 78 124 111 124 177 108 164 160 170 190 203 159 218 213 174 195 177 130 155 86 72 167 155 118 141 97 163 80 177 80 69 113 169 163 61 60 119 125 51 164 117 165 111 80 84 156 165 72 110 154 152 109 147 135 132 156 142 47 39 130 118 145 160 142 146 89 144 84 28 49 32 112 161 122 172 205 156 125 138 195 154 194 168 209 101 198 197 93 191 150 155 129 113 126 61 114 69 170 115 125 143 176 166 76 137 177 97 181 191 155 125 123 153 133 117 130 92 198 124 129 235 217 195 177 193 110 111 79 81 96 175 109 95 56 48 45 112 122 91 163 149 154 172 113 69 101 94 59 71 134 87 87 145 105 41 126 46 48 58 103 121 133 156 188 120 200 189 198 196 115 182 93 198 125 71 154 74 186 81 71 77 92 42 138 93 124 108 80 74 111 148 158 160 102 180 120 28 85 87 41 156 150 169 72 154 87 95 188 199 155 103 192 130 191 135 70 135 134 106 123 139 170 180 199 124 164 66 163 145 64 71 157 142 134 84 190 124 185 103 120 89 174 86 113 154 132 109 196 218 117 200 209 171 117 110 88 167 83 119 71 65 80 145 191 98 100 92 90 189 190 186 158 158 171 95 154 169 149 104 106 161 106 106 128 177 80 106 168 177 176 146 81 141 55 168 116 110 173 95 61 151 98 65 170 162 174 106 77 110 112 158 150 187 188 104 177 78 155 71 113 166 102 162 166 58 57 146 153 181 94 161 161 87 108 54 120 45 54 64 128 34 98 130 61 105 130 172 111
125 139 157 171 170 160 144 155 170 176 184 160 153 139 133 126 134 162 185 203 207 207 196 184 169 178 166 181 178 174 174 175 184 188 198 200 204 191 182 167 175 150 167 165 174 165 148 137 142 144 124 164 125 134 152 108 103 134 161 132 131 141 149 183 128 153 158 187 136 92 155 112 121 136 92 102 169 152 173 148 109 95 137 88 123 151 103 68 75 125 165 161 124 81 71 84 75 113 112 103 56 85 57 102 112 139 151 140 140 121 94 72 66 45 63 73 144 129 162 189 208 114 193 96 90 113 184 152 166 72 173 83 188 87 101 113 166 49 145 140 147 170 79 96 87 76 159 111 82 111 84 183 120 98 92 164 161 83 167 138 131 52 67 65 118 206 156 111 83 80 122 140 152 195 158 163 146 200 138 141 219 168 191 100 78 113 143 155 141 82 109 171 98 155 167 69 93 131 151 91 105 63 105 186 191 184 131 206 100 163 92 64 168 171 150 154 60 61 61 100 170 109 152 102 139 65 153 66 154 119 98 153 54 46 72 91 122 101 204 214 124 166 194 146 192 111 201 98 200 154 150 92 155 127 140 125 110 144 74 59 164 99 126 186 192 155 146 157 140 176 188 126 154 218 144 170 151 104 144 110 91 106 134 117 196 132 169 145 182 169 163 74 86 82 108 80 79 141 85 100 155 93 120 84 184 195 97 98 99 56 60 87 90 170 109 94 76 67 39 141 104 62 104 155 61 74 162 97 103 129 202 142 105 161 164 110 201 189 82 168 83 107 77 144 124 131 102 109 113 113 125 168 184 105 74 141 81 95 79 147 56 83 60 76 146 114 106 93 80 169 162 190 111 196 199 183 171 91 98 106 169 99 155 123 97 203 100 183 93 56 145 67 81 173 107 116 77 173 181 86 193 178 136 88 130 95 186 129 81 136 98 209 167 128 190 213 162 97 133 128 91 83 158 72 166 90 180 114 84 119 177 126 147 130 199 167 144 144 149 157 100 157 95 132 106 161 74 163 74 178 184 160 186 181 137 141 122 117 169 114 146 90 99 107 113 127 64 162 177 109 167 154 55 152 115 64 63 113 64 166 104 175 100 95 120 99 178 172 83 86 162 180 124 125 151 190 181 158 63 59 64 104 63 136 110 55 32 127 63 87 163 107
130 145 165 177 172 151 150 153 171 174 187 170 156 137 135 131 130 155 167 189 194 199 200 174 174 164 159 159 163 176 186 179 192 193 202 205 198 189 174 166 164 146 160 148 141 154 111 135 133 136 145 154 118 112 146 91 127 153 174 141 179 134 176 193 117 171 169 170 98 132 89 89 66 116 62 75 182 167 110 158 79 73 160 124 163 91 72 53 80 79 93 140 80 78 63 58 114 64 69 59 45 43 35 74 101 147 145 163 157 126 80 51 49 63 86 152 122 104 133 123 179 115 91 111 85 93 93 99 72 103 160 139 97 95 193 119 191 176 65 42 152 170 185 154 145 182 107 136 151 85 181 71 58 156 72 112 98 148 46 124 88 107 157 161 108 178 138 157 112 107 83 177 142 203 128 201 200 147 104 161 164 217 187 135 133 71 59 72 146 106 156 189 97 173 144 120 165 160 63 69 107 70 168 94 111 177 139 141 227 187 176 132 99 65 73 73 107 152 74 155 105 152 165 116 57 155 63 79 184 127 177 77 132 145 92 172 154 138 189 212 123 137 231 134 151 153 187 100 190 97 185 100 177 145 132 121 113 131 68 173 90 174 187 212 108 112 133 101 124 118 98 119 153 173 157 191 216 193 123 173 137 137 106 111 131 167 121 78 117 164 136 84 83 100 82 159 55 43 106 85 155 131 175 170 125 190 154 168 159 56 43 84 75 150 148 122 164 71 60 131 64 120 153 98 105 153 79 103 79 152 96 183 143 59 58 68 78 121 183 177 70 82 170 64 56 129 149 59 169 121 101 77 79 112 85 169 139 180 174 90 146 110 112 83 131 139 62 133 137 72 177 164 139 184 108 98 196 167 159 94 155 82 157 95 87 132 85 131 65 158 80 172 127 81 140 103 69 99 82 179 185 138 180 140 159 154 83 164 84 132 199 132 108 188 120 120 107 191 92 186 163 118 102 60 143 66 72 70 86 131 57 121 105 220 172 107 91 168 142 82 153 175 196 207 166 185 75 55 166 69 187 117 190 141 169 73 63 133 158 91 176 82 176 161 61 136 141 172 75 156 188 158 82 130 36 45 36 41 152 98 155 121 98 187 166 202 179 89 161 69 171 139 126 213 128 146 129 92 72 63 80 122 158 56 43 52 46 54 63 255 119 174
116 132 152 162 160 144 144 142 163 182 186 188 178 164 153 139 151 158 165 162 169 179 179 179 171 154 137 146 156 169 178 192 196 201 204 208 199 178 156 151 151 143 127 133 141 141 142 136 113 113 144 161 129 162 134 144 95 158 132 151 185 115 177 141 138 138 180 185 157 156 99 126 89 141 128 123 93 116 183 117 165 141 71 131 94 131 56 52 91 117 106 93 97 111 127 106 52 46 37 76 30 51 62 99 105 142 136 133 121 118 70 56 50 61 63 75 92 96 109 174 118 196 80 65 149 88 148 151 71 73 125 159 162 175 116 111 112 180 66 139 59 162 127 129 184 101 207 101 172 140 149 59 49 43 141 148 148 131 142 105 103 116 90 165 193 219 211 116 91 100 121 185 140 158 210 122 160 134 133 126 148 124 133 197 90 176 66 97 111 179 98 168 179 93 121 159 97 160 120 171 77 74 181 185 177 174 212 191 158 205 138 134 91 158 93 78 136 90 98 100 180 164 86 59 137 145 128 180 109 103 120 174 108 143 78 175 175 155 91 194 144 234 208 139 110 176 167 193 110 190 102 172 74 255 78 153 164 102 134 170 163 176 152 212 154 184 65 119 39 106 84 177 99 172 198 156 147 183 99 98 166 169 133 112 119 92 159 147 112 145 81 63 80 162 81 54 49 68 46 37 64 162 116 79 72 88 199 192 185 159 47 83 31 134 104 166 108 141 186 178 96 125 165 71 182 98 80 99 69 77 71 175 72 99 59 149 57 70 79 170 123 170 172 167 166 52 58 154 83 178 153 150 137 162 160 152 173 120 174 61 82 23 26 85 136 93 129 176 81 125 170 204 178 138 163 158 157 114 160 179 189 116 160 128 93 186 162 67 131 166 165 189 160 180 127 109 64 171 177 147 117 70 169 164 165 143 187 88 173 86 128 93 174 85 83 187 153 82 77 121 160 137 73 127 134 102 142 167 158 117 138 114 97 119 196 218 203 168 136 117 61 123 184 141 186 172 161 129 70 101 191 140 125 112 155 74 131 139 160 80 165 163 61 165 135 126 151 159 114 158 116 133 121 75 31 125 62 36 43 71 83 171 188 119 210 131 201 178 83 159 131 105 153 181 218 137 104 79 149 116 135 180 87 123 119 77 119 86 75 169 142 93
95 112 131 144 142 135 136 134 154 168 181 185 185 169 168 173 164 165 163 144 144 160 171 179 182 158 148 144 137 156 173 189 187 193 197 199 194 183 165 153 147 128 137 110 132 137 144 153 131 155 174 187 170 165 154 156 107 139 173 181 153 119 123 186 176 94 111 95 86 124 102 115 129 152 90 149 123 115 186 166 110 145 75 108 124 93 59 40 94 79 104 126 95 129 78 57 50 38 55 32 41 47 42 48 78 104 135 115 168 152 80 79 50 129 75 86 91 147 124 136 100 90 74 75 126 126 121 99 163 181 85 103 120 140 176 121 147 189 143 140 150 95 169 178 150 105 193 124 77 164 110 156 102 74 100 133 133 140 56 144 91 76 145 194 117 190 197 165 101 87 103 90 122 130 191 181 133 173 174 184 182 155 176 135 168 148 152 174 134 191 98 142 127 183 94 168 124 181 166 162 70 74 158 160 165 130 188 134 203 211 139 46 78 101 133 154 192 190 156 111 181 185 76 106 120 123 121 85 170 142 143 139 156 91 198 202 99 176 111 117 159 202 169 176 96 189 163 93 125 87 196 101 182 129 94 90 86 175 83 173 143 77 131 149 131 146 73 98 126 147 146 89 115 192 174 93 177 158 150 131 181 99 189 115 101 102 136 132 45 110 73 62 94 171 67 73 73 133 52 131 128 148 164 137 174 105 172 116 91 153 46 53 87 38 54 150 170 117 91 184 74 130 71 83 189 105 140 171 102 62 93 88 120 70 55 57 122 150 124 103 97 170 142 99 113 102 137 168 77 174 85 54 159 136 128 149 177 176 78 141 135 17 90 20 49 156 120 187 172 124 172 184 137 196 176 100 196 172 104 170 101 83 153 87 184 161 81 141 85 83 89 205 206 189 174 182 183 84 144 99 114 151 126 138 118 91 124 93 166 120 188 131 93 69 156 120 90 80 157 70 155 138 174 157 137 173 147 129 150 80 70 100 106 197 208 107 183 177 56 88 68 116 139 193 87 174 113 147 122 78 92 117 93 137 173 158 41 70 113 136 130 55 88 127 75 158 78 61 175 88 138 172 69 57 122 42 128 30 149 67 92 191 135 226 208 207 115 96 72 78 124 98 112 120 177 183 133 80 152 180 80 139 94 78 108 89 108 181 77 121 87 67
76 92 113 125 128 131 135 142 149 168 177 193 185 188 186 187 175 176 178 157 140 158 173 193 198 189 175 162 152 162 174 181 191 195 200 201 194 180 152 150 150 135 120 119 113 144 143 168 132 151 177 186 193 148 171 118 163 164 179 193 183 189 139 131 188 145 125 112 147 138 100 90 168 189 114 122 110 116 92 95 111 122 150 104 145 163 125 56 71 91 111 128 159 89 129 90 63 78 93 42 50 87 85 46 57 79 117 110 151 105 127 81 106 41 64 52 66 83 125 167 142 127 117 103 76 106 131 99 157 84 198 198 91 89 184 81 91 132 87 63 91 141 54 113 79 181 111 157 65 157 54 74 80 125 55 106 156 158 160 129 162 174 181 174 182 180 194 172 144 187 88 170 180 138 100 121 115 79 64 56 60 128 89 97 53 59 154 148 149 169 202 159 93 185 164 75 133 119 88 174 91 163 153 159 76 90 137 172 178 210 141 81 63 63 93 155 200 151 104 146 172 90 148 111 128 116 182 92 76 174 189 157 94 151 92 198 142 187 173 131 205 160 182 85 68 70 62 167 173 80 188 198 86 174 158 120 188 98 80 165 74 45 114 88 109 149 131 111 152 166 137 145 184 116 177 89 91 129 181 110 183 149 100 99 94 78 56 120 134 115 127 80 115 105 156 98 66 159 139 122 82 65 148 173 99 90 99 121 82 109 57 102 114 81 66 72 100 94 84 173 77 78 110 74 81 106 106 68 146 75 100 85 148 175 140 68 75 72 70 87 138 105 180 111 129 158 156 164 79 61 81 153 153 159 65 59 154 88 169 49 128 109 74 93 95 159 150 115 155 108 187 194 116 202 94 177 103 112 166 178 88 119 108 203 192 192 109 162 100 96 199 213 129 194 172 177 124 82 96 160 78 116 148 97 59 102 106 84 104 67 138 83 186 166 131 75 75 88 73 86 155 173 189 90 84 144 179 68 69 136 172 146 193 190 114 79 88 169 98 70 91 169 177 175 92 94 169 74 164 161 171 196 190 107 144 74 83 133 72 125 118 122 143 147 67 151 134 102 84 85 156 122 179 111 104 81 43 138 72 79 97 135 89 168 211 218 141 182 104 80 79 117 83 121 79 113 166 76 83 162 77 87 177 138 108 132 141 112 116 115 141 110
73 87 103 117 126 140 150 150 157 160 163 175 187 198 197 199 189 173 255 174 145 151 166 187 203 195 195 182 170 167 177 188 198 198 196 192 185 173 164 157 159 159 157 141 145 143 166 174 140 145 141 167 149 181 162 170 140 159 125 197 124 148 138 106 166 136 161 113 166 161 83 104 175 206 105 104 147 94 106 84 129 152 155 103 100 146 90 83 151 117 176 177 139 80 108 128 103 70 106 63 75 71 60 85 78 72 91 91 104 108 85 92 127 66 79 57 71 152 107 115 193 86 139 88 45 18 45 146 158 141 93 165 171 129 174 172 94 106 75 80 142 149 117 145 71 178 157 149 168 131 124 120 164 155 64 136 168 74 113 147 159 173 157 132 115 178 133 184 172 134 164 128 84 75 149 101 88 128 87 44 152 100 92 165 61 134 127 152 165 186 201 101 80 168 168 168 144 149 84 153 170 71 54 168 150 192 201 206 110 107 172 169 141 158 166 100 168 107 171 84 83 82 157 202 175 198 187 174 143 100 176 77 159 156 107 130 145 194 179 95 139 192 69 95 49 56 56 70 159 147 81 183 162 154 133 197 144 116 96 150 153 115 134 62 174 173 180 167 175 91 153 173 171 164 137 83 149 120 153 118 87 133 137 165 106 98 158 107 47 134 78 174 86 65 141 120 137 180 144 62 41 133 68 70 91 84 160 184 121 68 133 66 54 125 63 161 173 75 67 76 110 156 157 108 82 86 171 124 101 151 141 110 161 87 186 157 132 134 82 184 82 183 108 96 172 80 71 76 118 153 139 135 176 165 54 152 59 167 64 110 101 110 116 127 126 195 150 217 189 183 190 181 129 202 195 169 193 151 139 112 138 140 207 197 109 158 100 141 171 133 142 152 113 216 212 120 98 76 72 176 70 124 125 72 134 90 137 147 145 94 151 181 110 177 169 75 140 166 173 145 80 72 178 144 179 149 91 89 83 115 173 117 185 83 62 60 64 155 155 45 147 114 156 69 174 192 157 110 206 202 149 196 91 106 149 62 154 75 133 77 141 146 86 139 101 84 66 150 159 131 109 160 129 184 86 150 164 155 87 135 146 113 87 182 168 194 172 149 76 161 92 77 91 123 78 132 163 131 110 173 127 98 150 132 102 97 147 184 185 85 46 46
83 95 108 117 127 136 156 160 157 164 163 159 188 197 195 187 165 164 162 163 151 146 154 170 187 193 198 193 174 175 176 189 201 197 193 189 182 168 167 161 163 166 150 137 148 131 169 184 169 144 145 132 114 157 154 122 174 179 201 200 189 179 166 116 127 180 170 175 125 79 160 196 130 148 123 124 77 111 117 113 115 141 119 97 115 156 91 133 127 134 121 167 157 79 88 104 94 87 76 85 112 82 99 64 64 112 108 98 135 109 84 59 42 44 61 70 135 96 93 135 127 106 152 22 15 4 108 40 73 80 178 192 84 172 168 63 109 162 114 177 85 98 61 56 148 80 87 82 176 177 117 62 55 122 58 159 153 76 179 173 163 73 134 89 109 86 133 72 155 162 129 151 142 111 74 107 140 125 150 52 85 181 83 73 102 95 148 98 111 204 145 119 180 80 77 113 145 186 143 155 111 153 122 70 86 168 124 147 165 161 95 80 169 152 100 141 151 188 149 165 103 180 93 174 162 106 100 145 160 69 68 108 131 102 154 162 177 100 145 139 191 166 88 91 53 49 71 53 156 124 136 176 106 113 115 216 136 107 189 147 146 142 69 74 168 111 137 190 112 100 195 142 153 181 75 86 72 181 164 166 165 187 190 83 139 82 129 162 132 108 93 69 132 72 72 188 129 190 101 61 92 61 101 78 165 182 145 94 186 104 95 106 84 181 183 81 178 146 95 63 145 58 81 71 136 91 188 140 162 62 74 102 145 148 180 174 87 197 193 180 153 191 206 204 187 115 89 153 65 124 171 199 131 144 52 117 138 129 83 50 28 79 86 86 65 130 168 183 102 147 124 157 206 183 205 190 190 186 72 169 167 175 139 134 133 189 184 163 162 104 82 132 139 119 202 94 97 131 168 136 172 76 59 100 152 80 80 95 122 128 158 184 179 187 140 75 176 78 67 120 153 112 141 127 172 85 96 138 105 165 143 203 194 84 151 140 65 38 75 48 130 55 66 70 173 153 135 221 136 112 151 93 130 174 107 168 158 118 114 151 159 52 154 133 131 55 52 112 162 108 140 143 189 194 123 144 134 110 186 173 77 148 62 163 158 67 105 69 52 128 82 99 89 147 111 119 166 164 159 64 169 111 192 117 118 105 204 133 85 59 100 25
94 105 113 119 125 133 151 162 167 153 154 143 255 187 193 185 162 164 169 176 172 160 154 153 170 182 185 185 182 177 173 186 195 201 198 188 178 178 172 165 171 173 174 157 150 155 170 186 164 133 152 148 122 255 157 175 187 183 149 178 182 181 116 150 180 167 116 81 78 117 167 125 133 186 168 67 60 73 66 67 145 113 88 100 166 89 146 111 132 126 174 116 90 96 73 99 123 98 97 121 141 98 78 80 75 77 74 102 77 107 60 83 51 55 50 90 65 80 112 93 102 129 59 110 46 45 79 37 71 118 85 82 76 65 148 67 118 95 92 144 157 100 51 163 161 181 109 162 179 153 95 148 133 152 122 147 73 162 86 74 67 101 175 166 161 101 74 81 128 118 171 165 91 166 66 148 147 124 152 152 184 117 176 183 87 147 153 97 140 179 109 160 184 98 83 89 93 168 87 78 179 77 184 144 103 193 148 190 196 201 177 149 181 181 185 188 137 162 73 71 74 139 175 191 165 162 179 135 88 111 127 72 126 73 146 87 113 179 174 192 87 96 95 50 162 171 71 121 105 157 183 192 206 186 188 112 114 125 172 90 152 37 145 58 89 76 173 146 177 177 202 93 138 99 159 98 87 72 167 135 76 81 88 91 92 115 150 71 157 93 168 79 62 113 64 80 195 118 255 65 67 128 112 79 75 171 129 88 80 79 95 192 167 110 98 100 155 99 99 133 68 113 62 89 82 164 181 96 122 92 97 156 67 144 110 71 152 125 106 192 115 98 193 220 216 109 168 167 103 141 186 215 122 96 54 32 143 92 144 95 111 94 121 55 167 193 214 109 205 173 195 189 136 201 200 201 130 105 120 170 97 133 121 199 159 205 81 75 156 125 85 111 174 115 199 103 164 176 82 86 79 173 135 155 146 129 180 191 189 111 163 100 194 167 156 87 94 79 92 157 93 83 139 156 146 106 140 135 106 198 204 122 180 166 97 64 143 58 93 45 39 126 89 75 173 98 172 123 138 194 168 181 111 146 196 180 171 185 93 97 70 147 72 51 75 66 27 151 62 100 139 127 99 193 138 94 103 60 116 144 180 76 70 94 166 49 50 115 53 169 118 159 66 126 103 88 151 90 144 148 174 101 197 98 96 151 112 133 125 56 39 46
101 109 120 127 134 134 147 151 150 153 141 142 146 182 182 168 151 146 156 180 177 161 152 143 158 162 176 176 178 172 163 174 186 199 199 195 186 188 183 175 162 180 159 170 158 159 173 153 182 152 113 150 151 124 125 195 204 160 164 192 156 103 109 104 178 172 119 105 76 156 157 163 79 74 132 64 100 72 66 147 134 75 102 84 79 82 127 136 157 173 156 88 110 97 70 65 105 92 100 100 91 77 54 63 87 61 64 91 97 61 82 77 60 104 72 81 132 121 157 139 85 105 65 73 54 44 42 50 171 184 184 78 154 42 114 151 161 100 141 135 165 146 133 139 83 189 190 162 191 185 100 141 131 149 47 94 128 173 189 163 71 115 178 169 90 158 92 57 112 141 94 128 169 122 75 80 149 105 121 107 144 208 187 208 108 113 159 165 135 91 103 192 155 186 105 205 171 87 102 182 85 176 195 195 139 102 91 180 137 180 118 187 80 83 78 78 171 127 91 74 170 68 155 175 169 188 195 140 101 84 191 174 90 163 122 160 169 167 98 183 85 79 96 96 161 170 179 93 162 86 190 197 112 195 140 152 145 171 90 144 109 115 47 88 67 103 178 177 182 135 163 165 195 108 180 76 106 76 78 93 75 146 82 102 87 137 142 151 75 105 97 139 158 68 158 90 115 188 70 67 157 175 116 79 145 83 154 174 79 178 96 201 177 117 115 173 161 156 45 80 68 84 172 148 170 136 149 139 124 166 163 66 103 69 65 85 102 146 81 154 173 202 115 202 173 132 115 71 169 112 128 166 109 83 43 96 92 94 93 150 56 74 37 133 102 131 129 193 95 101 132 129 188 193 156 131 169 112 86 98 62 120 106 103 213 182 76 51 48 65 86 101 155 73 117 102 159 174 73 72 169 72 163 53 120 68 126 217 180 124 174 135 157 147 147 159 57 113 155 167 66 122 136 151 95 128 77 158 137 196 199 91 66 142 128 38 119 130 38 41 42 143 74 58 167 103 122 214 201 182 72 169 185 105 200 110 194 180 199 194 160 162 122 124 43 74 143 92 80 192 197 185 144 96 78 75 110 55 103 115 95 83 87 116 158 77 39 84 138 160 124 160 69 127 91 72 60 50 111 78 135 83 120 147 189 155 94 149 96 57 62 68
101 109 119 128 142 150 151 156 151 139 133 143 159 176 167 175 147 160 167 177 189 170 157 143 149 163 166 175 183 180 165 159 171 191 198 200 199 194 188 185 188 192 177 178 154 156 174 185 175 166 144 126 154 123 138 176 179 186 161 200 190 134 157 186 164 173 148 157 96 106 147 121 74 55 130 60 107 73 150 89 102 88 112 117 146 126 163 112 106 128 86 103 88 92 72 98 68 81 116 122 124 88 59 57 99 66 114 90 116 56 119 77 75 92 167 102 111 90 129 94 73 106 127 165 138 160 73 72 76 84 98 92 94 108 110 59 124 64 67 161 76 70 149 151 137 142 99 168 192 200 179 161 137 99 159 169 120 95 141 191 164 179 169 77 105 160 121 143 57 114 137 135 165 144 68 158 93 61 84 106 198 214 127 137 145 165 84 166 116 81 81 161 155 96 93 193 161 186 77 148 108 108 127 211 211 105 187 112 166 150 69 255 125 116 156 62 120 157 74 140 103 163 99 151 157 137 174 154 166 187 103 194 89 107 86 102 170 89 134 173 176 135 115 189 122 199 167 90 101 161 80 156 158 194 194 194 98 100 171 119 102 153 126 66 175 175 124 156 179 114 134 190 122 201 177 87 80 89 190 105 174 71 146 90 122 85 178 162 153 82 144 174 64 54 58 89 173 147 70 70 86 63 157 93 164 171 80 104 164 94 99 119 113 186 148 169 95 75 82 72 71 75 177 127 104 79 182 100 119 155 152 147 69 114 119 63 66 175 106 123 194 150 123 100 91 169 62 94 160 74 182 152 95 96 149 64 121 69 149 55 71 101 126 103 117 174 185 199 104 94 177 189 200 196 98 183 189 85 115 131 61 163 96 172 115 198 99 148 38 144 73 51 91 168 65 82 176 178 134 156 68 162 57 130 89 103 166 200 123 123 150 196 180 76 91 44 43 61 168 173 174 176 154 50 82 123 190 132 202 103 198 134 139 54 74 35 59 74 112 65 93 155 161 125 140 178 105 145 92 100 116 54 115 93 185 191 184 122 201 98 191 168 92 63 132 50 69 177 195 101 200 215 130 111 155 71 48 98 137 114 134 191 117 101 69 68 140 39 154 128 169 174 120 127 162 141 101 132 43 42 72 71 188 171 86 139 81 140 116 68 123 78
106 108 117 130 149 160 173 172 160 137 140 150 157 166 163 175 164 179 194 202 181 168 156 160 153 161 174 194 196 187 168 158 163 177 196 205 201 192 189 192 192 200 193 185 161 166 134 178 167 152 115 108 148 129 141 166 125 145 137 167 115 165 135 157 125 135 120 119 74 87 139 98 101 110 50 126 56 110 119 157 154 121 150 81 92 84 158 108 139 118 83 118 82 94 127 72 56 73 100 114 116 88 98 59 89 74 117 98 107 73 105 78 141 122 94 98 103 143 87 98 151 134 71 86 82 177 178 159 84 149 87 150 159 57 55 163 69 164 168 75 125 26 143 168 94 218 207 177 178 181 90 89 145 150 82 70 80 189 146 156 102 187 92 146 124 114 82 149 66 127 85 48 80 155 86 157 76 129 142 218 150 207 199 222 125 138 103 155 164 65 139 184 177 172 119 77 156 73 184 86 127 119 132 88 186 92 126 86 64 49 72 90 135 95 66 128 87 101 183 82 166 75 182 181 156 139 129 186 107 125 217 211 205 199 89 140 157 68 172 173 174 158 173 150 132 197 187 191 84 172 178 172 175 171 192 194 171 82 180 138 160 104 120 71 175 111 123 151 72 112 119 107 132 182 192 96 141 95 110 187 81 71 119 100 72 109 75 80 186 165 169 156 92 42 54 95 190 98 126 80 93 47 85 52 68 109 123 173 116 107 167 96 110 150 94 160 77 58 131 104 182 122 148 86 97 69 72 64 141 66 112 76 80 151 159 107 121 149 159 76 124 192 93 190 86 161 58 57 73 81 90 107 76 137 168 159 122 89 73 130 154 45 136 118 153 110 153 205 91 123 103 156 158 133 178 177 145 112 77 79 98 82 126 135 134 212 178 174 135 58 69 141 125 125 114 72 158 133 109 148 147 67 98 60 128 114 156 128 181 191 89 194 89 82 74 53 38 105 76 156 129 98 170 126 114 117 187 201 156 186 174 76 126 44 78 89 98 22 76 139 150 71 98 144 105 203 105 99 98 97 104 138 170 154 177 112 93 92 116 176 101 81 162 176 67 129 111 162 136 194 166 184 163 209 118 169 76 123 86 183 112 190 184 106 77 88 130 46 71 80 142 88 81 131 137 106 86 123 35 132 70 65 138 168 148 132 99 115 165 89 93 171
110 109 111 125 151 173 192 186 166 153 153 159 166 184 166 175 182 184 200 212 185 170 161 166 182 180 197 203 203 197 177 163 164 175 183 194 191 185 171 190 196 194 191 176 161 167 164 143 155 101 94 108 152 157 147 166 170 127 125 164 146 106 127 102 114 151 159 109 72 108 118 126 153 145 52 41 46 69 97 153 111 72 87 150 92 89 98 93 143 133 123 128 118 94 80 112 108 110 115 140 97 87 78 57 98 119 87 112 126 84 81 81 70 151 82 106 99 98 96 140 85 69 68 71 81 127 76 152 186 186 84 186 170 178 83 82 174 180 112 119 56 28 34 61 183 200 209 173 196 192 91 171 166 67 75 145 152 143 120 181 157 170 138 173 148 182 137 122 69 152 136 107 46 143 128 134 135 175 192 217 194 196 206 160 206 124 134 121 144 144 102 91 124 149 55 71 102 61 171 151 131 159 79 98 169 78 109 77 155 73 115 72 71 105 84 132 111 178 85 169 184 89 85 117 115 124 186 93 201 217 224 116 124 200 136 155 183 181 118 173 169 170 180 118 205 201 198 87 164 164 64 100 79 179 151 91 187 93 192 177 112 191 135 183 186 113 110 142 68 158 211 216 145 145 184 89 176 144 130 115 107 178 130 68 148 136 150 133 107 76 93 62 46 133 129 79 91 98 172 137 107 97 130 46 162 74 99 114 186 114 165 74 79 76 94 185 116 109 83 110 216 173 108 193 167 64 157 156 114 83 60 127 144 184 79 178 117 105 145 167 86 93 187 76 143 97 123 127 71 166 114 67 59 172 129 135 182 106 141 69 156 85 108 94 191 203 193 146 93 186 190 95 168 195 164 168 166 184 157 107 193 196 99 184 183 113 152 110 85 101 184 109 95 163 68 156 84 188 73 75 51 86 75 67 124 109 171 154 155 133 159 150 114 124 68 138 77 94 134 99 141 165 171 60 161 132 180 120 178 136 149 96 55 144 142 42 98 32 131 35 109 56 162 177 131 136 201 199 141 153 60 44 130 79 105 179 109 159 151 139 141 166 152 130 160 117 189 130 210 132 182 233 199 213 193 114 102 165 142 161 165 85 196 173 159 76 143 70 153 187 97 151 141 147 114 65 177 98 118 98 138 94 159 167 69 60 67 157 67 84 118 135
115 110 109 121 144 171 193 194 179 172 161 174 165 166 177 173 185 195 210 197 190 177 165 180 194 194 208 202 211 199 185 174 169 169 179 179 175 168 163 181 186 181 185 156 154 174 157 128 147 125 133 113 151 163 129 161 146 135 121 165 94 142 75 140 158 121 72 99 129 73 86 134 131 138 108 77 90 102 119 69 73 103 137 68 144 115 106 87 165 153 84 92 90 93 135 71 80 102 100 86 92 97 102 71 89 95 104 107 150 91 111 107 71 62 78 86 135 150 168 189 153 67 56 152 71 76 137 88 106 157 122 81 192 88 87 119 87 84 85 162 148 140 129 158 115 121 195 108 92 134 186 145 63 68 76 150 188 184 205 207 194 83 167 172 83 92 192 91 118 135 154 119 138 82 116 107 90 140 84 163 213 215 212 134 115 76 156 45 145 155 107 189 116 62 58 86 38 101 180 173 172 157 41 81 160 155 78 78 64 142 62 149 98 91 97 158 74 149 128 85 187 85 167 192 193 103 150 182 143 169 161 215 117 131 177 138 115 182 114 167 95 133 180 146 111 198 144 190 168 81 169 86 143 159 95 99 131 96 134 212 114 206 201 125 140 161 122 138 161 182 171 97 112 86 171 110 98 171 143 168 89 118 71 111 103 121 119 98 73 132 58 121 59 113 42 52 91 182 118 187 125 73 35 54 162 111 87 79 87 69 98 64 96 114 97 95 85 86 87 200 186 127 154 186 150 54 144 49 67 171 171 90 93 156 115 68 161 154 56 148 185 192 187 75 62 69 69 135 155 143 64 144 134 110 187 170 191 116 175 77 145 174 120 198 176 122 198 203 85 176 115 91 122 102 93 189 151 169 202 133 174 144 108 138 218 188 148 140 138 105 125 157 101 134 135 103 194 132 155 167 166 99 90 86 178 162 125 60 41 45 130 100 141 81 48 95 54 143 167 131 105 165 65 70 85 194 142 103 111 155 141 137 140 153 164 58 51 110 108 82 146 158 144 164 93 206 219 121 82 71 64 40 102 141 84 80 190 191 156 187 172 138 120 159 149 129 118 184 183 139 169 220 141 127 212 159 187 183 72 91 136 171 105 190 183 92 153 83 96 96 179 79 60 98 157 168 126 137 162 46 95 47 121 161 58 83 61 89 83 162 90 149
115 112 109 120 138 159 177 178 174 173 177 174 170 178 187 182 255 204 198 181 177 167 169 182 188 201 205 206 204 199 181 180 177 174 172 167 159 150 161 160 166 163 175 180 185 181 159 174 156 137 145 110 163 168 120 145 116 114 135 155 113 112 123 109 140 84 153 73 124 109 108 192 160 127 130 69 38 115 75 112 47 71 56 59 66 119 71 131 82 75 109 101 106 146 82 75 40 68 101 128 88 109 119 87 115 115 107 136 99 124 100 89 53 61 156 178 127 129 124 119 146 94 116 124 104 143 132 168 83 71 80 179 152 161 161 180 72 185 187 128 98 59 93 148 137 154 178 139 158 177 108 93 138 172 101 155 164 186 158 123 129 188 152 133 195 119 133 107 89 162 147 150 95 131 54 171 133 114 128 199 203 146 199 78 92 137 48 85 126 125 128 179 178 57 62 94 51 159 182 157 75 80 91 83 139 150 83 190 132 119 90 147 163 187 161 163 151 82 77 130 124 135 163 159 92 114 111 199 219 174 194 204 132 180 67 172 166 82 177 130 133 121 169 176 203 143 217 128 76 98 177 184 110 165 162 102 159 112 193 135 128 169 118 193 152 120 52 145 108 102 138 84 108 59 144 67 72 181 84 180 128 108 139 94 157 142 91 105 180 61 53 59 86 59 149 145 156 83 108 184 116 162 65 68 162 175 169 72 76 75 71 106 120 105 73 181 116 153 92 99 120 211 175 119 67 154 53 151 129 118 111 162 177 181 72 79 127 107 73 127 120 118 164 166 65 158 141 169 87 70 125 65 113 75 105 171 93 150 198 107 125 166 85 93 211 173 103 197 180 83 182 100 109 136 166 193 91 97 195 216 122 129 208 96 199 107 170 91 146 126 193 214 220 182 255 141 102 129 94 133 76 162 125 123 125 174 85 89 55 52 130 58 154 150 129 91 141 55 109 142 132 144 90 117 87 102 121 145 82 137 145 76 145 161 82 171 115 134 154 86 70 139 59 70 100 202 224 209 185 77 79 152 149 45 154 88 111 122 104 165 144 90 78 181 90 109 222 152 229 151 213 119 137 194 189 203 95 170 151 87 67 102 105 194 148 84 113 62 166 165 101 108 100 48 68 65 89 174 76 64 111 112 72 162 68 103 153 76 146 103 173 90
122 119 118 123 125 132 144 145 161 169 164 173 167 179 178 194 190 197 193 176 176 169 163 182 195 191 197 182 188 183 178 173 182 181 170 162 158 153 152 150 163 165 161 182 169 177 192 165 152 119 158 164 170 171 167 130 132 91 160 113 93 80 98 140 100 109 113 63 127 105 158 162 195 168 255 133 81 95 101 106 135 116 56 126 135 90 90 63 54 53 104 96 134 89 136 59 82 45 47 70 82 70 86 87 70 62 105 84 77 138 104 78 117 79 81 117 101 91 124 120 113 156 88 80 172 152 95 65 151 170 78 154 113 170 97 154 54 114 147 160 80 64 115 156 74 77 71 146 160 68 91 92 172 144 94 178 178 129 202 194 211 146 120 99 196 203 196 174 134 162 160 153 106 123 151 156 132 116 181 86 189 196 188 177 165 120 142 69 66 97 182 192 86 105 84 57 109 56 70 82 97 121 139 155 57 130 188 111 177 203 92 92 123 187 103 113 154 163 170 88 85 168 72 109 81 162 148 187 183 107 191 175 115 132 165 91 120 166 165 45 110 120 124 82 192 140 165 126 99 87 95 154 196 114 102 101 166 164 217 184 218 167 119 203 103 78 113 142 93 95 103 88 75 97 106 92 119 156 83 189 111 177 174 168 213 125 123 94 151 130 153 129 84 124 94 79 131 90 128 159 83 101 157 56 57 80 94 101 175 74 96 174 101 89 103 112 184 105 178 183 100 121 172 180 137 45 68 132 183 85 84 95 162 178 100 151 39 140 145 172 110 147 187 155 68 136 167 135 110 175 176 95 149 100 159 162 130 90 193 195 156 176 105 140 189 124 94 145 143 97 175 139 168 138 166 179 144 183 170 190 220 113 188 136 188 134 78 159 48 135 108 165 152 196 223 172 212 133 119 75 79 147 121 107 137 96 162 146 102 101 100 72 134 56 124 150 127 142 139 58 44 144 55 152 195 157 226 135 180 78 66 113 185 106 206 86 118 123 87 82 149 93 169 74 113 228 144 209 81 115 152 84 62 134 73 63 101 110 182 106 103 86 81 113 171 195 133 148 175 201 161 101 103 202 192 152 105 81 157 67 76 69 87 154 149 75 64 73 85 79 76 61 99 90 147 125 177 185 108 69 77 60 169 81 137 172 143 80 88 84 153 91
132 131 128 127 120 109 109 125 150 166 171 170 163 176 178 180 176 181 164 169 150 164 172 190 186 176 183 181 179 176 177 173 185 188 179 171 161 157 144 140 159 139 163 162 177 181 180 200 155 155 172 168 156 158 120 96 126 153 123 161 143 128 100 76 144 98 79 123 160 162 169 142 113 161 144 120 117 160 94 97 70 142 78 139 129 132 60 63 42 40 56 69 140 153 109 57 71 79 56 105 62 55 108 120 108 70 50 62 84 111 77 115 70 134 155 91 102 109 104 104 121 147 150 184 172 158 160 73 165 126 78 136 96 103 53 33 130 51 167 91 134 65 83 161 131 69 67 56 77 134 175 155 187 153 146 110 90 173 157 149 198 179 98 193 181 96 184 163 154 128 134 139 88 76 150 145 118 139 255 144 115 104 113 126 140 119 88 72 117 159 84 98 96 130 120 59 41 148 75 105 57 68 55 141 97 135 188 126 193 130 206 158 156 145 89 105 153 52 151 150 151 144 156 137 158 158 190 203 194 194 83 108 65 107 156 176 176 68 156 131 112 35 151 70 160 205 139 170 136 140 138 185 121 188 178 88 124 113 192 213 220 201 183 191 199 89 183 104 93 121 74 73 92 52 75 98 156 73 171 169 188 130 119 163 126 187 109 146 129 170 75 161 146 146 80 92 93 82 87 173 96 127 130 106 152 110 167 95 94 125 121 109 105 95 106 121 167 97 140 96 104 102 108 99 56 137 148 167 85 87 161 205 105 132 168 126 37 146 106 77 96 137 201 93 184 104 145 94 105 82 179 177 89 160 60 58 172 88 132 95 136 90 139 177 176 162 192 84 177 82 172 153 179 176 168 118 87 179 100 114 128 150 163 77 149 80 79 126 31 49 165 188 95 110 123 110 122 97 135 113 62 60 157 59 58 173 108 79 139 150 72 166 57 122 142 74 80 112 157 156 134 152 149 103 107 185 228 183 176 159 69 173 173 153 215 126 190 78 132 95 173 198 165 190 190 197 134 198 180 144 184 155 140 175 160 130 59 123 141 164 189 189 189 115 190 189 94 184 123 171 155 110 185 145 80 95 117 176 122 151 54 150 56 121 114 74 151 61 66 67 113 43 38 55 75 101 97 175 86 110 66 151 157 119 79 124 117 78 100 73 72 75
145 143 139 131 119 102 104 123 152 163 162 157 150 147 146 155 151 160 164 146 162 156 180 184 195 174 175 169 173 176 170 186 198 199 184 171 164 165 152 160 165 151 165 157 184 201 205 161 148 186 181 181 157 160 153 131 92 156 128 111 148 151 115 122 130 139 90 162 111 132 160 86 106 113 68 98 97 100 151 93 79 73 120 131 108 111 117 119 30 39 33 55 105 93 95 89 87 92 75 89 77 70 94 101 79 102 124 100 74 143 131 79 122 87 86 123 154 88 80 128 84 79 125 73 162 81 167 96 166 135 175 151 94 76 87 26 96 98 64 165 76 173 62 104 165 67 175 74 155 142 155 117 76 126 88 137 190 180 156 97 189 96 85 145 111 121 144 102 96 81 73 128 132 81 108 168 168 175 120 64 77 185 156 121 90 74 154 161 103 84 171 125 207 105 128 81 118 43 110 62 85 127 168 160 129 63 100 196 159 206 171 149 167 101 98 68 123 53 138 121 125 69 120 81 129 203 109 174 170 75 65 170 69 67 77 143 128 99 78 149 139 45 150 95 184 135 85 101 159 149 165 84 95 180 151 169 119 187 145 178 144 116 214 189 171 107 124 130 173 119 105 169 153 148 133 83 57 68 120 177 93 135 104 215 165 115 193 192 83 174 75 196 127 170 148 101 63 106 144 94 73 81 83 70 75 152 180 113 183 158 123 169 106 140 213 163 93 160 52 63 125 114 194 69 137 97 90 168 100 95 206 111 201 94 105 79 149 53 152 145 107 186 105 171 104 97 109 100 137 172 158 140 148 162 84 148 156 134 180 121 115 141 80 121 146 177 177 144 70 171 169 126 122 136 176 163 106 158 86 191 114 90 78 86 55 84 124 133 82 77 98 140 100 163 101 161 127 93 70 112 99 84 44 139 94 161 169 182 118 83 161 98 99 175 126 86 194 200 124 161 148 172 174 123 164 127 122 105 192 170 139 162 167 125 103 186 190 172 203 216 212 207 131 104 187 170 178 159 76 171 192 135 116 160 87 136 162 172 180 178 89 95 185 176 175 129 82 79 185 119 93 196 116 183 157 73 84 174 120 159 62 142 91 153 64 146 165 84 132 115 105 128 88 68 170 181 105 101 151 71 93 170 91 199 183 175 73 161 127 69 90 40
145 143 135 124 114 106 115 139 152 168 160 155 140 137 137 142 130 142 144 157 158 164 178 187 188 181 168 168 180 182 191 200 208 208 193 183 176 173 165 160 156 156 164 160 173 153 179 161 163 178 198 149 149 129 163 164 133 149 134 96 165 170 124 149 153 86 166 157 124 120 127 174 144 71 71 155 140 202 181 143 127 72 126 61 139 62 57 47 105 35 36 59 102 93 101 92 101 142 119 106 107 78 126 102 100 127 131 92 157 92 95 77 113 111 153 131 104 123 74 60 128 99 138 117 91 82 103 190 89 150 175 92 99 79 112 123 113 30 89 101 169 58 160 159 62 128 118 93 108 156 164 151 117 147 156 91 165 89 167 72 176 89 173 104 112 141 104 153 140 123 138 88 126 54 146 101 153 84 134 140 174 83 126 176 112 152 174 166 87 203 121 215 174 114 96 84 79 129 129 148 165 147 174 99 59 156 98 101 187 153 148 162 56 148 118 140 159 148 138 112 57 90 149 89 96 170 103 109 155 113 121 98 185 85 188 118 82 141 171 165 154 131 57 118 80 166 175 174 175 174 82 159 103 87 134 151 136 174 121 178 123 114 162 177 124 203 188 173 94 102 129 161 136 158 157 163 161 107 65 54 139 113 98 108 124 153 183 146 96 86 115 98 111 103 184 75 87 121 115 144 180 116 113 113 88 146 91 132 185 107 131 127 193 211 154 123 79 69 56 89 93 161 178 125 52 80 150 176 138 104 113 215 203 88 73 167 64 68 99 173 98 170 89 135 143 202 170 131 130 202 174 171 167 174 133 146 83 173 137 140 185 104 67 111 166 162 175 103 144 168 111 126 143 149 116 102 126 180 199 205 186 137 168 129 117 82 130 142 68 99 72 153 106 190 183 195 107 153 155 47 107 56 51 129 130 162 188 173 189 192 130 97 150 106 114 100 192 141 196 187 186 188 156 104 117 207 184 118 102 93 103 200 167 101 152 160 188 200 162 177 139 104 187 190 126 153 133 132 166 151 185 202 107 121 181 62 61 140 118 192 166 107 86 83 167 146 175 149 185 128 90 178 195 110 174 79 179 92 174 115 163 127 95 49 136 70 122 133 112 89 167 102 53 121 125 181 108 69 60 54 74 143 93 114 150 108 85 72 59 160 91 36
140 137 128 112 104 110 127 151 167 169 156 141 141 142 142 147 138 133 152 157 149 163 175 173 177 173 160 168 180 188 203 217 223 215 199 189 188 184 185 183 180 168 176 175 173 169 143 166 154 190 165 159 199 177 119 170 159 165 134 159 157 124 173 120 134 110 141 108 131 82 144 159 98 109 110 102 151 161 214 156 100 132 106 102 89 55 51 109 39 92 44 57 67 84 101 105 103 155 131 130 92 135 121 126 170 139 99 95 94 141 118 91 128 135 141 183 108 135 92 48 68 145 154 87 86 166 110 156 88 82 98 90 176 92 97 143 105 138 123 164 59 144 112 151 150 104 187 111 165 152 91 149 117 185 165 106 172 188 91 181 173 129 120 166 174 109 190 192 118 142 158 137 110 87 57 71 156 78 131 169 174 177 120 68 174 123 176 198 188 218 154 123 137 187 198 84 77 67 105 59 76 171 75 79 56 71 130 149 161 161 130 71 81 61 83 83 165 158 123 90 147 166 84 170 195 138 115 135 59 139 171 191 92 140 116 110 119 90 191 177 80 57 148 68 83 165 175 160 167 102 166 125 104 192 156 162 135 121 97 129 192 128 125 188 124 199 179 85 92 172 151 162 170 80 62 100 161 150 110 54 141 162 168 187 192 116 143 158 172 109 136 188 160 138 155 126 84 180 111 140 101 91 87 180 183 198 100 96 161 87 83 71 84 122 114 102 111 89 68 54 111 94 126 133 97 141 161 152 195 211 121 189 100 137 85 171 129 172 101 109 88 182 176 187 138 93 192 172 205 162 182 124 95 190 140 191 122 142 172 93 152 114 102 83 118 175 138 181 174 156 155 103 158 48 38 155 176 197 149 198 138 86 179 143 54 101 62 58 91 113 149 160 198 188 86 171 89 162 149 108 31 68 133 149 138 62 187 128 209 101 210 216 146 119 101 191 96 143 134 112 97 97 166 203 188 207 187 181 148 84 189 186 195 133 95 104 90 197 204 121 200 129 82 184 184 77 111 78 166 118 97 189 201 180 95 77 149 159 156 87 96 167 151 149 66 173 80 156 80 137 120 123 107 138 85 196 200 201 165 161 133 118 100 119 64 87 100 161 111 87 96 168 71 69 80 86 66 48 98 58 51 168 183 95 116 75 171 77 127 106 148 54
134 131 121 108 100 114 132 154 165 159 133 137 143 144 161 158 157 154 146 154 144 151 170 159 155 160 153 161 169 196 214 227 231 218 206 194 191 195 188 181 175 173 186 186 162 162 145 166 167 185 201 177 210 182 137 149 151 153 103 119 165 184 193 177 179 172 109 178 161 120 150 163 80 125 62 142 188 156 197 123 162 137 73 81 64 135 54 83 48 62 67 49 112 61 77 144 103 106 116 99 137 128 159 123 169 108 106 100 99 100 93 91 180 123 170 127 102 69 95 48 52 81 94 118 92 215 231 176 201 94 85 195 178 84 108 74 143 62 128 159 60 54 152 89 131 163 180 98 161 146 101 67 144 180 179 156 192 205 100 119 159 106 166 156 174 154 101 195 136 171 163 158 148 72 121 90 76 90 168 172 79 162 136 114 116 181 86 190 188 192 142 209 203 169 98 83 130 153 45 139 172 77 74 65 80 136 58 169 104 139 97 187 172 94 165 142 98 112 122 190 130 155 92 124 177 84 161 81 164 69 101 198 197 209 157 204 186 202 130 158 163 103 163 92 152 114 182 189 126 150 169 101 170 171 145 132 172 131 192 175 189 154 123 89 190 168 140 149 190 134 80 176 158 171 95 152 163 121 49 68 89 198 99 142 111 168 89 93 185 157 127 171 100 100 100 173 140 112 102 133 110 127 97 126 208 104 187 111 82 180 172 153 113 147 95 98 158 77 73 114 139 133 72 75 71 168 160 189 99 203 176 105 202 139 183 121 98 80 110 159 104 148 76 161 173 194 109 170 100 100 192 197 199 132 202 188 130 107 101 130 156 52 133 130 146 72 75 134 121 120 104 112 69 137 130 141 138 129 132 157 198 88 89 101 133 48 59 175 186 152 94 134 176 198 137 108 184 161 48 120 79 54 55 74 147 141 142 196 152 190 140 123 212 207 106 97 150 150 139 220 189 183 201 206 211 121 136 97 116 183 99 195 168 180 153 60 162 117 154 195 255 152 179 79 87 91 74 82 158 101 170 188 185 141 114 103 97 105 98 167 91 121 94 119 167 180 125 85 120 153 87 136 112 175 89 107 209 185 163 183 136 117 121 168 71 82 98 183 74 76 177 154 174 93 82 112 110 88 29 38 143 125 121 90 182 184 155 73 163 149 130 52
137 130 118 106 106 121 135 162 161 146 133 130 132 153 164 164 167 161 154 160 157 161 154 164 150 141 144 148 165 189 216 229 229 224 215 204 202 195 189 169 159 172 183 193 196 187 170 154 173 157 199 182 186 183 119 160 142 153 165 156 148 190 190 196 125 175 155 149 140 107 111 145 64 115 56 157 117 118 195 200 115 115 123 100 77 65 128 85 108 71 64 50 38 56 65 133 93 82 91 85 136 128 119 112 108 109 97 99 155 91 98 98 150 127 145 137 111 116 48 45 64 65 83 151 112 130 125 126 169 94 104 102 194 182 70 140 163 60 173 104 91 143 54 54 67 179 117 108 166 70 154 160 109 83 126 205 179 196 101 146 82 130 132 117 96 143 175 156 195 136 166 170 132 178 160 97 124 147 181 76 139 136 77 171 99 165 173 119 147 191 87 113 166 76 171 76 163 73 89 125 118 174 148 163 75 120 96 159 93 140 132 101 109 134 76 185 88 133 108 183 212 192 199 140 105 96 172 99 81 185 118 189 122 104 144 112 92 195 143 89 156 156 71 109 105 178 187 93 121 169 113 92 143 166 141 89 177 154 136 163 197 122 113 113 184 96 102 189 129 141 119 148 150 167 86 87 176 80 139 145 105 98 143 181 92 108 128 83 158 116 85 98 173 66 157 82 163 182 99 117 100 131 120 163 131 198 127 101 110 139 91 122 79 90 144 111 173 180 85 133 127 142 80 119 188 131 151 98 121 136 114 119 155 104 90 86 82 184 186 177 169 88 149 76 93 82 163 124 169 179 90 127 100 190 205 124 175 86 123 66 134 97 135 48 54 167 79 84 126 91 59 149 114 68 99 41 168 89 106 137 94 157 161 157 55 69 130 139 190 198 188 81 181 185 95 93 188 112 84 106 95 156 70 58 132 144 156 137 167 255 139 164 197 187 166 137 160 116 215 197 99 185 198 95 162 95 125 124 110 181 189 144 202 112 76 165 154 255 93 144 121 155 103 122 178 77 69 173 137 171 157 159 192 100 190 86 107 70 165 96 189 91 85 177 148 153 184 80 174 150 148 137 178 182 147 112 115 179 141 187 125 88 180 186 81 179 171 163 122 153 74 133 90 152 102 141 41 48 39 137 98 116 153 75 154 118 152 102 82 91 67 81
141 130 117 111 112 128 145 157 166 146 132 122 139 165 176 178 161 170 163 166 163 157 170 158 144 150 150 165 179 201 214 220 219 214 214 201 202 191 175 157 148 136 165 186 196 183 192 176 193 187 193 182 152 174 146 84 129 137 100 169 164 168 208 115 169 150 95 151 89 143 122 145 56 114 68 64 95 133 110 127 143 141 111 82 128 72 84 113 124 74 110 48 54 48 80 59 91 71 62 70 71 90 113 94 139 120 81 86 141 101 121 114 112 104 144 120 76 54 115 127 71 70 169 96 179 206 197 158 106 163 115 118 173 87 75 173 73 120 73 149 180 119 82 116 182 95 206 201 151 177 171 144 164 109 103 186 173 140 188 189 175 108 128 174 186 114 151 202 113 173 180 153 127 198 140 124 92 159 91 120 92 133 142 64 166 124 74 94 98 75 170 91 109 147 56 131 166 113 138 41 72 142 87 97 90 79 120 99 59 177 183 99 197 162 153 171 154 88 183 116 138 129 206 141 177 139 185 106 117 88 204 203 201 155 138 186 172 176 190 115 185 96 64 111 145 71 87 203 114 172 159 162 126 145 115 177 178 178 200 157 163 131 161 80 115 156 143 201 140 111 53 86 126 107 105 180 153 182 125 112 177 84 62 54 92 67 92 129 167 152 179 90 135 97 102 126 93 153 196 113 170 72 78 96 196 196 99 185 174 146 127 99 82 109 100 157 97 188 134 78 60 57 144 86 97 201 101 129 188 141 133 224 196 198 157 100 192 108 83 178 84 140 130 53 159 85 188 199 197 88 109 85 193 134 132 201 163 178 100 118 73 116 131 97 60 160 76 71 173 74 108 118 83 55 110 106 175 138 176 157 128 60 69 71 145 159 174 176 199 87 178 117 118 130 192 145 167 151 75 169 76 185 155 158 66 43 44 95 158 74 172 131 83 184 96 88 151 215 187 135 170 127 82 101 170 179 86 83 84 81 190 118 152 108 156 187 108 200 200 196 88 83 82 80 175 97 74 93 151 189 143 116 170 179 90 82 82 166 176 151 147 136 99 151 171 86 74 177 161 171 138 94 151 135 101 107 128 184 216 192 179 126 75 164 110 82 58 139 36 39 128 171 94 92 65 38 114 122 136 103 107 178 74 69 179 94 102 167 118 184 81 86
143 130 113 110 119 134 150 167 163 152 136 131 156 163 172 179 159 163 165 171 157 176 167 163 163 167 159 177 185 186 205 213 212 211 207 203 199 185 173 255 131 136 138 151 186 201 213 197 199 198 187 140 121 144 141 89 148 116 138 152 165 192 149 115 167 134 80 154 143 119 94 122 43 39 131 92 110 119 149 120 105 126 255 97 143 77 105 65 68 77 114 115 48 51 108 68 67 67 61 75 78 94 82 93 77 79 65 98 58 136 93 103 151 124 181 102 96 119 78 78 91 83 180 80 82 149 195 98 194 187 165 90 194 187 170 143 175 188 77 172 80 195 140 186 85 189 202 190 187 100 139 66 140 69 139 168 184 179 184 183 190 195 194 99 194 194 144 181 185 129 194 96 109 119 209 175 83 99 152 97 55 110 163 167 62 61 80 166 167 117 90 40 138 142 155 75 135 137 39 115 82 98 100 124 159 117 96 65 150 160 74 173 82 94 164 153 105 85 79 179 142 94 95 112 138 118 130 180 180 190 126 133 206 198 192 152 104 166 183 191 108 184 171 86 145 157 72 204 138 214 164 165 106 102 142 126 86 90 133 114 186 112 134 101 103 188 131 155 190 125 136 65 70 159 156 173 135 151 97 57 99 85 145 74 96 121 140 165 190 167 165 196 184 111 78 93 103 172 91 121 85 127 81 163 164 164 170 104 104 207 179 131 130 187 155 87 91 78 87 85 73 135 152 154 126 166 183 179 216 117 153 117 201 179 127 97 135 76 148 164 118 76 75 143 145 81 153 79 183 148 155 73 185 194 196 197 140 200 193 154 99 102 165 120 89 109 88 75 89 149 110 60 120 127 60 116 161 97 123 103 118 156 117 70 139 155 124 97 176 174 127 89 108 148 96 176 188 157 198 193 200 199 180 182 74 59 53 60 103 63 83 166 157 134 110 92 140 148 115 103 164 83 113 163 168 110 119 148 178 84 180 189 209 117 209 125 215 224 112 209 190 96 109 105 74 159 71 133 188 104 206 108 115 102 120 189 189 124 192 108 167 127 118 111 61 90 162 59 138 82 100 95 185 82 66 91 183 97 182 149 166 83 76 190 92 83 126 142 112 131 55 135 138 148 144 150 39 78 61 164 116 87 86 77 114 187 136 127 111 111 159 148
138 129 119 114 122 134 147 165 170 154 138 134 154 178 179 173 173 165 172 176 183 179 166 169 165 177 170 181 179 178 190 197 200 197 198 192 185 176 167 151 121 119 136 136 171 191 201 213 209 193 137 106 116 136 124 143 124 130 111 165 148 166 175 157 101 73 64 144 105 63 97 92 133 43 59 90 134 117 140 112 171 84 95 97 108 88 63 110 99 93 116 101 106 67 92 80 76 67 124 64 63 67 116 68 111 67 63 58 45 78 94 106 115 133 102 90 73 110 93 70 122 96 141 95 176 124 149 97 104 177 169 172 185 160 76 77 124 98 176 64 92 90 97 135 191 90 95 189 131 195 151 156 167 121 151 143 175 145 173 129 142 132 184 120 165 184 199 172 167 182 113 122 195 213 116 138 117 60 73 72 138 166 86 145 124 89 145 151 164 61 96 74 131 96 127 143 145 154 136 143 161 74 176 113 78 157 83 82 150 77 61 83 116 142 148 149 154 59 69 177 154 160 156 169 174 168 151 158 136 175 184 110 180 133 181 90 61 149 79 93 198 153 157 96 79 105 109 191 212 175 172 135 118 72 27 61 76 138 107 194 102 124 109 125 105 155 139 128 161 171 159 111 148 85 127 128 93 77 58 90 119 43 33 53 42 69 88 172 138 196 200 118 79 77 70 125 93 159 173 90 56 54 63 92 83 202 183 154 193 109 113 166 143 163 105 192 99 97 76 68 86 113 88 102 130 228 121 157 102 112 173 101 186 128 60 114 112 67 68 177 170 70 71 137 120 43 56 168 163 162 170 79 143 183 130 135 201 209 127 191 206 102 152 184 173 118 99 92 139 96 255 160 80 134 156 136 152 102 85 99 121 118 88 143 111 168 185 192 192 73 155 115 119 104 138 154 144 192 134 115 164 110 118 187 154 99 58 139 56 66 71 146 138 95 116 169 174 203 203 106 118 128 67 55 93 86 139 178 181 183 142 133 185 122 143 172 226 189 152 206 134 186 189 132 74 124 94 131 195 211 157 210 212 195 84 79 125 160 190 127 116 99 151 73 52 155 90 113 93 146 172 101 108 100 166 129 100 164 179 79 154 135 171 169 87 182 64 105 76 48 100 115 103 115 169 63 67 142 60 114 100 86 173 76 134 187 119 119 216 148 155 169
133 128 125 122 132 142 162 176 188 174 150 141 166 182 177 181 155 167 156 175 181 185 182 178 173 176 173 173 168 164 168 175 185 190 192 190 186 174 173 150 146 132 140 123 171 184 182 201 220 198 191 143 139 128 125 154 138 137 153 133 144 126 81 87 145 134 99 133 60 128 33 39 100 75 45 113 138 163 157 143 110 107 94 86 156 90 74 137 79 87 86 76 71 71 93 75 75 91 121 75 114 90 72 76 109 69 53 62 89 47 69 119 156 121 135 118 83 127 74 75 106 156 150 153 83 80 111 105 213 103 134 92 181 162 83 86 83 136 132 158 95 184 94 95 121 160 109 95 159 97 87 86 123 157 157 129 155 148 163 144 180 194 155 191 135 190 142 205 140 211 199 125 109 115 105 177 178 101 78 85 74 138 177 130 171 107 69 71 131 140 192 189 109 176 82 110 161 69 163 72 92 192 139 141 152 138 98 124 74 155 147 132 50 41 144 143 54 155 108 146 115 153 129 179 179 135 91 154 158 171 164 94 173 148 63 69 153 149 109 98 119 122 147 146 147 144 88 171 193 145 173 172 62 125 122 43 162 166 84 107 178 82 94 147 83 182 170 103 176 137 123 68 64 174 144 161 86 93 136 139 84 96 28 104 68 39 87 150 165 178 117 88 91 115 125 159 78 116 190 83 96 64 145 50 140 82 130 90 91 135 95 199 99 107 93 80 108 105 114 75 72 65 64 87 112 126 227 160 93 105 102 162 175 119 82 65 71 85 151 166 92 132 82 122 68 92 46 163 131 68 106 171 176 173 157 177 174 182 119 133 165 162 182 154 133 119 120 157 91 154 163 135 127 63 143 144 120 150 132 97 118 184 127 130 79 156 163 188 186 178 157 75 110 124 136 149 100 155 175 209 203 184 147 193 138 103 168 140 164 61 82 89 96 111 228 122 210 207 127 183 192 140 75 56 49 135 81 123 88 164 185 186 92 128 118 143 161 213 137 208 164 101 159 190 79 123 70 167 164 181 213 216 208 190 71 161 172 127 125 120 166 99 89 138 69 63 95 48 51 95 108 151 87 99 87 143 109 191 96 104 146 54 145 167 78 178 180 65 161 152 79 175 114 160 166 161 64 59 82 58 126 151 116 153 90 123 101 108 186 166 142 167
124 128 132 138 148 163 177 191 196 184 173 161 156 178 185 178 156 156 169 163 177 181 183 177 165 175 178 166 157 148 141 155 165 171 177 174 177 167 163 161 155 144 154 157 163 176 155 192 186 214 196 172 107 107 125 155 143 134 170 114 174 102 81 159 112 103 255 111 91 96 87 108 110 119 51 92 91 107 157 84 128 82 143 129 92 93 85 82 110 151 94 87 111 125 99 78 78 132 103 75 75 73 118 70 97 74 52 95 66 104 73 114 107 137 114 132 72 128 53 161 86 86 83 181 81 161 93 195 135 180 89 121 73 169 83 99 81 132 71 110 151 166 177 91 185 187 109 121 161 168 176 85 173 146 186 178 168 75 81 121 92 150 201 186 106 188 194 194 148 116 255 96 197 158 177 188 154 191 89 111 191 159 116 158 131 165 176 172 168 144 161 208 121 195 118 95 83 121 142 81 143 140 194 102 173 158 104 148 61 111 160 73 68 138 144 68 122 95 103 136 167 140 160 167 85 178 153 103 96 163 66 127 141 65 52 110 101 89 184 154 106 215 204 187 152 82 69 99 175 90 187 102 67 47 29 139 60 146 129 60 137 119 162 163 127 147 160 198 180 170 55 126 68 120 117 101 97 156 51 63 83 48 66 70 47 69 90 60 60 86 81 104 65 66 106 151 88 184 91 144 136 119 129 89 126 101 80 107 95 103 184 187 193 87 126 79 77 153 180 82 57 58 157 103 127 194 122 120 156 85 111 177 82 57 115 78 71 100 66 153 61 44 52 23 78 61 87 166 115 117 155 183 172 125 176 151 180 124 210 106 117 187 189 136 97 163 102 91 123 105 172 69 58 122 173 95 134 157 109 173 177 180 111 177 60 95 160 99 157 177 103 113 168 59 124 106 75 72 166 180 207 197 201 204 126 87 103 81 64 169 181 141 114 126 139 137 221 161 112 194 119 125 169 135 105 142 61 158 101 152 71 110 187 98 164 202 113 130 219 170 113 149 125 81 75 160 151 109 137 96 186 208 199 91 147 163 64 164 92 68 136 165 133 136 166 73 149 152 142 151 173 118 149 184 101 111 138 111 192 164 74 72 56 168 89 81 144 71 104 63 75 154 101 195 194 118 128 60 60 55 57 115 128 56 75 72 181 91 179 212 255 149
111 120 136 146 159 172 192 204 204 203 177 175 160 178 173 165 152 168 166 164 167 170 172 179 179 186 186 172 155 142 135 144 153 166 168 174 167 161 157 160 161 163 154 148 154 159 162 178 180 204 211 191 161 149 119 116 171 197 167 159 166 150 155 106 106 107 133 140 75 54 119 128 110 69 63 102 108 81 86 92 88 112 98 150 148 92 95 86 121 132 92 105 100 123 82 108 73 71 65 68 68 77 110 116 76 72 61 66 79 98 64 141 120 100 100 139 63 66 60 91 88 97 92 178 97 186 183 127 122 136 176 70 81 79 186 119 78 74 163 63 134 135 85 190 185 179 190 177 97 140 163 165 146 106 176 137 171 74 171 167 170 160 138 149 185 170 183 163 110 168 193 118 168 212 205 148 222 215 119 106 147 114 166 165 168 190 195 203 154 162 136 188 190 145 146 164 74 145 148 186 155 173 121 141 90 76 66 70 117 99 98 119 163 153 134 168 187 101 185 73 164 76 80 58 145 185 203 201 122 136 151 75 134 141 132 58 166 70 93 121 115 130 142 201 126 126 154 150 75 181 87 82 109 137 102 114 116 144 79 159 76 92 190 181 153 113 211 145 107 115 104 152 148 95 97 152 86 64 116 137 113 118 77 159 78 49 77 72 140 49 132 132 58 57 78 163 131 140 91 92 96 143 66 51 119 136 161 175 129 80 110 62 66 163 84 177 81 166 130 184 159 69 52 121 191 137 168 116 128 95 75 105 86 97 107 175 132 122 80 130 46 147 32 65 108 66 164 95 110 106 222 162 218 141 136 151 176 167 137 97 161 103 138 99 132 118 189 89 98 183 167 106 83 108 154 143 184 173 186 145 187 176 143 98 107 121 146 53 105 67 103 159 72 117 71 40 99 124 123 95 99 102 97 162 177 148 80 161 169 107 90 126 194 112 128 222 178 191 151 89 137 159 181 136 150 136 162 72 160 75 81 104 79 121 106 85 88 199 189 142 136 170 101 163 59 52 95 136 120 78 186 103 94 92 71 121 78 51 110 109 149 159 141 163 161 67 69 153 134 182 122 104 194 134 129 152 118 168 172 81 126 87 64 98 178 143 127 125 150 161 166 177 86 191 115 146 132 57 87 69 77 87 163 168 171 114 158 116 124 176 221 122
102 115 136 151 168 172 183 183 196 184 181 175 173 173 162 167 150 169 172 165 154 157 156 159 181 179 194 174 166 143 134 130 128 149 161 170 162 163 151 160 170 172 172 166 148 132 136 168 195 170 198 194 179 159 255 139 140 184 132 176 101 99 165 108 115 185 165 125 147 113 134 49 139 64 138 139 139 148 78 137 88 105 73 88 107 92 148 113 91 116 90 85 97 111 81 128 85 66 93 61 67 64 90 75 115 93 100 68 68 50 85 146 95 135 153 109 129 73 104 85 84 80 87 89 165 121 158 107 162 158 91 174 86 96 78 180 132 69 125 71 156 61 126 87 91 127 104 133 67 160 114 69 172 122 74 176 183 171 112 184 175 147 194 186 105 110 173 172 200 190 175 142 121 221 193 189 207 177 222 189 87 152 122 63 76 150 131 126 99 184 139 138 118 177 173 166 48 136 134 172 142 126 221 196 125 166 129 155 107 114 180 92 162 97 90 172 86 132 89 113 167 175 155 83 101 130 92 123 95 69 49 157 72 166 141 159 166 142 91 69 177 146 98 99 92 155 168 57 126 103 186 178 164 45 43 99 64 116 71 180 122 175 196 97 195 134 175 205 140 115 152 118 101 172 112 99 81 108 82 150 183 182 160 98 85 69 85 69 107 106 124 157 98 97 150 52 129 79 95 99 92 132 69 74 75 169 81 93 80 111 149 108 144 83 175 75 103 125 153 149 188 70 61 122 173 150 112 100 97 123 106 172 198 100 91 128 195 114 89 90 124 86 56 94 145 134 147 188 108 123 221 245 142 186 137 77 168 158 173 108 172 146 212 100 146 146 107 158 102 169 145 140 62 112 96 99 90 174 94 175 175 158 115 32 123 133 117 72 145 104 62 136 174 119 140 74 50 156 60 69 164 113 164 175 154 89 73 130 174 157 86 178 78 97 193 135 102 159 82 173 75 167 70 78 84 174 72 125 106 60 169 156 146 129 132 128 68 186 185 104 174 163 92 168 60 87 101 40 48 152 165 110 91 152 155 124 92 156 125 64 154 136 160 155 135 81 121 83 111 191 187 142 187 94 114 148 137 134 134 164 154 129 81 123 90 79 157 152 79 71 79 163 93 162 120 167 97 124 80 82 182 173 81 79 101 161 86 160 84 122 155 107
98 114 136 152 161 164 162 153 156 153 164 171 174 173 163 158 158 164 178 175 168 154 155 169 175 185 186 188 181 151 137 118 126 146 164 175 172 181 182 186 175 170 171 172 155 140 138 168 155 169 175 198 182 155 167 166 175 168 167 118 160 117 154 166 147 163 137 107 122 119 52 119 70 84 71 82 54 56 110 130 128 82 104 129 151 84 116 146 122 125 84 114 93 145 86 106 123 92 61 96 51 86 100 80 110 109 67 84 56 62 80 104 112 125 122 193 109 163 92 143 123 101 102 108 133 225 137 130 114 97 98 83 87 182 111 67 95 121 118 155 143 99 78 74 188 183 137 192 74 59 94 119 147 176 153 154 189 124 188 104 138 220 201 216 125 147 182 129 165 134 173 112 139 225 203 128 212 192 174 139 127 81 119 93 110 106 83 179 149 200 158 202 155 78 65 161 144 76 134 83 139 185 127 147 193 140 71 115 116 84 117 128 84 167 73 134 163 189 189 96 123 177 171 158 58 156 125 188 103 160 54 91 175 97 174 97 151 90 137 83 156 104 86 110 121 191 173 115 103 123 176 108 142 96 30 86 39 106 177 187 146 132 190 80 170 167 162 151 113 178 148 159 128 202 113 206 187 99 126 151 125 108 178 87 149 112 98 96 78 58 98 53 78 50 49 64 81 82 139 82 77 141 116 61 63 155 156 106 76 152 68 102 97 59 73 87 110 204 119 168 118 85 145 148 154 89 139 86 110 155 169 197 128 168 119 143 131 166 138 114 176 65 166 127 61 146 146 95 147 132 242 184 155 138 105 91 62 126 123 72 188 169 162 115 172 119 126 194 190 106 130 97 118 132 76 176 100 98 78 96 73 53 137 63 127 111 118 54 48 112 87 95 129 161 112 61 87 145 65 127 67 62 72 69 67 163 131 59 142 62 57 139 66 80 182 164 165 123 93 171 118 53 59 69 151 85 163 144 163 132 69 83 81 150 85 117 58 77 144 150 85 95 151 71 178 78 93 142 86 147 158 78 158 171 80 133 192 191 135 197 134 168 185 184 122 173 80 78 103 197 181 215 184 179 167 176 111 203 199 179 142 92 192 156 165 171 112 72 172 181 144 182 99 141 172 67 92 68 77 136 126 97 83 100 102 143 188 126 90 138 99 207
255 125 145 154 161 163 151 143 129 130 142 143 163 167 170 160 174 175 185 180 175 167 156 155 151 172 194 205 185 175 149 125 130 147 169 180 191 194 198 202 192 186 174 167 157 135 162 157 170 201 173 182 185 179 168 145 145 210 162 146 182 163 200 203 186 173 94 106 121 34 40 135 103 101 108 79 137 128 122 65 67 128 67 75 115 146 96 106 157 95 86 97 76 105 126 107 87 70 58 56 89 85 93 99 88 105 72 69 105 115 93 140 138 139 140 136 132 124 110 165 170 124 98 188 222 139 132 159 222 169 97 203 100 90 76 150 68 121 170 158 144 159 63 75 182 112 197 188 173 81 157 163 165 154 79 141 202 211 214 116 211 151 213 202 133 92 185 142 182 150 197 108 213 137 199 114 109 227 221 167 113 151 153 47 153 125 132 59 62 178 131 117 146 172 165 153 95 157 74 83 130 92 91 95 117 69 127 141 174 194 91 149 162 122 163 119 128 155 158 201 139 184 92 108 58 159 109 173 135 140 255 138 157 142 93 167 117 48 130 145 92 66 93 119 140 160 172 161 56 70 174 165 168 154 76 142 48 165 89 149 126 200 81 68 119 158 99 176 163 138 127 185 200 216 111 103 146 126 147 159 84 165 109 182 169 203 180 156 137 71 50 92 105 107 50 63 114 121 174 89 101 71 127 67 80 80 123 177 131 71 137 136 109 255 107 119 105 113 116 120 226 210 109 90 158 154 163 147 168 90 162 187 122 184 132 183 118 95 95 181 116 116 172 92 144 173 95 153 177 213 148 208 145 159 116 197 74 112 158 64 173 147 186 155 140 191 207 176 98 179 122 93 141 84 55 70 158 70 145 142 62 53 56 34 109 58 143 61 77 168 140 178 151 65 90 82 143 137 57 163 132 147 56 156 87 68 170 166 67 141 102 88 147 161 75 80 189 86 156 80 154 65 104 64 114 164 103 84 177 73 143 120 161 95 76 137 141 159 56 100 108 131 182 197 152 205 89 88 113 104 105 106 86 186 79 105 189 111 103 130 122 112 207 100 160 160 170 82 135 98 208 212 133 184 151 166 194 210 201 193 94 171 92 190 174 62 152 90 85 87 163 183 154 127 67 119 104 151 67 103 172 181 111 188 89 169 95 101 102 113 185 191
123 136 151 163 164 162 155 142 128 123 118 129 144 154 160 172 166 161 164 172 164 162 140 141 159 171 191 203 210 196 172 155 149 158 174 187 198 195 202 213 200 181 178 166 163 146 167 184 184 186 192 145 169 175 174 168 184 191 142 126 173 117 191 179 142 108 100 118 124 130 59 80 134 118 92 114 127 93 90 58 61 82 62 135 98 110 98 104 117 150 151 88 118 121 105 106 118 75 96 98 65 91 111 114 81 87 108 132 98 117 165 121 138 221 155 146 193 108 99 144 130 194 205 118 192 213 229 233 179 125 177 218 164 188 174 57 159 61 149 120 110 164 157 177 174 90 88 183 169 140 159 78 50 57 158 115 113 189 150 109 99 104 111 161 198 119 160 184 86 95 128 181 175 169 178 156 172 185 132 191 186 67 85 86 120 58 153 149 113 90 149 93 161 79 162 69 180 106 99 139 82 169 173 68 140 110 163 122 132 102 173 129 157 46 98 52 255 91 209 164 214 176 186 87 151 161 97 159 155 124 69 156 172 175 133 122 156 153 153 155 57 89 166 166 183 155 101 115 168 84 101 124 155 119 177 66 141 156 93 118 135 192 76 135 149 146 107 94 138 143 139 220 214 185 115 92 123 173 104 82 177 171 176 103 134 190 100 109 113 152 77 50 120 145 58 39 100 63 127 127 85 162 78 94 132 97 112 84 85 140 146 53 175 84 122 130 153 98 164 179 216 128 139 130 140 129 173 159 166 91 176 106 91 184 179 124 132 110 169 149 91 97 68 154 166 70 68 174 90 207 167 131 227 233 119 189 86 65 124 141 107 162 173 124 162 107 179 186 94 75 161 71 137 38 105 52 133 78 54 113 109 136 44 148 122 143 73 78 137 155 138 147 180 78 164 160 165 72 81 99 154 63 93 62 124 70 145 69 49 131 76 148 158 137 100 71 180 182 102 147 63 136 55 46 54 171 168 152 168 146 172 64 163 148 89 146 156 117 87 67 136 96 195 178 147 123 212 125 168 67 173 162 111 163 86 120 92 130 163 121 217 203 116 165 157 51 105 132 120 111 118 201 100 178 131 139 199 105 117 196 88 146 179 74 163 142 133 132 114 89 82 81 79 112 158 159 160 102 98 49 111 71 136 173 149 76 177 159 103 113 182 140
141 151 161 165 171 178 164 149 137 128 124 133 134 154 175 174 162 160 155 161 172 165 136 132 159 172 194 214 223 210 199 180 161 161 161 172 190 195 205 204 194 191 180 173 148 172 170 182 168 166 162 170 173 164 127 110 145 190 131 138 150 194 208 142 129 189 125 104 137 58 51 49 116 58 87 140 122 33 86 93 65 87 68 101 112 156 149 125 190 109 115 88 103 151 158 139 105 110 75 121 91 71 82 80 124 98 145 102 108 98 135 175 134 170 153 149 134 98 99 159 96 102 153 113 115 203 140 229 196 224 123 197 112 187 64 47 142 144 152 104 156 144 176 172 181 152 179 107 148 108 136 146 97 54 174 187 150 109 187 192 182 120 201 166 148 169 141 164 132 113 125 147 99 166 105 123 131 147 160 179 166 67 102 80 189 79 67 159 116 174 97 85 178 96 178 103 195 130 118 139 89 78 142 157 62 55 148 116 192 94 99 160 89 150 44 81 165 188 187 207 111 111 191 181 82 97 152 64 161 105 177 99 103 160 117 164 139 147 68 176 67 64 169 159 166 88 80 186 172 165 106 79 163 154 176 89 171 105 156 144 123 193 73 57 40 49 51 114 199 171 216 166 149 160 181 108 153 112 89 180 154 156 171 185 109 90 190 112 128 63 79 111 107 79 60 46 90 129 99 110 108 197 106 99 151 85 133 73 104 69 116 72 109 101 156 133 90 144 119 118 226 228 107 120 94 74 76 79 193 94 167 105 107 120 84 129 133 91 82 80 109 146 74 70 77 132 164 153 82 141 205 117 112 206 222 193 195 165 87 98 137 91 187 134 117 150 182 105 148 86 150 87 128 61 116 63 67 86 64 146 86 157 83 87 153 84 67 74 162 120 199 191 81 82 144 153 79 63 84 91 93 111 129 133 138 58 81 90 128 65 69 108 158 171 121 110 88 69 143 158 123 138 87 48 141 63 159 113 115 116 109 171 134 143 174 89 177 80 91 183 199 179 204 120 116 219 211 174 102 85 94 97 255 178 175 173 136 158 169 139 203 173 184 132 50 73 102 178 167 75 172 76 140 175 196 154 174 106 112 128 83 131 82 160 87 89 118 100 157 167 74 74 171 141 71 78 64 45 83 89 55 53 140 74 71 134 150 89 177 137 154 214
146 155 165 171 180 184 183 163 155 144 139 135 141 165 173 173 161 148 138 142 148 149 142 155 154 255 194 210 223 226 212 190 175 157 153 162 173 184 179 186 184 188 189 187 184 161 172 176 138 151 164 121 119 146 156 146 175 121 126 112 180 160 118 151 161 124 106 88 145 89 67 68 34 51 50 102 79 45 97 46 141 153 147 97 99 106 179 161 174 108 95 85 93 106 87 83 102 133 90 93 93 117 78 101 91 100 135 134 154 107 127 169 166 152 141 175 189 175 160 144 160 169 112 144 196 112 164 171 123 136 195 112 119 191 163 40 35 43 37 110 173 177 98 169 164 172 79 89 81 56 155 134 137 83 182 95 205 195 172 162 143 134 97 184 154 133 106 138 98 99 85 162 110 140 64 162 153 163 151 58 160 86 171 201 143 175 129 115 104 184 173 155 150 193 93 151 214 196 149 158 145 117 71 62 131 56 53 70 166 188 179 167 155 80 159 65 139 82 144 191 174 255 178 199 187 88 152 46 156 175 117 151 179 149 136 170 177 108 85 123 181 115 149 113 168 132 204 184 88 116 177 84 75 79 148 94 116 136 128 88 130 172 133 130 45 60 140 174 185 140 108 171 175 168 115 143 167 68 132 64 155 132 98 93 100 119 108 154 66 163 96 118 69 69 37 41 105 90 157 156 102 137 95 186 84 61 61 143 174 119 87 148 148 194 142 93 108 90 103 186 203 166 199 121 145 161 165 97 159 133 167 160 183 97 167 184 140 142 179 72 156 51 65 174 165 85 76 130 133 116 100 104 188 147 148 188 108 63 123 80 174 72 182 171 121 147 172 127 67 86 153 61 85 151 121 70 73 148 77 164 66 174 84 174 150 132 178 73 108 196 152 184 83 85 189 172 76 94 51 65 142 57 106 83 99 158 66 88 62 50 127 167 81 105 129 156 74 67 106 151 141 81 29 33 59 155 141 182 182 77 176 130 177 183 183 189 86 94 156 113 133 219 211 110 155 190 192 149 197 200 193 115 98 169 72 61 79 149 163 167 132 174 58 46 121 126 82 124 161 101 166 93 152 184 85 134 92 180 191 102 127 140 73 78 93 183 131 162 98 111 102 98 179 86 69 69 152 41 107 123 55 123 90 61 103 116 70 138 132 157 119 142
151 158 165 171 179 184 186 174 155 141 146 154 157 153 158 140 126 129 115 140 141 160 152 138 161 166 188 193 218 218 221 202 172 155 150 159 173 176 175 166 170 156 187 183 164 179 165 174 146 148 162 135 168 114 164 151 136 109 181 146 129 158 168 146 104 101 163 129 116 96 89 88 40 31 43 111 49 75 101 72 73 96 112 159 171 95 99 122 114 99 123 87 102 62 79 75 76 108 73 124 109 88 81 79 81 106 99 154 113 141 95 106 153 145 221 143 108 123 94 146 140 141 101 197 136 186 95 144 103 96 92 204 171 169 161 140 142 32 85 158 100 144 78 72 52 155 145 137 165 114 170 71 183 153 112 189 149 172 197 159 206 178 159 158 109 86 116 117 177 87 122 161 105 150 169 101 120 116 148 109 161 101 126 153 117 228 163 180 107 195 184 128 136 90 108 143 131 128 100 176 145 149 135 62 100 166 123 71 255 183 194 74 164 71 143 66 61 165 75 116 102 173 91 195 201 191 142 133 67 87 187 97 162 75 103 93 165 94 127 178 199 186 82 173 89 101 120 200 104 183 143 67 149 100 165 88 91 158 181 124 128 86 181 154 154 106 112 179 102 139 166 192 191 173 82 73 61 167 106 132 141 89 78 107 141 157 113 61 68 102 131 131 124 44 37 44 65 57 71 81 172 194 85 109 65 68 101 110 101 101 109 195 202 137 105 73 133 67 156 152 164 155 167 67 129 149 157 113 120 186 163 139 169 165 178 193 195 188 99 149 160 89 66 173 176 99 137 100 78 138 154 65 75 190 85 179 70 104 158 84 161 173 72 171 139 69 162 125 132 95 160 130 142 106 77 160 68 140 182 109 163 100 197 130 255 184 101 166 171 166 143 172 178 168 104 98 64 131 61 122 129 51 57 112 47 129 68 169 167 74 119 177 150 183 202 126 182 138 159 138 45 26 123 75 157 68 91 181 127 112 148 101 84 83 138 194 203 191 203 132 218 192 190 165 66 164 64 77 84 180 97 193 187 154 174 97 101 121 119 95 75 143 51 52 161 117 89 162 73 139 60 97 142 175 83 162 120 148 171 182 189 101 146 86 158 109 95 129 122 138 174 78 188 83 183 113 146 127 136 122 108 110 126 78 93 117 133 112 167 151 100 96
151 158 163 172 176 176 178 162 144 140 153 152 164 153 147 143 124 124 140 154 149 164 145 143 156 158 182 199 211 212 214 193 174 158 158 167 176 168 168 157 150 166 179 186 187 158 180 173 142 165 169 153 156 146 124 140 102 96 167 176 142 157 162 131 162 160 106 158 96 97 96 44 76 112 121 126 55 107 48 67 105 121 125 132 95 73 65 67 79 143 88 89 81 62 51 66 67 74 88 129 94 105 121 88 100 118 100 114 93 116 101 108 125 174 182 125 125 157 123 83 162 168 183 134 185 178 88 86 80 173 75 189 88 182 154 85 48 54 133 88 139 78 160 69 106 130 87 105 169 174 186 159 207 201 157 105 143 126 129 139 153 203 150 137 100 166 150 155 161 188 171 91 144 79 80 139 255 162 154 95 61 161 134 118 117 174 215 191 215 114 77 108 90 144 176 90 92 151 163 164 42 112 67 134 192 81 76 175 148 207 201 145 107 140 64 85 55 150 98 84 144 107 184 180 202 86 68 64 181 146 191 161 124 172 153 67 109 93 128 113 211 93 185 112 195 186 152 201 184 188 176 75 149 69 160 157 175 177 181 100 112 141 166 176 114 92 155 164 189 149 185 174 175 138 55 63 122 100 87 138 61 58 143 178 170 86 100 173 183 81 96 79 55 89 95 54 51 125 169 109 89 73 122 98 135 82 171 72 118 192 111 139 118 86 62 57 98 64 173 91 155 135 55 77 127 137 134 108 140 84 80 71 76 162 121 97 174 98 140 149 103 81 86 176 184 150 178 149 175 150 117 123 162 174 145 67 137 63 158 81 169 88 113 168 151 75 130 158 73 61 174 69 131 119 142 160 103 141 165 200 166 170 108 201 163 147 142 104 88 168 173 72 155 127 144 130 76 38 97 27 121 94 84 63 96 166 97 83 83 74 103 174 185 192 173 179 184 174 81 153 95 31 83 135 74 81 89 152 163 91 103 49 153 147 78 86 98 109 222 175 192 100 188 62 132 147 147 165 178 116 161 86 100 156 173 129 126 156 138 47 155 134 132 112 90 68 173 72 171 147 91 136 165 149 116 177 140 175 194 189 85 155 113 168 179 134 118 139 179 64 160 72 94 118 160 142 77 168 168 71 156 160 171 95 168 128 139 58 118 137 65 65
159 160 161 162 159 165 159 149 144 141 145 157 157 167 140 141 131 129 147 162 161 170 159 143 156 166 183 199 210 211 209 202 180 175 172 176 184 183 169 154 157 149 177 177 153 170 141 169 174 149 186 189 194 158 169 135 140 93 113 156 108 146 128 81 98 140 127 153 134 122 69 49 53 46 91 107 97 112 71 80 157 152 195 143 82 133 116 57 88 90 164 95 78 73 64 87 84 79 100 87 125 135 85 93 94 107 104 99 75 99 101 97 149 161 172 117 102 85 112 57 66 135 185 105 101 112 162 80 141 53 155 75 77 70 172 162 59 112 101 148 92 121 174 103 160 108 103 71 161 141 137 108 177 202 139 90 203 180 210 126 134 185 190 129 116 158 172 183 123 155 148 126 155 161 102 89 180 95 81 118 99 107 174 145 134 139 128 210 157 119 177 92 88 84 173 90 107 180 103 68 147 64 150 194 101 186 128 114 161 116 164 129 113 139 73 150 140 41 139 124 93 192 186 153 86 82 178 138 96 120 183 171 186 171 163 97 160 115 216 183 185 206 139 91 172 181 218 207 207 97 82 83 179 72 100 132 146 198 184 191 142 98 133 142 143 88 120 149 93 181 129 117 158 106 144 80 151 148 125 51 76 55 174 75 73 140 150 81 196 98 109 126 168 59 59 84 66 177 76 130 139 119 169 69 163 150 109 144 121 126 111 105 112 66 162 131 131 80 159 109 185 140 55 51 80 108 96 83 124 105 161 67 138 150 74 110 99 100 180 132 80 184 163 153 137 82 109 72 148 130 123 155 74 160 116 157 145 65 56 177 144 185 178 122 161 65 110 143 74 255 66 102 87 151 194 90 165 132 151 130 210 218 221 202 139 189 182 112 179 84 78 172 161 105 92 140 38 112 58 110 135 150 90 103 158 92 181 176 93 160 181 177 180 169 129 189 90 72 96 138 95 114 48 62 54 108 101 165 70 72 153 54 50 53 75 74 89 194 154 125 193 95 184 94 138 146 130 153 76 80 95 124 109 113 152 135 78 140 142 135 59 158 85 126 158 119 83 158 81 100 168 146 81 93 63 170 163 153 161 140 177 180 158 131 76 144 125 167 162 128 154 50 93 169 132 91 142 86 73 84 101 180 75 99 133 140 88 170 166 126 54 149
168 164 158 152 146 150 152 147 152 151 156 163 172 169 161 152 145 153 151 180 172 179 167 166 172 188 197 203 210 205 209 198 186 188 190 201 201 188 174 164 163 162 172 170 168 158 151 161 172 172 189 202 198 205 191 148 167 111 154 165 164 172 110 169 124 112 186 144 147 97 152 116 88 60 119 58 98 120 145 105 146 171 147 106 82 60 51 56 75 135 116 101 83 68 78 75 138 79 76 99 131 90 82 102 92 120 116 77 58 52 67 89 108 96 97 95 95 77 70 72 129 100 92 164 115 97 91 89 56 136 50 165 120 68 164 163 173 165 58 163 81 86 116 81 79 156 115 62 144 192 190 166 167 191 156 93 146 217 225 222 111 158 131 106 78 151 164 157 109 101 134 157 159 105 85 92 92 82 180 124 146 131 117 117 170 144 211 192 193 79 67 123 151 138 178 110 176 146 125 128 151 56 120 91 106 215 218 200 124 190 144 83 61 115 98 151 104 154 85 86 96 91 134 114 175 76 118 169 104 135 135 171 177 87 110 56 94 139 206 215 112 214 107 202 118 205 152 155 200 109 97 169 86 183 108 191 101 214 118 144 178 151 136 166 108 158 74 114 131 120 169 77 109 121 41 104 48 132 64 99 54 158 132 182 77 75 119 95 197 156 145 175 114 96 69 107 127 82 86 113 84 54 86 71 92 188 125 166 172 106 162 133 81 158 255 148 149 153 134 102 160 168 141 53 37 57 185 123 114 201 94 158 85 122 61 86 149 191 155 142 132 100 137 78 134 174 73 91 75 90 97 126 81 66 171 165 157 129 86 165 123 96 106 89 140 96 53 68 151 49 74 69 172 108 186 105 117 106 169 120 176 213 218 152 134 91 186 173 179 178 93 145 48 123 90 91 56 59 131 71 144 135 167 72 83 95 157 160 116 128 97 86 179 103 185 80 168 164 85 113 104 55 136 145 92 61 165 70 159 158 101 149 50 77 89 133 137 86 96 118 106 198 159 172 150 165 61 65 72 86 160 75 73 170 105 91 155 138 172 133 59 72 150 154 91 35 93 118 164 175 174 132 84 137 152 99 79 186 105 71 71 70 141 143 127 116 159 91 62 140 60 148 152 65 135 92 143 115 112 82 84 169 128 146 129 171 103 94 135 48 50 143
177 167 153 135 126 125 138 138 156 171 180 183 172 162 162 155 147 161 169 168 189 177 176 178 180 199 204 205 205 207 193 189 180 192 200 210 207 196 180 171 182 186 182 171 164 161 168 160 172 175 157 186 211 170 201 189 124 170 174 117 176 163 105 108 177 113 178 113 162 153 126 108 78 57 155 77 146 80 134 166 174 134 117 170 85 102 132 129 111 107 138 161 150 75 92 94 90 77 73 105 70 127 115 107 141 125 111 70 79 40 55 96 69 79 161 98 153 89 143 125 141 129 133 107 182 215 194 79 88 67 58 117 98 70 77 80 76 111 71 134 64 137 114 89 193 159 75 75 67 74 198 168 206 133 183 90 201 110 117 175 112 124 121 133 131 94 100 162 167 100 90 144 153 85 153 150 127 154 116 131 136 87 180 90 70 137 159 150 88 171 89 50 54 97 172 80 123 126 148 165 125 113 145 160 159 201 135 126 208 185 188 151 56 44 42 94 56 122 68 97 178 116 139 146 105 100 174 75 107 176 125 121 164 54 149 64 75 178 197 104 208 134 158 120 220 217 159 229 119 189 154 114 139 165 98 178 153 180 153 150 197 111 149 90 84 60 76 73 147 87 79 79 159 57 93 69 68 155 136 158 166 86 164 188 188 99 126 83 136 114 74 75 152 87 118 85 89 158 118 120 164 72 170 167 99 92 174 159 144 83 61 70 104 178 109 142 91 81 77 164 102 153 100 38 120 64 191 103 127 176 99 167 168 65 165 77 111 168 109 187 130 130 79 145 170 168 62 75 65 143 157 171 78 74 150 179 67 167 76 199 125 205 200 171 87 75 146 88 142 56 92 122 110 84 107 182 105 112 154 128 130 143 193 203 98 86 109 84 83 68 99 139 88 74 94 125 39 91 130 64 135 115 165 70 128 176 83 146 190 187 102 99 103 143 100 115 81 183 85 66 158 97 154 155 171 74 70 184 96 87 169 155 133 139 60 60 129 80 118 186 139 177 109 130 154 101 75 101 124 163 82 59 111 75 197 205 171 90 121 85 168 129 181 75 132 128 90 122 144 157 128 85 154 110 136 105 160 151 68 155 85 85 51 144 55 57 89 59 101 80 63 58 48 105 72 103 96 108 172 191 101 124 102 95 123 98 155 149 78 50 43 117
173 161 144 122 113 114 120 133 149 168 189 178 184 169 157 159 165 172 184 179 183 170 157 176 182 204 206 207 204 195 184 177 183 196 212 220 212 196 181 183 196 195 189 165 165 146 179 150 174 169 178 156 168 173 188 200 190 191 151 131 135 136 133 101 151 157 109 113 197 148 129 147 148 77 143 153 135 174 144 106 116 167 90 127 163 145 100 90 105 107 115 104 147 134 78 105 104 104 81 75 126 76 127 115 86 81 56 44 47 41 72 60 67 83 95 147 98 112 170 87 83 101 184 201 170 182 107 163 184 183 86 85 70 162 165 169 180 158 159 162 182 137 173 187 92 116 127 125 147 76 125 97 185 158 150 168 107 202 118 204 178 140 180 97 146 169 121 164 156 59 121 112 106 123 69 142 126 142 138 144 156 94 167 117 77 124 147 174 173 76 144 145 139 131 117 60 170 156 165 56 136 72 118 158 180 206 145 202 187 115 142 134 58 59 90 71 81 150 179 173 110 161 152 99 99 174 158 138 98 200 181 75 113 157 160 150 113 130 184 198 143 218 226 159 226 131 201 138 227 207 186 186 144 188 97 175 129 119 255 129 121 164 186 172 121 122 157 155 62 55 152 132 118 60 74 156 169 151 125 116 180 76 78 180 197 139 173 132 177 169 136 99 135 109 98 93 93 125 172 142 81 169 153 76 84 137 94 177 85 108 50 96 84 96 92 117 64 167 175 122 146 75 79 138 46 95 185 131 108 179 98 172 130 173 171 71 103 99 100 87 148 159 169 167 162 58 97 74 64 172 151 174 172 76 97 99 182 103 170 132 199 119 196 144 162 118 167 88 168 135 105 159 69 175 163 74 172 96 164 123 154 165 114 199 198 185 177 114 90 122 69 134 163 152 47 58 142 146 143 76 143 66 165 103 94 103 106 79 90 129 211 131 158 211 173 173 137 89 71 151 97 170 85 179 177 143 162 112 116 89 149 103 113 177 255 151 170 155 137 183 146 203 138 184 98 151 139 129 90 43 146 140 120 185 119 190 88 72 129 156 123 104 103 147 72 110 77 132 160 121 167 96 101 33 38 87 109 175 80 132 107 51 144 127 129 160 69 84 137 113 99 94 155 131 179 190 103 209 121 115 194 112 142 196 132 176 101 100 57 119 79 142
161 150 134 115 108 108 112 120 146 166 178 177 172 156 147 149 158 178 177 185 170 149 160 161 170 190 194 198 194 184 173 170 179 195 209 213 206 193 191 186 198 190 183 155 171 158 188 192 197 171 177 181 156 186 165 193 193 172 176 114 126 101 156 162 133 115 170 126 157 176 117 93 128 166 129 127 176 122 184 103 146 153 106 83 89 137 88 162 112 134 117 123 115 79 120 74 110 83 114 123 118 101 101 106 86 119 117 77 96 95 64 75 82 82 77 86 103 107 160 103 90 89 152 101 215 111 207 130 185 107 88 90 185 139 122 74 178 79 174 189 85 187 110 82 78 186 78 66 139 27 123 145 122 122 121 128 128 186 116 203 170 131 183 179 177 113 146 70 113 152 137 140 154 71 64 61 132 107 44 47 127 92 72 135 79 116 67 166 112 95 109 84 98 95 38 51 52 75 117 54 163 57 160 113 70 80 155 83 77 168 119 68 138 148 88 178 186 113 132 181 142 142 88 142 161 122 96 191 215 210 86 167 135 89 149 79 116 71 79 116 211 225 233 121 211 141 171 218 133 196 114 145 188 191 182 194 203 95 255 97 205 181 196 176 163 87 151 157 62 153 60 45 63 84 149 91 145 206 165 141 144 73 63 70 165 105 104 64 80 112 76 173 196 103 164 99 111 150 102 101 166 113 172 175 84 80 82 96 61 77 62 76 174 97 154 68 91 68 139 123 71 123 150 155 67 166 95 107 212 206 101 137 204 164 112 74 68 111 162 130 59 66 104 159 143 157 153 151 167 92 82 69 114 69 80 166 182 173 123 126 204 209 185 134 144 158 103 179 189 159 167 61 65 168 168 125 91 151 146 156 112 148 100 112 117 78 173 51 69 121 125 71 80 172 156 118 173 141 94 148 97 163 160 68 96 177 159 173 96 94 151 110 155 160 107 198 132 173 79 88 70 158 171 157 78 104 103 183 89 255 173 157 101 111 160 155 166 74 106 151 167 106 90 80 116 50 92 89 76 136 134 154 114 119 118 180 115 127 68 78 110 110 84 164 108 150 140 133 137 144 108 104 142 109 48 66 168 177 85 255 68 154 66 95 70 107 182 183 167 74 99 135 130 154 162 102 208 208 181 187 119 206 206 210 110 161 104 81 76 92 143 75
142 134 121 109 107 105 109 109 133 143 157 177 176 155 137 138 154 175 191 181 155 139 142 153 168 181 178 180 181 163 168 174 180 201 202 208 200 188 181 179 199 189 167 162 135 168 183 169 171 196 147 129 125 168 163 196 155 168 169 122 152 108 133 155 136 72 89 123 145 186 159 184 88 119 163 146 187 143 118 110 137 90 124 89 82 88 107 146 127 255 166 95 114 62 105 63 73 128 133 142 111 132 106 124 107 69 87 63 66 86 72 87 127 165 170 95 67 122 131 118 119 111 94 100 120 104 104 138 167 181 104 118 147 95 140 64 167 63 66 80 90 185 99 171 77 77 141 161 104 28 16 129 142 144 39 151 88 144 133 188 159 176 186 86 105 171 173 74 101 143 123 132 130 89 149 135 93 82 108 70 130 128 165 78 121 96 144 157 87 170 51 78 21 21 84 48 68 118 83 117 105 53 66 119 137 94 73 142 158 142 96 169 122 158 154 84 176 203 175 142 121 87 129 89 125 140 116 190 113 209 170 122 89 194 94 184 115 173 90 177 210 217 173 197 125 119 124 226 213 183 170 98 194 97 148 91 181 141 76 90 95 199 115 189 123 192 128 148 86 80 146 115 155 147 63 97 108 147 216 199 152 72 97 61 158 117 167 119 154 110 170 151 141 145 103 202 128 149 141 123 79 87 166 193 138 107 176 81 58 54 68 89 138 129 149 86 105 74 140 157 175 148 118 64 141 149 103 126 118 125 159 116 116 170 187 156 120 175 180 166 149 105 58 127 145 110 67 117 76 176 185 166 150 84 179 94 148 76 79 167 200 154 216 185 215 211 141 119 98 80 88 91 60 151 137 153 156 76 137 76 162 111 147 140 202 121 74 159 160 67 177 140 100 105 93 129 130 215 211 188 181 68 66 75 185 174 192 92 148 139 189 137 147 130 114 108 197 197 172 152 75 150 80 77 136 122 81 109 79 186 102 120 114 124 99 135 143 118 69 99 129 134 150 175 77 133 41 136 116 55 52 56 111 81 176 141 66 161 144 154 161 156 92 146 255 112 79 180 123 184 168 72 137 93 91 145 72 105 159 86 128 73 79 137 178 255 170 137 98 159 131 147 134 62 183 103 129 184 146 174 202 131 99 195 114 120 201 83 179 72 123 144
124 120 117 113 109 113 109 122 125 143 151 154 167 154 146 139 148 166 181 174 162 133 140 141 152 151 175 164 161 156 167 178 192 208 209 208 197 190 186 189 189 173 146 152 141 124 164 182 179 170 184 169 133 123 155 148 171 167 164 124 142 115 133 160 125 85 114 85 156 132 102 113 161 115 122 122 132 140 190 117 87 97 146 105 83 144 147 130 141 125 168 87 100 64 68 60 82 77 77 85 93 120 103 108 86 78 80 93 78 68 68 105 131 108 94 123 73 79 124 180 83 105 89 99 192 105 113 190 89 182 184 194 211 89 69 140 125 56 131 78 191 88 124 64 159 161 172 160 100 134 19 41 110 54 108 113 165 177 174 149 158 168 126 167 162 122 183 176 125 151 91 84 124 116 63 66 148 72 140 122 137 69 51 133 75 164 74 189 97 158 154 143 122 108 100 68 143 188 185 182 94 168 94 146 143 74 71 73 167 157 153 53 133 98 160 111 133 135 171 194 183 164 163 164 111 195 104 121 213 179 95 91 160 206 211 161 107 130 168 125 172 208 207 107 159 201 122 199 196 83 174 71 97 131 163 125 171 124 162 95 170 189 141 159 126 199 143 156 141 67 150 52 54 122 112 106 122 141 155 115 91 81 67 62 102 61 109 110 113 172 121 140 143 185 198 107 131 192 94 109 96 204 119 118 114 86 192 131 83 63 141 142 172 125 110 168 157 136 142 167 84 88 125 105 118 99 120 177 147 209 117 148 226 222 177 88 172 169 169 90 169 157 58 108 132 73 52 135 175 183 70 63 105 129 169 110 181 79 76 123 155 199 174 120 121 181 144 98 205 178 167 106 148 108 79 154 105 79 79 74 142 124 195 148 143 115 195 121 179 175 165 163 191 153 187 201 171 131 121 108 143 99 125 174 97 194 167 190 103 171 81 122 94 202 156 187 99 104 187 81 152 96 114 94 169 119 59 157 132 178 128 113 214 149 195 185 184 177 62 150 70 146 169 175 158 144 173 173 158 177 65 156 94 163 172 126 183 181 96 183 179 205 133 200 191 168 129 162 143 166 71 57 142 59 116 135 103 99 148 147 145 139 184 158 194 119 167 101 160 154 86 97 78 84 98 101 207 190 220 127 215 100 194 85 165 149 93 167 149 145 82 118
109 111 114 121 123 123 128 132 138 135 136 144 160 148 153 145 145 143 167 181 168 160 135 130 153 165 166 173 157 163 169 189 203 210 212 210 196 189 183 184 187 182 169 153 139 143 144 170 175 195 169 126 155 155 176 159 195 125 113 87 109 120 88 93 155 102 92 134 110 162 150 139 163 85 109 120 216 175 163 160 152 172 82 122 97 91 98 110 140 111 107 112 114 75 69 94 74 85 99 115 105 153 126 108 114 83 63 54 108 58 54 81 87 87 84 90 159 117 99 137 185 93 152 102 110 179 209 100 83 116 144 221 131 141 80 160 72 150 56 71 122 172 172 160 157 173 158 171 70 154 130 132 123 110 167 121 142 181 147 102 120 149 122 96 149 107 183 94 94 108 47 50 116 160 165 117 86 103 65 64 147 45 79 98 75 141 112 200 141 76 64 102 51 98 162 163 159 102 185 203 99 187 161 69 73 136 136 181 70 62 76 149 44 105 82 71 135 123 112 92 91 177 170 79 93 184 113 192 142 106 198 99 137 207 120 92 98 164 72 173 174 188 114 165 103 152 177 85 126 88 120 156 79 99 171 62 50 126 49 160 135 160 190 136 102 179 188 97 93 178 133 60 120 68 102 131 89 192 200 173 193 118 79 172 158 69 101 157 78 119 138 176 200 106 81 107 125 186 127 122 119 121 109 99 119 98 117 157 188 135 182 134 102 193 101 200 107 96 165 89 112 170 114 182 119 94 124 182 114 82 87 134 181 108 162 88 91 132 85 113 79 103 65 111 155 162 157 117 97 77 130 156 72 165 85 100 190 101 83 173 102 186 136 191 145 116 154 143 195 102 136 156 152 127 90 143 153 140 131 125 106 142 188 116 159 111 196 177 97 191 87 88 105 90 100 124 156 202 188 94 90 132 201 107 189 184 167 164 78 165 79 147 176 110 83 113 79 144 124 188 181 151 172 180 161 141 132 162 153 160 190 204 201 151 154 126 93 172 115 110 164 75 88 183 199 190 111 159 127 174 162 157 86 66 143 123 186 117 151 94 180 194 99 208 129 109 124 181 194 126 179 142 170 176 96 104 149 74 143 83 164 190 116 208 212 193 163 121 109 178 176 89 61 45 93 90 108 217 117 223 203 164 94 67 172 186 89 176 130 132 80 62
94 104 115 123 128 134 134 150 148 145 156 155 154 164 157 159 150 145 161 175 168 165 154 143 147 158 161 176 168 158 171 188 203 215 215 217 196 195 183 181 180 166 168 141 140 159 133 150 176 151 179 132 159 134 181 193 154 176 162 100 89 67 109 135 139 91 146 58 77 121 125 101 158 108 192 158 255 168 138 142 163 118 140 90 144 145 98 102 133 140 107 165 115 126 87 115 82 66 70 94 111 139 120 154 157 143 64 57 58 41 58 51 82 69 98 81 94 146 130 197 188 84 89 104 110 194 179 78 144 63 95 171 166 204 96 75 162 69 163 181 190 163 96 72 61 82 101 115 200 166 122 68 148 158 135 127 121 174 155 144 126 176 164 189 171 103 161 116 113 94 141 128 110 143 98 86 115 126 162 172 149 130 116 79 46 105 102 151 130 125 167 55 58 64 62 179 123 98 161 119 123 128 210 207 176 201 139 150 185 113 151 142 143 150 154 69 156 125 141 177 79 118 66 78 197 175 207 112 111 112 95 82 182 97 168 90 168 170 75 171 81 118 186 193 106 88 180 169 88 166 80 121 175 161 125 44 122 43 133 128 63 152 98 164 136 140 170 204 175 173 65 154 129 62 71 140 114 162 126 114 191 94 107 196 97 90 113 103 82 103 88 98 152 96 149 111 80 127 208 139 135 123 151 107 160 133 131 198 184 143 173 198 206 109 106 100 94 128 125 173 167 95 145 108 107 122 143 91 64 104 63 83 83 98 190 156 98 190 96 168 162 153 71 100 146 50 156 169 186 165 172 76 161 85 161 198 175 118 255 96 99 167 230 193 187 173 81 160 75 100 171 94 84 178 188 117 196 197 191 155 90 192 105 189 145 119 159 119 196 124 86 181 81 157 95 213 222 127 96 184 75 137 101 201 90 116 177 179 79 134 146 148 110 140 172 95 123 177 92 187 94 92 121 191 180 171 65 152 104 177 194 194 153 162 206 202 114 161 111 174 122 187 163 176 117 222 109 112 99 153 193 135 145 147 189 103 175 168 104 181 194 176 149 193 198 165 181 173 178 86 191 187 99 92 166 199 188 176 68 116 134 141 204 213 162 158 143 185 111 91 132 54 95 98 169 133 171 97 158 143 207 135 167 168 127 189 86 73 165 151 66 148
81 96 111 124 129 134 143 154 153 154 152 159 161 160 177 181 178 165 179 177 165 146 139 142 154 167 177 173 177 176 173 181 192 202 208 213 206 190 181 171 163 169 167 165 152 135 145 177 153 162 171 138 135 129 151 154 166 154 177 129 130 76 108 166 116 86 135 51 121 151 148 74 153 139 97 113 167 169 134 224 177 211 121 136 107 91 94 103 177 174 125 166 151 140 104 88 81 73 94 132 122 113 124 120 115 90 80 47 35 20 44 54 107 56 60 72 97 104 112 141 112 130 92 180 96 101 134 97 63 139 72 148 222 219 108 95 186 168 160 100 102 180 175 107 166 99 188 140 184 159 115 141 131 172 80 131 164 118 159 103 177 199 195 177 142 165 155 94 91 139 73 47 107 108 184 158 102 147 171 114 98 77 167 62 151 63 178 178 121 128 150 61 151 89 108 111 119 152 112 186 219 148 132 171 214 126 130 213 175 188 75 78 105 83 65 91 78 185 81 133 82 89 108 154 191 132 205 182 128 188 95 156 116 188 190 82 182 106 151 177 101 173 90 115 147 133 157 73 146 182 159 180 81 159 152 145 140 146 100 116 138 77 174 116 191 169 190 179 140 96 146 163 119 71 91 48 130 78 86 189 127 181 118 141 104 139 175 84 185 90 80 132 182 104 85 130 159 180 199 210 165 124 218 209 108 119 161 127 106 136 162 255 107 140 106 117 93 153 92 144 114 201 94 171 124 143 54 42 67 47 79 118 164 117 74 112 146 104 190 115 186 116 94 150 78 121 158 198 105 204 186 129 158 87 108 171 175 111 82 168 199 216 230 127 167 172 157 94 94 168 130 158 60 108 193 105 107 144 160 186 114 90 111 112 187 113 142 134 110 146 86 166 155 179 192 121 198 199 186 160 176 170 177 107 165 125 105 160 169 60 116 107 141 165 57 51 160 171 151 189 117 111 167 178 94 83 152 132 169 100 160 199 179 113 206 110 95 165 184 194 152 99 207 201 255 195 124 201 199 190 186 145 94 185 126 187 96 189 145 126 186 86 86 159 91 86 151 72 85 158 157 104 154 166 121 135 97 80 175 186 188 100 167 176 194 108 78 97 113 70 98 99 72 152 104 135 82 141 178 108 154 163 113 75 94 171 146 163 67 166 115 70
71 88 106 119 128 141 159 161 161 148 144 158 164 174 173 185 179 173 177 169 167 151 131 124 143 149 163 182 181 179 175 174 177 191 201 210 205 196 184 177 174 168 165 162 136 161 163 179 175 163 143 131 171 182 148 140 157 161 135 157 106 166 169 170 85 66 96 124 59 74 162 170 85 117 112 182 150 110 128 137 211 138 118 113 78 117 81 130 124 149 121 134 95 121 146 85 125 115 114 86 142 87 128 109 123 100 81 64 45 31 57 69 61 53 54 126 85 180 187 105 111 106 77 167 70 173 151 108 52 45 88 92 142 139 122 102 91 120 194 209 213 211 119 93 136 122 220 227 185 189 146 128 149 153 162 96 126 170 173 90 148 224 147 187 192 188 86 77 117 102 133 144 161 81 136 162 97 153 81 103 96 194 192 163 75 170 124 99 153 76 113 79 71 158 103 165 63 69 79 199 117 233 215 116 126 217 110 106 151 190 174 110 120 157 159 157 176 85 182 169 137 161 136 121 172 118 223 130 144 136 207 182 185 81 87 179 127 151 127 121 106 146 147 80 119 61 152 171 191 121 109 196 100 175 86 34 63 35 50 99 187 188 175 105 113 160 139 184 102 136 106 112 160 71 156 52 136 121 86 181 151 77 127 147 90 120 142 91 157 104 94 81 132 112 199 90 118 87 125 96 202 199 105 208 117 222 130 130 155 100 170 192 196 139 202 193 140 125 120 137 118 112 84 70 109 95 115 40 118 47 60 76 57 128 58 131 101 193 104 93 193 133 181 140 58 64 183 180 122 110 99 91 174 92 130 133 91 159 119 84 178 227 218 229 188 91 71 70 161 172 82 151 93 183 162 209 142 138 110 187 88 180 109 87 162 101 120 214 190 191 178 154 74 176 108 164 88 171 174 74 170 177 145 147 178 82 62 113 130 54 147 72 95 92 153 138 51 114 183 152 207 203 84 105 67 138 89 101 139 194 198 185 103 207 204 158 197 153 182 102 157 135 142 162 125 128 128 83 190 155 155 116 98 183 128 87 169 104 159 175 90 134 95 91 97 93 53 144 79 93 124 147 139 151 202 202 192 83 78 180 139 108 148 184 166 158 168 77 159 68 65 160 159 70 65 71 162 135 165 148 217 175 94 80 190 168 116 104 87 73 164 139
74 89 104 117 128 149 158 160 155 148 142 159 168 172 176 179 188 183 176 155 159 145 140 139 140 152 162 166 175 177 166 161 169 174 187 201 193 191 177 177 163 173 167 164 159 158 165 255 155 166 137 163 173 183 201 183 131 146 176 97 153 147 99 153 167 66 100 62 99 63 159 124 151 143 177 108 181 154 170 212 191 167 110 151 80 64 68 79 94 105 119 132 151 89 100 139 126 110 100 119 124 76 106 73 77 111 114 95 121 77 78 92 72 53 132 80 107 132 178 85 95 152 85 56 139 63 45 38 124 82 64 100 183 201 162 196 126 190 205 131 235 232 114 153 113 191 109 106 148 150 168 145 135 100 129 104 172 88 175 198 218 170 226 120 142 178 90 133 149 73 64 59 169 121 91 174 158 162 157 106 190 191 129 120 183 172 173 189 191 150 139 139 179 79 159 160 153 156 131 176 127 211 120 168 174 96 83 89 117 194 150 82 107 87 57 114 106 95 155 175 176 167 92 192 188 190 136 128 235 120 192 125 153 81 183 79 166 172 159 154 83 169 157 152 151 141 80 182 187 207 199 165 255 171 130 70 17 76 126 174 202 119 209 108 183 122 122 184 85 156 166 137 116 162 141 76 125 154 146 91 125 123 64 61 128 160 145 122 136 133 129 173 101 155 201 114 117 150 68 77 116 80 143 98 195 129 135 112 84 82 141 124 176 150 155 137 117 215 130 128 130 104 116 80 71 159 83 111 138 138 99 49 47 45 136 164 159 188 186 163 192 194 95 129 47 59 132 149 213 193 118 119 152 114 85 105 90 93 182 196 196 209 203 127 110 185 92 180 82 153 89 139 131 180 98 196 206 138 100 161 142 157 82 152 166 179 121 161 152 181 188 105 87 103 114 167 105 166 169 65 174 186 89 127 156 173 113 164 76 82 60 87 79 108 67 133 126 160 106 224 158 132 104 98 102 166 101 186 206 139 168 195 97 183 200 200 189 108 130 113 187 89 81 135 163 65 145 136 85 93 135 204 208 114 62 125 77 163 60 114 61 132 58 77 64 51 46 48 170 81 162 168 106 177 162 197 103 145 133 67 171 174 101 199 208 162 153 131 101 171 153 108 132 130 112 135 90 68 76 189 207 100 118 115 109 194 205 138 128 83 115 97
93 103 113 123 131 154 161 164 140 132 130 146 158 176 184 180 173 160 167 154 158 137 151 149 149 148 146 159 153 168 161 170 166 171 175 187 184 188 175 186 174 176 179 174 167 160 155 159 151 176 176 188 212 180 178 178 189 130 102 122 133 124 146 99 105 115 136 76 138 78 90 123 86 105 147 166 98 129 109 121 171 148 150 84 68 128 124 106 87 86 99 122 168 90 86 97 153 93 86 87 90 81 87 92 73 138 112 97 82 107 79 99 59 70 106 68 156 164 118 147 62 54 70 53 83 155 45 40 31 72 47 126 157 106 86 180 169 168 255 121 148 236 224 117 195 104 108 193 170 193 116 84 93 141 52 169 146 190 172 197 213 135 136 190 175 132 158 165 140 77 89 148 167 170 170 144 135 141 107 114 115 152 153 165 116 154 181 172 115 138 198 127 82 114 134 153 140 70 186 110 199 196 195 78 65 106 118 120 79 106 152 181 87 150 129 105 96 195 150 96 161 168 121 129 190 211 173 118 116 202 152 172 192 111 175 100 143 72 68 157 63 55 125 147 108 50 158 175 99 199 184 197 204 187 152 81 25 74 48 186 141 216 210 196 135 116 185 172 152 178 141 131 104 46 45 46 142 162 113 105 113 76 103 78 174 135 173 93 139 167 194 151 131 97 93 87 84 80 99 56 54 58 73 124 119 208 190 119 144 68 58 165 100 87 123 165 160 185 121 207 115 101 118 136 174 96 104 113 129 159 107 161 50 79 138 66 123 109 140 103 185 106 131 169 76 101 86 200 216 137 137 112 190 127 171 67 133 151 152 118 176 149 205 162 196 194 164 166 142 167 76 92 151 180 97 171 119 171 157 166 100 69 62 169 166 167 104 190 163 172 191 128 176 63 124 67 163 62 61 117 135 125 145 191 185 94 67 100 154 124 151 91 50 155 129 92 146 168 106 122 148 208 133 183 162 130 85 170 179 168 175 139 149 197 178 121 209 224 128 133 141 156 60 75 117 48 120 163 77 185 111 108 120 171 157 143 88 132 91 169 114 164 109 88 110 146 155 152 130 189 104 169 200 196 101 98 138 149 103 111 147 156 123 185 125 207 166 84 122 134 112 173 157 79 76 70 76 158 158 134 119 120 137 118 101 121 183 219 104 121 174 182
119 122 122 127 137 147 161 157 145 137 132 152 163 184 188 180 153 150 152 139 144 151 169 163 151 144 147 145 141 154 159 169 167 168 169 171 174 174 184 173 183 176 179 162 164 159 138 159 171 175 183 187 191 224 213 193 176 187 173 161 167 127 118 131 136 117 128 103 42 79 111 104 164 120 149 87 150 77 94 124 116 124 124 147 72 67 56 51 53 129 87 103 114 86 98 88 94 86 83 72 91 52 61 63 104 122 138 168 94 142 107 139 130 70 58 79 80 73 108 58 55 80 66 72 111 101 68 119 42 93 54 255 181 139 74 88 164 174 198 221 167 135 174 143 102 187 125 102 104 184 192 138 153 67 141 60 169 182 160 195 185 155 73 125 129 62 164 181 105 109 108 149 176 160 168 190 183 92 154 152 165 196 129 175 156 81 163 173 91 118 92 144 104 129 149 52 61 158 183 113 101 113 120 87 45 117 46 156 148 120 134 85 127 149 147 85 123 112 147 168 62 96 181 190 97 193 158 169 194 85 114 138 154 93 169 160 124 141 136 152 97 47 107 95 132 144 138 162 193 146 192 204 143 98 129 17 61 107 62 98 146 133 153 130 167 69 93 163 185 182 80 175 134 129 117 87 73 92 158 122 89 80 163 147 131 170 87 182 178 169 166 130 194 143 89 154 84 176 73 81 96 135 89 115 200 152 171 56 145 141 77 48 95 156 73 92 203 154 199 145 108 159 99 123 112 191 80 67 153 142 98 155 68 145 163 154 81 81 149 109 88 173 169 76 122 163 111 137 109 134 115 152 138 155 46 115 143 140 102 211 184 198 161 181 165 196 183 196 206 108 182 149 112 88 177 146 192 150 115 98 161 163 75 162 126 160 140 160 181 162 126 91 172 61 136 82 49 48 111 148 154 115 197 145 174 159 175 89 159 175 66 67 161 119 49 107 140 178 192 135 156 150 178 107 168 84 169 89 87 125 142 171 131 184 104 192 147 221 147 211 114 167 121 57 54 89 160 65 173 75 88 203 196 140 73 164 161 81 148 81 130 148 128 89 129 111 100 163 123 96 203 177 111 108 114 118 173 96 116 60 59 128 86 182 207 180 177 160 88 141 91 168 152 166 159 126 126 146 59 177 134 105 99 122 206 118 150 172 116 103 126 86
129 129 122 127 125 138 153 149 147 144 126 135 142 158 174 163 161 146 152 149 151 164 174 166 160 154 137 137 138 148 154 168 167 162 164 159 165 176 189 190 182 162 166 162 154 116 150 153 134 170 157 195 221 184 181 216 204 167 176 171 137 137 181 116 141 79 54 58 38 43 68 133 122 128 82 95 88 147 87 95 109 104 157 128 84 75 60 90 50 54 66 79 97 87 134 128 88 83 81 65 60 67 38 49 53 93 105 119 120 83 90 62 88 66 57 128 125 48 58 135 148 69 128 109 89 67 109 108 70 68 67 157 183 159 111 68 173 174 91 158 102 148 92 87 183 169 200 196 183 200 106 186 156 51 121 90 101 145 166 172 104 153 74 51 123 66 163 160 116 201 101 118 173 83 90 129 194 169 145 81 64 180 157 120 142 166 160 166 80 85 85 124 158 127 144 138 111 171 175 132 91 153 184 113 156 118 68 81 114 75 125 81 178 134 82 202 108 119 99 189 143 149 132 186 120 82 183 129 164 112 76 178 206 199 195 87 138 153 67 160 77 79 132 55 130 88 68 177 191 160 89 184 176 169 110 57 121 92 116 152 212 112 186 169 56 142 141 157 142 163 150 91 135 150 74 116 101 194 112 112 154 98 186 105 175 174 112 179 144 139 113 178 127 101 86 125 82 179 183 143 67 115 122 149 146 75 161 51 145 42 69 46 149 49 86 182 192 216 145 175 188 86 90 103 107 93 96 101 113 165 162 119 152 127 89 130 158 70 72 59 161 136 84 186 79 189 197 104 201 207 191 190 142 45 134 102 161 86 189 145 228 227 213 110 160 92 191 191 199 159 148 171 83 74 109 123 100 171 111 124 89 168 151 86 129 67 84 76 97 129 158 158 142 133 173 166 53 154 116 118 156 166 83 87 128 165 78 164 184 182 99 119 130 58 58 160 77 150 194 162 216 170 193 151 87 183 155 190 83 177 114 177 82 129 95 121 157 167 219 138 116 75 80 24 82 44 53 137 174 105 93 126 124 90 85 67 179 189 84 129 170 167 115 93 160 113 121 133 82 161 136 143 107 205 103 102 152 200 77 153 141 88 153 159 137 123 172 90 168 136 187 161 94 118 92 98 128 130 101 80 112 133 87 76 199 124 180 223 137 179 155 126
115 118 117 122 126 137 147 148 147 145 132 120 133 140 166 162 158 154 162 160 159 157 170 188 170 145 139 144 146 148 153 160 170 169 165 160 164 173 177 188 180 165 142 124 141 126 113 149 161 149 130 187 165 178 203 211 159 184 128 143 164 166 127 108 114 76 99 121 59 44 137 82 133 79 100 38 96 145 130 85 89 137 97 134 92 123 67 95 51 60 114 77 70 117 78 65 112 97 77 104 95 82 37 22 65 61 99 86 79 72 122 59 63 65 75 56 48 44 43 69 103 82 77 149 118 160 161 165 118 88 170 137 99 134 73 177 176 162 91 114 76 177 124 175 188 185 196 108 95 96 176 118 142 67 152 106 124 120 130 97 142 150 35 113 129 160 82 202 145 197 182 103 76 91 153 134 192 171 72 146 131 170 126 124 127 142 151 160 165 79 189 185 154 66 52 81 52 112 113 88 199 93 98 87 81 153 70 156 107 178 69 139 90 152 184 115 134 143 205 158 98 123 88 85 154 121 133 141 137 50 72 98 126 187 109 177 186 126 115 144 142 68 156 58 139 49 155 148 82 176 115 176 165 124 142 88 42 143 140 187 197 89 82 165 159 123 88 105 71 115 167 92 182 173 189 101 155 197 128 93 76 117 168 115 124 73 127 85 167 208 113 181 185 150 195 80 174 77 186 103 87 155 162 82 144 109 161 56 49 49 77 101 47 76 90 101 93 97 105 91 101 117 122 190 145 152 109 149 130 155 89 98 83 75 118 153 159 53 157 66 100 73 77 184 163 180 100 96 194 127 104 163 128 150 28 128 116 156 148 218 171 240 134 183 95 157 172 102 104 91 171 123 70 95 54 107 71 87 69 98 158 89 99 108 102 92 127 78 116 114 44 59 154 80 174 77 132 56 166 176 97 84 88 142 86 172 78 172 185 136 92 70 66 153 161 119 122 181 138 179 183 102 202 116 175 134 184 156 181 157 85 161 139 111 174 175 89 199 203 213 120 107 47 139 124 35 60 96 163 149 130 207 144 147 166 78 112 89 93 139 179 72 152 201 201 200 134 74 109 120 127 151 198 131 114 127 179 133 116 130 139 158 72 134 89 108 160 186 91 141 165 112 157 108 119 77 137 108 68 176 125 67 161 81 82 108 179 149 196 131 184 255
93 103 110 117 116 132 139 147 147 139 127 119 113 123 144 154 171 173 177 166 165 166 189 174 159 147 134 143 155 153 145 153 166 165 167 166 166 166 176 169 167 170 162 139 121 126 132 146 131 140 126 140 142 154 194 186 171 172 122 171 178 136 192 117 104 155 109 88 107 145 149 123 133 63 37 107 117 59 84 169 119 81 163 86 101 74 71 58 68 59 114 68 91 64 64 80 60 100 96 72 55 73 65 40 53 96 57 87 74 59 71 59 126 75 140 49 65 92 56 75 89 94 157 87 56 57 50 74 103 194 100 115 198 96 177 178 95 84 180 162 69 81 107 66 120 95 84 162 150 162 108 167 164 153 83 136 164 157 172 121 117 142 50 99 142 161 80 199 179 95 172 147 160 180 182 167 129 75 165 136 168 139 131 176 174 114 144 156 159 72 190 255 192 180 72 150 68 159 105 156 200 183 193 201 182 136 153 80 125 171 90 133 161 100 186 101 200 196 227 226 200 174 162 169 82 100 126 138 102 162 106 214 122 197 95 102 108 163 85 114 172 98 133 68 150 69 149 73 87 182 135 115 123 43 32 33 79 164 103 113 187 108 107 162 162 103 67 92 146 115 157 136 98 109 124 189 200 193 144 150 80 138 156 73 101 189 190 170 102 202 99 111 93 96 179 83 136 78 175 118 180 155 117 155 67 103 76 47 68 43 55 57 77 60 127 69 141 124 133 190 86 140 97 121 116 82 75 111 31 44 82 81 71 81 93 136 72 145 75 140 116 150 64 79 115 145 151 164 95 187 183 168 143 156 144 140 106 108 131 192 219 231 232 173 87 107 83 153 78 163 89 70 165 157 136 67 41 82 90 161 144 154 119 203 157 153 109 72 65 133 112 71 103 76 133 114 164 69 98 143 183 176 123 141 122 177 144 130 80 79 72 104 57 136 105 90 178 159 148 128 116 186 97 144 53 151 106 200 101 183 90 174 183 105 106 142 120 203 122 137 126 178 113 104 52 73 47 143 178 192 112 177 119 174 192 135 167 118 187 85 102 153 168 95 111 189 78 174 135 164 94 145 100 189 124 188 149 104 97 135 156 72 93 98 92 45 156 170 159 136 105 181 164 139 140 137 145 90 125 149 132 70 75 45 165 107 124 189 137 113 194 85
85 103 114 122 118 128 132 142 151 140 119 112 92 107 121 149 167 169 187 177 191 195 183 163 141 135 147 162 172 174 166 166 172 170 176 167 161 165 172 166 173 181 181 163 146 131 116 108 153 155 144 162 137 120 143 164 171 170 134 158 149 183 167 100 107 152 77 124 75 84 155 98 104 65 76 117 109 118 173 150 96 73 67 74 67 62 84 51 61 122 65 75 103 51 107 42 45 59 68 95 93 60 58 58 62 61 53 124 135 62 109 71 96 152 70 65 39 21 78 155 186 95 174 85 56 93 64 161 180 103 120 110 99 193 123 84 84 190 172 63 153 155 73 113 61 82 159 173 155 125 64 141 176 74 63 122 166 79 157 170 167 125 141 154 111 86 166 165 191 153 105 155 62 103 188 156 103 181 115 164 176 190 163 89 83 186 111 130 133 80 171 188 106 92 185 82 129 120 115 204 159 203 198 109 184 115 127 145 164 70 113 101 116 108 167 140 147 138 122 219 216 205 177 99 174 182 67 136 139 177 108 210 189 176 143 84 169 194 145 59 159 80 192 167 183 77 155 69 80 133 168 52 73 94 84 96 80 154 141 162 132 136 90 160 169 147 170 175 101 74 137 168 135 115 188 89 90 176 150 143 108 128 42 85 178 84 184 196 100 163 184 83 99 109 110 126 81 104 141 70 175 77 110 89 177 170 154 142 40 53 92 68 99 117 89 88 94 150 190 125 87 156 170 200 108 85 56 84 36 39 120 112 160 138 53 108 34 124 75 46 76 53 68 166 187 184 116 191 123 152 181 93 156 150 64 66 129 133 113 180 118 217 160 92 96 58 109 89 172 115 173 138 74 64 62 156 41 80 143 102 118 202 201 206 122 175 156 126 157 153 64 53 108 149 133 188 78 130 163 135 194 99 88 138 185 79 79 170 166 124 98 165 114 105 94 109 159 255 164 117 182 168 77 130 95 68 123 117 115 206 102 143 139 152 107 73 165 192 173 200 191 112 186 109 86 171 147 122 121 191 200 146 136 87 85 86 187 115 107 95 93 154 139 126 177 179 131 134 62 129 114 76 134 119 89 90 144 94 185 131 146 80 115 50 75 21 35 39 139 175 79 118 180 90 123 166 69 144 84 83 87 154 48 60 72 162 230 195 165 209 124 152
99 117 129 134 129 128 135 153 155 148 129 115 103 122 134 141 164 179 181 182 198 187 190 161 137 120 143 168 188 195 189 184 185 181 178 161 166 169 179 181 180 184 191 184 153 139 132 135 122 145 118 156 135 156 133 169 136 158 176 121 110 176 140 107 116 115 136 133 131 105 165 85 144 83 82 87 136 136 163 126 111 98 59 81 123 69 47 49 61 71 72 126 88 53 57 47 111 61 61 90 56 57 73 72 74 80 69 87 71 77 95 98 80 83 111 67 117 37 44 61 106 90 184 77 160 141 55 161 174 201 133 127 107 99 150 124 120 128 90 72 97 161 88 157 63 124 170 167 75 132 56 135 97 139 170 123 83 158 164 137 189 188 134 87 85 142 155 105 178 168 171 140 95 141 174 187 196 98 179 176 145 200 199 191 113 197 154 104 179 77 164 151 116 116 131 187 63 108 159 137 147 227 194 158 190 169 85 163 120 164 56 44 131 118 72 101 113 176 189 138 200 112 187 91 86 125 162 65 164 181 193 120 192 89 143 172 155 109 165 140 161 182 151 204 179 190 129 94 141 178 71 140 129 125 109 173 162 99 123 84 137 115 51 164 101 139 82 107 121 66 165 139 182 169 97 182 72 114 91 107 82 103 107 160 175 94 205 160 138 154 127 164 109 160 136 110 127 71 62 159 105 110 147 141 85 140 109 66 67 99 156 105 115 121 149 175 116 195 123 144 116 130 182 187 164 162 62 103 28 21 49 130 159 106 139 113 47 107 84 52 141 73 61 168 197 182 106 169 204 204 141 106 181 136 127 139 106 48 130 142 93 142 103 172 167 105 80 93 102 94 140 176 85 153 131 69 95 126 138 166 87 147 184 179 185 81 163 175 104 158 65 66 117 165 161 154 62 58 159 86 109 115 154 180 199 157 190 116 161 168 87 113 79 126 192 114 161 123 151 104 97 174 139 44 81 71 116 175 129 132 182 137 163 135 64 166 140 144 94 187 199 156 122 108 196 196 198 198 99 192 85 69 66 72 187 145 156 140 181 202 197 203 153 152 152 145 123 74 161 138 67 100 87 90 82 79 81 85 115 160 192 158 80 55 127 81 60 106 132 163 130 153 176 144 161 128 101 127 88 89 82 132 61 78 97 103 213 233 138 112 64 94
113 129 144 148 141 143 147 160 161 155 150 124 129 125 140 151 152 174 185 204 214 195 192 150 131 122 143 173 197 206 205 203 204 192 187 173 170 176 193 191 191 200 192 199 178 146 125 120 152 160 157 177 162 146 176 146 187 145 151 176 150 160 90 159 152 67 155 88 146 159 105 162 105 148 88 103 133 145 141 89 118 136 58 100 86 121 83 58 96 97 106 114 73 54 71 70 60 61 72 115 59 96 92 67 100 67 86 110 93 90 80 106 139 96 58 43 107 42 73 129 73 95 87 81 123 48 39 131 88 184 109 180 126 147 172 143 191 114 170 77 143 153 107 168 147 170 72 175 93 169 116 158 150 118 147 153 117 65 144 149 148 167 186 111 161 82 115 164 122 131 90 152 148 91 170 148 178 113 182 162 193 142 154 99 83 161 165 172 172 145 139 148 234 140 130 206 180 119 87 103 218 226 214 210 86 124 182 159 157 138 70 89 63 119 136 148 152 128 181 178 104 109 138 80 162 103 160 58 73 103 152 212 102 176 85 67 170 62 56 104 125 82 99 114 227 111 202 183 182 177 161 128 113 126 149 181 184 88 186 131 65 111 120 96 128 115 136 172 88 154 128 81 175 107 122 72 106 65 149 149 155 60 56 126 79 171 120 133 158 101 76 131 93 217 186 149 104 125 100 157 181 192 105 122 140 150 63 135 75 84 75 180 81 85 73 97 124 90 129 168 188 101 187 195 116 102 80 104 61 84 112 68 167 76 97 114 168 97 88 110 67 125 119 79 86 190 156 172 138 136 118 71 87 122 197 188 164 94 51 154 181 122 79 163 68 180 84 186 140 115 176 75 161 130 96 157 74 120 110 132 174 150 171 100 194 129 186 159 176 69 98 88 101 121 88 131 125 110 70 71 175 185 180 198 193 164 95 109 118 186 181 114 135 85 195 201 101 102 107 100 190 149 142 129 129 174 170 224 159 95 98 58 111 141 64 128 149 189 122 197 114 190 97 159 147 96 96 108 180 156 155 60 77 96 123 108 106 206 204 175 186 123 72 74 127 62 65 98 173 121 147 83 159 101 36 55 73 162 126 210 138 130 111 84 45 119 44 86 114 149 160 142 123 162 56 153 138 154 177 110 114 158 65 152 78 147 114 116 198 124 128 34
104 123 143 152 157 151 155 162 170 162 155 152 152 155 153 140 144 158 175 189 192 209 186 166 142 144 148 167 187 205 211 216 212 208 196 177 181 192 208 203 204 194 209 202 183 139 134 133 147 138 193 196 181 205 189 166 148 152 120 158 122 157 141 141 126 108 80 79 88 135 91 111 89 106 88 69 141 80 143 80 99 140 115 75 53 54 121 75 118 99 103 75 106 64 78 99 119 81 84 126 68 120 127 116 120 91 90 84 124 91 140 106 88 143 55 51 89 128 93 77 78 112 136 75 65 59 48 118 185 111 101 195 121 123 99 86 177 79 179 105 166 179 173 170 109 109 158 139 105 143 82 158 60 106 163 180 111 147 75 79 153 157 124 137 159 120 128 164 148 80 153 148 105 150 130 157 143 124 131 209 137 209 101 117 143 75 122 182 109 127 151 225 239 245 165 115 187 129 85 118 109 185 114 140 156 150 128 185 84 72 92 103 166 96 62 144 166 141 87 185 171 176 70 165 56 56 141 149 134 130 88 199 118 186 135 57 162 63 80 145 170 180 192 118 196 184 200 183 167 122 176 169 130 168 162 94 168 78 124 174 154 127 181 125 117 127 186 172 124 181 146 158 106 163 156 149 58 119 73 57 172 79 165 149 100 161 206 173 86 87 122 170 190 126 141 150 197 74 72 114 92 98 108 209 123 173 68 64 172 163 113 128 77 175 75 110 96 182 133 174 79 172 136 111 113 110 116 169 129 152 168 73 78 112 80 147 174 117 79 151 170 84 151 179 77 123 196 168 89 163 89 63 106 92 180 100 90 104 136 142 95 74 71 165 67 139 106 121 167 173 145 180 74 94 149 148 34 135 135 99 160 129 81 155 196 191 206 154 131 179 76 181 151 164 109 127 99 109 67 58 145 152 82 182 101 96 193 179 174 140 127 94 95 187 155 186 186 181 152 90 87 74 112 57 79 157 179 209 108 84 156 154 99 56 123 118 176 204 120 210 153 129 150 196 92 166 114 170 71 100 157 147 104 154 158 103 98 155 177 135 171 68 85 72 118 77 154 200 160 129 206 97 61 53 120 38 57 161 186 177 112 152 219 139 172 39 26 74 57 124 92 132 127 120 156 83 68 95 179 79 92 117 183 100 84 133 123 174 108 141 45 113
77 99 125 146 149 152 156 158 160 161 157 158 154 159 154 158 141 156 168 187 195 193 202 186 179 165 155 163 172 194 208 218 220 213 201 184 183 202 217 211 189 200 202 197 159 161 158 144 186 202 205 204 211 219 181 188 173 139 120 117 160 107 161 120 140 92 140 97 63 112 98 111 89 110 169 66 73 116 140 162 81 80 148 82 111 63 103 89 96 97 84 121 65 65 82 103 107 107 95 88 103 105 125 114 129 88 103 93 83 96 143 100 81 75 111 122 83 69 79 74 88 94 126 85 70 79 124 73 101 100 115 102 132 105 152 176 71 180 182 125 90 145 146 69 94 79 86 118 187 103 115 69 72 161 163 147 66 144 36 109 126 138 154 159 75 143 107 87 170 144 140 91 113 145 61 59 174 197 199 207 154 111 144 191 168 135 161 73 193 164 127 165 218 183 210 150 185 86 101 195 99 206 117 128 80 128 89 146 118 170 104 119 133 175 160 147 154 151 155 70 140 162 86 137 98 138 119 134 64 148 181 118 184 107 176 163 164 106 173 115 180 88 91 201 103 103 192 178 144 199 84 100 75 183 162 194 189 100 180 178 156 86 128 158 130 148 111 215 207 101 129 118 142 99 58 56 119 90 122 58 172 84 100 102 203 187 109 87 110 92 83 71 145 124 103 122 95 146 114 99 155 114 191 142 94 122 146 100 111 100 91 113 140 95 174 119 138 91 96 143 127 92 122 188 198 169 171 83 154 77 161 147 158 64 164 170 69 106 72 180 157 166 87 178 153 151 82 171 164 70 45 112 36 74 131 169 143 108 115 86 62 116 161 162 79 116 160 103 107 137 70 73 115 115 255 112 43 143 95 78 157 68 87 97 109 196 153 138 179 122 144 181 167 155 171 99 58 68 79 93 153 116 170 93 162 125 169 178 106 182 118 105 166 110 181 173 113 115 169 184 185 170 81 88 81 205 114 109 159 179 161 153 108 119 101 87 191 170 213 202 145 104 199 86 178 117 160 146 73 151 135 77 82 157 128 180 142 172 152 62 77 67 161 67 176 94 202 191 186 112 131 196 68 87 142 119 162 94 175 203 168 211 153 131 85 101 40 26 67 56 119 167 154 89 158 157 123 82 157 74 90 185 103 255 84 93 158 105 155 70 132 75
56 77 105 129 145 149 146 144 138 145 154 172 174 178 176 153 147 152 157 167 168 188 185 195 182 171 159 146 167 183 198 207 211 203 191 185 191 194 214 206 189 195 171 192 180 174 154 179 196 196 166 201 147 206 208 145 189 111 166 172 113 122 79 111 175 180 119 135 64 59 139 79 103 90 132 72 62 100 63 110 84 81 132 105 154 72 75 118 99 90 74 109 98 70 76 88 101 125 93 100 93 108 158 132 126 92 89 88 115 113 167 147 167 104 50 51 70 138 81 79 100 113 121 127 73 128 94 156 158 143 114 94 87 107 168 143 68 105 163 176 104 104 78 87 77 177 108 80 181 139 167 133 139 70 156 139 152 142 101 70 69 124 71 170 157 94 164 109 95 154 161 92 166 154 140 56 77 154 187 151 131 209 113 170 179 124 170 76 161 190 113 137 99 106 161 125 96 170 102 181 113 128 186 90 87 69 143 69 151 82 142 198 89 179 88 116 127 75 164 82 82 75 135 72 145 150 94 94 66 101 182 191 104 157 180 125 72 87 183 129 109 123 126 74 111 174 177 95 89 89 162 158 160 146 127 191 84 175 159 146 131 141 174 204 189 168 145 135 227 214 101 137 52 150 154 45 103 36 107 54 121 73 99 180 84 115 76 140 81 174 105 93 87 91 112 101 71 86 64 87 196 149 115 155 201 88 164 170 179 255 92 102 141 103 98 148 101 113 143 72 101 92 105 201 118 161 99 142 63 78 144 93 78 135 138 151 67 96 71 139 77 112 161 174 79 158 111 115 96 149 112 124 40 58 84 156 107 94 62 150 43 141 124 98 116 191 102 183 102 165 174 153 167 66 106 112 56 174 113 176 189 99 149 204 217 147 116 84 137 159 110 104 89 104 115 90 119 138 153 45 52 161 181 194 198 95 172 120 93 75 184 197 196 186 91 153 145 95 131 164 155 83 131 175 77 173 104 112 85 100 170 87 124 131 132 123 207 206 108 255 151 192 194 188 117 85 165 58 123 156 171 91 86 193 89 159 139 101 150 121 48 121 167 184 163 148 212 222 155 132 129 187 106 169 70 144 102 182 151 172 127 111 119 146 144 142 99 54 57 151 67 163 87 87 184 116 165 115 117 77 159 135 191 126 115 81 151 115 76 57 116 64
57 75 99 123 135 138 136 124 127 133 152 172 169 176 165 160 146 130 119 141 149 169 190 188 176 163 154 159 170 184 189 197 191 191 186 182 194 202 209 199 176 181 172 186 186 177 152 188 199 204 164 255 142 192 145 175 118 255 142 117 109 107 155 131 154 167 97 142 115 90 57 51 49 76 133 165 135 155 79 73 117 105 95 134 88 80 81 118 84 93 60 67 52 60 71 84 126 137 137 100 100 115 111 116 107 107 109 108 118 106 167 112 125 71 72 105 59 52 84 166 95 189 107 101 112 144 101 159 117 120 108 141 106 70 84 167 73 179 182 79 180 182 168 162 151 86 172 174 87 154 105 165 170 157 99 178 154 107 117 126 78 154 126 169 121 76 75 94 145 99 115 115 179 158 158 144 97 125 146 196 203 160 178 170 152 134 73 145 88 124 198 185 170 171 166 142 162 171 80 99 162 132 187 71 137 87 138 156 155 78 174 101 188 93 67 157 78 105 180 77 80 56 115 141 150 160 153 66 150 87 130 81 86 123 97 133 78 180 98 97 109 101 100 163 146 121 92 167 91 133 178 175 103 99 171 187 198 199 126 122 182 167 168 143 203 219 186 156 238 213 123 120 54 65 153 86 134 67 40 59 171 75 157 128 151 107 119 75 98 79 149 186 177 126 90 163 150 88 69 75 96 112 223 114 171 82 106 141 98 130 255 82 73 121 199 229 123 139 78 172 88 117 99 99 178 67 140 129 112 104 72 93 165 62 117 95 60 69 111 148 181 150 101 176 77 136 165 151 159 150 76 81 150 111 73 181 105 163 161 142 147 125 154 150 153 124 102 255 176 180 163 122 144 66 62 167 115 181 174 119 127 97 169 111 187 129 100 138 160 95 148 121 105 133 122 141 175 172 164 77 54 156 136 109 93 97 119 72 49 160 175 132 143 109 166 103 118 102 122 154 141 106 66 105 139 156 87 102 192 92 177 156 169 170 194 188 191 90 118 71 175 174 172 78 166 181 124 109 166 74 144 198 165 198 99 205 110 77 88 156 137 169 143 143 208 168 182 226 155 111 116 143 97 116 139 93 100 175 194 117 148 130 126 166 121 135 95 153 67 143 156 80 120 176 193 119 168 107 173 92 106 98 181 169 255 76 135 77 177 68 104 107
75 86 105 125 137 140 132 116 129 133 160 176 184 173 179 166 142 122 130 141 151 167 163 161 153 148 151 159 167 186 196 195 191 183 177 174 189 194 198 191 179 160 176 173 175 189 201 191 198 187 169 172 181 172 159 136 118 147 109 161 192 149 86 86 151 141 178 189 149 67 114 75 67 109 114 164 119 97 137 79 74 100 153 159 94 99 75 131 97 53 56 41 57 67 69 72 54 76 108 137 138 124 110 115 112 76 62 84 72 93 161 155 124 99 89 115 79 72 81 94 159 192 111 155 79 149 96 127 105 98 201 83 180 77 68 66 185 200 193 182 169 172 169 145 90 148 104 161 145 114 158 87 171 128 173 172 168 111 59 142 103 164 73 142 122 106 112 129 82 167 189 139 152 134 170 164 100 100 179 145 126 202 155 111 101 186 170 71 74 117 119 103 88 95 59 132 150 169 101 99 108 114 90 114 144 153 147 127 86 106 67 162 153 73 67 172 79 149 167 132 137 134 46 106 180 177 149 90 138 98 168 173 109 185 167 86 152 198 132 123 190 73 153 58 157 144 65 120 119 175 86 120 149 65 157 188 88 196 120 189 174 91 177 94 194 187 219 230 200 93 169 138 44 73 61 64 56 149 119 95 132 162 162 118 105 81 45 137 172 103 86 191 86 186 154 139 53 60 98 117 86 208 167 216 208 90 92 171 98 135 131 122 88 103 121 133 193 109 67 90 135 90 120 120 151 164 130 123 149 139 138 148 107 48 108 57 53 162 64 177 139 130 93 106 156 117 182 173 164 118 161 63 82 162 165 191 174 132 140 131 118 53 38 145 70 155 162 101 99 185 116 182 65 141 131 168 204 217 154 161 131 197 212 127 162 128 103 125 152 79 159 113 157 157 94 85 157 102 55 140 167 118 194 189 72 145 79 48 149 53 99 78 132 101 120 108 69 108 57 134 161 130 80 157 158 56 173 188 208 109 202 102 194 202 189 131 196 95 72 54 116 69 71 94 96 103 196 98 164 194 136 202 193 115 87 202 194 189 75 71 94 92 120 216 191 131 169 121 136 221 145 137 184 197 164 166 137 172 111 201 106 204 160 111 185 208 173 203 80 155 157 168 174 94 168 172 206 116 143 147 89 118 183 130 79 163 78 170 183 154 122 81
82 92 109 128 145 133 121 111 119 135 154 167 169 180 176 170 154 143 140 153 168 180 157 148 136 139 150 162 187 196 203 198 194 185 180 171 179 185 182 166 172 171 171 185 201 209 204 169 199 169 160 191 144 189 172 108 122 133 115 152 127 104 150 170 124 178 135 134 146 127 57 48 98 79 71 133 102 75 255 66 140 134 98 109 104 89 74 61 60 68 103 40 57 77 127 120 56 59 77 101 105 118 122 156 98 100 60 59 82 92 140 116 136 77 73 86 67 91 150 196 97 159 72 166 124 80 139 175 86 128 163 182 76 116 152 81 144 211 206 179 169 168 187 193 129 164 95 89 106 75 81 156 160 164 117 166 83 151 48 60 108 103 105 90 71 163 126 179 157 116 95 129 143 196 183 146 165 94 199 203 140 95 104 121 180 164 50 89 75 77 187 178 126 168 159 50 155 170 93 172 156 196 97 73 170 116 131 144 131 154 91 141 79 162 75 125 96 115 178 134 97 97 105 151 124 179 168 69 49 95 138 160 67 177 174 99 120 193 171 202 87 160 161 55 72 161 58 160 169 113 151 141 58 128 168 155 119 181 99 170 186 177 102 94 104 180 110 105 155 110 106 109 78 75 49 137 91 126 91 122 161 156 78 145 133 125 152 99 167 154 147 135 131 99 181 144 83 55 56 164 190 125 173 153 106 104 194 135 122 113 159 102 182 131 123 136 155 111 99 72 75 81 184 128 74 86 58 63 132 67 124 101 88 124 37 68 91 145 151 170 102 59 136 157 197 255 147 80 103 166 134 67 104 165 201 105 204 163 129 135 118 90 62 27 137 255 75 86 169 179 186 170 118 99 185 202 217 223 176 99 133 167 102 255 172 195 212 180 117 150 187 184 95 164 167 135 88 150 91 50 172 186 92 140 105 158 48 44 111 156 165 74 120 74 47 156 140 171 145 149 57 54 156 140 52 120 73 144 205 200 114 198 99 167 217 186 93 166 56 109 80 142 153 71 95 191 111 202 205 205 188 184 177 153 165 189 154 181 102 140 95 103 163 232 170 236 136 232 117 219 147 233 166 198 132 125 136 158 96 202 172 192 136 170 155 203 119 191 134 92 90 83 85 92 172 145 189 168 127 196 133 91 90 150 162 59 100 180 90 88 166 177
75 87 105 126 140 131 121 113 117 148 165 172 180 180 184 169 159 155 167 156 175 177 170 155 144 142 145 164 185 198 197 205 198 188 175 165 162 157 170 167 165 173 186 200 208 179 167 186 174 167 169 198 205 157 185 163 141 138 145 115 111 159 149 174 175 151 119 186 133 102 133 111 87 71 75 155 84 75 70 140 70 102 115 175 116 104 78 61 43 90 72 72 117 82 115 96 68 87 104 122 120 126 141 153 96 80 69 81 84 145 86 114 84 78 95 82 140 179 198 145 195 113 62 53 63 175 80 113 73 168 92 82 81 137 83 142 107 142 205 140 63 142 173 190 177 66 143 66 161 170 87 172 74 75 137 60 166 69 61 99 70 37 147 64 110 110 106 97 176 160 189 187 98 161 126 179 158 185 209 149 200 99 117 72 159 109 75 46 108 88 122 133 136 138 183 72 158 89 174 139 155 200 94 80 147 80 125 144 107 53 53 62 147 50 146 191 164 133 86 177 122 94 172 190 196 91 172 107 97 81 100 42 143 171 107 198 100 135 210 146 76 167 69 62 173 134 174 117 144 102 121 129 65 155 152 75 80 145 152 66 78 88 114 81 170 76 169 175 168 106 134 47 128 71 141 83 143 67 82 166 164 69 90 107 84 57 127 149 77 88 73 131 191 174 89 80 86 116 80 168 100 118 135 162 186 92 200 117 131 169 119 155 144 214 218 123 197 98 93 75 125 135 147 119 105 146 138 129 37 110 34 42 64 109 34 83 137 68 143 138 121 103 124 72 192 117 144 104 135 96 144 177 90 88 198 194 110 170 92 55 37 73 127 40 71 104 163 155 63 136 63 128 114 166 171 211 148 223 169 91 183 163 171 109 130 204 127 125 189 184 111 101 98 176 172 130 162 117 131 138 156 191 153 87 181 167 91 60 36 88 76 161 61 94 143 94 184 180 128 134 145 165 63 150 46 139 169 111 166 126 141 113 151 140 130 165 99 175 151 55 135 107 108 132 62 129 100 152 108 196 171 64 144 62 103 89 189 168 204 104 215 112 125 196 206 177 199 165 166 112 218 177 234 183 117 86 142 75 151 100 103 110 137 135 138 116 145 122 186 96 148 77 186 178 80 143 82 114 99 201 181 106 162 61 129 65 147 181 157 99 172 74
63 76 97 120 137 130 124 117 128 255 164 186 186 168 179 165 181 178 175 173 174 168 150 143 133 145 168 182 187 193 199 202 194 176 164 149 141 148 153 156 162 163 184 174 195 187 178 171 154 191 202 208 192 160 174 123 107 141 109 113 168 175 108 130 135 154 104 121 163 146 73 66 83 87 118 172 78 142 136 127 157 144 152 95 99 128 108 66 55 56 51 66 86 141 110 132 104 94 95 89 118 119 127 110 108 93 89 109 74 83 112 129 69 87 113 94 104 156 162 163 115 126 65 76 86 181 148 121 71 75 179 90 124 150 183 199 224 148 121 177 75 83 146 148 172 126 62 111 186 94 95 83 133 139 62 162 169 131 110 127 84 129 100 134 176 188 95 125 205 150 137 132 179 115 114 194 188 192 199 160 227 206 180 77 106 44 22 139 67 109 148 144 186 123 200 88 87 180 142 180 189 101 119 121 125 110 101 97 146 147 61 80 105 137 167 90 143 200 100 159 134 172 159 194 101 170 61 146 61 94 119 136 127 133 108 174 170 141 105 141 171 61 164 163 96 85 146 106 202 196 195 91 162 152 141 156 57 65 108 58 152 164 172 84 100 164 74 167 121 108 59 112 138 156 145 158 71 105 163 56 124 97 105 123 128 62 107 75 170 141 69 67 129 198 98 132 157 55 100 106 99 118 211 190 155 91 183 118 146 153 117 143 171 110 103 134 148 150 57 120 144 160 77 125 63 103 113 44 63 53 128 128 36 101 34 69 87 141 135 71 158 161 79 71 179 164 84 195 198 185 170 132 73 177 85 101 89 159 114 146 125 67 101 43 144 116 166 174 87 148 72 107 150 62 175 119 211 204 200 161 114 125 84 153 181 165 198 117 200 133 167 184 108 149 150 104 162 96 96 150 148 195 138 94 137 87 127 100 109 152 111 171 166 94 141 83 172 153 123 81 74 88 172 71 61 53 113 165 169 195 198 205 103 195 124 165 110 133 81 125 140 75 20 129 43 85 194 202 175 126 137 122 67 166 159 100 127 208 123 133 216 151 148 115 216 177 211 182 107 178 114 146 127 101 141 126 173 144 173 101 119 123 99 107 204 156 203 200 132 81 142 84 113 139 155 81 164 124 189 95 122 175 93 127 82 182 191 169 99 192 76 95
72 80 97 118 136 141 135 128 135 139 162 174 176 173 159 168 165 174 172 158 155 138 137 140 148 164 164 170 169 182 182 182 173 161 148 140 136 139 141 148 155 168 175 196 193 153 151 174 167 188 150 184 160 188 187 158 133 92 77 105 140 153 183 133 123 168 163 165 162 88 123 78 132 162 144 100 84 96 131 95 156 176 96 93 106 96 158 89 83 107 76 87 122 107 139 111 113 98 91 100 99 131 105 119 108 79 67 56 81 64 66 94 73 54 105 116 166 138 143 216 124 88 88 155 172 132 190 123 71 129 88 97 89 172 98 214 123 168 136 189 85 182 132 178 145 161 122 176 144 204 96 168 111 143 100 83 134 171 94 146 52 110 43 93 91 166 195 141 123 201 141 178 194 196 139 87 149 175 108 167 199 95 96 143 64 55 126 120 61 83 182 213 217 191 208 99 158 181 161 186 189 215 218 120 92 83 88 164 139 172 182 135 115 115 164 111 189 191 80 91 106 184 148 167 163 114 132 130 135 97 147 159 141 183 182 187 152 200 202 86 85 161 160 174 191 103 214 155 144 185 124 116 148 63 62 64 145 30 69 108 134 142 159 80 173 173 157 103 160 142 177 181 156 72 119 69 101 71 127 57 158 48 47 129 112 122 64 170 74 112 131 103 138 194 145 110 113 67 136 114 128 162 203 145 172 82 130 185 163 211 204 132 184 204 196 197 175 153 67 88 120 94 167 69 78 44 72 39 112 70 65 132 120 119 97 131 134 115 170 174 173 105 111 65 162 67 178 99 155 130 96 88 152 175 165 114 179 123 144 126 70 62 92 116 110 80 182 167 133 81 153 76 148 155 175 87 139 191 154 91 75 175 105 160 163 95 187 123 132 137 83 131 102 135 124 86 69 161 81 159 84 200 204 173 166 180 133 102 106 72 97 84 86 87 131 119 104 104 111 104 129 88 106 165 155 129 73 137 67 165 165 184 128 120 99 114 174 165 156 60 42 32 89 77 150 181 100 156 196 140 69 171 172 137 165 112 127 210 135 156 137 115 136 215 207 187 145 130 153 86 177 159 130 180 79 148 145 102 171 167 111 148 88 129 113 198 204 131 160 64 86 150 108 118 29 39 46 60 106 140 97 110 123 139 116 147 119 201 97 83 86 80
99 98 103 120 142 156 156 147 140 148 155 177 166 156 140 152 135 140 156 156 152 137 150 148 157 161 163 161 160 169 165 172 158 150 145 140 141 146 142 148 157 166 188 198 191 177 156 167 152 146 255 165 154 180 183 206 127 170 152 117 135 117 175 137 109 146 163 100 118 132 123 95 140 69 68 115 80 141 138 96 183 92 91 90 90 100 175 134 100 112 106 98 142 103 100 163 103 118 113 105 84 89 126 89 103 78 100 75 57 63 90 80 98 66 85 125 143 138 140 128 107 122 97 79 84 100 136 86 86 76 189 152 150 197 111 197 180 224 190 190 127 82 155 88 166 61 157 137 185 99 125 190 166 127 183 144 189 165 147 147 102 130 92 86 151 164 180 173 159 189 129 193 161 196 139 95 175 139 164 137 171 186 99 148 134 99 97 68 54 175 189 203 204 130 175 91 196 134 114 186 209 110 175 128 132 193 105 93 184 88 125 118 139 72 170 78 124 143 92 148 174 102 91 130 94 175 101 140 149 120 104 75 150 163 163 142 182 192 191 165 156 55 73 103 198 192 182 210 203 131 98 170 149 163 84 108 147 131 62 48 65 114 45 137 72 71 78 134 127 174 144 117 177 163 125 71 154 96 66 174 107 61 129 149 112 139 78 141 80 76 51 86 55 112 201 195 148 99 78 97 138 159 112 174 70 84 96 117 207 144 121 147 198 134 115 100 176 91 94 76 69 255 140 63 66 80 68 107 115 82 69 93 85 56 71 69 96 150 168 179 75 171 160 155 162 162 77 193 106 106 116 162 149 149 64 77 144 86 136 143 177 171 152 165 67 77 141 178 62 142 77 108 175 68 104 186 107 212 156 164 139 132 73 146 80 162 185 189 194 126 76 159 138 71 109 129 172 84 170 117 86 169 180 130 185 164 156 46 51 111 158 89 134 163 151 177 157 117 195 187 185 150 95 121 184 80 80 73 117 154 132 175 120 192 186 172 165 156 48 58 157 42 142 105 161 78 93 197 195 91 183 121 131 126 184 184 226 229 213 148 214 211 146 118 160 208 113 106 157 72 144 73 133 101 75 81 95 114 98 133 103 67 79 186 169 208 141 189 92 155 138 99 118 118 110 21 73 58 74 191 185 197 167 94 152 145 115 175 145 118 176 80
127 121 119 122 140 157 167 162 156 146 158 158 158 139 137 140 124 132 121 149 158 158 173 170 173 159 175 162 158 155 165 172 164 160 153 163 166 164 158 157 154 182 190 200 195 187 173 132 131 129 131 173 137 157 167 216 187 168 133 151 149 159 177 112 103 172 119 101 117 93 99 97 129 75 60 70 110 120 117 97 91 123 76 79 89 167 104 104 128 121 111 101 126 106 78 140 85 73 77 60 67 55 80 107 76 45 50 89 111 75 89 104 113 64 83 96 156 102 100 186 94 98 88 95 143 97 178 129 72 72 107 99 107 208 176 146 230 212 104 188 82 81 169 70 83 175 113 164 177 167 158 77 142 154 99 152 153 89 192 177 149 97 156 121 125 146 128 110 190 119 137 124 116 180 107 165 133 103 75 182 98 127 172 50 128 145 85 59 59 152 163 93 191 134 91 86 187 184 114 132 207 127 218 138 212 184 190 104 125 110 139 175 181 174 171 120 77 145 91 155 145 104 158 171 90 75 152 65 113 167 92 189 144 168 85 156 127 151 173 171 75 170 171 187 108 170 224 211 206 131 70 142 63 70 166 172 58 51 66 100 61 92 149 118 163 162 58 82 255 172 143 184 157 148 88 120 79 166 159 73 73 149 117 172 105 144 91 177 70 147 70 149 58 107 117 101 255 97 84 91 149 125 77 77 102 93 140 112 106 97 191 186 91 123 202 167 187 158 151 116 175 83 119 81 57 165 147 194 86 84 78 64 132 71 85 85 149 121 180 138 108 81 154 150 69 121 84 191 199 101 143 160 74 120 99 139 94 104 183 198 100 194 157 150 156 133 115 173 151 182 123 116 121 158 167 90 95 207 133 137 98 191 177 96 114 173 124 191 160 106 110 104 73 127 165 102 127 149 165 147 119 198 171 108 168 114 144 74 114 77 134 142 184 165 173 93 172 88 165 186 92 115 171 182 197 185 101 155 143 63 168 77 100 103 166 83 91 110 53 162 177 113 133 166 119 187 150 168 98 172 201 178 102 195 209 111 150 200 152 125 205 196 203 164 198 176 92 68 66 64 51 94 133 150 164 172 84 84 118 141 78 166 95 112 98 173 137 162 65 151 136 128 134 126 16 65 111 85 185 122 140 177 174 177 178 107 205 127 108 191 125 144
142 136 132 135 143 160 162 164 154 152 149 143 139 142 135 145 135 131 129 152 175 190 187 187 168 172 173 182 180 177 178 176 176 169 171 180 179 183 172 156 171 183 166 187 180 187 174 143 118 139 160 140 130 165 163 207 188 182 188 117 126 184 141 108 135 136 103 173 169 107 134 125 107 72 118 99 67 104 98 131 85 64 77 86 151 123 102 94 95 118 94 95 100 76 112 74 83 82 74 65 107 96 102 79 95 255 44 101 51 57 111 53 123 58 85 96 107 149 147 144 154 142 160 92 104 99 76 64 118 117 121 101 195 186 118 132 218 212 207 193 103 71 103 132 130 133 112 83 85 166 137 70 164 151 142 148 192 183 157 100 159 106 160 156 151 149 147 125 100 108 132 148 157 107 104 110 184 96 95 132 163 174 175 101 96 172 119 117 121 152 142 77 143 155 184 146 80 83 156 92 210 205 174 222 121 213 207 182 77 170 136 90 80 77 175 70 159 75 87 82 80 160 59 63 157 96 161 92 181 101 96 124 163 100 104 52 155 104 202 112 113 86 175 188 202 188 208 203 186 157 138 70 177 166 95 82 68 136 28 31 84 96 149 161 141 83 124 101 52 71 100 187 184 186 78 178 174 92 132 142 155 136 124 68 115 74 113 187 127 99 102 124 71 65 177 184 100 118 189 146 122 122 74 76 191 152 212 117 127 116 159 113 95 209 150 127 132 145 216 107 80 60 53 114 152 121 142 131 132 93 123 58 145 166 90 151 178 94 155 172 194 140 115 72 112 167 72 107 99 183 174 181 85 160 112 168 142 118 145 112 218 211 117 141 183 82 101 134 114 190 161 105 112 79 105 106 129 165 191 182 190 138 180 106 149 97 70 108 156 107 138 165 163 128 125 81 80 130 169 64 148 101 94 107 113 100 69 155 136 71 149 87 170 135 146 89 161 131 166 78 122 170 133 163 180 87 86 172 169 136 183 191 173 202 119 170 71 68 99 115 173 116 172 190 153 206 194 96 92 108 187 151 138 82 180 201 141 145 156 152 202 154 199 121 109 111 170 165 139 48 141 116 170 123 175 88 83 87 77 147 139 129 178 125 138 80 137 168 153 144 42 137 44 63 75 69 109 171 184 124 103 107 81 104 63 162 97 132 119 94 90 124
142 142 144 144 141 150 157 157 152 146 146 136 144 143 139 147 144 149 147 165 170 197 185 189 173 176 172 188 185 190 191 191 183 183 174 182 189 195 190 184 175 176 179 160 173 156 167 143 143 126 133 165 180 147 131 137 196 137 178 183 183 170 158 103 121 91 115 74 68 143 126 57 83 61 74 87 84 83 106 87 124 118 59 102 155 107 114 82 74 89 73 75 60 93 88 58 117 122 66 66 86 66 59 68 51 95 72 65 123 95 100 94 106 63 76 84 101 80 64 63 134 92 143 159 96 90 113 72 125 68 95 211 122 170 212 205 222 149 172 100 84 75 70 169 138 174 174 170 180 140 96 127 71 177 121 199 134 157 91 126 130 154 155 141 116 69 140 118 150 148 132 182 179 153 171 85 94 97 97 169 189 104 117 145 68 108 104 168 81 126 132 75 187 187 130 176 74 79 169 174 220 174 215 124 126 131 126 109 152 85 118 133 135 79 151 163 73 130 101 167 87 129 141 114 160 95 82 157 100 197 111 135 107 115 149 98 133 206 214 128 119 195 150 127 92 189 82 150 115 168 152 60 178 176 110 154 146 150 63 74 130 80 67 161 113 66 102 101 108 158 188 108 120 199 186 150 182 111 152 123 104 99 81 169 111 92 126 94 130 182 179 56 84 110 87 133 84 92 76 78 104 78 68 144 197 209 111 188 133 92 91 153 194 111 179 113 189 130 127 116 164 94 74 75 96 81 136 157 205 182 75 147 108 153 180 75 82 92 125 77 81 104 88 117 108 98 184 89 187 138 79 102 150 182 112 146 95 155 103 124 203 191 191 121 161 162 172 144 113 92 142 92 145 104 157 129 192 196 100 131 96 165 162 77 156 107 101 83 141 100 93 125 170 61 166 107 159 103 86 160 76 72 122 91 163 150 63 127 165 70 175 116 97 89 81 187 100 79 74 152 116 182 111 90 191 179 139 172 106 172 112 103 182 122 154 168 104 70 159 153 193 190 79 193 120 122 201 166 182 81 182 179 76 179 77 81 159 90 153 156 83 91 191 106 186 176 166 61 48 43 72 94 146 84 175 92 62 73 156 48 43 153 107 152 150 68 124 140 161 57 60 46 139 105 151 137 128 138 158 106 118 190 154 110 167 75 105 194 132 112 107 120
145 149 153 149 143 142 134 140 136 147 255 138 134 131 138 162 166 176 168 179 179 183 189 180 174 165 163 184 187 187 189 191 189 184 180 182 187 191 189 183 177 169 165 153 162 153 172 151 128 146 153 128 143 174 164 168 178 149 149 195 126 122 122 154 136 145 124 132 123 137 130 82 116 143 90 117 84 118 66 68 57 95 121 152 88 143 82 104 99 64 74 66 61 58 60 54 55 71 96 121 121 101 80 107 111 78 128 111 82 110 65 49 114 41 143 79 107 110 67 131 128 97 87 114 95 81 165 54 94 80 197 122 208 171 193 122 220 136 168 119 105 93 158 139 121 64 176 156 75 93 150 56 170 141 197 157 162 64 116 43 154 143 154 69 85 64 110 93 80 163 130 128 189 89 89 157 153 156 176 174 100 84 138 74 62 107 85 164 91 168 110 119 145 104 149 127 159 168 123 205 152 143 139 233 220 111 184 162 82 138 119 94 73 84 181 179 128 65 151 90 63 62 72 73 160 78 140 115 115 111 181 75 96 68 148 168 184 158 211 114 191 191 199 98 175 122 174 168 169 110 81 153 139 106 208 105 91 163 130 90 138 158 175 103 148 86 109 110 157 167 141 146 169 171 199 195 155 154 67 145 83 55 53 68 100 98 119 178 118 158 148 78 122 57 94 186 95 121 81 161 72 82 179 83 99 172 129 129 97 141 144 153 114 146 129 149 156 108 213 207 183 84 99 67 153 78 119 180 88 159 126 162 101 122 188 129 73 94 61 71 141 135 83 189 177 98 199 105 186 172 173 148 146 182 94 129 168 195 189 112 179 109 201 159 182 166 165 115 186 137 136 88 122 175 188 109 82 135 140 74 162 152 175 135 141 60 109 32 68 43 105 134 111 114 112 133 151 128 172 91 125 68 123 160 183 162 168 98 86 83 147 155 102 163 91 179 157 161 152 94 180 92 194 117 158 88 68 70 60 82 147 107 121 86 69 101 53 87 109 188 92 149 78 98 156 202 174 164 103 118 155 74 73 107 84 161 149 255 72 76 149 124 183 123 111 145 101 76 160 169 139 129 166 92 103 77 53 102 76 119 57 46 107 93 70 134 157 158 95 74 111 41 106 174 120 107 144 164 181 178 131 192 185 116 144 110 94 76 109 102 109 76
149 154 159 154 142 133 130 132 137 136 138 129 129 126 128 145 176 179 182 174 176 177 177 168 168 165 168 176 185 190 191 192 186 190 185 192 179 181 182 166 166 153 160 169 173 175 165 141 164 156 141 120 150 120 132 129 145 165 175 191 132 187 131 122 115 114 147 79 141 80 47 80 105 153 109 105 133 138 82 75 129 89 119 77 86 85 91 60 58 135 78 74 75 58 59 48 68 84 109 97 99 112 104 100 94 99 105 90 93 91 97 64 102 61 96 116 92 139 134 143 68 85 82 93 86 133 71 65 69 162 90 200 111 162 123 190 111 211 211 225 203 177 181 76 170 158 104 183 105 174 94 152 170 190 144 183 105 88 105 95 141 160 184 108 138 109 105 114 146 154 171 167 149 184 172 69 59 82 99 195 130 113 86 147 149 101 65 88 76 138 117 58 157 149 154 131 66 85 90 192 161 234 231 228 112 198 82 133 146 124 83 159 178 172 97 81 83 157 135 146 126 131 64 145 178 97 209 206 184 158 128 167 103 107 47 101 158 205 151 139 207 204 176 104 150 82 110 70 174 106 59 119 150 108 198 111 187 86 125 144 72 148 91 162 79 166 98 108 179 134 102 111 196 150 182 112 181 123 155 78 130 60 107 139 110 62 154 152 108 124 107 56 77 65 164 135 140 81 80 83 65 71 80 136 148 93 97 178 113 149 125 124 133 211 103 163 190 194 99 97 167 109 68 61 155 87 71 145 56 129 107 54 110 101 154 156 180 68 163 65 168 75 166 99 200 137 135 172 153 134 135 148 114 164 108 118 126 210 214 117 122 145 200 175 96 179 126 157 185 108 142 168 176 163 125 83 77 156 52 79 88 157 66 160 106 61 48 144 74 114 176 116 97 33 122 59 80 104 104 137 85 138 112 97 175 76 76 97 153 154 89 146 105 194 163 168 66 128 103 129 188 131 107 100 184 142 153 90 50 120 181 159 193 140 113 68 98 169 98 90 100 152 76 178 77 189 83 84 51 82 154 171 184 126 158 160 174 103 147 139 48 101 166 141 169 149 173 85 167 77 177 90 157 76 72 92 65 76 124 89 57 113 110 64 158 88 97 189 170 90 71 61 129 176 81 176 89 144 120 156 200 155 81 193 185 136 70 72 89 166 116 90
158 163 164 156 142 137 123 131 136 151 255 137 133 134 142 156 180 175 186 166 175 175 176 167 163 160 167 168 177 186 179 172 176 188 193 198 177 174 162 170 164 160 163 177 191 197 204 173 182 163 138 152 107 142 143 129 147 115 191 146 154 174 116 107 89 70 95 68 84 82 61 67 69 98 111 191 110 124 131 130 149 70 76 97 83 76 129 79 89 78 90 88 99 64 65 59 75 80 117 93 98 133 146 118 138 121 128 130 131 114 139 84 71 45 52 138 79 67 126 75 66 102 163 86 94 173 173 73 141 181 178 80 108 105 155 92 117 235 212 217 198 188 86 161 181 170 166 192 172 78 90 153 79 189 193 198 188 165 96 87 113 150 196 200 95 184 174 182 168 161 161 122 142 183 123 132 63 87 190 149 148 197 138 42 112 129 122 62 176 128 174 59 132 50 62 153 123 146 84 120 142 151 182 127 112 181 143 142 79 132 132 85 99 180 164 82 94 66 99 48 149 148 122 159 97 194 211 192 181 206 174 102 166 145 107 116 162 122 161 101 189 190 132 168 84 188 87 187 182 175 61 107 153 164 182 153 199 82 162 171 82 167 83 153 100 167 98 78 137 118 112 179 165 172 111 100 69 90 169 100 182 142 132 169 101 71 87 87 189 84 84 67 89 114 113 149 84 75 70 71 87 96 150 187 116 73 139 98 178 87 131 112 123 204 158 125 73 110 107 85 103 154 68 108 101 60 157 50 147 145 117 148 159 77 116 100 94 176 80 171 80 113 129 168 201 166 106 99 93 190 134 80 57 67 90 172 109 127 103 117 206 114 93 163 138 132 113 73 131 198 184 83 88 127 133 182 62 61 62 78 53 47 72 194 116 198 82 133 176 83 89 152 71 46 88 145 72 100 99 92 93 66 87 156 84 167 79 44 50 109 142 193 165 157 98 85 131 153 112 134 184 194 96 125 157 172 165 133 114 48 120 139 115 74 49 142 112 160 176 92 87 106 137 90 67 172 169 159 62 68 170 140 132 115 79 78 175 147 129 53 148 144 177 163 148 114 117 109 74 163 166 169 127 87 124 158 184 171 113 116 92 83 65 170 82 185 111 113 80 128 50 41 161 74 84 178 183 178 122 159 184 108 186 154 167 101 172 117 135 149 180 124
154 159 160 156 150 142 139 151 150 162 160 149 146 138 138 166 172 158 150 153 156 183 185 183 186 182 181 189 180 184 171 161 157 179 193 194 179 161 163 162 162 144 168 168 195 212 192 186 195 166 140 154 108 121 121 99 125 183 193 167 192 173 141 118 72 134 133 160 131 89 147 101 102 138 116 111 184 177 129 119 165 88 73 102 97 124 55 76 57 78 83 140 91 77 66 117 82 76 98 134 92 115 91 139 163 128 133 105 95 128 104 100 88 70 95 63 71 107 113 47 153 102 87 136 96 123 84 130 148 67 108 72 56 77 63 126 157 202 212 182 188 185 87 89 190 79 188 190 175 105 115 176 105 134 183 164 83 184 136 128 125 204 150 154 129 116 189 146 145 106 124 191 186 190 177 66 157 92 113 151 108 187 180 51 85 68 90 122 64 155 85 170 160 88 119 157 59 127 116 106 108 195 134 177 143 105 116 117 144 131 131 154 82 89 185 169 86 74 157 49 145 110 148 86 97 115 205 202 195 204 200 117 121 55 113 152 175 191 167 185 166 120 140 177 188 129 181 138 125 140 154 153 90 74 157 95 174 96 196 113 82 176 139 169 172 131 189 193 121 157 112 153 82 168 84 53 73 173 165 162 106 162 125 171 82 147 96 132 134 76 84 137 73 99 85 80 82 148 63 65 101 147 131 93 143 84 173 135 174 141 164 85 155 115 188 96 177 114 84 112 151 105 60 54 164 122 139 115 150 124 53 52 67 121 67 167 116 94 102 115 178 114 156 191 78 173 95 86 84 95 143 78 141 51 69 187 199 145 193 158 109 204 106 104 154 116 131 92 148 131 179 91 185 195 105 164 124 140 129 116 122 86 175 137 167 154 115 174 129 124 103 109 102 145 133 58 101 95 145 204 148 181 139 132 155 255 97 99 136 140 80 177 194 150 169 111 160 138 189 207 111 201 123 173 124 147 140 117 58 57 94 67 80 161 83 64 171 146 130 138 186 76 171 93 116 57 55 83 77 167 160 188 78 166 80 80 171 135 71 144 107 164 110 188 157 202 161 130 110 148 127 140 190 109 122 116 205 179 152 92 111 128 113 97 90 105 97 151 105 163 153 91 79 162 76 92 128 119 85 112 172 182 84 177 97 192 125 89 124 94 82 177
141 149 152 159 157 162 170 179 169 165 165 155 147 167 169 176 166 155 138 156 168 179 199 206 190 194 186 195 192 180 163 150 151 170 183 179 171 160 162 163 153 161 164 191 216 228 223 192 154 174 155 139 147 97 90 121 109 167 215 205 160 133 102 73 128 107 126 98 160 148 71 147 74 87 147 84 84 92 155 101 165 98 152 81 83 79 127 50 58 101 125 69 132 109 69 64 79 106 67 62 94 102 101 119 122 123 128 93 108 78 101 134 119 109 109 62 134 42 31 68 97 83 131 197 158 101 139 85 117 133 58 52 150 42 68 82 97 186 95 72 167 153 188 190 102 133 186 86 187 180 171 188 203 103 119 144 92 103 182 202 218 227 171 201 128 166 178 183 127 182 195 117 194 138 106 164 104 167 156 99 196 130 168 142 50 153 133 89 83 139 153 176 136 70 89 80 94 114 110 168 162 178 81 133 68 118 47 152 68 113 56 145 58 93 199 188 157 171 65 92 160 62 175 189 106 99 147 154 135 179 188 192 123 156 94 152 71 87 84 176 102 96 57 170 187 130 128 220 124 207 131 139 88 134 153 177 177 119 191 176 183 172 138 165 138 162 149 184 82 133 78 77 148 86 64 130 156 169 166 129 153 85 108 68 71 82 150 179 124 70 81 136 178 75 78 82 118 174 95 133 149 122 54 74 162 120 112 87 117 94 103 72 172 182 184 76 139 183 101 169 54 60 44 60 136 111 152 135 86 131 98 60 83 59 89 69 132 197 156 194 193 124 85 174 169 148 148 180 183 78 167 142 142 97 153 167 173 154 127 188 171 86 160 178 75 107 141 186 198 115 93 102 93 104 191 191 152 127 140 137 75 90 113 110 193 132 148 189 204 155 180 158 164 115 142 75 176 92 156 124 104 139 79 73 76 40 94 92 43 87 68 166 175 155 94 153 158 136 203 184 205 137 183 147 142 141 161 114 53 77 174 85 95 84 165 81 147 151 183 181 88 172 151 162 146 107 132 169 185 185 116 140 171 163 74 108 134 88 173 141 139 169 110 116 94 94 206 101 177 133 83 192 197 98 113 143 152 185 120 114 162 183 124 74 116 125 90 182 173 81 108 108 68 135 142 125 93 79 105 145 100 176 182 206 213 197 119 106 192 194 107 165
117 128 139 155 161 185 192 196 191 174 154 154 161 167 191 192 177 148 143 146 168 193 211 208 193 188 177 180 167 169 155 153 154 170 173 169 161 161 169 173 170 157 153 164 214 193 196 189 188 169 125 103 132 91 111 123 133 186 188 175 184 127 106 82 109 101 118 72 107 114 151 129 165 103 147 143 105 115 77 88 85 142 133 151 91 113 104 55 76 50 71 97 119 85 92 84 92 84 64 64 98 85 69 99 98 123 136 117 133 119 66 82 119 170 143 104 49 31 59 55 68 92 181 127 110 110 159 97 67 155 51 147 30 34 133 63 89 86 136 103 141 124 87 91 87 82 109 71 169 115 172 152 117 183 206 196 194 193 157 195 190 134 182 203 189 255 157 116 157 99 192 143 136 195 151 109 114 130 174 104 194 147 157 159 63 141 149 102 157 161 84 76 159 138 77 78 40 155 86 73 170 76 154 93 48 38 41 148 147 110 162 144 103 75 126 111 156 186 172 127 158 82 167 77 111 86 91 164 170 91 98 187 171 145 145 179 106 91 177 166 89 151 147 58 131 205 120 162 130 181 203 138 136 143 54 135 180 164 155 157 189 85 184 142 180 179 103 122 77 131 88 132 126 154 97 93 91 127 102 114 173 120 123 88 83 97 155 85 148 66 71 87 107 178 93 102 146 160 82 84 68 148 48 89 105 85 143 158 104 117 83 58 64 117 81 79 115 80 146 137 63 106 68 148 71 122 143 92 66 115 113 122 70 100 28 46 71 93 172 87 161 169 148 66 68 62 162 157 130 144 166 146 51 127 173 105 104 97 144 150 99 79 184 189 91 174 106 124 117 93 103 182 96 115 99 90 84 157 77 123 104 148 170 204 185 173 185 198 106 87 187 105 177 73 58 69 151 101 128 111 205 189 168 117 38 114 80 91 160 78 101 82 81 80 48 58 157 142 115 212 111 135 92 73 154 97 58 146 149 96 126 193 194 161 185 181 92 136 160 73 144 123 92 185 169 148 73 170 182 192 93 129 85 60 87 175 173 94 147 104 167 106 67 166 108 160 192 105 131 197 167 114 122 168 142 179 203 198 116 161 108 165 139 167 129 143 80 105 120 207 160 88 163 58 72 140 39 155 85 165 113 193 191 119 120 116 123 190 207 100 122 103
95 108 123 144 164 183 190 192 182 181 167 162 167 177 195 200 181 158 136 147 161 194 205 204 187 186 175 165 159 159 158 163 174 180 181 170 161 166 167 177 162 170 169 179 211 209 210 196 174 164 143 104 143 135 75 103 164 187 148 196 176 172 149 109 70 74 75 125 123 84 174 130 138 157 76 83 73 63 151 70 103 79 79 81 87 83 81 61 50 93 51 66 70 103 80 83 99 84 62 117 108 101 80 124 96 101 131 118 125 81 75 78 96 101 102 133 38 109 29 39 75 71 107 121 113 115 200 90 71 66 106 110 119 36 92 133 58 154 144 103 146 168 92 151 184 84 182 157 170 164 172 164 199 205 187 191 91 159 192 211 164 144 178 192 197 202 127 157 96 178 172 173 97 118 206 191 84 90 128 158 168 139 159 72 142 184 122 164 78 84 181 146 166 59 125 144 48 162 175 177 150 87 170 168 83 141 60 60 83 106 100 110 156 121 166 155 95 94 67 144 146 86 120 182 112 162 146 86 150 91 158 145 110 116 189 114 168 112 164 168 112 57 96 165 159 186 124 176 107 110 208 178 188 74 102 125 179 114 190 153 93 171 83 91 166 151 128 85 100 81 85 190 142 86 137 156 82 92 67 150 69 156 82 67 73 111 70 95 86 71 80 177 97 106 195 169 96 119 158 126 152 119 52 44 90 177 116 117 116 93 67 105 74 125 103 128 145 146 129 173 79 68 63 56 65 135 92 170 108 121 135 69 52 41 136 98 152 170 74 116 185 80 109 65 58 85 117 97 197 188 69 62 78 81 186 122 96 184 81 56 160 163 128 174 180 158 90 158 130 160 117 174 177 157 94 191 95 65 86 157 86 195 198 163 156 189 178 157 168 76 77 76 163 89 172 46 122 53 82 186 88 133 86 70 52 46 133 165 72 101 184 122 155 108 147 92 107 129 118 186 205 106 163 170 69 135 62 77 47 69 188 151 122 128 108 104 111 86 90 106 86 185 186 166 96 140 79 127 175 92 180 69 121 162 160 172 196 191 117 77 180 97 95 83 130 112 80 182 184 190 217 216 168 104 136 185 153 175 198 204 129 146 194 80 167 157 81 86 150 144 212 128 83 67 84 124 131 54 106 143 185 186 132 152 209 215 136 214 163 84 130 100
73 87 105 127 148 173 182 183 178 176 178 162 171 182 214 208 192 171 166 151 151 171 193 201 182 182 168 142 146 153 173 190 202 197 190 183 176 179 174 181 179 184 195 205 199 203 199 161 170 144 136 143 128 129 136 125 122 138 152 158 193 140 175 141 115 70 136 97 133 109 136 115 103 95 143 82 107 83 74 64 73 141 110 77 73 79 82 66 73 39 48 57 138 87 92 107 79 79 106 102 98 122 97 100 109 111 111 130 75 96 62 73 135 181 119 63 56 82 38 66 65 147 80 93 144 117 201 176 82 121 56 89 141 45 152 140 158 48 38 141 92 145 138 112 156 97 179 187 107 89 180 159 127 177 188 98 125 159 201 154 204 182 140 168 93 136 183 107 98 135 117 144 130 197 175 111 113 175 134 165 54 81 107 68 132 165 186 92 167 113 145 88 107 171 116 127 162 167 86 168 176 154 151 172 151 131 162 171 77 97 173 172 167 179 190 93 187 82 158 140 255 87 94 160 163 157 51 38 73 152 162 72 180 154 148 159 150 178 149 191 161 79 119 143 84 93 179 122 188 175 192 198 168 71 140 123 255 186 113 142 104 158 120 189 175 99 172 121 173 186 187 175 128 176 103 76 69 154 48 43 76 136 139 143 117 73 103 159 70 66 141 97 92 89 91 102 105 104 92 86 173 52 133 45 70 88 96 129 137 141 111 107 81 133 178 180 79 180 138 104 99 187 133 65 165 62 98 69 178 93 146 101 121 76 45 157 87 75 140 67 65 142 69 166 80 94 198 204 178 84 72 123 154 101 184 130 98 102 143 139 159 106 115 80 112 167 138 66 164 106 66 158 78 137 142 162 156 51 62 59 90 145 209 194 162 86 61 163 101 99 151 175 95 94 161 90 83 132 119 166 143 79 99 158 69 69 64 152 96 96 200 182 92 122 124 102 155 88 136 78 199 165 114 196 116 155 69 114 53 60 75 196 155 212 206 206 156 184 95 191 96 192 139 182 179 176 167 173 163 168 97 62 76 161 186 190 188 73 151 64 144 179 180 181 162 155 126 186 178 140 168 119 193 182 105 96 100 130 95 106 93 118 200 156 106 79 158 73 178 115 172 202 193 82 168 95 83 61 169 78 176 186 93 109 164 157 211 182 88 87 94 142
59 70 87 113 134 153 161 165 165 172 175 172 176 183 212 214 199 189 173 158 158 169 177 194 191 181 160 151 146 164 185 207 214 208 197 190 186 188 187 184 170 184 192 214 207 179 165 178 172 134 140 150 135 153 152 145 158 122 146 179 141 125 177 128 146 90 100 141 151 131 183 195 116 154 194 142 146 120 86 153 92 146 151 67 59 143 72 112 96 96 112 58 76 86 120 86 87 82 90 125 97 128 109 110 124 128 176 157 113 81 106 72 142 100 177 118 56 86 108 88 112 150 64 73 175 86 197 177 84 145 38 114 64 87 171 171 61 74 112 105 84 71 190 186 147 155 101 95 186 182 186 166 94 111 135 90 182 125 177 157 126 193 125 178 179 155 139 187 150 147 148 90 172 188 199 199 187 153 115 160 153 144 46 153 160 184 112 202 182 110 94 75 91 107 109 74 88 183 188 155 83 105 150 94 128 115 161 158 165 93 166 186 100 137 85 135 94 156 149 119 147 108 97 108 171 134 140 85 143 106 105 128 92 188 207 199 108 198 181 188 178 135 255 174 190 197 158 97 104 164 188 115 191 98 131 71 174 97 142 175 164 132 81 135 80 118 197 117 124 94 175 100 80 164 81 141 147 60 42 90 110 152 65 114 70 173 140 82 76 150 187 139 76 121 81 79 78 118 175 67 121 150 144 63 95 70 85 154 201 122 180 137 95 102 182 117 159 71 175 107 96 127 133 75 112 110 156 71 177 78 75 122 68 97 154 161 133 164 144 82 56 159 111 160 182 88 91 110 83 75 75 178 127 93 185 95 197 185 174 91 74 153 73 133 72 147 115 143 90 151 80 140 88 67 161 104 77 134 68 109 86 103 191 107 69 98 67 120 61 111 80 86 194 155 178 105 23 34 32 64 152 156 99 99 80 154 86 182 187 121 140 199 89 151 72 165 129 115 62 137 113 208 121 141 186 89 183 168 152 149 114 127 152 162 216 222 135 202 198 109 124 88 170 135 141 84 179 182 173 140 67 168 70 186 153 169 181 63 161 53 121 182 185 183 137 81 141 100 201 143 206 154 173 98 64 171 106 199 197 181 93 149 104 92 123 76 122 64 180 180 180 171 103 99 198 192 79 66 105 86 167 95 196 183 190 106 115 94 94 107 92 114
59 66 81 97 125 142 146 147 155 164 159 167 175 184 196 203 213 193 181 162 156 173 186 198 184 173 166 152 158 171 194 211 216 204 196 186 195 197 195 182 200 208 218 216 182 165 172 144 156 160 155 164 173 182 127 172 169 185 169 179 163 164 143 165 114 123 117 98 140 142 183 112 189 120 172 192 177 82 84 157 84 102 144 129 64 112 60 66 95 42 58 120 105 92 91 139 102 104 113 102 86 115 79 115 129 181 112 90 64 60 76 66 79 131 108 114 69 79 141 129 98 83 74 141 78 127 104 143 90 46 140 120 69 132 184 75 98 66 56 60 60 108 135 95 205 190 160 195 98 99 166 111 148 132 128 118 96 206 105 186 164 129 152 184 186 177 182 194 192 181 138 148 139 181 118 140 188 192 166 147 84 151 53 80 85 89 194 175 93 187 163 133 157 153 149 90 190 95 94 177 142 148 91 77 160 59 163 125 79 72 144 144 158 157 76 58 155 95 143 76 79 148 124 65 160 115 130 32 133 118 78 143 68 70 198 187 122 203 203 186 225 168 198 143 139 182 180 96 65 142 85 134 166 164 78 123 183 145 183 128 88 105 120 162 129 122 122 127 141 72 164 125 143 159 160 164 157 66 137 148 51 149 162 145 73 77 169 137 137 78 98 173 97 77 64 67 173 144 103 171 72 64 71 154 76 153 79 75 82 85 81 171 109 132 111 92 76 87 183 191 160 106 93 57 45 82 54 65 76 75 83 81 128 170 70 73 160 119 139 132 136 154 56 91 83 186 125 159 146 79 114 173 197 131 204 98 203 154 141 121 153 58 164 76 146 105 70 95 114 114 145 152 150 108 98 125 130 38 102 158 175 141 179 112 126 118 140 162 74 84 104 174 176 89 136 62 63 91 32 51 101 88 154 98 110 127 84 143 94 116 211 152 141 112 94 163 171 176 156 130 103 194 91 130 160 147 93 167 82 163 134 84 133 100 220 172 139 207 150 114 136 172 111 145 77 99 114 87 186 174 157 140 140 189 129 176 103 110 73 156 80 178 138 163 117 161 155 189 209 213 101 125 80 76 121 174 106 94 185 197 107 167 189 102 112 147 111 68 103 83 112 99 103 197 134 156 117 89 156 147 148 97 149 87 102 168 210 104 100 87 129 119
71 72 79 97 118 135 148 136 139 140 149 155 174 191 208 216 219 210 182 173 172 169 182 195 201 192 162 165 153 172 190 209 204 193 183 180 187 198 200 188 194 201 202 200 194 179 170 144 149 141 128 123 176 177 209 185 210 185 137 135 124 108 181 181 126 157 132 181 157 160 73 132 100 168 141 158 136 144 120 168 84 112 96 71 107 123 65 123 126 59 65 140 128 104 102 117 128 119 130 126 71 92 104 134 128 140 86 74 71 50 68 77 90 80 108 86 97 114 101 159 115 107 114 53 171 81 193 189 175 166 117 97 143 106 134 125 68 121 170 66 71 68 160 187 136 109 123 177 64 66 77 163 155 142 148 135 174 180 199 185 151 156 108 140 74 188 175 210 126 199 117 169 255 110 104 188 179 145 112 84 143 108 42 51 145 178 188 186 89 159 160 70 134 116 90 89 146 90 166 150 148 153 99 138 136 66 125 126 83 169 181 182 107 164 106 63 107 117 161 88 171 162 107 170 132 142 49 74 54 143 86 71 63 94 171 103 120 129 218 116 220 198 193 98 191 98 112 160 156 66 167 174 191 83 149 100 181 80 78 148 145 162 164 167 174 166 89 163 118 94 85 170 161 137 130 80 103 122 143 123 109 52 65 112 149 118 93 172 155 125 152 107 151 84 60 98 92 120 138 88 142 84 63 96 97 81 162 80 72 88 143 114 63 55 161 57 92 163 91 101 135 88 58 44 133 108 149 60 99 170 78 63 157 149 117 169 55 158 157 155 56 79 51 160 69 157 176 65 59 74 96 87 207 189 218 181 134 138 123 82 76 92 100 151 82 152 104 71 66 66 99 147 50 103 158 162 65 46 90 146 92 111 161 67 60 145 89 92 98 115 134 209 110 85 99 138 123 72 74 145 77 197 150 188 174 132 113 81 148 150 222 138 102 99 106 110 154 102 143 77 74 67 98 98 89 167 175 199 79 156 95 167 83 164 147 101 178 146 165 168 167 57 148 114 92 102 162 95 179 111 70 145 127 195 133 140 176 101 142 152 91 82 89 146 88 117 109 180 188 151 185 132 146 174 62 70 102 88 201 99 193 131 206 209 194 84 102 94 85 158 93 174 115 188 212 138 189 143 163 121 215 164 104 111 106 111 145 164 119 186 64 43
98 92 92 104 130 142 148 140 129 118 126 146 182 186 207 219 205 201 172 174 166 181 195 198 187 179 169 167 155 177 189 188 191 172 166 160 171 183 196 199 197 191 185 187 189 165 158 155 136 145 110 109 144 167 188 215 213 178 156 159 154 111 165 120 161 96 160 119 119 105 75 77 76 156 101 140 159 94 89 80 87 79 128 76 78 134 132 65 95 112 124 92 98 109 116 137 155 111 112 86 125 77 89 79 133 128 105 60 71 52 63 68 141 74 103 110 85 92 181 118 206 93 74 65 113 82 109 96 88 114 154 169 149 97 189 119 141 185 178 89 87 171 100 171 178 184 139 160 41 49 143 176 200 101 175 185 103 204 122 172 136 147 255 126 79 106 191 179 208 172 209 198 116 132 153 93 131 165 138 154 49 118 127 150 149 117 74 87 88 166 116 152 89 112 69 150 172 138 128 157 66 57 99 154 141 128 59 55 82 142 144 158 149 143 81 152 142 147 175 86 124 173 170 71 72 81 140 93 167 171 127 49 42 135 138 195 111 107 114 186 152 188 84 124 119 161 75 160 134 131 168 107 83 195 122 176 156 141 119 141 161 146 179 79 167 86 97 79 117 136 54 91 159 154 188 127 170 151 70 143 38 51 53 159 162 168 156 158 161 138 153 93 108 155 67 132 176 78 114 204 196 131 64 78 75 94 109 135 112 118 81 69 58 150 61 76 80 98 132 142 122 104 49 50 15 128 73 86 102 74 89 154 55 71 68 129 63 101 129 51 40 76 129 145 62 144 75 126 71 126 146 94 187 123 224 220 188 134 115 183 134 78 105 176 184 185 133 255 125 64 65 72 143 147 75 105 117 94 90 75 70 85 57 54 39 136 109 137 215 219 217 215 196 142 98 50 111 129 132 166 101 171 179 175 182 190 85 194 201 117 155 138 89 142 167 98 175 109 180 128 61 92 71 42 77 100 125 194 107 159 160 59 142 57 160 141 131 151 145 139 57 125 132 165 104 205 178 199 126 109 83 176 160 88 187 158 88 174 65 68 109 166 111 178 153 134 52 160 168 107 126 91 87 163 69 77 63 80 178 204 103 170 171 139 114 76 163 186 193 86 137 92 177 211 104 107 145 155 201 189 171 167 187 159 214 140 157 128 148 165 85 105
116 108 107 117 138 148 146 132 116 104 126 146 182 199 208 192 186 171 175 171 166 186 199 185 189 167 158 162 157 171 184 183 174 162 153 147 153 173 186 193 188 177 175 173 183 182 172 136 108 137 132 147 138 164 184 185 184 183 144 151 131 116 132 97 160 97 75 141 99 114 83 131 122 141 102 78 139 106 145 121 86 142 79 79 85 89 94 82 86 89 125 112 111 122 134 128 133 139 139 99 107 90 99 99 109 56 76 58 89 54 127 113 94 85 132 125 71 89 124 137 204 179 170 91 118 193 173 94 194 85 76 74 118 151 90 190 111 196 99 198 78 64 69 114 173 68 68 127 122 124 49 184 178 186 107 93 174 193 151 96 82 152 164 166 125 79 195 181 128 172 185 134 195 113 99 181 130 138 152 59 105 151 138 53 42 155 129 91 95 107 65 159 59 170 68 157 169 78 126 58 59 133 64 152 79 70 102 111 170 74 176 187 205 131 79 151 151 112 105 157 127 98 132 89 94 148 137 178 196 103 160 130 107 124 192 152 206 100 110 149 90 173 170 155 154 128 130 156 132 148 49 71 117 112 127 195 195 139 171 101 160 83 83 59 48 148 144 73 148 152 145 132 126 150 131 185 97 80 113 80 131 83 98 129 176 170 129 74 88 166 171 87 98 97 65 83 167 142 177 197 87 88 81 141 63 79 175 136 100 167 180 64 57 51 159 86 127 169 145 178 142 91 106 29 50 39 46 91 149 70 47 42 81 49 116 172 143 78 66 56 131 94 159 111 157 137 186 145 173 121 100 95 115 225 116 141 155 102 91 166 70 60 96 133 189 154 115 80 91 84 31 73 84 69 68 155 163 120 76 149 114 106 97 129 40 146 136 101 133 145 218 136 195 135 76 52 48 109 56 72 91 197 216 185 152 158 198 123 113 148 199 183 128 140 168 179 95 92 98 115 100 45 140 135 94 153 117 147 178 68 135 156 46 69 151 89 148 87 74 48 55 156 134 70 166 139 189 116 171 165 86 143 72 137 156 168 136 56 77 93 112 87 88 177 177 95 78 142 150 150 69 83 181 171 53 56 66 145 148 184 194 84 171 127 156 147 91 78 90 113 120 178 113 192 186 168 91 194 141 112 98 196 185 106 101 194 150 100 118 174 134 97
129 120 117 126 142 159 147 140 117 119 121 149 183 188 198 185 163 165 152 164 176 169 191 178 170 138 143 153 171 188 180 181 162 159 153 149 143 157 174 187 192 183 158 165 168 182 156 139 130 141 144 143 119 136 211 223 170 164 122 103 167 100 157 136 119 58 149 150 112 41 86 88 59 91 122 146 53 52 74 113 86 86 70 150 122 90 96 93 97 143 137 109 122 141 128 164 174 154 105 97 124 105 73 48 60 40 49 73 100 116 91 55 97 55 130 46 132 107 113 124 136 145 111 113 209 101 199 168 187 94 162 112 180 195 204 172 116 123 206 199 82 174 146 144 160 156 157 152 140 141 136 184 209 115 190 181 187 142 178 172 172 71 155 147 77 128 187 192 207 206 221 157 219 218 202 156 166 121 147 128 99 84 49 140 42 44 162 141 160 72 158 168 139 168 172 69 92 56 115 67 170 172 184 176 175 147 95 147 104 134 137 165 132 182 166 171 164 136 84 144 188 181 140 190 198 215 229 123 210 97 104 110 124 138 138 196 171 195 78 138 178 77 169 192 204 201 109 171 48 43 96 125 113 81 188 133 103 176 98 147 157 168 95 158 118 55 145 145 153 132 70 106 90 179 143 213 94 70 154 98 35 135 161 82 142 89 66 87 151 109 99 90 79 74 106 161 71 79 99 85 74 107 57 85 156 162 162 180 128 119 96 98 89 101 66 72 82 179 162 139 157 96 60 26 51 119 105 53 88 150 149 121 40 92 55 174 184 123 178 154 132 117 168 111 75 96 200 197 83 181 81 201 118 119 178 185 78 99 154 155 79 104 94 102 120 135 144 50 42 76 136 104 112 52 124 94 163 177 134 153 139 67 97 132 57 61 182 188 161 166 120 205 188 58 108 40 116 140 107 90 90 200 157 175 168 144 111 114 206 207 162 180 150 134 131 162 75 157 76 167 149 93 100 38 117 172 168 147 73 139 120 115 152 78 41 93 146 127 108 65 110 136 178 84 101 212 106 191 160 161 71 168 70 121 67 57 52 83 141 99 158 63 129 178 124 100 165 114 112 140 119 156 180 144 139 68 126 183 179 139 106 68 113 138 159 141 61 154 178 188 169 97 199 108 155 81 187 86 149 128 103 110 167 168 154 85 161 89 147 80 59 131
124 118 114 122 141 154 150 141 127 129 134 154 178 184 169 146 136 147 148 168 164 170 186 177 143 127 138 153 175 190 186 183 177 177 168 162 150 146 169 176 175 180 176 166 180 159 155 166 136 115 149 139 173 130 164 161 207 168 196 162 166 118 169 135 75 88 83 135 107 136 67 121 161 102 145 71 81 63 120 62 117 61 101 104 111 124 94 102 112 107 103 109 117 123 123 132 114 149 123 105 85 74 64 73 74 47 55 81 81 72 78 54 48 42 102 31 43 89 86 114 134 83 101 114 166 121 186 95 185 175 71 74 186 155 160 190 141 218 146 171 93 132 66 124 172 80 94 116 132 38 104 197 215 171 141 105 159 108 160 92 129 169 132 185 86 190 188 148 147 186 132 214 188 139 143 178 171 136 79 134 92 139 152 91 62 50 135 85 80 101 104 73 154 164 75 168 67 110 159 255 107 117 91 108 191 203 131 111 103 199 176 96 181 191 176 93 190 148 127 164 164 116 91 94 101 137 122 122 162 184 132 182 193 167 205 107 168 172 152 155 177 178 120 200 184 164 189 104 51 144 74 57 175 135 189 132 187 162 192 175 97 142 71 52 126 69 51 100 162 83 109 140 111 198 215 161 95 97 72 119 114 51 108 120 136 145 172 162 170 98 149 163 75 64 58 158 126 124 142 69 103 57 64 161 111 114 150 69 80 100 182 111 58 124 162 84 110 83 114 173 84 86 105 108 35 103 148 51 130 84 92 142 76 48 129 92 96 86 150 81 134 175 184 188 185 109 199 199 84 116 169 181 109 162 159 74 159 59 88 166 122 165 167 79 133 127 155 88 105 129 106 71 131 176 177 71 129 161 169 157 149 173 158 150 49 160 67 127 160 124 154 105 75 63 58 65 137 127 69 101 101 146 192 174 107 160 215 204 136 140 111 183 77 103 110 114 79 105 106 52 147 147 42 137 155 129 169 135 117 149 109 72 63 75 53 50 59 97 139 55 83 99 198 199 230 124 122 104 174 171 170 116 88 175 72 138 55 132 126 102 115 72 172 188 198 144 140 55 106 174 182 183 113 164 151 126 135 149 175 165 88 138 67 144 154 149 60 163 152 123 87 153 107 144 80 115 74 79 170 196 93 92 173 160 131 78 161 142 64 78 147 134
121 116 113 114 129 149 164 164 157 144 156 159 158 160 140 138 146 151 149 155 174 184 174 168 149 132 147 149 180 194 197 190 194 201 255 173 153 149 159 183 175 191 174 182 179 170 169 139 156 136 178 138 140 185 182 187 163 200 134 205 196 184 154 154 132 83 129 173 99 133 70 117 108 93 93 128 129 100 117 50 69 83 78 85 133 109 121 102 104 110 96 138 112 178 123 104 91 131 106 84 89 130 120 59 75 59 71 122 82 135 126 121 76 107 30 50 91 118 110 65 91 118 179 137 186 200 137 193 179 166 77 187 188 213 114 224 121 114 199 94 80 68 171 79 177 83 164 158 147 146 106 167 112 109 154 190 79 178 89 89 119 156 90 201 170 177 95 100 187 192 103 146 179 141 201 97 68 84 103 159 183 148 168 89 152 126 119 160 104 129 76 83 72 74 89 76 132 71 75 166 176 91 94 137 149 100 206 182 137 147 192 82 175 135 105 187 182 134 164 167 93 53 73 167 176 96 112 97 179 110 89 103 85 171 100 91 170 79 75 143 173 193 200 105 184 107 99 81 126 52 54 139 111 120 202 121 115 153 101 90 179 80 66 67 109 117 84 74 151 109 191 172 125 220 176 110 96 81 131 102 123 123 172 207 106 126 150 78 112 161 89 84 158 64 67 69 133 100 64 162 55 91 96 133 83 69 72 100 165 183 94 124 111 94 59 105 156 143 131 119 128 76 150 119 102 140 126 91 141 54 126 144 34 47 126 57 91 130 155 178 86 174 102 165 100 96 159 93 89 125 92 90 174 185 172 56 146 50 153 74 81 131 128 97 99 146 132 52 93 127 73 164 181 196 98 100 191 89 119 184 145 134 98 154 56 61 73 158 179 154 121 135 71 75 137 99 159 53 39 76 153 65 121 171 94 95 215 138 158 205 200 121 169 90 109 156 106 135 83 58 95 124 148 83 158 97 90 166 132 187 199 201 128 130 65 158 58 148 96 60 162 193 115 155 222 244 220 99 169 91 162 173 66 173 99 87 129 114 50 153 149 104 85 166 188 182 159 63 138 165 146 188 180 168 77 157 85 197 174 110 69 135 129 143 103 75 127 65 128 179 96 160 108 101 79 74 123 73 118 102 115 205 133 179 120 139 106 105 98 80 115 44
121 116 109 106 120 144 160 171 160 165 172 167 157 149 138 144 143 162 152 161 174 180 183 185 167 158 165 172 184 199 203 214 212 218 201 185 160 153 160 170 185 185 185 184 194 183 159 173 176 188 162 196 195 197 189 155 154 187 150 139 166 131 138 102 116 85 134 97 127 152 164 99 111 100 78 130 90 123 73 84 89 114 88 81 153 88 85 84 98 101 128 128 138 105 99 122 85 55 90 87 106 98 107 110 89 120 112 106 91 84 65 52 45 48 92 72 46 61 115 76 132 83 95 114 136 98 91 95 175 162 85 102 190 222 175 199 114 216 200 142 76 175 90 172 148 78 169 170 57 163 150 90 173 123 170 187 157 129 156 138 83 195 209 141 187 169 157 102 130 190 147 181 116 144 164 98 74 77 121 146 144 185 165 142 97 82 97 118 102 148 124 60 158 108 89 136 172 148 138 181 167 170 190 173 166 189 190 98 88 186 142 169 82 175 96 194 128 105 177 145 58 87 151 100 61 79 138 92 63 149 82 134 101 114 85 105 96 141 32 146 171 92 180 99 197 188 178 85 74 144 123 183 98 206 130 105 125 167 173 188 155 98 78 136 92 121 49 170 180 185 156 112 139 113 107 100 137 101 90 167 74 160 183 214 151 141 78 166 137 197 184 109 179 164 71 82 78 55 123 77 139 96 97 179 84 69 56 85 169 150 136 52 43 61 44 162 93 80 87 162 113 182 155 142 114 133 100 105 79 90 144 44 142 57 48 149 55 138 165 93 126 124 81 77 189 140 134 146 110 185 81 153 167 171 145 139 59 117 64 74 83 90 183 98 159 119 90 125 125 115 65 60 94 112 123 180 199 105 161 188 189 163 68 160 132 110 175 131 75 88 59 155 163 96 101 139 184 165 60 41 46 72 98 166 175 187 148 132 221 124 146 169 172 184 130 180 57 47 51 51 101 143 65 126 105 160 173 153 137 200 210 219 193 183 119 60 82 65 156 153 72 93 211 217 223 243 169 173 255 171 157 172 70 130 160 125 165 62 165 158 107 146 60 73 108 69 118 44 120 83 189 178 180 176 255 123 94 197 140 133 108 118 70 100 78 78 71 80 111 97 108 190 107 163 158 52 115 180 136 161 158 134 189 131 166 88 152 139 94 112 78 147
133 128 118 112 113 140 161 179 173 184 174 172 159 142 147 155 154 166 159 159 162 173 188 174 180 180 183 191 203 211 221 225 222 216 199 177 156 151 161 176 178 255 199 218 188 185 161 177 166 146 199 206 170 204 184 174 139 169 204 193 166 204 146 174 92 170 136 166 158 71 78 125 131 100 143 147 127 112 69 68 121 85 90 95 148 102 135 106 129 126 118 95 97 144 82 68 81 75 68 125 98 117 114 120 86 114 96 162 108 120 116 70 74 58 73 66 131 90 84 108 93 129 87 84 183 145 169 83 76 85 205 114 124 230 209 190 104 203 95 187 176 75 183 189 168 161 179 71 151 116 151 121 87 192 87 181 111 93 96 137 154 197 163 217 123 129 167 207 187 175 138 158 96 125 129 106 149 159 79 155 180 189 142 93 181 169 103 188 160 128 106 71 168 129 71 67 152 76 178 97 136 182 100 161 126 99 181 96 95 113 79 139 87 91 184 115 162 85 137 159 156 71 73 48 66 156 81 182 84 73 93 99 87 164 93 96 59 109 139 58 146 167 80 116 174 198 180 158 126 137 52 176 192 118 190 187 119 210 190 97 64 87 142 48 142 80 158 109 192 213 118 179 212 164 129 186 119 190 117 184 154 101 189 112 199 91 167 102 78 100 105 146 107 103 90 121 70 101 71 162 77 126 93 132 133 111 60 73 152 177 95 93 91 113 58 80 134 73 154 152 142 92 117 138 42 64 132 59 65 111 49 46 45 79 135 48 139 51 57 73 97 80 67 75 125 185 120 168 82 176 186 155 179 129 143 163 56 67 126 164 176 80 149 194 101 140 87 72 90 121 24 131 183 211 214 188 99 114 153 177 119 171 140 123 130 128 83 187 120 59 143 148 153 171 120 106 146 143 165 151 55 131 87 62 149 106 141 222 240 221 197 156 122 173 89 78 139 59 56 98 119 157 66 101 136 195 178 112 110 103 185 175 114 95 122 65 151 57 167 168 74 132 206 222 236 154 193 85 183 188 185 170 184 75 100 150 71 115 175 135 75 61 102 142 74 138 40 123 161 81 189 189 173 175 98 166 90 185 196 152 71 130 132 68 147 166 85 108 102 164 84 80 80 121 74 88 69 118 207 139 134 132 210 125 186 62 106 141 140 134 153 157
149 143 130 116 114 125 145 167 171 187 181 177 167 152 144 155 165 176 176 164 171 155 168 166 181 185 193 195 192 215 215 223 207 199 185 165 157 155 153 174 195 191 219 218 219 200 174 175 137 182 166 190 210 164 148 149 174 159 167 211 194 191 168 159 115 141 165 146 68 115 97 127 86 99 150 94 151 82 117 85 133 171 113 153 71 106 70 105 76 88 150 86 84 95 73 66 76 39 94 101 85 93 133 86 97 94 147 165 125 88 86 91 77 77 93 160 169 118 112 107 108 78 70 116 107 165 145 78 100 124 177 228 180 130 172 184 156 138 191 155 74 171 173 175 176 183 70 177 81 188 90 157 158 149 88 182 83 111 149 186 183 182 158 158 131 121 181 201 170 187 138 137 154 198 129 118 175 164 106 119 188 152 165 129 215 208 110 196 169 155 152 106 140 160 82 58 119 113 71 119 80 120 192 151 107 139 203 202 110 158 72 87 94 102 203 93 198 125 137 100 74 86 82 103 161 81 98 189 85 156 168 87 66 169 68 138 137 116 129 103 81 165 169 170 129 121 144 145 55 41 127 75 69 127 167 72 90 204 178 174 135 146 156 151 100 79 52 117 193 192 214 226 167 194 112 128 89 200 106 190 219 128 194 201 181 93 61 92 76 94 112 227 199 132 108 89 166 145 173 94 117 142 110 178 89 73 67 172 72 68 51 63 25 103 47 81 116 84 151 77 131 93 133 88 98 32 46 136 63 161 163 76 81 57 61 63 160 158 89 71 94 80 163 141 81 175 101 188 189 164 191 178 121 72 77 107 110 150 115 149 95 173 104 144 185 180 195 79 73 100 95 131 177 191 164 166 197 161 154 152 187 79 118 143 136 126 126 196 176 71 142 51 61 82 137 136 206 191 82 140 109 128 55 146 129 95 214 188 216 122 196 151 80 98 150 121 115 71 114 88 92 72 157 63 145 173 128 144 184 98 210 122 165 201 90 70 159 168 151 176 178 182 160 202 110 154 122 126 76 109 193 97 83 104 164 70 146 172 157 118 177 163 143 90 91 113 153 153 93 104 174 172 154 78 84 122 159 121 194 97 76 166 112 136 124 115 172 186 162 202 82 165 122 62 141 70 87 118 137 186 132 116 157 101 99 170 67 82 44 99 54 156
152 149 136 119 112 119 136 160 175 178 180 176 164 149 147 163 172 180 176 170 168 150 149 157 160 176 179 187 192 206 215 209 199 175 170 158 160 158 166 178 205 217 225 223 197 171 171 143 161 126 132 140 196 208 185 161 186 159 178 140 169 175 182 156 167 156 136 140 156 70 93 117 82 138 122 102 107 92 152 174 122 95 106 142 124 72 64 68 89 87 95 90 87 92 112 65 119 50 58 77 69 72 110 79 94 109 83 131 121 101 77 60 85 87 81 90 94 117 98 98 85 163 163 154 82 121 151 123 103 100 114 122 193 125 229 118 109 169 101 151 75 188 187 183 81 109 83 107 113 119 181 177 145 70 163 174 122 101 185 178 88 76 165 164 108 204 123 127 183 170 79 100 125 220 160 184 168 219 183 204 138 167 183 208 155 188 137 120 108 155 62 126 168 77 144 52 109 49 54 158 73 76 160 146 127 183 195 101 189 168 147 135 198 119 195 192 102 208 178 189 96 84 155 152 174 88 107 171 201 195 81 74 168 65 125 161 174 81 106 114 56 145 176 183 115 209 188 85 51 117 116 137 107 37 54 113 136 182 110 158 160 107 165 73 79 87 65 112 200 122 132 178 156 180 143 178 135 114 107 177 222 178 109 179 179 152 137 76 160 102 202 161 236 167 120 101 179 124 105 101 193 138 178 195 120 74 63 72 172 108 60 41 56 53 167 74 67 89 100 127 189 102 189 93 171 160 72 79 139 101 175 173 133 148 122 97 101 90 66 72 73 152 98 177 152 168 69 189 93 142 202 170 161 183 161 152 171 69 71 173 95 166 175 179 191 201 208 98 153 128 44 109 105 94 98 177 115 171 173 102 201 116 123 157 82 154 115 198 173 102 162 94 162 184 176 98 157 190 80 129 92 156 76 73 83 187 165 224 160 99 143 75 146 95 89 176 129 152 194 186 176 130 155 53 156 90 85 81 163 94 121 136 188 186 188 70 137 165 81 116 177 105 132 97 88 182 162 92 125 164 141 192 83 90 151 155 161 199 148 207 95 84 160 112 97 118 148 89 102 115 81 69 131 144 81 130 154 111 74 168 153 166 177 148 177 76 171 202 110 92 96 80 135 68 93 139 165 114 200 211 110 100 114 188 88 155 54 91 90 57 73 57
144 142 131 115 108 120 135 158 165 174 173 180 172 149 162 165 192 194 201 171 155 146 131 136 152 162 172 175 184 187 194 193 183 166 174 170 169 175 189 205 216 218 201 194 180 159 160 159 153 131 147 156 160 186 166 198 192 170 175 192 178 180 124 108 116 95 157 87 152 92 158 122 101 97 35 37 115 67 80 86 103 82 124 159 73 65 57 86 55 127 135 103 119 70 82 62 63 64 93 73 76 82 63 57 78 64 76 120 116 117 99 81 47 47 65 93 98 170 152 162 124 136 70 120 82 82 120 145 191 140 136 215 199 223 117 151 151 199 110 76 143 82 136 95 76 158 166 65 158 134 157 165 144 111 63 165 127 180 117 165 122 116 95 150 173 188 108 188 175 171 165 174 181 130 165 216 174 204 221 179 148 114 154 192 181 200 202 180 96 86 175 175 83 171 70 56 135 255 111 127 91 77 138 70 160 97 97 109 175 68 177 185 170 105 189 181 191 212 212 113 150 154 166 119 70 179 107 201 118 131 204 192 119 125 181 182 93 142 155 78 106 162 77 173 206 145 97 169 141 37 138 37 117 125 74 144 169 182 132 164 96 155 118 75 84 134 132 182 137 176 188 141 151 203 217 129 190 213 160 149 205 120 114 180 76 133 139 144 105 87 178 127 183 173 213 181 125 86 128 165 106 108 112 110 136 162 71 89 60 106 157 53 72 88 95 91 85 161 112 136 152 108 109 206 98 79 170 153 93 95 144 83 81 80 154 89 174 79 165 169 66 146 114 185 68 168 147 124 206 155 200 92 84 92 80 77 179 177 93 95 121 123 83 130 192 209 171 195 135 166 123 117 153 137 187 185 120 136 99 181 143 162 74 157 83 168 177 163 178 190 149 91 145 181 182 86 189 195 184 65 132 119 150 76 145 208 174 111 176 129 84 166 86 90 184 110 197 200 199 93 96 103 158 92 43 123 69 67 178 197 194 181 199 92 115 74 88 102 66 66 146 118 84 89 78 173 127 129 174 81 94 111 134 179 136 81 161 197 229 126 202 170 140 107 142 80 177 206 215 192 177 120 123 60 115 134 85 154 129 144 72 159 104 144 89 81 83 155 141 81 177 120 140 111 104 188 131 192 190 141 106 159 194 81 133 66 159 148 175 187 187 75
123 127 125 116 105 120 140 160 165 174 173 171 164 162 166 166 198 211 203 172 157 144 148 149 154 167 172 172 185 182 191 184 174 179 186 186 188 191 204 220 229 210 195 195 171 166 134 126 143 148 155 172 201 199 153 196 204 178 185 131 117 127 134 152 176 142 109 182 145 137 107 134 129 55 66 87 61 63 156 74 101 93 119 65 65 107 92 91 49 78 60 61 61 62 73 70 62 69 97 65 67 59 89 59 57 64 107 129 85 66 56 68 41 43 63 83 59 75 141 77 73 130 141 88 141 187 193 85 183 93 188 118 93 163 210 137 107 204 176 80 75 98 188 79 148 164 117 168 195 175 212 179 144 176 152 178 141 156 151 177 179 70 164 106 165 122 183 116 122 172 136 143 207 120 218 162 232 224 214 202 85 169 133 135 154 142 170 154 170 150 202 189 187 78 168 127 131 61 148 157 57 60 106 163 136 141 64 65 72 102 191 155 102 196 115 149 177 209 190 100 103 170 109 77 100 180 121 151 116 199 103 176 89 186 175 108 180 153 145 34 127 84 76 104 116 135 183 131 96 159 81 137 155 45 146 166 169 193 192 120 161 69 125 191 105 112 97 175 173 149 171 175 205 109 116 97 207 117 110 215 138 110 195 87 143 162 136 148 105 188 106 140 136 153 116 112 108 78 146 87 156 98 120 112 161 92 95 104 103 69 125 99 66 123 91 145 171 158 76 182 151 113 147 161 102 125 176 148 188 185 181 175 147 176 129 87 85 161 88 111 96 94 94 179 99 144 64 88 187 99 96 142 158 182 178 131 164 135 89 199 97 203 97 187 162 207 161 231 214 172 78 147 161 168 189 113 173 124 120 136 190 72 159 142 115 84 172 159 182 119 93 93 164 179 92 167 190 196 143 139 61 56 169 185 195 118 145 106 176 78 125 70 172 133 171 170 111 189 188 167 95 169 178 124 106 81 95 139 85 133 108 86 122 183 186 76 158 107 94 126 146 166 185 166 84 159 76 164 162 192 177 117 165 100 131 84 192 225 224 230 211 115 81 165 169 186 214 227 227 119 73 58 59 138 53 58 65 143 159 151 112 127 130 160 94 165 68 76 140 82 111 131 129 115 150 108 201 86 188 124 107 177 91 88 166 109 110 175 92 187 149 191
117 126 130 124 116 130 146 169 170 167 176 176 174 175 158 171 184 188 165 167 157 150 150 168 170 181 182 192 198 197 194 179 182 192 199 204 209 208 217 224 227 221 211 178 182 144 128 153 125 162 175 148 154 176 215 211 153 198 143 126 154 130 176 147 161 129 194 107 182 132 174 87 129 92 73 63 95 130 68 88 73 113 110 74 48 54 67 42 54 113 47 50 59 73 30 95 53 90 87 84 87 112 115 65 54 49 65 90 72 62 78 56 29 21 100 111 59 91 77 132 58 157 75 82 96 163 92 79 131 73 165 70 83 187 138 104 155 152 89 184 162 92 88 180 64 53 57 76 184 224 208 210 203 136 164 193 163 196 200 144 160 171 167 115 171 167 183 182 181 177 81 140 109 174 158 196 187 186 150 189 180 137 255 101 164 155 133 180 117 224 218 206 173 188 84 136 86 119 172 59 151 139 137 94 161 118 40 144 97 163 158 192 173 93 143 169 193 175 210 112 111 202 203 168 77 149 174 167 194 88 96 92 118 198 93 186 113 104 73 101 48 131 183 191 189 84 76 105 153 157 159 81 86 165 72 93 161 177 159 123 88 71 96 85 125 70 100 177 118 116 183 156 155 130 96 97 85 151 100 178 209 164 172 175 112 58 72 100 92 125 195 103 168 126 162 88 90 74 159 171 114 99 78 112 72 134 159 80 174 142 168 120 174 85 94 94 81 140 75 81 198 167 139 99 118 186 183 178 76 123 150 108 103 99 194 153 172 198 190 180 197 182 98 133 88 100 84 144 104 173 141 178 169 133 81 99 185 109 194 105 107 208 121 206 144 190 191 143 114 114 86 76 171 86 176 177 170 98 145 152 119 144 120 147 56 102 84 94 134 167 84 59 101 107 194 128 102 185 179 136 127 167 87 179 185 198 118 141 90 78 89 162 164 104 151 80 170 107 91 90 192 92 147 102 101 41 80 112 100 179 162 179 75 81 120 82 193 186 179 122 63 138 114 200 194 110 195 101 142 173 191 138 194 140 93 185 124 174 152 172 109 166 164 73 159 137 109 233 154 195 65 109 158 64 105 66 60 160 55 88 102 91 74 72 98 64 102 80 164 161 147 67 81 130 190 111 108 194 105 92 151 184 190 97 90 161 65 173 167 168 140 125
121 135 148 146 137 140 157 168 178 166 171 179 173 170 162 163 152 153 140 128 144 158 178 182 189 183 199 213 208 202 208 206 208 210 217 219 223 222 219 217 214 212 204 186 180 173 159 162 165 158 154 185 165 163 200 226 189 144 184 158 121 186 103 171 171 168 155 178 118 105 127 105 89 102 47 67 65 74 74 58 122 39 21 24 61 40 59 97 43 44 70 81 52 42 60 35 93 81 78 88 72 88 85 70 88 31 37 53 109 99 57 48 45 32 47 43 69 184 96 102 69 66 96 113 104 177 77 85 71 66 47 63 153 114 117 118 165 100 97 137 179 203 195 174 160 125 157 82 212 237 150 229 209 212 161 112 128 201 207 131 128 191 125 146 169 95 135 112 119 139 137 152 144 65 123 96 117 155 103 195 161 190 180 155 144 118 76 130 196 180 220 208 134 84 103 168 129 179 91 134 70 84 66 77 159 157 60 36 118 186 202 219 129 134 134 110 164 189 198 192 155 142 187 111 174 85 117 167 98 171 78 88 113 149 127 87 110 137 118 90 140 127 175 96 183 166 157 149 141 157 143 100 199 98 171 132 103 185 182 88 120 157 121 171 157 88 148 153 172 78 106 112 121 50 45 125 53 115 167 97 96 88 106 141 96 99 167 95 185 92 103 98 200 119 164 171 73 161 75 63 93 99 103 78 129 152 68 102 186 88 91 179 87 180 90 147 168 148 155 162 172 87 89 100 79 69 67 128 56 63 167 164 109 168 165 176 108 159 186 103 110 216 166 91 107 105 112 103 81 64 166 109 67 99 141 86 191 147 176 183 121 194 179 204 168 100 149 213 138 192 110 173 107 185 194 187 158 151 47 165 143 83 255 154 141 141 136 108 123 159 151 45 160 129 111 86 179 154 186 148 82 171 83 86 121 147 171 139 68 122 178 79 120 130 143 180 183 144 157 114 105 133 104 175 129 157 166 75 105 108 138 83 83 119 172 182 122 110 153 88 122 135 100 203 112 208 255 189 166 164 166 201 137 115 115 99 115 240 159 207 98 85 75 85 89 168 117 208 183 163 92 77 60 127 181 118 120 70 137 98 125 70 139 60 91 167 90 89 170 58 39 39 105 115 166 99 204 161 80 115 86 75 109 184 185 90 113 69 93 166 190 213
137 153 166 167 157 162 164 177 172 175 165 171 172 175 168 162 140 149 133 136 128 157 167 176 193 179 199 208 212 218 221 219 225 226 225 219 221 222 208 188 196 192 191 194 174 182 141 181 190 197 185 147 144 169 220 225 158 153 191 195 148 130 177 140 88 111 111 188 162 168 123 83 170 80 136 61 56 84 79 117 51 26 13 28 97 36 41 50 60 123 118 40 86 87 50 38 51 76 73 66 51 107 78 109 80 31 30 55 49 94 67 131 64 49 86 73 112 159 204 189 87 78 73 170 82 124 68 65 133 94 43 120 152 66 123 105 175 111 114 137 160 182 194 88 143 153 68 81 142 157 218 213 115 173 214 206 218 223 184 133 190 116 117 165 163 162 114 147 153 169 104 57 132 78 103 132 61 166 91 90 102 100 76 167 145 90 142 188 108 113 206 123 145 163 92 185 127 148 112 133 118 163 104 183 109 167 92 133 98 148 111 194 206 133 159 181 184 191 153 117 108 130 102 187 118 203 186 193 152 181 79 170 177 107 168 195 132 67 72 168 199 116 179 171 171 67 49 55 124 147 159 183 166 123 174 186 185 212 205 140 170 176 128 78 156 106 80 55 66 171 177 148 141 56 147 140 74 130 149 90 114 116 164 101 138 114 87 90 175 149 92 100 135 158 84 117 162 108 86 133 118 91 76 115 81 131 103 191 115 91 183 191 85 97 113 167 85 133 154 178 156 185 119 114 162 54 42 138 71 63 79 121 83 86 110 161 183 209 200 116 194 154 196 173 48 120 140 139 74 141 50 59 47 137 152 131 113 185 101 155 140 211 186 176 93 180 101 217 211 191 179 90 171 190 106 127 134 147 149 52 140 126 174 169 159 141 98 82 176 164 131 109 47 129 154 173 71 64 169 67 112 173 158 177 118 174 84 160 63 88 176 164 69 105 131 133 111 73 155 89 137 189 182 195 122 186 88 186 181 69 166 148 150 164 170 132 188 105 102 99 189 88 89 205 153 174 128 206 205 134 106 133 101 204 93 121 177 197 151 189 102 141 173 128 158 101 80 205 117 148 174 152 104 184 103 94 159 67 137 176 116 168 153 147 168 170 177 93 102 58 63 60 113 154 178 106 97 94 117 88 71 172 178 86 183 174 73 85 175 118 145 222
142 158 173 174 172 174 169 172 161 169 164 169 167 170 163 156 157 148 129 138 135 142 169 175 189 187 193 199 205 213 225 235 238 233 221 216 210 207 200 191 178 180 174 172 182 164 174 178 151 166 174 138 153 152 203 215 167 215 169 146 141 170 183 176 175 171 140 166 90 102 119 90 146 105 136 71 73 125 101 255 79 104 71 24 31 89 70 125 116 97 59 53 54 85 75 105 71 125 116 74 50 110 75 125 76 46 50 66 47 75 58 109 57 63 77 144 127 158 213 137 158 103 78 151 157 159 74 114 163 91 48 128 41 142 136 98 102 114 111 114 169 199 115 97 143 150 76 181 192 126 196 102 186 214 181 196 190 178 206 146 159 67 125 98 142 130 145 77 147 126 150 89 117 73 131 104 126 143 90 139 137 118 143 102 156 102 184 112 148 89 89 190 100 92 81 137 71 132 81 170 153 78 107 160 95 154 128 112 90 90 182 219 117 104 131 164 131 186 141 143 164 175 117 116 161 186 189 172 88 109 106 177 105 155 190 112 93 191 194 206 209 168 190 86 178 115 159 46 98 69 84 102 218 139 124 183 158 137 168 188 140 135 197 138 97 86 40 108 81 159 151 85 124 99 62 98 45 118 64 75 142 162 74 61 57 72 181 109 196 89 88 105 197 111 144 138 88 180 126 98 63 52 155 96 176 85 176 192 172 182 198 195 105 107 191 101 74 145 138 91 124 186 147 131 143 70 135 154 104 67 110 114 62 134 113 121 115 101 105 130 220 112 93 91 44 133 123 70 144 76 108 97 38 120 104 87 166 146 159 93 203 174 193 127 183 196 207 158 135 139 149 167 73 189 193 86 129 61 60 143 159 110 97 127 83 144 157 182 97 90 105 36 40 148 55 105 162 60 159 73 64 78 153 183 127 136 177 70 151 68 70 165 62 74 130 177 107 118 57 75 97 189 126 204 139 103 191 165 123 186 106 138 94 158 146 127 177 151 204 204 132 183 113 128 126 204 186 111 218 222 140 208 149 154 106 95 183 190 83 85 109 84 106 94 112 49 96 94 165 203 193 177 125 101 201 128 185 103 168 148 121 141 155 96 86 95 93 106 60 54 131 110 52 154 69 151 184 80 156 60 121 68 75 75 141 178 89 123 175 106 205 199
137 152 164 169 172 178 171 166 156 152 162 162 155 150 154 151 153 167 151 140 134 147 158 164 169 185 174 184 178 199 214 220 224 224 213 255 195 183 175 168 168 166 161 165 151 191 160 194 173 168 157 154 149 183 179 161 204 161 168 185 159 159 204 142 130 115 156 157 98 139 134 153 86 82 114 72 82 159 75 75 66 81 43 104 43 52 82 116 134 90 63 58 60 64 76 138 85 120 64 48 64 75 84 110 90 118 58 57 96 57 66 62 68 107 99 114 124 191 149 194 125 173 111 144 55 52 155 92 86 63 53 35 39 102 69 89 111 196 203 121 162 203 85 83 160 84 177 175 87 170 172 169 188 155 116 191 157 109 187 149 118 54 140 138 147 160 84 128 71 63 92 91 92 120 42 111 117 90 115 161 117 106 121 149 110 154 88 159 148 139 182 85 179 202 145 89 117 80 161 128 138 73 90 97 182 145 92 168 95 106 195 147 157 204 108 134 193 123 155 174 85 141 104 206 210 121 200 135 120 145 177 188 106 190 111 126 171 119 172 208 212 190 139 167 84 164 68 132 145 76 88 132 129 184 207 207 108 193 180 179 199 204 99 150 172 55 53 130 106 182 147 118 135 119 120 61 113 54 76 173 136 113 144 59 129 63 109 108 80 103 82 164 149 91 184 110 104 191 192 105 77 84 113 101 77 160 87 96 104 106 113 142 104 115 104 188 175 167 72 91 107 204 114 75 166 115 64 151 129 141 116 132 61 160 130 117 119 103 109 192 129 112 92 71 71 47 49 49 127 94 110 145 70 91 81 179 97 189 116 182 94 189 179 192 164 160 202 168 210 120 139 66 169 177 90 137 92 162 133 84 113 103 129 108 115 183 172 186 80 173 69 88 97 96 81 109 146 144 98 94 172 100 163 82 144 94 160 81 118 79 84 102 72 161 160 140 66 161 158 115 128 193 95 111 212 199 122 175 143 185 109 136 77 80 156 115 102 128 197 144 106 186 180 85 198 177 212 215 116 141 207 199 207 169 79 111 118 69 53 116 161 72 121 75 126 114 146 167 160 105 187 124 190 143 184 215 191 171 139 128 179 95 109 185 111 105 106 78 58 92 146 122 87 106 83 134 84 76 157 174 113 104 86 77 175 77 178 190 99 102 124 108
124 140 153 161 170 174 168 163 154 155 157 160 143 133 134 134 159 169 159 168 150 143 146 159 163 181 176 164 172 182 188 200 205 198 198 190 187 185 180 174 175 146 130 159 175 195 198 152 128 125 119 132 140 134 134 158 187 186 173 144 190 160 195 190 153 177 108 176 183 131 154 77 78 79 123 136 96 90 125 75 66 103 143 78 113 68 143 82 164 125 72 78 76 107 112 116 80 84 65 53 102 75 101 110 82 94 99 92 70 72 62 69 62 104 81 110 97 105 133 110 167 89 89 76 53 51 56 56 106 66 143 139 133 77 158 162 123 110 128 121 189 96 114 81 78 80 190 162 176 158 119 138 153 93 194 151 176 202 148 61 147 129 91 174 171 107 151 88 121 105 143 31 100 89 60 78 175 156 134 170 176 104 179 75 99 105 126 129 94 139 85 111 184 181 138 161 96 141 147 91 90 107 97 206 120 115 102 174 144 145 128 203 208 218 194 174 150 163 95 71 129 198 210 195 123 131 115 158 84 192 143 90 119 168 141 155 182 188 135 125 113 183 184 108 168 197 200 141 152 72 168 83 208 209 210 111 176 190 86 197 157 196 205 192 83 112 75 63 73 176 101 172 109 195 192 137 151 64 165 127 137 146 150 77 56 168 155 79 67 131 113 82 100 83 163 104 202 177 83 167 160 60 159 169 100 100 189 104 116 208 128 150 165 130 119 122 88 75 182 103 145 170 193 104 97 105 87 86 130 116 188 92 98 154 137 83 116 199 202 104 124 179 150 168 89 155 142 157 41 117 82 147 100 80 161 131 197 114 119 68 92 124 112 97 166 95 163 203 200 202 128 146 103 142 101 146 157 147 156 174 181 205 220 122 112 154 123 107 103 98 123 132 132 143 105 77 127 64 61 172 164 179 162 156 159 166 183 185 109 79 166 132 144 116 169 88 140 84 169 255 192 198 133 210 143 161 135 193 138 148 153 96 142 183 166 159 95 174 186 195 92 155 119 144 112 93 143 206 131 134 166 235 166 149 157 107 141 146 55 70 164 161 137 140 101 165 90 166 87 195 172 169 210 218 190 215 217 111 100 112 187 205 160 191 132 151 127 124 119 50 129 124 161 190 103 89 194 175 156 142 125 125 94 132 75 94 130 185 201 130 184 188
111 126 140 155 161 166 160 154 141 146 159 150 137 135 119 142 146 174 188 183 172 147 159 173 167 174 169 154 155 165 172 176 176 177 181 185 186 192 195 191 184 153 157 164 185 206 169 174 129 128 148 110 127 123 168 165 173 165 173 165 133 156 189 205 141 135 116 161 179 169 89 130 112 51 53 83 97 77 139 118 107 153 122 129 141 107 110 148 171 95 94 116 104 96 95 112 78 102 66 81 79 76 84 85 126 93 105 91 122 86 82 141 148 68 95 70 140 113 92 99 97 184 79 97 154 102 84 161 61 105 85 88 108 43 63 50 57 171 183 88 199 196 95 88 159 85 128 112 184 68 124 105 139 69 136 87 103 90 127 98 137 137 148 162 198 123 159 181 135 113 69 141 102 102 96 61 171 181 151 104 153 162 185 120 66 117 162 64 178 191 119 92 199 184 76 131 131 61 64 146 142 85 93 204 207 180 170 108 133 118 188 153 210 113 191 125 172 90 158 81 157 145 109 199 99 138 200 194 186 188 97 111 143 185 69 95 64 120 138 76 77 163 67 178 179 211 211 116 126 121 139 85 95 174 202 183 137 177 135 197 199 134 137 185 128 146 85 139 156 94 172 102 173 171 194 129 74 71 112 97 149 106 106 153 92 131 86 132 156 169 175 93 82 162 115 106 146 87 102 88 78 148 80 157 118 169 196 109 117 143 213 136 94 91 96 152 163 149 104 139 187 160 90 192 104 101 97 94 177 102 105 151 99 97 74 128 87 166 189 110 121 208 130 87 122 166 109 89 151 102 60 183 95 106 193 89 94 128 125 152 69 158 124 157 97 118 89 110 123 98 167 68 150 85 95 180 144 75 150 113 168 94 121 144 149 103 155 170 113 162 122 52 101 66 120 122 175 162 66 137 160 78 72 48 152 156 158 176 85 177 79 49 36 78 151 178 128 96 199 171 198 180 133 106 194 229 143 141 210 171 115 168 194 88 87 159 68 105 182 86 177 165 100 74 152 93 207 220 221 197 211 232 144 110 179 103 78 168 62 77 165 142 196 95 112 70 85 74 83 116 162 195 189 204 100 184 169 191 184 102 201 125 196 180 75 134 150 86 63 44 65 163 101 104 213 184 164 108 203 127 194 121 173 120 63 168 100 114 110 135 79 112
100 113 130 148 163 167 162 155 154 147 150 147 148 139 137 135 157 164 190 186 174 180 174 173 171 179 168 159 152 164 160 163 161 161 168 176 188 202 203 212 202 180 143 153 165 177 174 164 134 148 165 166 171 116 170 173 182 121 175 134 175 136 206 203 136 107 151 158 86 126 84 143 54 130 137 59 154 109 105 97 84 144 101 100 89 136 97 136 103 109 89 86 94 93 93 96 101 81 125 78 94 77 68 71 78 80 87 133 101 89 95 112 82 82 90 79 87 69 166 170 136 83 83 67 69 122 140 160 118 117 75 66 79 102 160 161 86 77 166 198 172 204 154 81 181 106 109 140 206 84 73 106 47 106 170 148 96 176 88 86 72 44 82 87 123 208 115 193 190 168 142 64 80 133 129 128 82 177 174 150 80 179 155 82 66 146 154 88 148 154 177 93 171 166 81 152 167 122 64 158 81 183 91 130 170 103 71 61 146 94 103 160 213 220 217 199 117 192 194 110 192 104 207 109 167 179 176 180 136 175 181 191 165 134 83 52 67 102 80 147 145 133 140 124 159 203 127 197 121 154 160 97 101 174 184 181 162 124 169 192 154 106 197 148 134 107 152 158 88 87 177 137 87 88 185 86 151 121 140 176 143 88 132 121 125 163 113 88 127 170 97 152 157 78 119 128 86 181 176 151 96 160 162 157 141 141 122 170 102 212 95 180 136 91 102 84 78 80 94 188 116 94 109 149 113 178 159 99 125 113 77 182 117 158 163 88 182 182 166 218 168 204 199 126 173 171 115 180 82 60 162 171 100 100 102 134 151 186 72 77 65 71 149 137 172 141 168 164 107 198 128 57 84 150 158 141 147 154 126 128 163 142 120 187 88 170 82 124 163 51 56 96 128 128 173 125 109 61 77 62 78 77 157 52 139 148 54 162 171 76 92 149 49 104 169 89 170 213 204 192 209 185 148 197 209 206 132 134 124 164 162 106 196 86 140 60 40 145 76 111 140 162 146 82 137 139 205 188 237 244 184 164 213 210 201 170 159 190 159 182 82 145 104 204 170 91 147 116 115 178 162 138 173 153 110 107 157 165 142 133 150 126 109 196 77 153 122 101 150 109 173 107 159 113 161 216 113 171 138 123 212 212 131 152 46 135 85 117 139 189 103 67
89 101 118 141 149 159 165 160 164 161 151 152 138 152 158 157 167 174 176 184 192 196 202 195 193 187 177 176 167 169 172 166 157 148 156 171 188 208 205 213 195 174 171 156 187 174 187 165 130 169 178 145 178 150 169 158 191 155 178 176 195 148 138 120 108 117 143 143 167 111 163 120 132 94 96 77 73 138 99 131 148 138 120 80 106 107 166 94 95 114 82 90 90 131 158 122 87 88 93 110 99 117 77 91 68 95 120 79 139 96 145 116 95 94 95 75 136 95 137 78 93 100 164 128 75 73 78 169 71 173 92 90 79 69 122 67 93 176 112 200 99 153 183 165 183 177 219 194 112 195 116 83 60 140 83 175 137 164 69 100 132 126 61 128 169 197 212 176 205 134 179 148 134 81 105 106 79 85 93 79 151 113 173 74 174 168 168 147 177 86 141 136 138 186 188 123 155 105 149 78 79 99 148 198 171 171 147 140 181 152 187 127 123 183 104 165 177 190 144 209 167 109 99 193 176 202 197 110 177 157 155 139 176 171 92 59 144 150 152 56 103 152 147 81 193 220 145 210 192 95 97 120 116 79 79 150 159 129 73 167 128 100 117 69 96 46 133 99 114 151 142 155 72 101 75 135 162 136 64 103 88 124 93 106 157 97 127 142 70 97 166 182 140 75 70 63 89 69 115 65 59 60 134 172 106 192 75 166 76 168 140 51 58 96 133 170 105 185 102 122 96 105 183 183 108 188 167 105 185 158 107 136 86 110 151 158 141 185 178 162 214 108 206 207 208 170 165 124 176 159 154 158 91 94 155 100 172 150 74 64 152 101 76 115 125 164 139 219 179 181 111 50 119 119 172 100 176 171 171 174 177 175 71 108 173 91 71 85 41 135 66 61 162 198 107 111 103 91 73 154 85 188 79 71 152 97 114 168 181 107 122 53 43 94 67 108 163 106 162 102 112 104 160 86 99 207 167 184 116 210 117 181 125 176 58 107 97 43 135 152 57 86 135 77 124 78 189 151 177 132 127 215 184 104 105 95 194 141 203 199 158 175 205 174 207 130 140 59 70 130 179 80 99 122 149 117 163 67 172 115 211 139 149 103 73 66 139 104 159 136 134 212 143 169 230 182 133 203 121 208 103 155 63 142 81 48 111 147 182 150 146 164
83 94 112 135 146 162 168 171 172 163 158 143 139 155 182 179 175 177 193 192 214 215 210 214 209 193 197 193 189 188 184 173 161 150 151 167 187 205 208 195 186 168 171 178 171 205 165 152 156 146 195 162 159 133 170 172 179 198 200 190 168 141 136 147 165 123 64 79 86 178 103 98 79 58 112 49 129 125 124 86 82 124 66 148 133 106 113 148 92 78 112 81 129 122 95 122 112 122 125 112 113 109 124 126 97 69 66 82 85 100 103 143 125 105 121 122 87 151 149 98 172 78 94 146 91 70 74 102 180 199 212 103 140 105 181 136 153 163 123 104 196 112 141 65 173 170 196 123 215 108 150 134 115 150 157 185 169 157 125 49 112 123 136 138 157 155 112 132 200 130 177 140 92 132 147 114 132 80 119 159 158 155 144 78 185 79 86 117 164 152 194 201 190 212 198 142 194 175 187 162 136 185 111 100 187 110 164 76 178 216 126 214 113 112 134 182 151 190 96 106 107 193 201 129 120 133 133 101 161 146 158 164 166 79 52 43 124 47 119 66 123 169 180 109 133 221 217 168 102 142 68 69 143 77 121 95 121 64 133 184 169 171 179 154 153 109 79 141 161 169 135 73 72 115 125 61 46 46 140 101 160 104 89 139 89 78 79 149 75 88 86 151 182 172 255 171 120 106 179 137 80 100 73 94 102 91 125 73 83 109 103 132 77 101 96 139 101 144 94 115 102 153 160 165 123 130 110 125 95 101 118 83 87 190 189 160 175 255 161 182 163 182 198 113 126 211 159 179 182 67 167 78 191 178 111 175 69 166 134 154 143 187 83 146 195 147 185 178 215 113 179 87 55 140 157 82 168 75 79 67 98 158 68 139 178 77 139 137 107 95 39 56 188 94 97 183 93 51 94 146 77 85 100 88 130 163 172 181 128 181 75 62 119 84 119 115 205 166 93 146 165 176 125 182 189 90 104 124 108 203 117 161 200 176 74 132 68 80 32 128 74 70 160 111 114 175 175 201 213 224 185 126 177 190 115 104 156 189 186 170 191 95 125 125 114 142 152 87 130 96 77 57 104 106 73 43 57 82 146 190 163 141 203 114 102 50 75 132 101 108 123 214 164 170 169 200 169 166 171 121 80 60 42 120 49 59 158 165 201 162 177 107
90 99 113 131 141 152 174 181 190 177 164 155 156 176 182 193 186 170 188 188 199 219 210 195 206 204 212 206 212 204 195 181 165 159 154 162 189 201 195 186 156 172 155 179 184 210 206 179 156 157 144 201 169 192 137 131 185 146 145 185 152 167 161 146 167 135 162 95 141 107 159 113 123 86 93 136 75 133 97 152 84 63 90 132 111 121 107 167 108 63 67 119 138 98 97 85 80 137 143 122 127 147 130 108 84 67 66 66 124 104 175 159 131 109 129 103 102 176 176 152 170 160 170 63 72 141 73 79 198 134 222 255 133 120 135 107 108 73 146 83 100 170 146 78 167 130 191 224 216 208 188 128 124 165 138 189 188 142 112 79 119 110 121 126 119 86 196 188 151 190 200 144 136 85 148 149 101 49 154 56 106 149 119 131 109 147 108 70 175 73 166 94 187 118 216 190 130 94 185 89 92 193 160 153 129 131 138 159 196 205 162 179 174 192 119 183 81 133 152 101 140 103 106 91 94 78 82 180 168 102 164 75 94 61 106 54 144 117 165 167 165 165 199 211 134 227 192 99 176 158 122 98 77 156 77 67 76 122 182 121 134 94 161 155 144 92 102 108 121 59 108 83 106 37 67 34 143 109 94 107 80 161 64 73 98 129 105 89 147 143 62 83 98 164 83 91 176 142 107 91 72 77 105 85 164 84 157 59 54 73 62 97 29 113 89 97 133 171 143 163 130 147 149 119 109 207 168 177 102 109 91 97 98 93 81 75 131 183 91 159 119 104 107 122 135 129 190 193 96 187 182 91 155 197 151 152 167 65 145 67 95 189 88 191 111 199 138 221 135 200 114 60 121 155 159 123 95 43 151 117 139 66 151 112 163 139 176 164 40 18 31 105 88 88 100 127 128 156 69 149 151 89 106 91 130 183 130 144 157 149 152 67 85 152 96 95 140 98 148 163 143 145 172 72 135 138 174 81 179 179 170 157 153 142 135 28 122 115 124 100 45 48 44 48 55 169 98 189 103 200 212 107 201 140 113 149 198 200 200 199 193 148 184 192 89 186 74 135 55 130 132 125 39 76 149 141 157 166 87 85 205 151 109 152 115 97 94 149 173 183 231 135 127 218 119 183 155 141 132 111 151 42 108 122 52 126 81 106 89 159 136 120
108 114 123 131 144 164 176 191 184 182 167 157 149 170 188 184 185 184 191 194 196 198 196 183 177 201 214 216 218 211 198 192 184 171 166 172 188 194 185 176 170 177 189 205 214 209 178 172 158 152 140 133 183 154 202 199 192 141 176 154 177 174 189 160 177 171 179 118 141 176 90 90 144 53 107 120 63 70 136 106 133 71 115 55 66 88 159 85 86 59 91 74 91 104 131 102 79 84 97 137 169 175 126 159 90 111 81 83 98 131 101 152 124 131 111 118 103 140 94 91 130 110 103 133 69 54 171 88 107 170 154 144 140 190 86 116 73 174 72 165 158 152 156 163 163 118 116 205 107 176 181 79 110 140 180 164 159 119 149 123 134 127 37 141 172 125 172 127 129 112 172 141 189 187 86 73 69 133 104 138 171 75 167 82 186 178 161 149 97 118 112 101 175 140 172 195 144 127 74 126 189 90 136 158 141 178 131 74 181 202 169 132 132 124 180 95 74 130 73 85 146 201 186 114 118 91 85 116 93 161 104 180 110 163 39 129 138 62 71 74 149 92 214 119 130 229 179 187 173 105 40 152 113 95 127 44 60 165 168 100 123 90 77 56 75 97 134 165 84 80 122 89 107 47 62 134 49 150 169 87 88 76 110 63 138 67 181 162 100 72 134 154 161 117 162 191 118 105 134 141 94 160 152 90 175 154 140 44 34 45 31 45 32 144 154 146 135 121 199 105 136 196 96 102 212 173 104 203 108 91 187 151 121 116 127 153 80 72 180 84 156 182 194 166 107 137 133 181 160 193 211 214 169 103 167 95 137 96 45 125 102 92 106 102 110 133 192 188 104 109 127 105 133 72 67 67 157 105 84 82 154 55 76 129 71 185 79 65 105 65 117 56 142 123 155 140 94 73 148 156 159 127 76 84 92 183 172 113 98 55 106 148 96 119 165 95 92 164 105 174 68 138 150 179 159 92 174 175 161 174 99 143 97 88 151 116 106 54 118 70 88 32 142 110 160 118 117 91 198 196 210 208 108 121 155 130 169 192 90 136 80 172 175 174 167 192 134 167 134 88 80 88 144 105 121 164 90 161 114 183 201 195 191 116 127 190 114 147 175 111 233 153 223 118 115 177 147 140 127 24 80 105 59 64 80 156 136 112 76 103 106 101
123 125 128 137 149 167 179 188 177 163 161 145 148 168 165 176 161 158 160 162 162 174 153 156 166 183 203 213 217 207 196 192 192 187 189 187 194 187 180 159 162 182 199 209 211 221 210 192 137 113 153 111 128 134 165 164 184 134 181 185 153 127 156 196 164 147 121 120 180 129 101 147 132 57 57 134 102 152 158 121 175 148 120 109 112 112 105 89 115 117 61 96 116 74 103 84 83 88 105 149 122 162 152 125 113 99 100 81 78 92 90 95 156 121 133 186 93 96 158 81 117 72 73 68 82 57 75 113 148 180 131 98 192 84 164 186 84 66 163 122 116 94 60 90 82 85 172 167 188 95 141 153 128 162 109 168 127 105 98 41 135 111 142 145 147 140 152 159 132 183 102 209 165 180 190 170 141 137 115 110 196 175 78 158 180 104 64 132 47 117 62 96 169 154 99 90 173 151 170 134 104 162 110 96 83 74 109 52 86 184 192 121 187 196 181 139 155 63 118 119 159 131 188 113 78 178 79 69 167 157 134 168 175 122 39 127 46 79 81 187 140 98 130 205 167 173 201 111 167 151 39 148 113 146 144 115 110 86 166 61 143 98 67 81 71 139 47 137 173 164 124 57 92 126 110 157 164 167 184 147 106 179 191 90 74 75 183 125 134 91 130 70 71 120 84 81 99 153 124 143 136 137 108 150 165 163 117 53 74 151 68 69 145 96 163 108 128 118 105 138 90 88 126 106 106 116 101 85 113 95 88 160 187 110 147 171 71 174 87 173 94 74 80 77 126 195 210 208 159 177 210 212 177 108 188 196 77 131 54 66 70 168 196 188 129 80 154 113 172 134 86 172 165 105 150 166 165 155 139 104 45 87 130 164 150 119 91 158 90 145 78 173 178 175 113 142 137 91 175 60 142 68 126 150 187 176 93 90 159 149 72 70 106 117 166 161 74 71 120 104 169 67 169 138 188 134 88 68 80 255 93 183 177 142 84 101 119 19 55 146 122 146 151 63 67 143 156 130 190 176 176 167 206 153 135 123 146 169 118 80 126 83 118 108 198 104 201 82 117 112 61 81 123 139 170 134 150 98 162 151 145 193 164 97 188 131 138 101 104 122 227 180 162 117 98 80 84 145 99 131 113 32 141 94 61 62 84 102 143 128 83 174
122 124 129 141 162 184 190 182 161 146 151 138 142 152 154 159 145 149 163 154 155 162 141 137 141 161 176 194 207 192 190 184 191 198 204 209 202 186 179 169 161 167 196 205 209 209 205 187 160 137 106 145 136 124 154 215 198 173 170 150 208 167 145 193 141 195 145 183 178 91 84 143 64 146 60 70 100 138 134 106 100 169 76 102 62 136 72 134 71 121 71 66 63 73 87 110 102 104 121 117 109 98 93 92 139 119 147 116 81 140 99 78 153 103 188 177 112 151 142 85 175 139 98 65 133 79 81 106 106 125 107 84 151 81 79 186 82 90 77 67 53 49 168 123 186 81 175 174 188 88 166 153 137 173 185 168 151 110 156 152 156 146 176 193 167 111 181 150 176 136 97 212 126 170 111 173 163 124 160 144 153 192 108 119 94 138 92 91 44 97 39 144 167 147 193 187 82 179 108 181 72 133 67 67 76 144 68 151 91 122 131 117 104 184 173 171 74 78 171 112 205 216 120 110 179 169 174 167 150 171 117 123 136 176 131 79 131 98 143 130 180 99 116 156 108 194 197 165 155 155 129 60 169 80 172 99 148 96 118 98 55 135 108 130 132 136 119 118 147 121 84 114 81 85 176 149 109 184 153 176 116 140 200 172 149 116 151 146 176 65 168 75 77 113 154 72 165 163 106 84 156 98 123 57 49 50 156 107 127 63 83 54 53 89 82 104 187 175 127 100 105 158 104 148 206 110 103 129 122 78 81 187 178 94 71 64 77 108 112 131 176 72 155 60 142 191 188 103 193 188 197 156 216 160 181 176 178 152 68 74 81 116 85 85 187 81 188 155 203 110 169 113 170 172 124 180 179 123 73 59 58 58 62 56 76 177 158 79 129 158 67 169 98 189 179 125 117 120 81 101 95 58 133 120 80 137 137 132 129 122 64 159 171 69 84 85 163 132 71 148 165 129 83 105 166 160 141 86 160 85 144 135 146 164 104 49 113 41 155 165 120 151 77 109 179 142 210 174 190 81 147 161 111 176 255 196 178 179 98 85 190 86 183 195 195 117 100 92 74 65 110 154 146 89 143 129 136 99 172 196 188 76 180 133 108 147 131 130 222 180 197 121 180 162 94 87 132 63 148 61 49 69 134 42 116 103 165 56 145 82 78 186
107 113 128 148 175 185 183 164 147 134 136 138 157 155 151 146 146 143 157 158 165 165 158 144 149 156 179 191 193 195 176 177 183 199 210 213 210 193 174 161 156 167 164 175 177 180 193 182 167 139 112 142 152 133 205 177 204 236 217 211 196 199 129 182 111 123 159 126 148 84 81 111 91 148 89 75 90 132 171 121 127 106 137 130 72 71 65 57 50 64 96 70 63 73 81 119 111 112 166 125 106 118 95 87 95 157 114 97 130 57 63 81 78 106 149 124 101 161 86 87 111 152 179 173 113 166 81 96 192 174 86 67 59 86 187 198 191 113 97 143 139 60 165 107 177 179 137 121 127 154 71 149 142 162 194 134 187 95 158 134 104 171 196 201 159 206 191 176 116 143 96 134 157 180 160 95 127 69 188 190 116 111 175 108 80 85 181 100 95 31 143 144 61 130 83 194 192 111 87 192 99 186 179 171 128 117 76 142 137 119 63 75 83 188 141 172 91 104 140 185 201 149 107 198 187 138 75 97 102 173 174 179 138 101 151 142 65 157 133 150 116 187 159 89 186 136 192 174 77 171 110 172 183 190 99 111 99 114 68 95 78 119 96 131 174 170 176 158 177 94 120 180 97 120 80 191 98 172 200 169 133 185 115 93 95 107 126 131 73 182 186 189 152 119 69 82 88 179 111 93 108 114 60 95 95 63 92 131 178 185 161 166 99 163 172 98 96 57 105 114 121 88 72 124 127 167 108 88 163 146 168 75 71 76 159 79 158 147 174 79 83 178 142 143 64 75 98 179 75 131 173 157 178 176 145 149 71 99 150 93 182 162 78 181 159 188 138 129 187 166 79 160 85 85 146 189 130 200 255 74 99 65 101 90 175 179 132 115 97 147 181 189 208 124 141 233 160 163 109 83 158 146 164 79 137 139 161 145 57 153 108 88 163 102 73 66 67 110 109 89 72 105 154 53 86 110 195 173 91 59 138 158 115 158 63 141 130 99 140 84 178 170 64 86 152 124 150 130 159 160 50 77 179 100 193 212 179 175 191 149 213 146 209 169 111 115 138 154 123 172 73 160 172 128 166 100 204 152 188 128 74 119 147 138 109 142 122 149 164 179 116 111 186 188 185 189 146 144 184 84 77 62 51 67 110 173 146 118 121 56 154 110
100 111 130 151 174 178 167 144 125 112 115 146 157 171 161 145 139 151 149 161 179 171 175 162 161 168 182 199 199 196 177 175 176 186 194 208 207 189 176 157 148 135 146 153 163 169 157 175 160 146 140 145 168 172 156 203 236 239 230 208 218 172 132 157 91 139 144 101 111 85 117 80 78 76 159 100 133 95 107 112 139 153 119 84 77 144 132 62 124 53 59 54 65 78 90 105 159 135 136 120 89 59 67 90 87 101 103 98 77 43 47 49 69 104 90 96 116 172 86 101 101 107 80 111 142 102 67 166 81 79 173 53 88 58 136 89 185 173 57 157 120 136 53 156 163 74 181 80 103 172 91 102 101 200 97 144 135 112 194 197 108 195 189 220 130 193 204 118 105 169 165 188 121 113 147 101 70 112 185 165 189 135 78 73 185 180 121 67 96 80 104 135 159 141 187 182 208 111 199 154 206 199 181 79 147 70 145 86 174 72 173 70 169 194 106 150 91 197 146 129 205 113 106 193 79 155 124 99 59 88 143 130 162 178 176 167 116 152 124 105 87 153 71 173 73 178 134 167 89 86 100 187 96 194 214 181 148 171 128 128 88 137 89 96 120 131 114 118 112 92 160 180 186 108 165 111 122 186 176 137 97 136 123 178 92 66 84 128 150 186 113 94 83 136 174 115 145 127 161 164 87 120 46 61 33 145 102 106 113 150 99 164 100 119 102 163 81 51 59 50 158 94 79 92 116 119 137 109 185 126 84 144 86 55 42 43 53 61 100 164 90 140 62 150 149 118 88 183 115 70 116 73 168 183 91 107 159 119 107 117 158 146 164 175 95 205 123 137 143 177 115 86 120 189 86 165 198 143 125 175 120 76 177 88 149 148 169 189 184 76 161 105 211 221 244 183 204 158 195 108 168 183 107 191 155 79 64 94 152 139 129 153 160 120 99 151 79 139 91 163 156 151 46 149 175 167 131 130 80 88 107 146 141 100 111 153 99 185 170 190 180 123 117 175 199 124 203 181 175 143 100 48 97 90 188 214 185 194 195 181 215 121 138 190 146 185 154 183 151 175 79 66 149 176 144 91 138 195 170 184 167 150 155 95 105 170 192 193 190 150 190 167 90 127 100 158 174 123 204 157 170 104 171 173 134 121 103 78 122 147 174 104
109 123 142 155 162 159 147 115 97 104 120 134 165 166 182 166 157 162 156 173 198 190 181 162 162 186 194 194 202 190 187 178 164 172 179 193 197 194 173 152 140 136 128 147 135 149 141 130 152 123 130 148 161 195 218 211 232 229 173 174 185 122 142 120 89 161 167 133 167 146 144 91 94 105 162 151 117 158 121 178 179 105 162 168 104 101 91 149 72 65 93 89 77 66 78 90 101 100 86 121 71 67 53 58 128 96 102 84 62 45 35 46 66 78 89 91 161 162 90 130 105 84 89 163 156 99 137 130 92 114 79 61 151 55 70 80 82 65 80 159 156 52 52 86 172 88 111 83 166 86 84 96 183 94 185 188 142 129 108 188 100 193 138 163 141 195 98 109 65 112 176 200 188 180 138 109 108 116 162 121 204 137 138 158 177 97 141 92 55 77 135 66 92 169 180 184 192 215 122 127 215 193 166 121 79 81 124 176 192 189 92 139 106 173 186 191 84 142 205 124 89 85 88 135 123 98 60 54 91 83 157 98 140 198 83 177 170 166 174 97 173 162 151 165 155 182 174 123 166 116 183 183 202 158 194 131 185 158 145 80 71 140 86 155 198 146 93 157 84 97 137 126 154 137 168 121 104 159 180 186 103 188 165 92 121 149 50 169 122 141 136 74 134 110 165 97 101 191 122 200 132 86 73 146 114 45 153 72 141 214 165 163 205 118 90 86 62 81 73 54 165 121 95 90 195 111 113 114 188 116 124 170 65 106 139 112 38 93 152 101 142 145 153 148 124 107 168 125 89 135 134 102 181 196 90 79 148 84 80 138 153 152 61 73 133 150 185 215 213 116 157 180 194 152 171 105 185 147 133 114 192 123 127 103 140 189 187 91 161 100 159 152 204 185 238 238 183 105 96 192 88 112 194 137 118 146 82 169 159 127 150 131 175 108 59 155 49 67 44 162 66 116 126 68 143 158 216 96 79 157 153 121 97 139 143 152 177 173 96 94 124 150 137 87 117 153 85 177 255 96 54 154 59 146 198 162 161 93 178 107 188 213 171 131 207 135 146 176 104 170 122 175 99 77 81 128 89 165 108 85 161 153 111 93 92 143 185 98 100 125 112 114 92 114 92 154 109 190 128 107 146 105 167 113 131 82 96 76 79 172 255 144
125 138 153 160 159 144 131 106 93 99 124 143 167 174 188 200 181 179 190 188 198 200 191 187 184 190 198 201 194 191 181 173 153 160 163 179 185 178 170 162 143 133 143 131 159 164 166 158 122 123 140 132 174 207 164 205 195 149 181 150 111 146 165 93 113 101 181 116 143 156 165 125 107 126 101 167 127 90 135 110 115 99 100 128 137 112 88 142 153 150 135 67 87 79 122 80 133 83 82 88 111 76 55 57 73 88 94 119 76 58 34 65 101 149 118 93 69 152 90 80 124 118 84 70 71 159 104 117 112 212 99 143 57 141 111 67 51 154 134 138 60 60 162 122 76 170 170 129 108 157 104 147 183 161 137 168 115 173 162 210 136 141 112 179 201 192 149 110 105 77 94 183 192 192 151 149 92 167 131 161 161 172 161 164 186 191 184 145 90 167 171 141 167 167 169 154 142 194 210 133 172 104 169 171 192 184 195 139 198 104 191 129 139 189 88 102 73 180 172 170 140 155 158 152 151 81 71 169 79 112 199 96 138 198 142 115 168 172 157 164 166 164 158 180 97 105 107 196 203 115 141 187 123 172 90 106 134 127 144 66 46 55 156 181 131 180 181 179 255 94 255 199 129 157 115 129 192 110 82 178 167 184 175 141 180 117 65 135 79 191 146 164 61 113 189 118 210 218 207 224 141 108 75 101 54 153 100 71 96 113 172 229 120 217 203 106 115 150 60 90 156 143 133 71 105 104 126 114 176 172 174 164 108 139 54 29 34 126 87 163 86 175 128 56 113 160 154 89 163 78 68 96 87 93 128 178 120 128 137 77 170 130 150 77 182 128 213 152 222 136 194 116 131 97 198 199 154 176 110 135 187 100 180 182 111 153 168 139 76 125 105 162 172 110 220 217 201 208 196 157 160 200 163 144 159 68 171 153 132 120 204 197 174 81 72 62 114 42 120 124 163 78 61 73 178 211 110 90 74 62 111 72 135 123 140 139 75 153 188 127 82 52 63 65 131 193 178 145 117 161 73 100 110 177 135 98 113 104 98 172 156 151 97 144 175 134 195 122 115 178 157 146 150 188 89 182 69 165 114 140 50 123 54 109 123 145 83 73 77 109 55 92 149 122 172 90 107 104 155 130 108 155 104 95 112 176 60 161 153 112 94 96
125 140 157 164 158 146 124 109 114 115 125 143 149 168 193 189 191 203 212 207 206 203 200 194 191 192 191 179 181 170 170 158 157 153 161 170 176 177 174 152 159 152 144 146 169 164 169 154 153 146 125 147 155 190 207 162 203 176 103 125 90 152 124 168 134 87 116 166 111 139 159 174 107 176 170 87 79 127 149 135 171 119 151 93 109 87 171 174 105 153 149 83 136 91 133 102 75 88 114 100 82 88 55 52 85 106 78 58 39 26 94 53 88 124 65 75 70 81 106 121 91 81 172 81 100 108 133 126 189 154 144 79 56 151 50 128 119 83 155 64 70 176 72 182 83 142 175 76 58 116 68 116 128 182 174 88 146 87 115 191 143 178 185 171 157 168 136 158 85 167 147 86 141 188 168 163 78 73 151 112 178 161 122 122 148 103 191 181 149 156 181 134 119 101 66 174 78 97 200 190 179 170 150 138 205 116 148 129 209 195 85 80 139 181 151 125 66 51 143 146 89 64 159 124 124 64 70 127 171 127 125 200 92 96 87 181 105 177 93 176 103 177 87 194 196 143 219 221 120 192 80 71 172 142 126 91 134 169 134 58 113 76 99 197 173 94 171 116 178 115 118 202 99 119 171 107 175 91 185 80 168 73 76 180 97 133 69 164 186 175 100 167 88 121 101 122 120 213 202 147 140 113 91 70 125 52 157 86 102 104 178 128 231 135 149 94 178 166 94 90 74 105 122 255 86 145 194 111 96 76 172 76 75 147 49 124 35 32 121 144 165 178 163 168 175 166 157 179 71 144 166 134 90 130 122 151 106 86 91 143 164 65 81 178 141 192 195 216 121 217 125 141 174 191 91 185 166 176 178 123 136 179 162 150 107 168 99 174 107 109 135 167 77 100 101 98 148 208 143 219 200 107 109 180 172 72 177 135 128 145 147 190 146 138 51 54 81 107 155 77 100 157 92 170 96 136 147 175 84 161 50 65 64 122 44 82 155 146 145 73 165 110 154 136 182 108 72 162 62 82 170 100 113 159 114 181 83 65 172 85 71 113 183 192 199 154 149 95 132 200 125 208 124 116 159 139 81 72 56 119 127 107 146 110 124 113 181 83 80 67 105 121 34 155 169 110 86 125 181 72 166 76 135 140 87 98 68 56 160 188 165 149
113 131 154 169 164 153 143 132 127 133 149 145 158 158 166 187 208 213 216 203 212 203 197 178 189 187 176 164 163 160 155 163 157 158 157 167 167 168 162 176 157 173 171 184 181 144 140 169 159 130 159 149 204 195 168 171 204 134 83 106 111 127 86 138 124 170 163 158 138 159 169 111 179 187 103 162 94 150 96 172 164 97 92 108 159 113 96 116 150 120 106 97 109 97 85 89 97 80 114 97 150 135 71 89 80 67 117 100 28 82 40 81 102 99 112 84 125 80 158 67 79 77 148 155 104 153 129 173 119 127 155 109 166 150 111 24 123 34 158 166 178 174 178 191 177 109 74 160 54 138 126 158 191 78 128 122 117 179 111 215 132 101 186 126 156 175 159 114 101 149 127 65 141 154 145 175 79 74 136 146 65 65 80 164 190 112 112 103 191 158 184 79 171 80 90 160 59 174 186 108 130 178 190 106 102 118 187 93 132 114 99 159 161 71 147 33 130 109 43 85 169 165 134 106 124 91 95 183 200 140 119 103 125 186 190 188 177 123 173 103 118 199 138 209 127 217 126 124 217 200 75 73 114 167 64 159 68 102 159 121 125 147 177 117 147 166 152 119 203 147 212 145 89 91 134 160 92 158 133 150 73 70 126 74 170 84 74 175 87 91 185 66 129 123 118 116 150 200 109 100 102 85 78 85 79 59 120 65 148 148 160 125 146 170 127 102 119 181 85 174 154 48 88 111 70 157 147 183 197 99 151 73 169 98 65 47 144 122 50 64 106 140 173 170 137 129 191 112 60 141 138 48 62 55 68 90 103 133 82 133 121 159 183 197 171 119 197 116 200 155 175 119 88 126 91 200 102 148 106 186 149 64 68 185 183 186 114 171 121 101 99 113 180 152 73 163 79 100 121 172 128 140 171 116 113 175 179 150 186 85 118 98 170 88 147 152 91 180 179 154 158 80 67 66 178 124 92 151 124 150 148 44 142 139 157 60 110 110 175 151 164 144 61 135 149 77 151 129 126 176 182 119 139 168 102 112 158 129 167 74 48 107 162 138 190 208 127 176 255 195 125 131 127 213 201 165 70 143 109 81 26 32 87 54 83 154 187 171 178 113 77 88 107 107 71 90 118 103 142 90 49 117 142 183 130 161 62 81 74 174 123 163
100 119 144 161 165 162 158 152 141 146 156 158 155 151 153 174 194 193 201 200 190 191 178 171 167 159 167 152 157 162 162 166 171 169 167 169 165 165 162 175 174 181 255 194 189 183 142 135 155 149 136 178 177 179 193 218 193 144 98 129 61 85 139 149 133 141 137 67 124 150 99 97 109 101 92 98 112 114 156 168 170 120 122 127 93 96 98 112 88 112 93 151 160 114 106 100 102 102 131 122 151 122 107 59 85 77 48 40 35 57 39 48 57 96 73 145 148 158 75 139 159 70 159 185 104 102 197 174 194 96 91 172 168 150 31 33 126 146 159 167 126 173 153 174 180 83 151 133 55 92 160 127 181 161 150 116 164 157 183 166 186 171 182 185 182 150 140 183 103 98 138 143 141 115 162 129 84 130 157 157 62 139 154 81 112 211 201 162 180 77 91 167 160 61 120 107 87 58 84 73 81 182 157 176 203 94 116 138 177 89 70 54 126 106 131 73 22 70 56 71 145 178 78 90 165 171 149 95 177 189 136 73 145 175 164 137 166 144 87 93 110 207 221 222 215 125 122 225 164 167 79 147 135 169 145 65 160 154 112 71 164 105 189 186 131 131 89 193 111 222 106 119 148 178 98 89 180 92 89 186 68 164 143 100 76 77 96 193 109 102 112 81 179 182 195 97 100 205 91 87 72 169 64 82 102 115 167 77 82 121 91 119 115 155 123 173 120 129 172 130 75 53 39 152 175 106 120 178 209 177 92 176 71 84 176 121 94 156 92 154 151 81 159 138 135 192 105 151 118 100 128 46 102 157 122 83 111 162 138 120 155 123 198 121 206 195 96 98 181 62 94 149 162 131 92 122 147 96 168 80 92 102 62 146 102 140 130 113 160 180 178 146 198 114 115 90 79 87 203 214 199 102 198 192 94 91 167 191 107 182 184 133 171 168 69 124 86 166 98 98 183 80 65 63 130 140 158 39 115 50 56 72 72 100 140 174 74 162 164 173 98 105 135 71 66 95 132 146 64 114 201 146 216 135 177 184 148 141 161 77 66 133 82 132 112 201 101 201 98 144 121 148 180 180 105 94 73 123 43 39 28 80 99 82 65 172 157 155 183 152 145 133 135 139 195 155 162 120 32 51 39 115 111 151 74 91 46 132 111 180 170 128
106 117 130 143 151 157 153 157 160 162 157 160 174 170 168 173 161 177 170 167 181 166 165 151 160 156 145 156 157 161 176 183 183 179 170 168 162 154 163 169 168 174 191 198 196 164 163 171 145 155 145 168 178 179 214 154 170 157 93 64 133 132 79 133 148 139 59 109 48 75 108 95 178 103 87 138 82 121 83 157 93 89 116 101 91 90 160 76 76 126 101 150 131 96 74 97 74 85 103 159 113 120 77 67 40 57 66 38 86 30 40 109 108 60 138 133 136 86 92 79 68 78 154 124 185 118 98 123 160 139 172 85 168 101 54 51 73 47 54 165 127 109 98 82 153 118 174 76 112 98 160 65 78 61 115 162 107 116 145 65 181 177 197 148 196 121 190 124 152 107 129 53 155 77 137 101 116 172 169 166 156 148 153 184 182 142 207 180 137 96 72 157 154 65 164 151 155 132 168 167 107 172 177 101 174 84 100 91 73 149 97 93 81 152 138 110 146 129 163 181 85 157 188 200 205 175 170 167 147 69 111 97 133 110 103 157 114 164 97 185 203 164 131 189 94 125 171 212 187 129 84 155 78 119 158 99 75 127 134 172 182 182 175 177 161 96 87 151 217 121 106 142 174 129 164 174 176 120 97 83 100 165 107 75 122 77 94 171 216 134 111 183 173 89 104 105 99 151 190 87 63 68 81 116 128 116 144 183 188 84 89 155 195 115 189 208 210 108 179 130 70 87 91 106 108 128 139 110 145 199 81 158 174 131 86 185 112 113 136 53 109 143 108 156 73 171 109 53 34 50 41 144 115 94 182 137 92 78 169 162 103 192 139 227 219 170 183 186 124 154 40 132 89 101 181 104 79 125 141 62 95 147 123 168 81 197 153 114 101 139 139 133 132 205 151 144 134 79 102 200 200 152 200 117 196 189 170 173 147 193 146 176 175 83 155 128 121 130 97 105 117 144 61 148 166 148 146 73 62 21 125 139 115 115 152 96 137 154 172 128 191 149 73 71 121 113 111 156 100 116 134 183 111 200 167 117 150 70 167 156 159 64 83 128 158 119 189 159 102 187 139 141 218 201 193 129 193 90 148 46 91 53 153 71 137 180 122 97 97 64 119 52 160 131 105 165 191 56 32 119 155 161 96 97 120 162 158 167 96 188 132 193
120 119 120 127 136 142 153 149 163 162 165 168 184 182 182 165 159 144 150 153 151 158 144 142 149 159 160 255 173 179 183 197 196 188 175 162 154 155 148 153 176 166 175 192 181 189 171 174 146 144 139 178 194 210 216 173 128 115 102 150 111 140 72 63 144 111 57 141 118 130 131 95 88 91 140 83 76 83 105 165 150 139 87 128 123 103 134 66 85 97 75 115 72 66 58 62 94 91 110 127 124 105 74 41 52 39 84 59 45 49 61 51 84 75 72 83 79 71 46 255 66 62 118 118 70 82 80 84 137 101 115 97 68 142 255 41 127 51 148 124 167 118 179 151 173 108 184 129 179 104 144 156 145 60 167 128 70 149 99 153 175 113 130 148 155 106 173 120 76 144 68 139 73 84 146 111 162 66 84 64 162 102 167 184 189 143 164 167 140 71 167 118 124 102 104 148 130 89 172 166 71 68 159 94 93 81 133 90 70 165 71 116 102 132 176 83 146 172 162 103 102 205 149 203 164 92 172 158 56 120 151 97 165 97 151 168 149 106 170 176 87 89 78 105 170 76 129 91 140 188 160 84 125 180 120 138 128 165 140 171 185 177 175 194 182 162 184 176 207 197 111 155 91 71 171 95 85 100 95 172 150 91 175 151 116 139 97 190 184 128 181 88 181 80 121 170 100 106 116 71 153 59 135 78 255 118 93 106 116 87 138 182 95 139 160 105 123 182 96 161 119 67 54 133 150 179 99 128 190 184 180 171 120 107 92 170 200 87 97 62 55 27 111 46 112 75 88 54 104 138 118 107 80 178 89 186 135 106 75 152 171 212 218 212 219 180 173 194 140 168 154 150 120 150 119 131 85 75 106 120 128 139 131 173 183 85 171 124 146 205 220 231 143 132 98 186 78 171 166 76 189 192 112 130 137 227 130 151 101 171 182 163 150 141 76 160 105 120 112 160 119 137 117 60 146 122 118 22 125 127 105 48 87 182 105 156 140 123 162 90 133 157 179 178 176 69 171 109 175 167 137 184 161 105 109 87 84 126 151 155 126 116 195 102 111 196 173 160 211 99 118 153 105 128 204 122 113 177 99 70 64 173 173 147 126 171 117 120 147 53 42 57 108 186 211 105 101 165 63 78 105 126 130 198 101 155 70 127 189 158 129 153
129 120 110 116 125 137 150 157 166 169 176 179 191 185 169 157 140 135 127 122 139 156 163 150 165 162 175 185 181 193 194 205 203 188 169 150 144 152 161 171 181 194 191 202 187 179 184 145 150 159 169 140 184 193 170 202 181 168 101 146 145 111 129 123 82 96 78 71 150 87 103 154 107 89 145 98 110 87 93 101 152 79 76 86 90 110 123 66 106 46 61 67 76 53 87 57 79 122 117 128 118 81 92 56 80 53 42 77 110 114 64 82 73 54 60 143 68 87 107 79 59 109 167 79 99 124 173 96 190 100 98 112 58 46 37 146 47 52 144 152 174 180 87 95 67 105 136 99 197 84 155 144 167 167 77 169 122 127 146 106 157 86 177 110 178 128 81 95 162 124 184 142 166 88 164 158 145 84 76 88 159 113 118 106 83 123 201 101 115 192 143 139 160 76 69 174 76 139 128 144 126 65 83 97 142 176 87 120 181 184 174 163 149 178 187 190 86 183 140 128 143 93 108 182 141 175 95 50 103 122 156 81 188 183 180 172 100 64 179 91 99 88 166 144 108 117 122 165 155 180 183 124 172 103 115 97 84 81 111 133 80 136 87 140 115 117 109 138 165 156 192 132 106 140 62 64 162 114 104 131 95 177 155 68 144 75 189 104 138 82 79 157 62 79 77 85 125 180 156 152 44 96 43 65 68 137 105 154 118 85 119 115 182 102 84 173 106 174 88 123 80 96 87 144 158 61 111 77 114 173 87 77 155 91 162 179 92 114 141 107 18 105 31 97 129 95 69 153 52 54 169 161 81 189 134 105 207 197 120 127 201 145 203 212 119 199 196 153 191 121 183 170 128 160 109 176 119 161 137 75 93 135 148 116 185 169 186 148 108 124 116 225 183 155 109 123 153 102 78 108 132 185 151 120 206 228 229 128 106 191 99 143 134 161 79 64 119 80 141 100 160 158 133 135 133 158 117 26 54 47 131 125 81 196 181 103 103 149 178 87 168 187 134 179 176 107 178 189 85 80 99 101 139 77 76 144 147 152 51 132 131 105 120 157 121 210 190 216 137 139 107 111 210 122 201 229 225 186 183 124 177 89 131 135 159 165 59 135 107 50 123 119 123 120 95 117 178 87 86 161 157 116 111 199 81 169 109 107 107 157 137 137
121 113 108 112 125 146 150 168 177 188 187 183 184 176 173 155 134 123 123 131 142 161 174 178 171 177 186 204 203 190 199 206 205 186 166 154 146 151 152 177 192 192 198 173 185 184 172 165 163 151 174 187 192 169 211 183 178 151 103 105 149 108 144 144 110 158 106 148 127 91 121 132 111 164 101 105 148 74 129 127 163 80 80 146 83 112 73 121 110 39 101 69 56 56 68 90 106 106 145 131 133 78 99 87 54 110 59 77 59 57 53 53 93 74 52 52 56 38 45 62 146 97 71 164 79 150 191 109 118 110 188 62 45 64 62 136 108 119 102 144 73 147 76 62 55 92 82 100 192 124 160 165 175 98 185 144 182 139 88 168 124 149 187 168 160 153 66 71 105 125 192 137 183 175 104 164 106 92 58 75 127 154 112 78 135 152 186 199 158 205 188 175 144 107 73 79 181 132 102 134 124 87 66 61 65 72 175 91 143 96 182 85 151 182 159 183 133 85 115 141 152 117 65 172 169 255 137 163 138 107 160 138 148 199 147 171 130 121 84 93 90 98 146 52 143 88 119 121 96 82 99 172 115 182 158 120 200 82 146 107 136 164 184 178 177 109 172 170 187 185 122 112 159 132 119 153 99 150 164 94 191 84 171 79 134 112 94 191 173 138 39 31 43 69 148 77 94 138 60 81 47 147 40 62 57 81 162 75 76 176 146 116 160 141 83 63 92 49 79 163 98 74 71 123 144 90 161 168 95 171 110 112 165 97 132 97 112 52 136 125 41 120 114 81 63 118 173 87 86 123 153 144 96 184 202 106 143 106 107 188 108 227 197 228 205 145 113 178 100 112 180 84 166 133 76 126 89 137 161 78 85 157 167 174 114 122 131 97 150 171 151 216 162 172 194 145 179 80 67 163 143 127 95 126 121 148 189 182 136 100 79 89 192 128 81 98 69 168 93 110 137 58 110 149 185 103 67 112 141 148 112 142 106 160 120 206 185 202 99 162 174 86 86 164 170 167 110 112 184 69 143 139 71 120 149 150 79 57 83 76 106 80 168 90 122 153 129 102 106 152 216 128 178 167 174 205 120 141 133 99 179 134 62 58 56 68 58 52 52 156 157 56 116 104 88 178 193 152 205 229 132 194 146 174 98 120 162 187 171 186 98 164
110 108 109 120 138 148 160 164 175 185 189 188 169 152 157 144 131 124 112 135 158 171 181 174 179 185 191 199 191 184 189 196 196 189 165 159 153 158 168 180 192 180 180 170 156 188 148 149 177 189 177 189 153 198 166 156 112 135 99 149 150 171 160 90 115 174 138 147 159 163 139 77 113 95 130 75 109 161 141 89 100 83 123 170 93 169 152 67 54 55 59 57 63 81 84 102 149 121 116 124 87 122 64 86 67 103 105 72 142 76 83 64 54 45 77 112 45 100 97 116 67 165 154 83 70 149 93 192 193 95 84 63 147 118 138 75 91 72 183 190 177 176 87 59 104 161 97 178 108 169 99 193 130 89 158 99 161 182 168 189 153 169 156 108 156 87 147 148 150 180 148 145 178 182 66 75 109 123 72 25 115 43 162 73 176 120 93 201 126 102 184 183 129 137 156 115 81 159 81 177 136 161 148 151 108 163 89 117 118 180 190 69 96 177 166 76 110 158 87 132 70 135 146 162 154 128 117 87 140 45 164 87 148 151 162 117 157 189 101 139 192 160 61 104 154 145 117 75 160 152 118 91 139 178 192 170 196 172 173 175 102 167 137 155 158 172 196 144 116 108 80 78 170 169 180 72 65 122 63 92 102 179 101 151 161 91 94 143 72 119 113 29 48 102 119 70 137 55 128 159 49 152 41 63 72 74 140 138 66 172 153 149 124 105 51 60 113 38 33 55 164 62 67 57 141 145 100 119 157 194 174 130 165 100 181 143 147 115 138 38 105 71 63 155 133 166 159 110 125 110 107 163 103 193 208 201 196 102 145 202 161 224 204 215 190 92 152 85 110 103 178 149 101 137 148 166 121 167 175 107 128 114 165 146 125 103 122 118 105 152 97 120 113 125 150 110 127 178 169 137 102 99 184 155 176 109 176 182 176 176 87 176 84 175 136 79 167 171 84 140 155 75 111 119 162 189 72 43 136 147 148 154 88 175 107 197 159 168 170 198 173 82 146 110 173 120 135 156 88 65 107 49 158 167 64 79 128 82 162 161 98 85 164 109 89 202 132 111 103 113 127 192 208 133 110 156 91 179 102 190 175 169 108 160 160 70 90 163 95 68 107 139 56 93 173 153 128 114 107 202 140 198 137 159 125 89 96 151 182 102 125 125
115 116 118 127 136 142 149 157 159 177 181 173 161 142 131 123 124 125 129 134 171 184 185 175 177 173 183 163 158 160 173 190 198 186 179 170 172 162 155 160 178 165 168 162 171 151 163 168 145 186 189 191 150 173 159 157 144 139 108 161 177 179 113 138 152 131 185 189 172 88 87 101 166 145 147 164 103 106 121 110 173 86 88 173 175 117 99 120 76 60 69 69 132 124 106 161 116 175 171 111 96 87 109 83 89 78 76 81 99 118 98 141 84 121 59 50 58 90 68 72 182 115 101 86 78 86 166 106 98 153 121 111 122 101 84 46 61 101 87 86 188 184 150 170 71 161 68 107 91 176 130 132 96 173 133 148 163 176 131 184 150 135 154 126 157 150 81 148 159 115 89 151 128 80 159 54 63 127 78 126 26 42 94 86 159 136 109 109 156 94 115 168 126 175 84 187 82 101 70 72 175 122 58 121 150 133 95 163 172 212 195 121 91 86 94 102 165 122 148 49 27 99 135 67 162 112 112 86 60 94 90 94 131 209 89 74 170 72 81 177 183 95 56 60 92 82 152 118 158 149 120 127 151 166 90 185 186 187 144 194 100 192 129 106 169 173 161 169 179 126 120 143 162 124 134 91 104 110 59 161 110 169 130 111 152 95 182 120 96 133 121 114 97 83 87 83 71 101 100 151 88 61 148 96 164 109 120 99 59 76 157 86 60 82 80 64 53 102 36 35 71 50 96 73 63 147 166 185 189 102 145 150 154 112 156 54 76 151 155 115 48 43 146 72 148 81 149 48 123 148 81 184 179 130 168 96 134 168 75 180 194 164 182 157 85 96 89 123 168 191 121 76 149 140 125 98 90 193 150 130 185 79 188 197 179 114 193 175 152 196 112 121 107 188 184 192 195 176 104 158 99 142 176 120 181 112 175 81 79 184 83 88 75 91 110 155 84 90 138 129 60 162 172 151 108 87 166 114 104 160 180 125 142 106 96 91 194 97 115 102 188 179 138 179 78 78 165 145 146 65 62 128 56 158 125 107 156 97 61 105 101 161 105 134 130 83 159 169 130 159 162 174 137 195 104 187 154 72 142 118 149 83 76 93 131 184 85 89 125 183 190 77 127 82 93 141 115 191 101 181 204 157 121 90 123 181 187 180 155 132 61 162
142 143 143 139 138 143 134 138 140 146 141 144 140 133 126 141 139 132 129 155 160 180 181 153 164 161 157 149 144 148 168 185 195 189 183 182 177 170 168 150 166 156 145 151 137 180 179 175 175 151 146 146 166 142 180 161 90 140 79 159 132 199 189 127 152 186 132 118 103 158 132 178 148 118 80 156 104 107 159 138 101 133 148 118 95 101 176 105 92 86 75 71 91 97 114 121 134 117 115 109 87 74 112 82 92 93 135 82 94 121 103 114 113 81 124 63 148 82 170 90 94 181 104 193 135 90 181 100 151 187 84 87 159 62 76 42 115 148 137 192 186 176 89 138 168 165 144 176 85 192 188 156 174 125 175 68 169 162 166 119 182 170 171 157 110 143 63 83 162 159 83 166 144 75 140 149 125 54 132 45 136 51 154 82 166 179 102 66 78 164 165 151 255 84 105 84 98 111 137 82 170 75 57 124 175 190 128 184 176 195 174 172 104 184 150 117 61 65 84 120 48 129 36 58 147 170 103 84 58 86 80 174 220 169 195 132 144 55 143 110 112 62 60 140 60 94 126 132 51 114 145 152 80 165 102 69 102 159 165 146 202 134 151 132 118 75 72 147 93 171 102 165 187 107 90 85 141 107 51 77 86 198 162 133 142 127 100 184 168 67 46 129 84 205 120 104 90 106 83 181 147 61 54 149 116 141 135 148 150 63 105 55 144 96 57 127 145 39 27 123 139 58 39 34 89 78 64 141 79 171 174 102 80 79 135 51 148 92 84 73 112 118 136 167 145 46 34 114 48 97 162 64 95 81 175 180 160 167 163 163 78 191 201 169 167 65 113 153 162 162 80 126 165 120 173 178 123 212 187 203 130 86 161 104 179 216 116 113 192 99 175 173 175 169 184 160 206 213 128 117 132 132 168 67 98 127 127 136 172 129 84 127 176 116 128 142 54 138 101 128 136 177 176 178 132 178 149 57 141 85 172 192 106 175 170 180 187 153 184 79 77 118 67 80 89 163 101 85 189 142 64 163 160 72 71 60 59 149 98 158 149 46 62 39 137 76 159 177 156 181 215 122 157 191 91 156 74 165 173 186 190 109 146 94 138 196 115 187 110 144 106 191 137 106 102 105 86 112 109 136 111 111 78 107 180 103 76 142 171 85 73 69
175 172 163 152 142 134 133 118 116 115 118 127 127 130 144 140 143 150 136 158 168 187 178 168 146 144 132 140 144 147 174 178 186 183 173 179 179 176 170 156 156 150 157 140 158 171 172 162 169 171 158 165 165 143 180 174 135 156 134 123 185 163 150 133 129 164 184 161 127 110 176 173 111 156 150 85 124 99 99 92 111 133 114 86 99 150 110 145 100 103 83 117 87 83 91 88 93 110 107 99 121 70 107 94 86 108 84 85 92 147 151 107 88 67 84 96 71 170 99 139 92 142 107 162 80 89 96 149 194 94 202 104 157 159 61 90 95 62 170 85 84 110 170 148 63 167 168 85 105 195 187 181 156 79 71 63 92 168 157 89 156 145 153 101 79 82 70 130 93 89 103 174 71 136 146 129 109 143 141 53 63 66 152 161 149 78 160 48 124 54 163 144 106 164 77 154 183 75 132 68 157 163 136 97 123 160 105 217 160 196 96 190 97 147 117 148 139 75 153 84 38 129 96 73 148 72 154 163 100 68 85 107 146 120 200 152 150 121 77 60 97 131 109 62 150 77 164 159 150 131 84 53 73 128 178 89 115 148 78 154 149 169 147 97 174 132 169 176 82 137 95 181 99 184 174 177 150 126 154 165 103 177 150 92 115 102 109 94 143 80 66 181 109 106 135 129 140 119 96 160 105 75 98 61 67 75 71 67 96 151 44 38 35 68 136 93 73 102 92 56 104 74 129 96 155 73 134 181 82 106 133 124 67 121 51 137 146 78 121 106 181 147 161 99 65 155 46 145 152 128 82 50 151 83 150 158 78 68 154 75 162 140 195 192 107 64 134 115 165 161 75 88 154 71 191 175 218 219 127 114 208 104 161 118 143 204 177 188 98 134 172 100 140 152 82 197 159 221 222 199 199 184 164 151 64 85 48 128 162 176 155 95 78 69 170 165 119 142 117 164 184 86 178 177 112 78 84 72 152 187 101 173 122 110 99 138 161 169 157 64 140 50 42 131 178 165 150 105 137 74 104 177 133 96 96 159 105 56 60 144 48 131 134 49 46 153 192 213 136 119 95 185 98 134 178 92 139 158 115 155 182 170 126 179 177 198 118 144 223 177 169 107 78 150 129 60 158 141 188 185 117 123 196 79 120 75 87 76 67 165 116 118
190 188 177 162 147 137 137 126 109 106 105 109 109 131 147 157 153 155 161 157 173 174 186 178 155 156 152 150 155 175 188 191 178 168 156 167 173 171 172 168 148 156 155 135 156 160 139 172 167 187 167 185 159 128 147 153 133 255 148 126 111 173 189 128 122 142 196 137 176 119 116 170 139 126 107 75 97 122 80 66 114 95 104 83 95 160 95 101 160 105 92 113 121 76 63 125 106 127 148 90 101 107 87 76 82 120 95 92 92 103 129 142 116 143 82 115 110 78 82 98 152 185 170 84 85 87 93 125 87 87 105 185 134 178 117 153 60 156 104 98 151 147 146 149 87 170 74 167 179 89 74 155 70 86 171 142 160 133 173 157 160 166 189 167 101 135 161 170 124 108 118 117 172 173 146 97 103 170 146 94 139 137 152 115 85 79 61 106 74 61 63 73 132 96 70 139 126 79 107 167 59 51 83 63 171 172 175 207 136 93 186 170 125 200 95 148 180 130 77 136 156 164 165 155 91 128 121 176 169 81 161 200 193 206 155 163 161 110 66 76 60 141 75 154 69 159 120 142 140 26 110 141 67 125 92 109 162 68 168 184 198 183 100 127 111 149 124 68 160 155 83 91 131 142 181 104 158 83 176 104 82 144 174 81 69 80 163 139 85 156 173 185 113 105 147 186 131 159 105 84 188 183 145 162 75 76 171 128 87 51 61 34 43 106 154 63 147 123 100 104 102 104 92 112 165 151 142 169 74 109 76 58 137 102 118 41 147 52 69 184 167 83 83 172 81 159 135 48 155 59 160 154 78 64 161 150 149 74 118 74 62 140 75 176 172 90 139 105 97 137 127 81 61 87 88 116 176 228 217 194 141 173 149 117 217 212 146 74 77 151 101 155 174 179 169 152 228 148 118 170 177 132 142 48 49 94 155 65 90 170 89 105 164 78 176 164 168 80 70 93 168 116 104 178 118 144 172 94 159 187 162 152 149 110 169 146 150 75 131 72 132 59 36 74 80 100 124 87 84 134 176 107 90 160 152 161 65 144 141 131 136 143 98 60 155 124 94 193 140 131 94 185 149 145 188 85 118 119 85 177 167 114 173 173 116 115 178 185 108 199 195 167 175 76 58 59 88 97 74 154 196 204 196 148 118 77 159 118 170 96 132 80
174 172 167 158 152 144 145 138 129 117 114 120 114 136 146 172 165 167 161 173 183 187 179 181 180 163 170 170 183 192 196 188 172 161 151 161 168 179 181 170 167 169 162 155 140 153 157 173 156 156 192 181 172 142 180 147 189 155 188 127 175 154 126 193 152 120 190 189 148 198 160 189 109 120 82 108 145 117 67 59 75 76 66 108 93 124 155 143 93 102 92 85 92 62 66 62 69 111 93 84 86 101 77 86 106 119 103 104 145 110 142 164 112 90 75 79 129 114 83 88 108 102 89 96 80 108 187 190 255 174 146 98 120 178 170 127 59 89 155 152 64 132 156 159 112 137 74 167 76 153 140 90 126 160 174 141 75 84 170 173 143 117 138 173 71 101 124 131 206 149 175 196 168 107 169 193 154 172 195 161 81 153 129 74 169 183 85 52 69 118 141 118 151 126 166 90 158 164 74 66 86 82 155 77 80 90 144 128 190 82 174 169 131 97 202 172 84 81 78 101 171 111 174 165 70 163 151 205 171 107 162 146 86 100 82 68 169 177 88 180 128 131 161 80 98 174 167 126 61 111 53 132 167 102 195 175 171 73 161 176 190 192 199 107 71 146 84 118 126 121 71 91 96 192 192 127 88 89 74 148 142 79 81 70 48 148 86 45 44 83 162 174 157 84 189 95 123 196 170 90 102 87 87 116 158 126 154 142 67 54 109 38 58 48 154 60 94 156 180 102 82 78 111 110 95 79 83 190 132 117 105 129 59 142 128 90 96 146 67 129 133 138 150 95 98 84 99 55 114 124 67 60 134 150 168 87 117 79 122 44 139 151 72 85 76 138 169 163 84 128 51 66 61 90 140 126 181 211 206 210 104 88 119 114 155 93 97 44 50 154 185 98 100 203 102 148 196 200 107 178 136 96 59 142 45 132 158 141 73 174 90 97 205 154 195 161 174 85 121 143 172 188 193 188 172 106 172 192 109 181 202 144 88 172 80 110 61 93 151 68 139 47 59 84 172 138 121 167 176 75 96 116 204 206 104 94 88 133 124 37 132 57 75 157 70 165 139 93 207 109 153 91 87 146 158 124 90 127 177 212 132 205 93 70 126 157 177 161 108 164 116 81 160 144 127 122 151 78 165 175 99 124 167 114 96 70 61 61 72 131 78 154
139 141 145 150 158 159 155 145 133 133 121 121 136 136 149 177 173 190 170 169 173 179 183 184 183 179 178 184 179 189 186 176 162 162 167 163 174 175 178 184 187 178 183 178 164 158 141 174 163 191 190 190 255 142 172 166 124 157 200 195 204 196 160 192 188 149 191 131 124 149 107 134 109 146 83 80 157 120 105 77 123 65 150 107 105 74 115 96 71 78 134 90 72 108 56 74 117 255 97 95 81 74 89 80 95 95 123 139 107 129 108 137 107 156 71 80 88 92 94 97 100 88 83 79 169 172 94 108 84 74 176 92 130 193 75 93 58 57 148 149 72 162 164 161 84 154 102 139 42 38 127 153 149 140 139 88 174 132 122 120 180 150 161 74 156 124 184 142 200 142 207 185 126 108 138 123 204 177 110 93 172 66 153 183 173 88 146 149 147 130 104 119 105 88 155 151 70 151 102 90 139 128 136 59 151 175 145 120 173 111 84 130 184 127 204 195 118 158 166 135 175 189 74 71 124 110 201 153 211 86 171 61 79 60 121 83 149 181 83 143 171 127 165 168 110 174 166 40 91 95 15 55 65 79 195 163 81 169 87 127 169 188 178 175 85 180 114 138 110 92 139 80 157 122 184 140 121 80 124 110 97 174 110 149 54 54 155 52 101 143 79 172 73 173 141 86 122 209 196 209 95 99 96 175 129 143 121 86 159 132 96 72 58 55 108 79 149 193 95 100 97 75 118 117 88 167 172 134 167 87 78 85 157 129 93 58 101 56 62 79 181 97 138 172 173 87 98 59 167 124 129 180 129 128 145 85 178 66 155 105 92 43 128 163 67 166 181 110 152 80 133 86 120 178 186 177 116 156 100 94 127 82 103 129 129 141 168 143 56 82 166 100 138 123 117 134 112 215 90 129 78 148 144 45 97 68 164 174 131 179 189 206 107 143 118 180 191 144 182 103 115 201 128 93 82 170 197 202 135 207 209 147 171 95 88 164 160 131 79 106 124 104 113 98 138 115 168 105 167 137 97 218 197 160 190 200 103 145 169 156 146 89 60 74 171 139 89 189 86 189 182 165 164 90 188 166 162 78 99 209 208 121 148 79 173 171 89 79 175 76 179 178 85 80 116 142 146 58 51 123 88 199 92 77 161 78 77 115 130 142 57 127
104 106 111 126 151 166 166 151 143 139 144 132 129 154 167 175 186 192 176 171 164 161 165 179 171 168 173 171 177 173 166 163 160 178 184 187 180 166 167 184 189 189 161 162 174 144 165 181 186 204 173 144 163 188 157 160 169 198 213 224 225 199 203 129 137 120 148 128 105 148 183 146 110 179 162 99 103 145 113 109 88 89 146 73 66 131 62 51 74 119 78 73 82 93 89 123 121 95 85 127 88 67 95 79 111 110 103 93 107 116 114 98 95 120 67 85 130 112 102 123 97 100 79 149 112 133 166 103 108 186 79 185 188 182 71 93 68 53 145 72 62 78 78 67 166 139 123 81 132 130 36 116 72 169 153 150 167 166 80 171 102 133 130 169 171 85 106 185 105 199 200 187 151 158 205 159 138 133 143 111 180 168 179 137 103 93 85 127 154 68 142 79 157 150 141 139 108 132 97 65 60 128 162 105 82 158 79 128 73 119 78 80 176 156 190 150 75 168 83 88 90 138 82 78 179 152 229 157 110 191 153 147 38 144 143 112 161 85 160 125 80 161 63 65 167 121 97 54 102 48 22 97 64 116 136 209 93 117 158 161 167 174 161 85 160 181 95 160 116 133 146 88 153 174 88 166 108 147 67 132 142 71 51 67 120 133 54 101 139 53 167 111 165 154 110 106 129 195 183 180 124 116 117 211 101 133 85 86 106 76 168 162 52 82 53 77 163 97 85 185 106 75 182 146 190 184 101 106 200 97 172 164 129 83 150 62 112 54 60 156 135 191 207 96 170 114 158 162 72 170 184 110 194 94 190 89 71 92 138 36 105 95 148 165 177 105 184 173 112 92 78 95 68 177 103 76 143 150 155 125 145 74 182 109 199 103 73 58 49 155 166 186 139 131 85 97 108 97 184 156 142 66 143 136 151 168 168 152 90 162 178 99 127 208 116 105 119 102 183 159 95 130 156 179 98 75 111 192 161 118 108 213 155 118 160 129 98 62 62 146 149 143 147 124 159 59 79 94 134 73 144 205 127 95 146 143 106 148 125 81 157 129 124 82 92 76 140 100 172 163 169 166 88 184 161 173 100 177 85 164 218 114 189 106 162 106 84 158 69 170 166 103 96 178 165 80 60 44 87 141 112 75 92 87 98 133 111 66 79 49 105 156
94 94 100 116 142 160 168 159 150 152 149 140 136 144 157 177 189 182 187 167 147 138 163 158 160 171 167 160 153 148 150 153 166 185 194 187 185 169 181 179 190 180 175 168 160 181 182 198 188 173 163 186 193 181 151 141 197 163 171 155 150 159 194 195 179 206 145 117 175 150 170 131 159 108 98 162 84 174 113 136 88 137 89 76 66 85 39 96 46 95 113 67 63 117 72 115 82 143 114 72 65 86 52 59 89 106 102 131 94 99 156 97 86 132 70 135 85 78 94 144 108 91 129 46 51 82 102 152 174 123 183 108 85 99 117 139 38 59 149 155 133 59 146 103 62 93 145 119 125 22 84 158 173 92 137 167 169 60 162 178 118 188 158 107 97 84 143 83 177 162 102 160 130 160 194 141 188 141 164 79 174 128 76 96 190 87 126 121 148 82 129 178 186 149 153 189 83 134 100 160 51 111 59 173 142 165 135 127 81 173 80 158 172 73 126 103 73 137 149 171 164 178 129 142 113 171 124 128 105 182 75 38 29 107 46 90 76 152 153 66 112 63 76 149 164 141 116 146 142 136 31 130 110 151 119 181 170 140 123 94 129 133 53 67 140 171 188 71 71 42 122 129 47 66 104 105 103 54 72 120 123 47 151 135 155 123 171 94 63 87 112 66 107 113 83 86 152 122 117 228 115 108 118 104 198 77 144 81 157 176 62 58 99 67 135 56 72 70 140 92 132 177 123 151 154 87 85 163 148 81 161 51 139 74 134 67 65 154 138 167 133 176 188 143 195 145 124 166 129 76 171 97 197 174 190 86 138 87 143 119 125 160 67 76 158 108 122 158 144 128 161 157 165 75 169 165 103 56 115 84 97 127 93 116 157 159 184 170 168 102 176 146 102 170 107 156 143 182 173 143 65 154 159 165 180 176 131 82 65 69 104 169 166 99 100 211 111 114 170 147 120 126 120 152 108 78 141 183 90 189 97 132 210 119 119 134 91 89 68 95 111 157 138 71 46 86 71 92 149 123 146 201 199 174 171 146 143 179 162 166 108 146 157 99 163 76 171 65 112 125 86 68 80 160 179 81 93 178 171 137 184 115 155 96 135 148 130 173 78 148 59 111 71 187 138 69 78 40 122 59 69 159 61 131 69 127 28 26 25 33 41 80
100 94 92 101 120 150 166 161 150 151 140 148 143 135 141 158 169 180 183 165 145 142 149 168 171 161 161 163 152 157 155 160 174 190 199 192 191 177 186 183 179 182 168 173 177 178 177 184 209 215 206 155 160 168 183 215 173 170 210 217 183 121 167 165 160 144 190 169 186 122 206 136 196 196 155 170 173 170 139 77 89 133 91 92 74 49 91 33 61 60 81 61 64 78 60 58 88 83 64 81 106 64 90 45 48 86 69 93 105 165 173 112 111 64 120 101 65 66 94 170 87 53 36 29 120 95 166 157 73 68 174 175 69 58 43 33 31 44 130 80 49 120 146 164 148 154 146 50 134 123 145 163 166 72 144 171 72 162 102 179 84 128 165 94 142 145 86 67 173 179 127 176 91 183 180 148 189 110 190 103 98 179 167 173 68 175 122 86 106 193 194 96 171 114 104 189 140 106 180 82 163 167 138 174 157 116 141 185 178 171 80 159 91 159 158 112 68 159 186 196 187 184 85 120 99 158 212 201 158 97 136 60 124 39 107 161 49 64 45 153 123 128 70 102 166 176 59 148 80 147 49 134 144 96 208 170 199 110 121 119 121 49 79 121 107 191 132 117 164 86 85 37 49 138 111 143 134 51 109 68 141 150 144 102 74 71 148 84 104 66 133 120 66 110 114 156 85 180 128 152 136 193 103 95 181 99 66 92 170 71 158 167 73 166 86 98 80 66 118 88 128 178 66 166 84 73 137 136 153 181 163 77 94 111 139 66 141 54 157 155 150 149 101 185 203 142 82 67 113 104 71 104 187 93 189 97 159 147 122 117 153 69 132 125 107 162 113 169 151 180 168 66 146 181 69 67 133 151 101 127 123 187 177 154 143 126 152 127 175 164 106 119 168 121 141 151 129 120 155 182 93 185 141 105 181 110 92 80 154 141 81 136 173 171 93 106 104 95 100 149 148 60 167 154 172 130 101 89 180 166 97 102 172 162 108 166 82 83 137 66 81 83 83 130 45 140 58 157 83 79 83 185 75 135 148 163 110 109 85 97 186 193 168 181 176 99 175 70 132 56 140 117 154 127 177 112 81 179 74 107 172 86 191 150 154 196 126 97 162 164 163 141 99 180 191 86 139 59 61 113 75 86 77 52 151 60 19 96 66 68 109 114
118 111 103 101 112 133 151 147 149 147 140 148 133 126 134 159 161 183 177 156 153 163 160 179 181 166 157 169 164 168 170 171 181 192 195 181 177 178 180 182 170 178 171 154 170 202 194 218 185 185 173 176 180 195 224 208 226 218 143 165 109 99 179 131 162 168 182 110 132 186 151 152 154 132 162 85 75 94 90 103 67 155 96 144 71 89 60 41 58 49 68 70 53 49 40 35 49 55 56 98 120 107 72 92 65 60 114 61 72 86 132 105 84 70 80 88 75 157 75 124 152 116 76 36 125 103 116 84 61 47 143 70 56 150 94 25 32 143 105 78 148 142 136 149 91 169 155 159 46 146 141 80 163 97 179 103 144 180 152 182 80 175 160 171 111 132 128 133 132 159 175 84 156 158 130 199 208 116 196 113 121 87 135 143 74 64 133 195 186 216 212 188 200 175 152 117 206 113 149 152 122 106 117 134 125 138 169 134 100 159 191 107 165 142 107 162 114 153 153 163 111 112 104 108 174 148 194 109 74 65 144 113 63 158 122 176 68 127 158 118 144 73 85 255 160 144 63 99 140 120 119 155 74 169 114 182 150 86 179 77 155 145 88 118 152 82 76 122 120 127 153 76 67 150 113 139 161 87 103 101 104 113 83 156 160 166 78 76 120 72 63 155 143 90 145 142 157 130 122 116 170 89 171 191 93 93 157 156 138 71 94 83 125 169 88 97 142 127 88 99 93 97 147 116 154 132 171 176 121 90 150 59 88 68 157 91 125 64 95 151 167 80 186 197 217 110 199 162 66 142 158 175 106 195 174 93 105 124 77 107 87 155 188 115 174 186 189 181 161 105 94 115 136 163 76 52 68 59 75 95 97 215 207 215 202 187 141 82 141 69 139 170 139 116 143 157 144 140 86 126 197 184 186 218 110 213 159 98 146 96 169 111 170 108 184 144 96 91 92 116 122 63 175 106 78 164 180 196 99 80 88 133 90 162 178 79 188 144 191 189 104 206 192 84 113 147 148 95 132 102 79 93 130 156 151 56 162 123 135 167 108 194 144 112 143 154 177 97 67 109 68 78 126 139 120 187 125 147 84 139 144 66 168 194 208 223 176 123 188 169 87 140 153 93 135 105 81 140 89 76 133 120 145 60 161 71 50 41 19 136 89 77
131 123 113 106 113 126 141 141 136 140 151 151 150 138 127 152 159 186 255 167 144 159 169 177 190 173 173 182 182 190 186 184 191 192 197 182 172 167 163 168 155 153 162 145 155 204 219 224 213 178 140 149 174 144 208 190 228 217 201 165 96 128 135 138 145 198 150 186 131 142 177 136 188 124 157 149 62 52 42 60 47 126 76 107 77 147 62 130 120 102 45 77 98 41 58 37 44 82 82 71 102 96 56 78 71 104 129 91 111 117 160 114 100 159 81 171 143 87 118 64 52 46 25 38 39 77 127 72 47 37 144 45 43 131 103 29 34 54 158 55 140 91 126 61 166 105 91 139 169 116 166 182 193 119 202 187 135 188 109 80 180 96 126 150 73 156 57 90 148 137 161 153 161 187 100 104 120 178 112 178 179 119 165 93 99 76 149 153 214 153 165 152 115 192 122 155 197 122 98 156 159 187 130 181 114 161 68 161 199 110 94 77 95 81 157 147 65 183 105 150 200 217 170 77 129 99 118 92 171 101 147 53 123 154 76 187 75 154 108 169 156 178 185 165 138 101 69 133 59 156 170 114 73 158 97 199 148 112 181 156 167 88 49 83 58 119 112 152 128 193 164 82 96 154 187 160 171 96 69 65 72 85 65 112 114 141 93 128 187 112 65 110 112 73 78 59 83 71 191 111 88 122 90 124 180 60 89 86 130 81 81 110 180 135 65 152 157 75 184 146 105 154 64 154 109 107 124 92 99 69 73 109 77 94 175 154 88 84 113 255 122 58 133 195 120 220 151 161 102 171 126 135 175 186 167 84 129 151 61 153 144 155 109 110 147 207 211 132 181 163 103 55 143 85 84 127 122 48 81 148 194 136 186 118 112 122 69 141 84 162 170 60 46 63 53 71 76 184 92 182 101 104 215 124 131 143 192 197 198 176 149 172 177 106 78 116 98 188 87 164 122 169 94 170 114 140 142 95 176 170 155 186 95 184 183 84 191 198 195 96 212 157 136 153 77 151 99 106 91 155 138 78 102 125 44 109 152 86 83 70 79 178 80 83 147 190 114 96 117 122 98 144 72 137 143 167 78 125 138 116 127 160 101 181 181 113 209 129 191 136 181 154 100 112 107 181 121 177 102 126 172 175 67 64 172 84 51 149 37 78 95 88
147 143 134 128 128 133 133 132 144 148 166 162 154 153 147 161 161 180 165 155 152 152 180 185 192 180 179 194 187 194 189 183 189 194 193 176 160 153 153 150 146 136 157 168 184 187 182 203 180 178 149 156 122 147 199 225 233 206 116 92 116 102 126 128 180 145 115 96 123 117 121 176 167 90 106 134 58 99 117 43 122 81 68 71 77 151 80 102 85 62 46 47 83 94 61 40 88 51 54 72 76 95 66 78 91 137 120 82 80 76 94 97 91 152 125 139 185 140 105 152 68 44 114 51 86 112 182 135 119 55 141 46 149 122 134 30 42 154 135 151 139 109 35 152 108 199 202 90 180 101 134 103 196 147 185 101 193 159 191 91 124 144 146 158 167 66 70 148 63 150 137 153 101 112 154 151 172 126 218 166 126 157 108 119 102 160 181 136 152 104 93 200 100 185 215 98 161 114 152 106 186 86 85 104 63 166 172 149 136 112 121 128 137 75 115 76 132 88 97 178 108 110 114 78 127 72 96 131 140 170 116 180 167 106 81 175 175 167 170 171 80 184 185 74 113 78 176 164 145 170 157 184 87 162 172 88 181 177 100 161 166 111 128 110 158 155 84 165 145 163 164 113 62 177 163 140 103 86 159 90 186 86 73 90 155 190 107 200 175 172 147 157 134 115 96 78 64 72 94 149 107 102 119 92 182 67 105 84 128 101 180 152 127 147 65 93 58 86 194 150 154 68 125 64 129 129 137 105 73 92 159 107 144 98 80 83 84 99 182 171 129 57 91 159 185 113 119 95 141 90 86 94 193 161 165 166 122 167 61 134 149 158 90 124 193 196 203 116 98 136 71 116 129 102 86 41 114 89 67 140 203 215 230 126 198 79 161 156 168 77 78 161 51 103 171 188 108 101 177 193 113 126 105 121 194 166 145 121 140 98 113 97 171 63 167 85 138 188 78 91 185 164 180 102 106 90 164 171 173 101 82 144 118 83 191 195 209 100 167 158 208 141 200 127 198 87 182 84 93 98 176 194 90 170 96 67 69 158 86 164 163 74 105 185 97 124 164 192 143 63 55 91 111 182 190 78 170 72 143 158 75 76 179 90 187 156 195 146 155 227 201 225 204 119 153 136 173 105 119 87 128 78 165 156 77 100 83 73 65 150 97 155
158 156 150 142 137 136 134 137 137 150 176 178 183 169 168 176 176 152 154 140 141 156 167 175 179 186 186 187 190 183 175 171 175 176 186 181 169 152 143 143 139 121 134 148 182 179 180 199 166 168 155 138 151 119 181 210 173 143 148 149 97 57 131 78 165 168 168 156 178 175 143 103 103 164 98 137 129 92 41 52 41 40 70 60 127 98 88 78 80 100 59 59 81 54 61 66 46 77 53 78 86 70 66 255 129 107 119 112 110 106 79 100 86 135 144 120 143 125 188 80 164 62 133 126 178 110 78 86 53 150 74 93 133 123 149 49 78 172 126 119 155 143 114 86 78 134 95 109 199 109 196 132 124 186 175 195 151 134 177 173 127 102 177 180 163 148 138 115 177 184 132 210 176 194 103 162 129 219 121 158 184 187 89 75 116 135 170 139 129 118 112 172 191 139 208 173 195 103 133 94 157 181 68 85 144 67 75 145 95 208 209 156 153 80 83 90 124 157 96 151 96 155 127 127 156 138 83 114 87 138 186 169 122 117 91 69 115 157 136 144 159 182 169 68 73 169 71 130 159 161 186 183 122 138 124 75 150 124 180 169 191 174 60 148 97 186 158 213 154 226 179 173 66 83 117 154 144 163 255 93 195 187 150 134 170 183 109 172 158 120 84 73 89 70 68 173 128 77 95 160 109 173 114 110 93 184 145 103 124 207 212 173 174 97 171 152 80 92 91 115 158 160 153 52 147 69 87 167 88 119 137 77 85 166 96 104 194 92 136 169 127 61 103 198 113 102 101 95 120 188 113 189 154 188 173 153 167 62 69 83 67 102 127 160 90 156 196 190 116 54 141 48 101 154 60 73 94 158 117 175 191 114 188 177 135 165 124 149 160 77 77 114 76 174 191 117 105 184 140 184 184 98 183 98 195 184 182 106 190 159 141 178 92 149 116 183 86 161 111 159 193 113 161 193 128 88 76 69 109 139 133 62 109 131 149 185 222 110 200 153 196 164 195 173 186 135 195 120 183 190 191 99 108 139 179 95 122 75 119 80 113 152 117 133 195 197 197 132 92 136 73 129 160 102 121 138 61 56 129 85 115 123 90 124 88 126 193 205 168 225 241 147 187 112 109 82 166 73 76 85 137 60 56 179 118 97 112 120 120 80 106 186
166 168 164 153 143 137 130 133 143 150 181 192 180 185 193 184 171 148 136 133 132 146 137 163 175 184 171 178 166 159 147 148 147 156 170 178 183 171 165 156 142 134 148 164 155 179 196 168 164 166 158 116 122 144 127 137 181 197 154 103 96 127 126 102 143 96 164 92 134 171 145 145 78 91 97 121 65 116 57 144 137 56 59 87 154 123 82 126 84 109 79 76 76 59 63 51 63 56 56 96 65 68 71 70 122 96 153 129 169 93 117 136 124 119 122 126 134 116 180 151 154 125 152 176 187 81 109 146 59 159 158 80 118 67 101 86 153 92 184 183 167 51 56 68 152 97 188 198 99 218 195 219 213 130 167 146 121 100 98 169 171 140 179 90 106 56 112 129 95 208 195 180 139 140 189 133 193 221 170 189 125 153 155 81 124 85 144 67 172 75 134 61 170 92 166 195 93 172 79 177 179 72 156 57 124 89 85 107 127 200 114 120 161 108 106 170 71 156 119 75 180 175 169 52 46 48 98 83 159 140 125 148 99 184 174 167 156 77 88 135 74 74 174 88 98 165 106 105 82 93 159 182 91 127 126 171 175 73 184 91 189 132 119 147 105 101 139 121 209 125 196 117 87 136 143 113 166 178 83 102 150 107 78 73 117 131 183 112 112 146 73 64 61 115 153 125 175 167 133 139 105 196 169 131 200 96 184 122 215 138 150 162 130 84 82 86 146 92 101 105 106 95 54 144 84 64 73 95 86 180 83 154 84 92 199 99 195 108 156 170 99 122 98 115 187 86 171 115 138 199 213 219 97 187 160 80 156 72 128 123 65 139 163 176 135 97 189 89 77 99 97 66 144 87 164 128 173 167 181 179 111 123 165 167 80 84 35 135 122 136 135 158 96 158 189 173 99 121 169 78 136 148 179 142 118 198 169 96 189 179 168 185 143 162 166 76 183 153 172 117 211 146 216 159 166 96 146 123 139 33 94 71 84 165 99 186 231 224 205 89 76 128 162 148 145 181 196 196 176 114 144 146 101 144 93 134 63 116 119 153 129 145 39 147 70 160 176 138 163 175 164 170 196 86 157 105 91 110 132 177 81 192 125 84 169 109 177 119 180 159 201 126 129 115 183 125 153 60 104 161 71 98 129 115 198 211 111 200 189 122 192 157
166 167 161 147 133 121 123 120 133 155 180 188 192 204 200 187 153 132 126 129 121 138 147 159 163 171 171 166 147 143 139 135 129 142 156 183 187 193 177 161 149 143 149 162 190 203 207 165 189 152 155 140 175 167 165 128 164 178 133 81 126 78 104 110 116 113 129 147 100 101 150 102 102 86 151 90 68 132 137 86 147 102 134 76 82 78 70 93 71 80 140 90 147 85 58 72 76 60 60 65 74 74 80 70 120 154 140 164 109 105 113 75 105 128 114 118 182 110 113 92 176 91 95 104 76 88 69 92 60 77 76 89 77 166 68 127 88 202 86 134 161 103 172 175 85 112 152 178 87 110 123 222 159 157 177 109 169 110 130 138 144 107 85 186 86 114 65 156 108 114 172 219 182 201 191 211 219 218 177 145 146 135 138 116 143 124 111 113 59 60 86 139 113 82 155 155 74 147 75 157 171 68 95 69 166 95 174 124 107 202 118 116 201 91 150 57 148 70 59 139 154 69 144 101 150 140 142 150 132 132 133 204 107 134 188 138 60 53 110 84 170 172 76 69 161 151 159 171 118 147 158 71 59 164 166 159 151 110 147 162 109 168 129 69 76 177 156 187 123 100 89 118 96 141 159 73 99 113 151 111 114 191 71 66 151 147 134 134 125 88 118 152 76 59 155 71 128 111 170 213 174 120 135 170 133 213 176 124 209 147 120 147 197 106 126 82 171 153 109 151 106 74 155 121 51 135 123 85 148 109 159 113 125 125 99 144 176 87 145 74 66 65 94 94 182 170 128 123 133 112 220 121 194 187 165 171 168 62 91 103 91 130 114 159 192 110 151 93 143 79 94 203 208 104 170 172 195 107 174 90 135 124 92 143 79 85 15 41 139 127 85 107 89 118 136 136 186 110 57 60 132 162 110 174 168 165 96 98 192 143 134 117 87 72 179 106 99 199 101 102 182 184 201 109 164 112 174 139 77 37 77 29 53 159 169 145 122 197 210 186 181 164 120 76 68 163 142 79 116 92 64 80 198 204 159 123 150 94 48 78 53 101 42 140 78 105 106 140 170 91 171 160 113 174 84 162 119 94 191 92 133 108 146 96 84 174 130 125 120 191 167 223 134 216 161 176 135 111 143 189 116 68 69 183 158 152 149 98 123 143 195 120
163 160 148 135 121 114 117 123 135 161 173 191 195 196 200 170 143 126 122 119 142 142 162 170 174 192 178 164 147 143 139 132 132 139 156 181 202 205 186 169 166 154 149 150 192 206 190 199 176 158 201 160 148 168 163 171 144 167 86 90 96 144 160 135 110 177 125 167 121 130 141 127 155 91 152 65 74 149 94 103 96 108 83 113 93 98 122 63 65 75 135 90 109 112 115 65 85 73 103 60 105 89 119 76 80 131 141 179 135 103 131 100 125 98 178 104 149 87 96 86 93 87 136 123 82 66 97 114 175 80 128 181 90 72 72 186 89 177 134 133 76 148 172 184 96 104 67 86 165 100 122 231 218 150 154 142 121 203 193 104 163 144 166 190 197 173 179 114 75 185 195 115 115 200 116 154 193 191 209 155 102 106 85 157 110 81 104 160 125 166 71 76 134 185 185 122 164 146 73 107 130 170 175 154 105 135 109 179 135 211 125 205 139 159 85 106 102 255 50 59 72 80 163 255 52 140 141 136 98 187 146 105 131 210 120 162 153 115 144 174 94 158 159 57 149 163 161 154 102 121 165 83 152 150 160 132 188 173 204 129 177 73 68 66 115 122 164 68 109 101 74 122 179 190 95 160 146 45 54 84 177 124 127 101 68 171 94 176 135 104 121 161 72 138 159 181 207 117 141 145 120 159 139 128 117 112 128 188 141 198 139 120 96 105 193 136 141 207 146 194 187 182 140 86 45 48 130 132 117 106 155 179 157 255 110 121 149 86 182 143 107 143 69 73 169 107 155 193 134 109 173 221 128 143 99 85 59 68 92 103 130 157 149 145 150 93 81 152 180 171 153 216 217 155 127 182 186 127 164 90 123 63 142 45 46 5 47 24 80 98 72 174 78 164 99 102 157 180 102 56 120 76 173 136 154 97 80 188 176 102 125 182 104 165 142 109 180 200 101 135 134 108 102 162 99 166 135 198 136 159 127 128 47 132 74 160 210 213 134 116 132 106 94 180 127 157 78 175 161 59 65 82 109 147 202 150 99 56 49 140 52 79 57 163 161 66 60 148 84 114 197 205 205 189 99 101 218 115 202 84 150 163 74 161 165 78 175 128 126 211 194 169 128 203 103 196 86 166 191 136 111 90 77 90 95 194 185 113 145 138 183 102
155 146 134 117 111 108 117 130 142 174 192 191 193 200 186 171 142 115 125 152 150 170 171 184 196 208 193 182 164 145 154 146 150 150 170 182 200 202 183 172 163 156 150 170 192 219 220 216 187 208 202 191 142 137 114 165 141 154 86 110 147 156 111 175 94 98 91 96 86 77 76 85 133 148 103 120 150 112 167 106 149 127 158 109 104 43 60 45 75 133 142 115 119 125 90 100 79 70 57 59 41 48 57 87 91 94 110 255 170 95 91 67 56 141 154 84 175 88 119 78 72 78 104 118 80 72 75 81 167 90 166 70 125 171 162 84 88 93 91 60 136 128 162 180 190 180 74 142 61 196 218 160 218 165 140 194 205 208 185 151 112 46 114 153 208 212 128 174 104 77 171 167 194 150 145 162 106 208 186 136 87 77 92 164 92 83 81 139 86 77 108 198 93 191 95 146 157 49 91 128 95 161 183 191 118 174 209 152 123 221 121 171 101 69 125 36 40 61 103 60 136 198 153 134 159 145 113 76 152 189 206 220 225 179 120 163 182 153 182 175 163 154 59 134 111 85 77 124 73 72 156 83 90 134 118 159 85 149 103 95 183 149 167 84 126 80 165 107 73 147 67 137 179 119 183 73 96 79 108 81 151 197 118 108 155 158 89 171 113 185 128 96 161 75 159 96 128 124 228 196 109 123 154 121 121 109 198 148 160 134 139 170 198 187 128 106 109 182 191 209 183 81 88 161 90 88 158 126 184 160 110 167 181 113 98 153 79 89 166 128 88 79 81 83 86 100 192 185 90 95 205 209 210 255 130 173 63 156 151 68 174 91 112 184 145 170 145 121 75 168 114 174 215 122 181 90 158 159 199 117 124 133 131 140 127 108 27 70 83 65 179 152 171 86 109 186 111 136 134 164 73 179 90 108 150 97 152 148 155 190 156 73 129 142 122 100 204 199 100 125 193 205 143 98 200 217 229 139 142 133 47 54 100 65 181 187 188 159 196 188 141 104 187 189 166 166 137 130 115 75 78 195 104 180 198 114 160 54 151 86 51 62 157 169 93 137 108 113 201 182 181 187 99 110 201 212 183 188 206 106 104 58 77 183 185 182 137 190 205 106 135 139 180 124 188 152 130 117 106 129 91 83 80 169 133 92 82 97 181 122 136 115
149 137 125 114 112 106 120 129 160 180 187 184 193 190 177 175 158 148 151 169 174 169 184 182 207 217 207 181 172 169 166 166 168 171 185 187 193 197 193 183 160 138 143 151 162 211 180 205 198 166 205 201 168 176 152 113 139 120 112 128 135 99 108 154 149 139 120 112 162 82 160 98 149 103 154 135 93 119 109 172 105 176 138 66 127 97 49 64 80 81 165 105 134 85 115 106 86 89 87 90 69 37 55 60 90 111 107 119 130 84 70 46 35 62 91 165 90 162 141 88 79 108 87 146 88 82 123 87 136 82 118 60 126 120 89 189 190 125 71 63 149 68 135 151 162 168 99 46 154 141 208 157 109 205 166 97 159 198 122 130 31 51 112 148 139 215 205 96 72 125 158 94 143 129 93 186 106 194 189 102 121 112 165 129 120 124 96 114 122 146 112 205 221 200 149 82 161 155 74 52 115 122 149 165 124 110 199 230 179 226 153 162 110 107 59 73 123 143 126 167 97 137 186 118 160 142 47 66 64 184 207 124 180 163 160 158 130 131 82 122 66 51 147 45 106 129 126 139 137 196 185 154 168 158 54 87 166 100 164 105 131 170 107 125 148 168 82 63 120 54 63 134 100 102 87 173 64 97 98 81 99 182 197 184 76 69 155 145 96 173 185 207 197 126 112 118 154 213 197 205 139 108 113 114 137 122 206 150 139 119 100 168 129 104 122 162 108 110 134 123 175 98 77 162 67 80 135 90 109 193 126 100 94 87 86 108 164 127 66 76 184 187 102 182 147 74 119 114 178 163 105 130 183 169 173 65 154 45 156 174 189 107 132 183 175 71 145 148 121 144 192 180 202 144 174 120 192 185 151 150 74 63 140 123 45 140 135 159 173 163 174 91 128 146 84 157 214 179 103 152 163 95 116 143 170 75 151 140 159 165 90 141 178 114 94 188 198 98 101 92 182 197 137 93 190 174 114 214 161 125 74 47 101 106 119 123 200 196 189 97 86 105 156 114 127 149 187 144 151 58 102 175 125 196 195 120 92 79 104 74 126 138 164 187 122 115 194 124 218 114 108 185 132 189 124 104 183 200 135 170 149 89 130 158 157 101 177 74 191 176 104 198 196 173 97 108 98 139 91 169 103 124 77 182 179 137 165 92 89 191 134 96
146 136 125 121 122 117 128 145 162 181 178 178 191 185 195 188 174 182 190 191 185 190 191 204 214 212 205 199 175 172 178 184 183 189 194 186 189 183 179 170 142 130 119 120 167 172 178 164 185 166 196 196 159 129 158 102 155 104 127 132 124 89 137 61 126 140 77 152 151 94 173 105 100 111 85 70 98 91 99 111 107 132 96 107 58 39 104 52 104 88 133 88 87 90 127 110 94 111 56 36 77 75 38 46 65 86 82 118 103 78 76 30 65 59 118 77 97 141 118 103 170 137 144 141 164 99 191 165 200 91 75 142 55 135 173 178 179 162 144 137 138 153 81 190 196 166 174 56 148 167 171 115 124 130 181 196 178 158 142 113 122 110 130 166 109 108 156 143 96 154 162 104 97 173 174 91 107 144 103 116 146 59 103 166 161 162 56 104 158 169 202 131 213 200 99 83 167 131 75 152 150 91 174 106 129 145 150 240 184 125 213 155 86 101 70 59 156 111 94 173 85 201 115 87 137 158 82 161 159 145 113 130 182 222 214 109 203 203 191 161 156 73 60 150 47 43 109 81 175 109 214 105 128 173 144 101 93 106 99 99 97 181 187 155 84 97 86 76 32 73 151 70 79 127 113 119 112 143 118 103 86 133 178 173 138 140 57 70 159 168 204 166 150 138 227 222 126 182 114 96 97 159 123 120 107 143 124 107 68 67 92 152 98 153 105 131 90 92 117 162 117 100 99 80 66 107 111 94 110 118 81 143 136 170 99 93 144 131 161 115 174 113 96 128 157 68 174 155 187 82 130 138 175 167 179 123 119 149 105 162 83 93 186 173 80 92 109 132 169 105 166 203 169 186 177 91 136 74 150 111 174 156 138 66 78 101 76 112 186 87 166 83 103 62 144 157 114 203 180 177 137 88 185 186 168 100 144 131 59 65 131 171 123 138 182 81 72 131 111 145 138 114 149 115 75 119 117 106 203 190 170 110 156 65 110 164 117 144 187 163 138 115 155 172 71 179 140 142 167 165 169 142 104 164 172 134 92 173 85 59 117 149 153 115 140 220 230 130 141 127 200 187 75 83 176 162 131 196 87 158 147 174 174 201 105 156 136 158 184 104 206 205 160 178 153 141 86 160 70 167 158 98 164 80 171 85 88 196 114 110 150 118
152 143 135 136 136 133 134 141 154 163 174 178 191 187 197 182 192 206 213 211 203 197 198 204 210 201 205 197 178 180 190 189 191 194 189 185 184 179 178 165 150 127 116 107 137 169 178 182 163 185 189 158 171 128 112 169 171 176 183 148 156 105 61 51 54 78 71 73 58 69 88 147 134 90 110 74 149 86 140 182 106 114 152 127 74 57 120 124 75 74 142 67 64 89 101 105 96 95 68 41 55 28 75 56 50 109 137 124 78 61 69 48 30 41 87 75 94 149 126 195 148 74 95 149 75 85 93 121 101 185 71 67 79 163 159 87 62 136 152 38 117 54 134 98 97 104 81 148 169 173 133 171 180 153 158 181 166 154 121 61 127 15 111 152 97 109 179 163 171 162 130 173 111 149 105 115 185 186 141 70 62 138 158 164 60 151 68 137 153 136 150 171 175 129 165 183 68 89 54 123 142 94 139 88 181 106 168 152 151 147 197 95 173 156 142 175 77 157 103 150 145 95 196 159 72 147 60 89 75 121 193 111 217 194 193 87 129 195 119 185 187 184 83 118 81 50 98 120 104 137 226 139 152 100 95 123 147 163 159 198 130 193 182 109 117 95 136 133 71 90 104 68 127 102 167 62 142 65 175 132 102 171 122 120 117 74 100 158 157 83 101 127 119 227 146 236 165 98 83 169 85 154 122 129 192 187 64 60 81 56 85 140 101 168 104 99 127 110 168 82 87 121 163 88 145 166 94 190 144 94 144 144 75 97 168 131 108 140 151 92 173 176 105 89 110 128 154 122 163 93 102 64 142 144 124 71 156 83 151 74 134 150 184 108 107 70 125 147 110 133 173 99 109 135 169 118 105 111 110 132 111 162 180 144 157 181 121 160 146 165 66 60 126 158 177 125 149 196 141 138 128 176 95 96 81 163 125 81 48 65 71 66 86 72 118 69 57 148 139 51 70 201 121 120 136 115 168 178 89 129 83 84 161 100 136 125 124 178 191 81 134 178 86 155 102 101 185 171 174 178 176 191 121 129 62 154 92 80 93 53 67 181 172 231 245 217 184 149 114 152 200 125 151 165 124 133 108 181 122 100 160 140 159 174 113 84 122 154 179 190 122 120 158 113 128 182 141 164 68 152 64 168 83 131 158 167 174 91 97 188 215 203
158 152 150 154 159 154 149 151 158 153 157 173 174 179 178 199 210 219 208 201 195 206 203 201 194 197 206 186 189 179 194 198 192 180 176 170 180 177 184 174 156 130 99 103 129 149 164 169 179 185 158 139 175 179 160 122 148 141 192 156 166 66 44 109 102 130 64 52 68 102 144 70 91 121 138 160 146 125 119 88 113 153 161 160 144 111 54 112 77 99 55 53 58 65 123 118 106 78 62 77 35 52 33 41 49 91 94 105 120 63 64 102 98 59 80 77 105 121 156 126 106 128 119 121 69 174 201 114 187 115 78 79 51 156 92 163 122 90 156 52 58 142 93 133 102 111 188 169 78 88 186 183 184 154 157 83 137 81 117 57 33 25 44 148 174 115 148 144 170 105 169 168 184 124 96 117 116 101 70 91 139 79 55 125 121 59 51 153 56 112 170 148 221 201 221 202 95 145 43 154 110 159 188 75 170 111 112 133 219 203 179 113 66 86 152 171 114 82 196 144 164 110 103 107 166 143 104 159 164 181 155 202 200 157 171 149 75 191 92 195 141 105 194 151 119 137 81 160 164 109 139 116 127 203 129 104 69 147 155 134 185 199 104 186 176 87 56 36 120 107 90 46 158 74 80 171 164 147 104 85 90 144 117 193 151 137 105 121 69 91 84 94 93 130 132 131 126 101 162 162 101 187 139 181 118 74 53 62 143 76 101 128 117 147 145 96 64 79 73 155 143 70 72 61 82 65 111 174 80 170 64 106 143 71 64 65 65 150 155 158 175 73 64 124 137 79 49 165 168 107 51 129 113 63 139 99 156 82 59 58 135 96 124 97 70 60 90 58 74 107 182 198 185 126 160 142 51 47 58 84 143 174 156 79 80 115 89 74 83 168 142 142 83 59 77 110 255 161 184 156 105 169 121 154 87 104 55 62 133 126 68 125 149 154 56 70 125 80 100 46 86 115 124 156 101 159 60 163 167 114 78 75 127 61 145 149 157 89 181 143 149 85 183 84 165 132 150 148 137 80 110 79 172 134 77 147 115 168 156 160 169 83 186 174 140 165 161 133 167 96 150 88 174 154 67 72 144 145 83 116 47 109 182 186 74 168 89 101 186 143 98 143 164 179 169 69 137 161 141 73 95 121 79 156 51 114 170 181 178 190 131 130
156 157 160 165 173 167 167 156 145 145 143 168 173 169 178 187 200 200 201 196 195 201 197 198 195 189 188 187 183 184 191 191 181 174 170 169 186 190 185 184 170 145 135 120 124 164 177 184 192 186 191 182 178 159 166 150 124 203 209 197 144 156 73 71 122 138 78 130 45 67 66 68 112 132 152 165 162 141 96 123 126 133 143 82 114 44 101 88 113 63 85 54 60 78 90 98 83 103 95 68 48 50 93 51 66 64 73 128 76 84 75 114 65 70 132 82 173 151 209 159 131 152 55 134 55 75 198 166 179 83 85 133 152 145 62 102 89 66 73 57 165 144 161 83 128 106 171 89 163 65 165 88 192 185 175 69 171 72 152 89 120 144 150 142 92 195 140 201 193 120 181 181 109 171 184 194 186 173 86 155 67 102 124 60 108 168 95 117 68 79 198 205 128 135 123 133 125 156 148 160 84 180 176 75 133 81 100 100 173 81 67 157 56 165 104 103 78 169 208 111 211 105 74 167 152 46 143 48 91 117 140 158 83 125 61 135 160 109 171 197 198 176 163 94 176 158 84 83 171 120 196 208 132 157 90 92 162 169 207 114 174 93 118 88 70 162 154 103 143 42 53 52 48 106 83 132 165 121 104 173 196 162 176 196 102 114 169 173 117 76 60 159 80 117 112 121 101 177 152 76 160 180 85 82 159 72 125 97 154 157 98 143 159 220 103 188 140 93 185 88 82 158 92 73 115 75 69 170 183 97 95 152 58 141 155 134 68 169 67 55 255 74 68 255 98 37 143 76 148 143 90 46 70 68 150 71 158 151 43 148 96 186 72 57 89 145 75 153 70 146 184 153 166 101 102 91 45 152 100 75 194 127 187 110 150 124 100 120 51 89 82 124 79 130 63 118 127 76 78 154 180 190 98 159 199 156 111 67 156 180 190 124 171 145 62 159 116 147 75 99 95 99 135 130 185 144 117 72 110 90 118 171 53 137 109 113 163 143 160 205 105 198 172 85 130 71 167 184 129 177 112 183 170 155 139 133 62 102 65 157 156 118 156 211 205 212 104 144 117 188 173 107 93 145 106 97 100 126 126 138 127 50 66 75 69 104 108 131 172 176 158 188 158 109 72 164 160 103 64 104 80 115 135 66 57 49 152 89 77 159 135 176
144 149 159 172 183 184 171 153 138 130 149 153 168 163 158 160 161 168 166 178 179 176 188 186 176 182 191 178 171 167 178 178 168 169 175 181 186 189 188 178 168 140 146 128 146 255 175 198 167 203 202 195 148 143 151 151 173 194 213 166 133 164 92 87 79 83 86 76 107 89 82 159 176 156 155 160 152 76 63 49 64 98 153 112 50 38 41 76 75 100 71 84 73 121 80 68 65 95 63 63 94 86 49 71 63 55 100 80 121 81 87 76 97 85 136 89 120 125 137 215 165 87 53 71 85 171 93 102 88 70 55 127 137 50 129 173 164 167 69 164 153 153 95 131 194 167 120 163 148 86 156 159 107 182 153 135 173 65 110 160 132 90 142 170 182 191 147 140 194 165 97 147 74 68 170 108 188 106 73 171 119 77 148 95 175 170 163 174 79 132 190 124 114 123 142 129 88 76 111 102 121 109 186 119 160 181 189 165 168 131 153 76 62 151 81 98 164 155 180 114 183 174 67 69 54 118 79 119 100 187 93 192 164 160 149 155 84 167 182 88 171 89 166 83 73 92 153 160 164 171 177 187 143 113 107 106 91 180 196 192 182 184 97 159 132 74 138 141 112 110 49 64 141 140 136 164 109 94 84 199 121 191 119 188 184 100 89 82 116 83 104 32 144 137 122 149 113 187 170 82 173 126 69 137 140 150 87 130 69 91 133 212 160 203 138 93 79 102 193 123 109 182 75 164 147 176 77 98 183 186 182 63 161 76 113 142 86 91 174 90 116 91 118 116 121 37 88 105 90 173 143 164 172 128 186 107 145 74 51 110 84 158 91 162 55 52 132 62 63 137 132 129 181 85 154 96 88 123 112 113 153 181 124 155 83 103 71 154 44 89 52 110 122 113 102 131 178 91 115 90 96 86 168 206 123 102 88 94 194 143 220 214 92 121 71 145 68 146 159 88 127 140 105 171 155 59 124 142 71 152 97 162 163 141 48 90 151 175 206 209 207 133 146 90 183 87 91 126 175 114 85 183 176 165 128 161 58 143 95 81 117 160 93 176 177 167 140 132 163 152 80 75 146 182 162 153 150 119 67 163 152 125 73 141 109 64 129 110 100 173 142 106 177 168 152 73 124 90 74 66 140 103 123 169 143 51 72 98 74 90 170 152
129 135 149 163 177 177 170 155 139 140 153 154 152 139 133 138 255 161 163 169 160 184 173 161 164 164 166 155 255 154 162 165 162 174 185 194 194 181 174 176 170 159 132 143 159 171 195 180 194 171 214 168 132 113 100 143 169 191 152 153 130 177 134 148 158 90 95 162 133 114 139 101 190 201 110 109 95 109 91 40 129 108 90 135 67 90 45 56 69 146 85 149 77 114 91 68 99 97 110 78 74 65 50 96 64 80 82 60 65 132 87 92 75 81 112 174 192 113 210 156 92 114 106 53 60 73 170 140 181 60 74 107 133 125 58 73 177 70 62 133 147 52 54 153 113 188 82 165 150 89 137 168 203 94 105 155 132 61 158 120 133 161 153 103 178 133 165 148 193 183 109 97 92 124 93 124 190 122 182 89 75 161 127 142 131 86 114 93 154 200 214 167 106 185 206 106 186 182 130 126 105 78 99 113 108 127 186 137 81 73 98 153 68 143 68 143 127 75 106 106 103 178 172 144 56 110 14 99 115 174 168 186 106 115 160 134 121 140 78 177 178 146 160 125 167 151 170 76 128 170 184 198 192 190 111 147 147 102 184 100 119 179 181 74 140 169 127 98 111 61 120 60 77 129 88 75 135 69 182 118 132 163 155 153 118 183 150 175 139 57 37 67 29 149 79 178 189 99 194 102 85 91 150 66 51 57 104 104 81 94 136 155 202 150 123 164 114 99 134 161 153 81 98 168 110 130 87 103 156 93 170 102 61 69 114 173 81 138 108 158 140 112 35 97 26 28 41 163 108 195 94 138 196 118 128 195 81 127 131 161 145 142 175 159 83 127 139 123 90 106 182 194 185 145 157 164 102 67 171 169 78 92 193 179 170 122 63 158 152 80 127 69 165 70 155 68 143 108 176 85 165 190 121 101 132 131 129 128 225 213 193 220 143 150 180 184 136 144 118 100 102 124 165 161 94 43 37 46 164 90 162 91 97 55 145 59 160 172 105 217 212 225 190 108 106 207 205 197 106 179 189 94 129 132 92 73 163 101 128 166 141 66 90 56 127 139 169 74 140 56 107 145 122 115 204 181 144 112 148 74 168 153 157 130 162 175 72 69 64 120 118 67 113 163 73 81 77 170 109 66 101 181 130 72 128 169 104 185 175 161 119 175
126 126 131 147 166 175 167 164 157 156 163 169 152 138 126 138 155 166 174 184 186 192 186 159 149 151 138 148 150 154 153 160 164 177 189 203 197 194 177 167 171 162 153 153 170 166 202 203 182 196 181 214 138 143 99 150 120 148 145 204 126 128 142 110 114 161 186 178 89 85 82 177 123 162 191 118 94 82 85 117 137 68 156 142 71 94 77 63 117 86 94 93 126 74 79 105 103 90 88 140 86 61 83 41 66 59 79 100 65 151 98 116 84 80 148 115 180 106 158 99 122 74 74 81 66 154 149 87 178 162 87 144 146 143 155 68 116 81 163 66 74 37 34 115 163 80 68 110 60 156 185 160 206 183 171 128 165 156 114 159 165 173 180 91 108 95 159 189 169 169 72 139 75 144 169 182 192 113 130 97 129 175 130 143 144 102 129 134 84 133 126 108 197 95 155 97 85 96 72 70 158 171 78 103 98 188 182 78 63 153 177 88 77 167 106 133 103 158 79 116 166 108 83 67 74 125 108 123 117 105 86 176 56 89 160 160 155 72 138 156 82 98 154 161 89 74 155 94 167 183 111 98 179 105 74 163 105 94 95 181 175 182 75 181 77 176 117 143 62 98 64 59 57 51 166 107 122 145 125 165 167 127 114 206 127 97 170 97 127 85 45 127 52 54 159 81 111 104 194 177 59 124 46 128 48 46 48 82 96 114 112 138 102 133 79 154 90 112 177 166 86 97 119 149 127 76 96 175 154 154 168 155 62 161 156 90 76 125 137 53 122 131 134 66 123 113 55 102 188 156 211 210 194 208 177 93 154 113 139 159 92 125 127 145 94 118 61 171 158 155 190 121 144 155 109 101 166 158 107 93 150 108 155 138 138 116 182 71 57 59 152 80 89 123 108 122 137 138 203 152 92 100 167 103 153 121 204 153 148 126 146 200 191 187 82 89 91 177 182 126 129 195 134 170 148 40 76 139 128 146 97 157 88 83 85 75 163 88 203 217 219 182 163 227 223 131 106 165 137 186 146 139 108 89 72 71 161 54 147 132 87 72 152 127 47 141 156 130 79 84 76 129 87 138 108 203 207 158 170 137 165 146 154 176 89 174 139 75 161 99 157 160 98 160 122 97 153 111 140 164 95 114 70 171 83 76 120 169 196 135 135 103
133 125 123 136 156 171 173 172 161 166 158 153 152 150 154 162 173 180 198 208 216 214 190 178 159 147 139 136 140 153 162 166 165 170 182 199 197 198 185 179 182 158 159 155 174 169 203 185 197 181 177 211 152 174 110 128 168 160 189 181 145 148 133 115 153 184 203 203 176 168 172 116 112 178 160 104 92 79 107 47 56 106 67 151 100 76 103 125 103 107 136 105 96 81 97 106 100 95 101 99 104 64 85 26 48 31 47 46 77 105 111 130 156 157 132 161 153 139 107 88 77 85 153 172 255 176 167 179 177 144 67 147 130 142 51 64 109 171 92 101 71 44 38 137 151 176 152 125 82 128 190 205 154 170 212 175 147 168 101 154 68 67 96 112 110 156 172 123 178 82 146 148 52 144 166 133 100 173 154 190 169 132 69 167 63 141 101 59 64 157 189 156 101 154 132 76 149 90 101 171 134 82 177 168 185 129 71 71 162 83 181 98 104 174 105 160 157 52 93 82 111 150 64 72 80 77 55 129 153 149 110 55 151 78 146 82 163 148 63 143 146 139 41 53 172 102 83 77 184 93 154 188 196 83 76 176 87 72 159 66 143 186 186 87 114 185 109 169 152 92 37 103 120 100 168 117 91 83 65 136 132 198 196 191 179 128 181 177 117 181 74 95 170 79 109 85 135 185 156 147 56 78 53 125 66 94 127 78 192 142 204 120 140 163 171 162 190 117 126 166 187 138 114 123 123 91 125 129 113 83 123 121 70 74 79 163 79 82 164 93 68 62 50 47 42 141 114 80 149 106 201 205 98 184 114 95 166 145 56 72 148 158 166 63 72 151 113 137 112 177 159 186 182 84 170 144 167 124 85 118 151 201 187 139 160 174 136 181 147 161 88 191 148 187 111 136 179 106 141 92 175 167 151 168 192 94 192 114 188 202 129 106 84 86 153 107 182 151 179 99 163 90 155 74 70 66 125 162 176 83 185 83 169 122 144 51 68 172 191 161 154 188 123 160 233 224 211 198 83 94 142 74 137 80 127 101 164 86 149 148 104 92 157 124 140 100 159 171 71 61 61 117 106 177 130 136 225 219 137 199 114 87 87 183 154 69 171 158 168 74 146 140 63 175 77 81 96 140 156 62 137 61 132 108 60 75 201 122 112 103 167 69
148 135 126 134 156 169 171 172 169 158 158 166 161 165 177 177 177 201 210 222 231 215 200 176 166 157 141 130 133 155 169 175 161 167 169 182 181 188 188 190 185 173 165 162 166 194 170 176 207 201 190 172 129 167 148 165 188 158 194 166 125 130 86 166 182 121 162 201 213 123 156 119 165 140 141 143 68 147 113 74 91 255 96 139 131 84 92 146 136 97 104 110 92 112 97 147 117 102 97 106 110 66 45 64 72 56 58 52 90 91 98 110 101 87 140 104 81 175 99 140 187 83 126 106 157 100 93 162 156 76 131 53 85 46 112 109 156 100 100 195 80 96 151 99 73 114 73 142 140 136 84 190 134 240 231 214 204 113 147 159 121 157 151 126 102 112 185 129 90 80 117 109 126 134 174 87 156 177 80 161 118 166 107 147 103 121 114 89 55 126 111 167 168 53 119 92 57 88 59 174 98 154 171 182 162 137 103 67 117 118 192 165 157 177 147 146 147 129 103 40 133 143 152 164 143 147 57 139 110 160 160 71 53 156 172 86 80 84 119 142 109 37 149 107 131 178 181 181 174 96 185 84 190 153 173 199 89 151 52 102 161 179 151 166 104 176 182 142 168 57 142 135 80 143 149 153 84 62 57 65 190 185 122 217 123 95 115 153 141 182 90 173 137 174 180 100 167 94 114 101 64 76 94 71 84 43 76 107 127 109 184 146 118 102 138 71 132 101 78 145 85 129 175 131 150 172 93 103 145 77 118 119 159 117 170 78 78 97 117 104 138 70 176 64 125 146 89 172 105 210 202 145 167 150 140 123 106 166 168 59 143 102 155 147 72 154 86 105 137 93 117 143 118 179 144 108 164 184 195 160 177 211 197 75 159 83 96 152 64 64 169 136 170 196 204 208 214 105 205 140 115 111 179 147 101 128 197 100 185 102 73 180 156 152 102 182 93 148 185 86 104 90 89 96 137 58 90 145 154 157 76 85 168 99 52 63 87 166 176 198 201 126 121 180 121 205 170 180 107 173 164 87 134 166 155 173 74 136 107 92 104 198 91 171 129 74 163 136 184 177 70 119 106 192 203 194 161 111 106 150 180 103 103 166 144 78 97 141 127 158 43 113 70 120 173 82 112 150 109 154 77 131 95 73 47 170 104 132 137 109 112 80
158 144 132 141 163 179 172 158 157 153 154 149 167 161 173 183 194 197 203 218 220 222 212 187 176 164 141 141 149 163 176 180 171 162 156 159 164 172 175 174 159 147 142 153 175 174 199 203 191 166 129 128 147 143 142 135 147 185 134 145 142 74 127 149 193 140 195 194 154 135 211 192 129 90 168 109 80 146 149 87 71 49 127 54 126 74 74 75 79 146 100 117 106 86 120 88 92 75 104 88 80 79 106 47 46 51 83 111 92 84 95 117 137 154 92 84 152 83 255 175 89 85 73 124 168 149 192 156 79 69 57 127 124 49 60 121 179 174 193 181 125 169 72 139 96 171 66 149 148 133 129 190 232 234 202 143 188 168 59 65 134 96 142 124 76 173 123 148 152 98 85 150 122 138 181 168 142 165 172 159 177 175 157 160 158 43 52 84 131 173 96 165 55 48 41 69 95 77 66 189 125 186 218 145 150 95 147 81 173 94 143 84 131 186 74 140 166 62 86 155 60 79 65 117 90 149 74 171 87 153 163 158 58 173 190 198 208 194 76 127 137 49 60 106 85 148 174 155 157 178 122 110 122 177 211 147 109 141 61 80 77 114 91 170 157 87 89 137 174 76 96 149 160 72 178 80 170 73 92 67 169 218 155 227 176 120 125 175 188 101 80 119 78 108 141 196 82 71 66 137 85 101 87 176 89 130 174 181 133 112 102 94 72 149 81 81 80 184 95 171 82 105 113 219 214 184 181 255 157 88 30 114 49 124 92 180 76 142 70 139 82 97 180 75 153 69 85 179 197 155 136 124 105 70 155 63 168 75 110 116 125 138 155 158 69 74 172 159 93 171 189 160 151 143 141 94 101 152 104 113 193 104 90 157 145 82 69 71 85 161 69 123 175 130 106 183 217 99 87 119 195 101 99 111 170 107 193 177 78 106 155 166 179 188 84 99 127 93 76 121 159 188 98 106 84 119 175 138 76 88 127 187 184 173 162 111 57 163 166 146 203 146 147 150 211 152 122 185 173 171 143 159 192 166 176 171 64 65 128 164 129 200 110 98 160 146 120 175 139 127 89 59 81 159 170 101 134 104 143 121 151 139 207 105 103 90 142 161 142 54 66 149 116 169 165 103 140 117 79 175 64 63 76 49 87 90 88 211 174 161 169 71
160 148 139 148 169 181 171 155 149 141 131 138 155 167 175 181 193 183 199 206 199 203 195 182 178 165 162 153 159 170 176 166 164 157 148 153 149 153 148 161 161 158 137 161 171 188 165 197 187 146 149 100 138 140 121 156 163 138 167 159 77 136 128 176 122 212 159 194 172 190 173 191 93 83 98 89 125 177 93 99 78 128 60 58 56 64 142 111 82 142 151 116 87 94 127 96 101 88 85 91 108 94 100 64 87 61 70 70 83 110 90 96 128 128 151 88 76 148 112 120 177 75 150 78 168 84 86 91 182 170 102 162 58 61 115 131 135 129 80 80 173 78 182 119 123 193 76 167 53 123 152 198 188 235 228 219 110 159 162 134 162 105 126 109 130 181 106 127 147 159 73 99 167 185 121 130 170 165 99 126 106 189 110 114 160 134 51 150 113 118 76 92 126 117 58 153 53 62 184 197 219 118 148 183 170 76 255 179 87 102 129 81 174 81 135 92 161 74 158 94 69 127 165 141 149 63 153 80 170 102 179 183 177 189 201 114 223 168 148 162 46 106 121 174 185 188 159 100 147 156 164 142 152 193 206 169 200 101 86 148 180 163 146 255 132 172 152 97 91 165 77 100 172 157 138 82 168 138 172 146 196 127 142 160 195 199 193 163 91 93 70 155 61 121 117 196 94 150 114 190 172 139 109 104 151 152 177 113 144 95 94 179 111 182 148 82 84 149 115 142 170 147 202 159 167 173 141 115 114 53 129 40 92 159 79 159 74 161 162 255 147 130 113 187 179 121 99 117 123 160 188 93 141 128 63 118 124 108 159 75 72 67 136 142 150 94 96 159 161 163 74 148 99 185 177 94 84 195 115 192 211 204 180 118 93 68 138 147 60 160 75 59 91 143 180 107 152 179 150 148 199 193 195 137 141 147 97 162 97 86 149 109 89 108 181 122 63 153 170 107 184 163 197 114 90 187 175 119 133 98 87 89 151 135 97 129 58 159 103 80 196 93 135 165 98 92 176 127 78 74 141 95 172 100 177 128 131 171 99 159 139 207 179 194 95 131 122 165 74 178 72 160 163 80 167 169 76 184 104 170 221 220 132 94 71 136 103 139 137 162 100 137 183 88 89 86 93 154 95 147 76 70 118 66 126 158 113 98 108 124 186 69
151 141 136 147 168 181 173 160 142 135 120 117 137 143 165 165 164 166 183 187 190 191 182 165 165 166 156 168 176 163 171 168 162 156 152 147 152 150 150 161 164 157 137 159 158 187 197 203 192 179 112 124 134 139 152 185 176 197 190 144 98 160 130 133 126 185 203 190 177 182 137 125 105 125 71 133 86 158 96 109 159 98 85 47 109 62 77 157 111 88 111 88 76 66 124 118 70 61 62 79 140 109 109 79 79 100 85 132 100 87 155 144 152 110 116 121 76 114 185 107 112 79 111 154 159 140 93 114 70 92 158 87 84 182 91 163 191 179 174 174 97 128 82 107 160 139 178 144 70 162 161 170 153 222 116 172 187 153 54 145 139 140 161 103 159 112 183 114 111 167 123 79 143 167 194 180 182 179 94 168 114 134 210 130 182 152 154 184 175 185 136 89 62 62 61 163 142 167 192 125 140 130 141 185 105 68 95 192 189 154 154 88 130 116 101 172 96 155 158 68 173 153 65 82 99 120 146 163 95 87 160 197 184 163 219 185 192 138 85 166 104 49 155 97 100 195 139 163 162 143 134 92 174 154 207 135 218 168 191 100 192 119 134 78 138 71 164 82 88 170 109 190 108 94 176 165 138 145 76 182 115 142 183 184 217 153 178 82 177 71 66 151 87 84 190 167 110 202 88 193 101 164 102 92 114 100 188 207 101 99 145 96 147 122 155 179 91 90 172 104 96 142 110 155 100 107 98 100 76 91 50 111 51 100 68 72 164 172 89 94 202 96 187 93 166 191 90 146 110 179 106 127 175 156 111 121 160 69 95 150 126 131 78 151 181 155 72 73 106 87 89 90 187 116 144 169 155 197 189 161 106 165 185 122 83 172 111 144 151 45 79 71 146 184 112 117 120 56 57 76 174 154 199 79 97 171 156 127 57 81 68 149 96 111 79 158 47 155 139 180 176 104 174 186 189 107 128 101 128 106 137 165 144 184 106 160 70 64 128 161 134 134 87 181 91 116 180 154 75 103 162 148 102 171 84 150 176 158 125 170 106 212 119 175 68 58 93 145 88 58 161 147 129 157 121 95 69 180 96 199 141 144 138 179 172 84 136 125 170 106 64 116 192 129 155 198 161 202 195 93 71 116 165 148 157 67 103 143 189 97 146 67
138 131 133 147 169 179 182 170 147 133 121 106 118 129 152 158 158 167 168 175 179 181 178 174 175 177 179 176 184 168 170 163 160 153 148 149 149 154 161 170 181 179 167 181 156 193 204 198 182 184 151 124 143 116 182 200 162 156 137 171 121 143 110 195 123 139 173 112 115 141 174 90 134 84 146 71 168 112 139 117 124 113 84 129 65 91 107 91 160 84 83 86 119 68 96 55 66 64 69 95 98 124 140 122 78 54 57 105 120 118 126 111 105 97 84 86 122 93 167 197 86 137 116 49 153 120 79 132 157 74 120 117 170 142 99 165 96 141 73 165 179 176 143 188 177 99 101 170 174 182 167 179 111 208 129 177 193 161 159 82 106 120 163 120 150 135 109 160 103 179 178 159 137 183 194 120 127 83 92 143 95 93 200 97 177 190 170 202 133 167 162 129 148 92 65 155 101 176 128 150 219 111 96 176 150 156 111 147 146 80 109 115 183 175 176 92 129 66 70 75 78 155 102 126 91 49 37 135 72 98 186 189 96 207 179 125 150 108 79 160 73 59 68 161 192 198 197 93 186 122 60 162 82 110 144 182 192 200 118 215 207 133 130 72 106 165 154 100 89 136 181 154 90 96 140 140 70 68 127 103 155 169 227 139 160 140 95 180 145 70 74 76 139 61 99 199 208 141 89 176 132 111 146 181 203 146 184 117 174 90 97 93 97 204 118 103 112 93 136 214 127 180 92 75 78 190 102 100 128 144 53 65 128 74 120 147 169 169 113 135 200 189 150 195 119 168 122 196 85 109 79 162 55 80 165 114 140 97 97 90 192 123 140 192 180 87 76 71 84 88 90 178 120 118 142 81 115 196 190 188 91 94 170 161 85 118 172 49 109 39 145 55 65 75 148 93 148 149 144 164 166 99 145 75 164 65 164 118 131 112 118 110 108 102 132 120 48 146 72 82 127 146 153 128 86 163 62 112 91 126 173 173 81 152 162 101 157 155 187 125 155 167 142 186 170 108 75 137 153 141 133 129 118 162 159 162 122 201 188 133 146 113 186 185 64 108 49 161 107 108 107 42 65 114 139 78 73 106 179 199 131 105 107 99 179 97 163 82 182 129 87 114 102 212 182 137 182 137 186 139 102 171 138 159 60 159 94 181 194 89 127 63
129 126 127 139 157 172 176 173 161 135 123 105 115 131 148 163 161 168 154 162 155 177 171 181 178 177 193 197 182 173 168 160 163 160 155 153 143 152 153 184 196 206 201 188 162 177 190 207 206 180 183 147 160 177 183 171 199 165 154 205 140 180 127 156 153 190 168 166 195 133 190 110 120 84 145 68 69 65 107 148 92 102 134 96 115 61 152 136 82 79 85 141 86 100 84 67 97 102 73 116 98 99 91 108 82 89 46 68 81 161 107 145 126 84 123 93 165 97 204 204 146 68 64 62 52 112 149 124 87 173 107 163 98 199 119 96 168 175 175 81 76 152 105 174 99 81 186 87 154 92 193 178 110 178 142 209 174 181 92 165 118 128 144 164 116 90 90 178 178 188 98 98 123 197 177 156 190 107 130 158 132 106 176 185 111 187 219 126 224 152 186 121 70 158 63 111 63 84 187 197 202 109 142 141 109 165 123 128 152 66 67 169 88 164 96 71 66 177 187 192 157 154 110 147 74 23 99 123 143 137 67 114 193 159 143 146 135 143 69 89 126 149 167 186 131 156 186 176 180 104 145 169 114 55 131 159 124 103 223 149 199 86 122 157 63 112 126 58 174 114 106 89 86 84 148 107 43 136 76 76 160 147 153 136 151 85 81 120 181 180 73 109 81 157 90 97 95 98 126 63 92 114 96 172 122 133 176 222 201 98 97 79 176 116 89 121 135 191 153 137 123 193 146 72 132 77 177 104 85 154 112 116 133 140 101 131 79 78 92 82 84 88 82 89 172 112 125 193 88 60 81 69 135 57 106 134 121 128 136 148 154 162 149 137 185 125 160 159 69 177 168 206 196 75 158 101 154 186 188 167 135 108 87 163 76 111 81 75 53 39 81 60 73 168 154 168 161 117 48 151 173 161 185 122 80 161 84 170 67 161 88 206 134 208 126 175 161 135 113 179 149 88 180 134 178 113 130 152 121 82 149 97 66 158 57 144 101 113 116 127 177 78 91 176 191 180 128 52 121 58 90 201 148 121 178 181 141 140 152 157 164 166 139 136 151 141 59 127 138 71 53 69 89 131 63 63 166 164 190 191 102 165 181 95 77 121 61 132 191 141 90 135 132 136 126 143 171 132 108 150 137 160 92 102 97 70 56 143 132 102 103 76
134 133 132 138 144 152 164 166 167 149 135 115 115 130 162 176 172 170 151 147 147 171 166 191 195 189 199 204 196 179 163 166 167 166 166 162 151 159 170 187 193 200 193 196 185 191 201 205 177 198 185 187 158 187 189 186 205 212 188 188 211 162 151 129 185 114 170 118 201 173 168 122 114 117 150 149 49 61 132 64 76 105 87 57 53 255 103 86 77 147 97 94 81 72 90 79 88 90 91 149 131 99 105 82 46 36 47 83 82 90 105 93 85 84 69 85 88 99 177 101 144 81 72 89 28 30 130 134 101 162 77 152 86 105 107 111 75 114 166 154 67 164 56 145 161 165 174 182 112 124 200 172 146 119 106 108 195 102 181 175 142 157 189 147 84 148 166 165 116 172 128 173 166 102 126 150 194 85 110 78 74 81 77 138 171 201 130 192 125 116 191 170 68 99 157 51 93 116 182 94 174 119 182 176 174 161 141 113 175 79 66 137 144 93 159 112 177 112 133 163 166 86 176 72 107 118 28 107 92 115 52 69 73 199 188 130 114 108 60 123 151 135 148 184 130 194 194 124 133 204 146 170 142 156 106 149 133 147 133 189 151 186 168 121 56 130 100 69 62 95 163 79 168 147 138 120 127 87 128 126 163 242 203 165 147 173 66 75 149 185 132 174 87 108 185 92 75 117 134 45 81 74 180 172 172 145 116 183 181 82 120 60 255 177 108 143 90 115 181 126 208 200 79 66 164 174 186 148 102 83 144 127 109 111 198 193 142 102 141 80 79 135 72 74 191 202 200 117 132 51 39 58 46 96 36 124 121 142 124 158 96 121 111 175 153 156 78 70 95 196 159 137 196 149 149 121 80 97 135 143 103 174 168 59 145 93 144 103 137 151 123 62 166 76 70 160 70 167 139 155 91 76 129 92 186 120 79 76 123 146 133 209 124 110 110 128 150 152 122 71 113 80 74 72 111 69 148 60 62 74 94 170 94 61 68 83 114 168 136 126 122 103 104 180 188 181 85 73 159 98 92 158 198 158 219 213 128 97 170 161 255 106 109 171 57 62 166 177 111 75 111 118 87 149 90 103 68 165 91 103 101 103 201 120 151 138 88 157 116 149 98 165 204 199 93 139 61 138 50 120 151 109 131 99 137 96 110 173 81 141 112 129
155 152 147 143 141 136 149 162 165 157 132 129 135 145 173 185 186 175 175 159 155 166 170 192 194 203 205 208 192 176 170 167 172 171 164 159 161 170 181 190 200 199 190 164 180 165 166 184 186 153 183 172 176 165 179 142 155 168 169 213 176 191 184 143 118 162 110 190 198 202 133 166 202 172 75 110 57 116 127 57 55 59 137 60 67 129 100 65 69 139 90 91 101 53 72 55 93 73 108 121 108 98 70 47 38 70 42 67 79 99 95 96 106 156 79 84 100 99 103 172 91 123 149 61 59 46 115 84 86 127 84 69 74 104 77 76 141 124 49 154 62 93 165 161 160 164 67 89 86 164 93 202 100 163 111 166 149 88 182 91 180 84 196 161 187 99 157 58 135 96 106 96 119 139 160 179 191 115 138 107 92 77 168 117 81 170 175 123 255 153 125 196 73 95 67 110 102 88 90 113 124 181 170 84 156 162 113 91 171 111 164 180 110 216 219 174 131 100 185 119 188 87 159 74 64 129 122 125 30 32 143 79 133 118 203 204 185 66 92 101 158 91 175 142 102 189 127 177 208 213 182 191 95 151 160 115 172 174 191 134 142 85 141 175 77 137 87 149 147 64 125 145 52 114 65 95 85 140 62 118 124 180 203 173 94 69 104 81 196 128 94 153 144 90 187 105 57 103 67 82 102 112 125 187 97 108 140 184 96 93 95 73 151 74 115 108 103 164 119 135 135 119 126 98 150 75 94 183 68 68 86 161 142 191 189 88 90 122 178 168 51 50 85 139 155 185 118 170 97 123 131 77 107 130 39 117 132 53 61 122 168 161 117 213 128 101 166 137 153 133 109 128 192 106 89 154 160 199 211 140 195 195 164 132 60 113 33 75 81 162 64 158 165 60 156 164 98 86 144 72 73 92 106 194 189 108 118 120 143 156 117 160 106 118 107 144 86 110 158 75 71 145 78 152 131 165 106 49 103 71 89 85 168 158 181 120 206 212 125 116 206 164 105 197 195 169 99 155 139 169 193 98 105 205 152 185 152 150 118 89 168 171 118 154 124 81 159 108 138 85 145 144 82 142 154 151 139 176 107 216 132 178 209 155 93 111 160 120 175 132 122 183 191 95 152 175 157 74 132 143 121 161 97 121 178 67 97 71 78 145 190 138
171 170 166 160 145 130 129 141 157 151 137 141 142 169 171 184 179 178 170 153 158 162 164 187 194 201 213 202 194 177 172 168 172 170 165 160 172 185 199 203 181 176 169 162 148 148 165 192 201 174 186 137 131 178 166 142 191 153 182 157 166 126 181 170 146 177 159 162 163 148 172 221 190 140 132 54 50 93 102 54 120 68 74 114 90 98 51 59 62 127 73 65 105 60 55 80 74 109 141 113 145 115 66 64 67 40 68 69 90 136 110 144 114 100 148 148 112 153 125 103 85 155 58 47 55 145 84 58 54 102 115 65 126 171 101 118 72 62 37 45 117 102 71 70 65 150 59 67 160 187 161 96 139 186 99 157 64 165 74 155 107 171 190 197 162 164 138 104 80 144 146 140 132 183 202 174 104 117 48 144 162 176 124 164 166 187 87 113 122 168 157 135 118 98 101 172 192 196 111 106 72 73 142 188 71 129 153 128 163 148 137 95 170 134 172 126 210 203 112 87 82 95 187 86 105 74 63 136 138 152 140 109 65 83 185 165 78 93 128 84 157 168 88 106 117 114 191 141 161 108 127 121 110 146 165 100 88 124 121 98 148 156 176 153 172 113 56 80 112 90 141 111 36 151 82 154 173 63 98 139 194 130 190 172 101 172 85 150 198 187 102 112 164 92 194 147 97 132 76 143 77 66 151 192 99 168 151 119 106 121 135 84 69 145 176 107 108 191 123 185 120 210 184 181 136 92 134 181 255 73 75 141 89 117 71 68 93 71 158 68 39 117 120 72 56 70 167 129 73 130 59 30 77 101 101 116 96 61 61 142 79 180 204 146 167 148 181 83 95 99 166 95 150 197 109 182 124 196 212 152 213 128 127 85 91 116 127 74 58 73 179 95 93 139 147 125 103 166 181 150 74 167 86 171 184 98 97 150 157 109 182 126 82 86 139 90 90 127 171 89 73 91 113 76 63 68 36 46 128 46 42 50 127 97 183 104 196 144 183 148 107 137 114 92 93 140 145 114 168 129 180 201 204 136 125 114 120 62 51 70 62 105 133 158 81 107 166 255 93 91 102 75 90 184 154 174 98 97 119 143 142 224 131 108 197 80 153 95 171 79 148 155 100 173 175 84 125 159 70 44 148 172 174 114 77 87 66 65 117 75 180 176
174 175 176 171 155 136 119 129 137 148 131 147 157 176 187 181 192 180 166 167 161 167 183 190 189 207 204 202 193 171 173 171 164 161 154 158 170 197 208 190 165 164 152 146 142 150 157 163 156 180 185 183 182 193 192 170 144 185 191 205 189 198 115 132 139 158 110 172 187 107 121 177 124 108 153 140 54 60 73 105 62 72 144 103 76 89 58 131 126 60 83 44 42 59 54 97 81 119 127 98 93 80 71 61 67 44 50 63 78 97 168 111 119 125 138 173 100 106 188 93 124 72 69 59 158 67 148 134 143 166 149 156 142 140 140 61 78 66 146 58 174 184 93 90 164 172 166 96 172 147 183 255 134 166 115 91 73 42 123 149 53 133 93 187 116 150 141 84 137 63 133 154 116 168 191 157 122 95 53 118 131 116 75 179 77 135 115 92 99 170 180 113 155 125 167 150 174 200 183 182 166 160 109 156 161 129 49 161 109 96 92 182 110 124 136 127 128 201 109 188 130 86 135 134 140 89 135 78 115 68 118 84 133 168 176 142 100 136 60 162 72 157 87 172 147 138 179 95 118 98 123 106 166 173 100 77 106 170 101 108 131 91 131 160 164 117 136 97 142 134 128 120 77 141 55 102 164 134 150 57 94 93 115 98 159 69 70 178 184 155 177 123 155 158 123 171 62 63 109 58 64 69 139 178 193 96 99 111 47 93 136 163 179 160 146 82 131 180 208 134 205 130 105 79 74 77 166 157 145 116 158 189 137 99 53 88 70 102 55 105 126 127 38 157 112 147 182 79 112 61 139 76 77 77 37 149 120 60 155 74 139 166 87 132 129 140 89 116 121 150 168 176 159 86 184 156 187 196 127 190 155 115 123 112 159 160 98 116 176 130 178 164 50 138 45 172 190 85 143 70 164 75 112 158 165 119 52 139 159 79 79 103 175 159 164 137 190 82 55 132 73 170 81 177 144 121 133 115 26 73 102 144 154 78 184 100 125 67 79 81 93 120 111 122 115 106 119 183 136 125 189 95 139 103 179 80 155 60 92 82 41 96 82 64 57 140 84 106 124 60 119 156 104 102 170 140 79 88 132 118 226 196 200 177 133 166 185 77 107 92 88 94 181 194 127 82 131 78 59 113 105 82 92 189 138 80 113 139 116 171 114 138
159 163 169 171 153 131 114 123 130 126 135 132 152 190 201 202 199 178 182 165 158 174 182 194 201 206 196 203 196 187 183 170 168 158 145 152 174 199 209 203 166 152 136 144 116 119 139 151 177 181 181 166 183 174 195 189 190 180 196 150 156 202 134 186 132 148 208 189 163 185 186 112 183 109 138 126 98 129 80 117 119 69 152 85 105 122 68 61 59 46 69 47 63 56 76 90 86 98 112 112 90 105 88 100 86 64 69 74 98 144 122 111 127 116 162 154 85 95 153 150 131 172 61 164 172 81 164 110 160 131 135 86 44 44 123 151 55 49 152 60 80 204 150 203 96 94 178 181 169 183 81 138 154 156 77 86 94 123 77 67 57 146 173 158 173 155 66 47 137 49 122 126 160 109 122 76 157 88 118 69 138 150 102 115 107 143 119 121 115 68 130 82 106 151 51 61 97 104 156 169 172 169 125 180 118 87 111 153 88 181 86 136 202 197 174 105 99 108 134 84 176 168 147 168 175 183 171 195 180 101 72 165 164 136 61 69 66 147 179 176 90 134 123 87 110 110 181 85 103 97 181 142 88 90 137 80 181 131 133 98 84 193 113 190 153 65 115 136 126 65 60 107 85 59 49 111 67 149 139 62 125 104 170 177 104 82 131 72 73 73 61 78 138 191 116 122 83 166 92 128 135 82 151 139 108 185 90 59 144 120 95 77 125 77 108 106 109 162 108 200 175 152 168 69 64 65 85 66 125 91 89 170 91 180 66 45 144 140 128 43 93 133 60 136 111 98 171 108 111 113 74 138 40 116 140 128 148 163 170 172 84 156 111 125 116 134 154 175 107 129 164 131 114 170 135 98 114 93 195 200 120 178 163 141 157 181 138 131 113 195 146 125 148 134 49 158 184 117 176 174 69 142 77 108 143 113 136 42 82 163 82 122 162 141 84 181 183 90 119 146 162 172 181 128 116 155 49 140 107 42 132 163 142 175 76 127 143 130 56 80 148 78 75 73 142 81 183 184 167 133 163 151 178 134 185 143 60 165 62 78 64 68 114 123 53 65 80 150 111 154 124 87 159 174 181 162 116 155 131 174 162 129 141 119 121 116 174 90 135 167 160 113 150 205 168 173 178 155 63 138 87 145 161 194 85 118 175 83 175 159 65 119
146 150 157 158 144 130 126 128 130 136 131 129 161 185 198 197 193 184 178 172 181 171 179 175 181 184 198 200 199 187 185 174 173 159 156 162 177 186 197 195 177 168 134 118 134 123 133 111 150 166 182 184 148 143 197 179 157 165 161 164 154 136 192 166 213 192 210 114 107 109 89 107 151 91 126 86 172 118 128 133 109 88 77 82 79 106 99 97 65 54 56 55 96 78 101 106 127 107 79 104 70 65 64 84 81 88 115 93 102 104 114 79 88 116 67 68 75 103 195 100 150 87 74 102 85 180 107 104 94 174 143 155 133 144 44 149 82 148 163 76 149 210 153 207 167 191 166 84 181 152 137 168 173 106 175 164 90 43 127 69 125 148 80 165 114 134 112 134 91 70 123 92 142 140 167 145 83 97 51 104 122 84 126 90 178 179 81 171 61 166 114 88 130 145 132 81 64 172 97 131 175 84 83 186 70 96 66 150 159 153 86 140 178 195 138 194 82 77 125 105 255 89 181 133 92 88 196 207 123 95 156 178 79 172 80 159 63 125 185 143 168 118 119 116 151 164 170 180 80 88 121 94 151 121 173 82 99 176 81 189 181 125 98 163 106 100 136 142 142 135 114 148 95 102 152 55 146 64 57 168 112 97 85 149 118 78 62 64 73 87 151 72 177 133 123 145 94 113 130 159 157 77 146 112 128 82 132 56 92 105 75 108 109 84 170 69 85 118 193 98 168 78 113 157 75 59 147 137 132 57 83 69 100 100 68 116 34 129 136 150 159 104 79 182 183 102 199 194 109 77 65 98 65 79 149 65 68 159 68 143 137 131 155 113 182 133 186 200 194 99 88 177 65 88 74 177 117 85 180 108 150 191 162 128 193 219 191 207 195 154 94 79 98 56 61 79 88 87 119 95 70 77 174 64 156 123 34 142 105 175 170 90 172 145 159 64 74 98 147 137 78 89 179 174 94 112 100 124 119 255 111 162 154 168 104 91 159 80 54 86 134 169 95 255 137 70 77 174 175 142 174 91 97 185 107 115 164 59 95 50 146 91 45 141 153 123 114 64 93 117 148 84 148 122 148 143 127 45 77 95 173 201 118 150 133 219 212 96 71 63 173 176 185 208 89 77 156 64 85 119 68 116 142 160 180 77 186 111 84 75 124 93
140 143 145 141 131 122 117 124 135 141 140 142 151 182 179 190 178 172 182 188 183 173 180 167 163 173 185 196 193 187 186 183 176 174 170 175 175 180 185 183 174 179 160 155 139 131 121 125 142 127 130 149 190 137 160 180 148 197 183 198 185 196 198 201 186 159 209 196 187 102 155 93 144 135 117 178 95 134 100 93 137 73 111 103 82 111 118 126 76 125 106 78 97 93 117 109 123 108 99 61 58 67 89 110 105 114 73 107 101 96 123 89 90 69 58 91 116 170 200 105 170 110 155 57 61 79 169 82 185 85 114 57 125 80 63 163 97 82 89 157 171 110 165 112 211 111 90 173 78 143 66 95 71 255 171 74 131 144 106 142 82 146 52 130 123 62 97 132 164 112 89 158 161 137 76 72 170 81 112 116 131 53 165 116 134 148 159 126 75 170 76 177 86 162 90 112 52 108 145 145 101 83 82 154 162 120 64 174 168 97 108 191 116 173 154 159 111 67 110 153 76 74 182 135 133 175 99 101 203 183 93 137 78 72 84 166 172 125 103 180 172 143 63 83 40 111 152 65 176 165 159 64 154 153 109 162 112 156 85 188 92 145 161 125 132 105 176 102 119 78 153 144 92 156 151 85 148 94 69 78 189 199 160 148 161 152 62 124 158 53 112 67 72 75 73 103 126 160 125 118 70 84 103 138 98 124 67 62 97 71 109 201 181 137 77 73 135 114 86 164 79 60 47 145 148 71 129 126 137 109 54 64 131 122 66 100 29 103 120 55 173 79 108 206 117 208 145 190 136 77 80 84 128 61 69 71 160 157 152 68 185 92 132 187 189 139 105 170 217 196 205 142 148 145 143 102 155 162 150 98 73 89 194 189 191 215 191 152 131 107 81 75 158 145 141 148 192 92 77 169 140 179 86 165 57 112 68 139 87 84 131 192 99 175 167 152 152 75 173 82 197 108 137 127 104 197 176 108 67 111 110 97 62 69 148 81 90 74 83 178 91 185 172 163 148 118 76 163 84 109 142 76 175 160 78 65 88 151 160 91 110 133 108 121 75 158 152 79 93 65 85 166 196 170 55 106 48 22 43 101 84 158 207 138 207 153 138 134 159 68 154 120 143 118 126 86 166 56 96 73 72 67 66 72 71 174 168 87 171 171 93 58
145 147 146 141 134 120 122 125 131 144 142 139 152 158 156 160 160 164 181 190 182 178 148 142 150 165 176 175 183 177 170 167 170 176 168 172 172 173 169 169 178 187 180 169 144 129 125 114 119 121 166 155 172 192 178 166 123 138 185 189 182 126 170 162 174 190 196 166 151 89 143 134 158 135 182 181 127 105 97 154 156 80 113 129 71 66 71 76 146 97 89 89 93 97 121 104 127 91 78 54 62 36 68 87 104 79 111 88 93 127 73 54 68 42 17 63 83 183 187 121 179 81 101 61 105 51 97 119 183 149 128 153 146 43 59 83 188 97 113 142 178 113 203 158 213 188 88 177 131 138 162 178 176 179 64 49 136 46 149 52 127 154 91 134 64 127 141 129 184 134 181 175 173 82 155 119 178 136 158 122 159 97 73 84 186 110 166 152 103 135 96 151 97 87 168 53 87 112 161 177 144 126 80 85 118 104 100 131 189 100 97 150 169 84 93 82 76 174 172 167 110 68 86 171 116 192 189 99 191 186 83 124 121 154 140 76 171 84 108 156 66 35 22 120 138 90 41 70 86 74 151 134 165 145 83 84 102 182 187 90 190 106 112 172 76 182 104 112 154 112 154 71 134 86 109 144 68 157 177 96 164 118 185 143 141 131 94 86 91 68 63 73 67 121 97 67 151 138 150 121 138 92 131 100 178 193 92 109 157 120 131 104 194 194 104 89 159 79 141 139 85 138 141 125 91 170 78 86 88 126 72 107 108 110 62 77 35 139 132 108 81 111 103 96 94 98 108 106 109 73 158 92 159 132 106 90 61 56 128 112 149 89 138 161 184 176 117 163 167 214 130 187 140 124 144 129 158 150 74 164 121 133 175 177 200 149 220 159 139 129 136 154 106 76 158 179 108 93 109 95 157 107 118 120 75 122 50 136 147 61 174 181 178 182 176 167 134 148 95 94 193 205 192 131 188 208 194 130 89 81 152 150 124 84 89 162 164 129 181 161 166 153 189 190 182 137 67 89 174 177 100 179 107 134 82 85 66 55 158 151 120 80 67 167 127 154 165 175 75 92 120 104 156 87 100 102 25 50 35 60 164 79 167 163 148 224 196 143 143 87 76 175 156 138 182 154 168 147 146 138 86 113 127 112 116 94 89 190 87 64 127 54
148 148 147 143 140 127 116 113 130 134 150 140 149 135 137 133 146 150 172 176 186 169 153 132 151 162 172 178 168 160 148 150 154 164 165 165 165 162 160 162 173 191 204 196 162 158 142 143 111 145 141 152 143 171 158 131 174 175 146 159 202 173 171 122 143 183 149 134 112 173 120 156 82 99 197 98 85 145 82 86 89 146 91 98 81 67 71 73 79 112 143 91 84 95 99 100 110 136 125 67 43 62 94 73 101 74 97 84 83 99 80 72 83 37 43 69 104 92 104 142 134 166 69 133 138 91 107 63 173 144 87 52 55 48 168 143 94 159 130 157 116 201 206 213 201 162 186 161 119 168 158 205 116 82 78 122 99 78 123 83 65 67 80 110 136 90 81 126 146 189 158 169 129 143 162 149 178 134 186 102 156 123 127 132 86 94 138 186 131 90 109 185 141 156 134 85 108 170 171 153 143 159 103 123 63 94 129 183 180 182 85 151 182 142 175 164 154 78 97 73 104 149 84 66 74 81 79 175 143 128 105 183 121 71 135 148 179 164 177 109 63 35 119 73 136 136 137 137 67 121 177 132 194 166 98 101 154 93 174 178 83 160 170 163 183 131 200 170 192 189 100 160 176 109 85 135 137 97 90 198 112 179 162 104 145 114 64 76 95 105 81 74 146 52 148 98 158 194 106 100 87 180 90 85 105 190 76 126 145 94 192 146 136 145 92 93 145 183 91 193 167 148 140 119 76 128 128 135 184 155 186 80 154 121 105 150 73 77 79 118 88 126 94 169 183 190 127 112 73 171 135 117 161 173 80 79 127 142 53 133 114 61 135 156 132 203 117 150 174 135 227 188 195 194 176 171 144 57 56 164 171 165 162 85 109 181 115 102 99 181 161 133 37 68 50 148 150 79 126 81 90 206 203 94 83 151 52 75 141 112 137 121 177 163 163 131 191 119 90 139 121 193 88 90 120 177 102 121 122 163 115 90 71 190 186 179 183 165 124 185 144 131 189 174 187 77 102 133 58 172 183 163 196 201 93 115 56 150 118 177 145 91 182 73 114 160 94 76 149 123 49 147 193 89 116 64 54 70 51 90 134 151 173 191 144 206 160 83 109 121 147 128 137 122 104 104 72 84 96 84 53 84 157 86 73 78 199 200 122 169 164 79
146 147 148 148 149 141 133 129 126 134 153 147 155 138 139 131 141 145 169 162 169 143 140 155 160 178 162 166 152 139 129 136 144 155 160 159 161 156 151 162 166 190 203 210 185 166 141 139 121 135 123 175 189 196 143 171 103 157 129 131 173 197 184 131 152 150 106 181 111 110 141 156 81 155 134 139 167 123 125 136 101 103 76 149 132 116 103 136 100 82 77 86 65 93 141 93 121 114 98 66 49 47 53 103 73 80 83 91 131 95 107 91 68 97 38 60 70 166 168 103 98 119 88 53 49 140 66 69 139 105 184 161 66 160 103 82 200 202 131 130 123 131 179 180 129 185 90 86 175 100 206 193 95 173 141 116 122 137 106 118 188 96 167 144 60 134 104 64 98 180 160 112 107 150 115 126 176 171 92 170 80 155 115 144 112 113 124 85 84 189 192 96 146 123 153 79 132 106 175 152 165 165 178 181 172 101 164 158 175 87 180 105 203 178 121 111 124 83 156 154 63 155 60 125 130 80 155 89 81 179 100 180 117 169 78 123 102 140 201 185 159 153 149 137 141 33 133 100 50 159 179 86 186 165 129 179 190 182 83 80 71 134 150 174 161 141 106 176 180 169 90 151 98 94 148 92 119 100 159 117 157 224 110 194 125 57 64 118 101 176 82 94 155 53 152 102 75 92 122 96 119 82 91 76 81 105 97 68 99 73 118 99 171 96 167 122 76 76 187 164 80 94 103 167 161 112 188 131 105 154 117 110 153 129 59 163 62 120 117 163 185 112 141 168 167 84 171 177 135 58 115 150 131 168 123 95 151 131 157 35 130 137 122 157 142 107 170 209 145 127 227 184 203 100 171 111 148 68 120 72 175 132 154 182 186 130 112 182 142 99 146 98 145 133 62 51 100 71 94 110 145 183 148 104 162 137 134 118 137 147 116 64 76 183 115 100 105 90 190 164 138 184 182 85 155 178 99 155 157 67 119 69 82 119 213 139 120 189 113 144 222 147 198 194 139 74 164 84 60 145 110 135 109 159 184 75 157 73 180 96 128 165 154 125 175 97 181 144 150 128 74 93 188 102 119 168 163 123 58 85 153 164 102 103 85 151 80 75 165 70 91 169 143 101 107 158 80 107 164 65 54 60 77 58 157 130 202 142 111 93 173 127
144 144 142 140 138 133 133 134 141 155 159 159 155 153 133 122 132 155 156 164 154 151 159 170 180 193 185 172 149 132 123 131 141 160 163 167 167 170 171 155 181 195 208 210 197 180 161 151 151 171 138 152 164 149 186 142 99 108 137 128 204 171 142 158 159 120 172 188 116 165 169 78 83 137 105 167 166 124 152 94 177 85 78 113 80 103 108 144 77 68 60 108 55 85 68 91 158 112 145 81 58 36 75 44 101 59 75 106 115 97 144 106 150 118 109 120 65 164 124 75 127 170 120 121 80 65 163 173 146 117 93 79 143 171 78 183 203 221 228 194 104 183 135 174 180 89 179 211 124 219 225 187 120 65 32 97 50 121 166 115 165 192 184 163 61 80 140 116 72 160 156 116 211 114 192 108 111 76 181 103 176 102 100 163 120 52 93 137 174 119 178 141 88 152 186 182 69 170 144 64 80 140 98 104 138 145 143 172 91 84 106 96 211 125 124 192 75 60 51 105 136 113 140 152 172 165 85 80 80 102 142 181 93 150 113 131 197 211 180 192 172 119 158 148 80 94 31 57 67 116 132 193 203 99 159 101 175 169 83 167 111 64 130 103 145 180 179 179 140 196 175 188 78 185 83 98 95 164 187 113 172 136 185 175 86 60 158 97 147 141 164 152 65 126 71 98 142 160 110 98 191 94 181 142 174 173 79 158 164 71 171 141 190 89 121 174 128 67 108 159 97 174 76 162 158 83 101 212 121 212 157 204 135 84 89 72 119 88 92 120 152 183 137 162 161 175 91 177 165 116 107 60 173 168 189 179 187 137 58 95 131 35 95 158 185 120 153 121 202 154 140 109 96 191 137 160 113 138 83 169 179 183 113 137 155 167 210 188 167 149 87 100 152 133 123 111 81 106 64 169 102 198 210 206 90 182 64 109 105 57 167 124 126 131 204 204 146 85 86 175 112 109 167 84 167 95 81 163 166 148 116 85 95 193 131 116 209 209 221 186 162 206 135 153 199 175 161 57 157 118 77 166 204 101 116 175 72 161 104 197 148 81 139 76 169 107 112 102 173 66 136 130 169 192 189 78 171 53 87 85 44 137 101 88 77 147 61 53 114 150 94 75 154 92 92 123 146 173 146 141 147 55 138 54 78 153 89 166 113 109 213 192
142 142 134 127 121 127 129 137 148 157 167 178 166 152 146 141 128 138 157 144 140 149 153 175 196 212 195 182 159 137 123 139 157 170 180 177 174 173 180 166 185 190 193 190 166 170 167 191 198 179 179 155 178 155 165 153 146 102 97 147 198 158 219 194 163 183 169 125 135 130 138 132 153 159 133 89 118 87 111 184 150 158 122 77 63 150 94 84 77 109 81 54 50 58 81 111 107 116 111 81 58 85 63 70 101 65 86 97 76 87 109 92 132 91 55 50 71 104 66 98 81 125 73 62 92 79 162 97 103 105 97 85 80 72 175 93 194 212 117 214 203 181 153 58 52 137 202 194 211 131 167 183 169 131 81 127 146 178 177 114 151 134 100 174 129 116 73 82 161 174 158 183 183 103 153 171 89 87 173 150 190 95 133 167 73 127 158 136 184 80 135 162 71 88 75 108 100 152 61 68 76 97 132 190 207 189 145 138 107 71 85 116 168 219 167 165 184 67 156 70 96 109 124 156 165 70 153 165 116 187 85 86 103 205 120 170 204 109 196 186 158 138 156 58 56 134 96 105 136 89 151 125 182 191 194 191 95 188 86 113 156 144 162 161 164 130 78 175 179 184 163 78 83 122 82 97 103 102 160 112 223 116 208 105 99 164 106 133 175 156 92 70 44 121 153 106 180 147 105 102 77 167 113 77 80 82 101 65 133 60 89 66 123 172 82 160 101 160 155 102 65 131 142 61 77 71 104 193 170 193 164 113 114 72 121 115 93 201 102 139 89 155 180 75 179 140 147 152 96 159 153 62 131 169 178 128 185 106 87 128 130 56 157 141 176 124 147 138 190 190 192 216 193 183 177 64 65 100 72 110 189 90 100 111 154 206 135 224 213 177 255 140 128 124 24 109 23 96 141 107 159 115 138 171 123 174 159 124 155 119 164 89 90 188 119 176 159 190 95 78 172 181 100 131 174 192 107 74 179 88 175 163 97 192 93 136 155 225 170 206 174 138 101 181 175 157 90 158 163 127 71 107 89 162 187 143 107 84 185 199 198 120 155 47 55 80 96 183 179 198 173 93 167 174 89 144 152 144 59 135 152 157 160 83 177 101 103 142 114 58 92 108 176 139 176 174 80 102 92 77 86 76 161 115 60 77 117 130 92 179 118 225
149 145 133 119 109 112 119 130 142 155 161 165 174 144 143 126 115 130 141 134 131 151 172 198 207 225 220 198 168 149 128 137 150 167 177 175 177 178 183 181 175 180 163 170 159 160 177 204 224 191 147 157 154 144 160 161 109 146 129 167 128 137 201 194 128 155 159 124 172 149 163 119 151 100 134 67 159 90 185 119 117 86 75 97 61 65 88 76 92 82 68 59 63 52 81 77 136 118 106 130 75 60 91 56 66 62 63 59 53 80 84 107 79 113 47 65 53 71 84 87 83 102 94 97 158 85 197 140 134 93 186 77 100 174 178 183 96 113 136 117 131 100 147 29 36 84 198 118 225 227 189 93 79 133 150 57 63 187 201 188 184 158 168 77 54 78 118 135 81 170 111 152 121 189 83 160 143 170 116 157 80 171 147 170 122 93 54 134 90 187 182 162 173 78 67 140 61 74 150 157 115 98 170 191 202 137 90 80 146 90 97 102 187 177 163 98 182 108 79 165 71 147 113 145 172 100 110 119 180 119 117 176 170 121 205 202 183 178 183 108 112 129 161 157 148 67 60 87 140 94 209 172 81 89 71 134 186 106 191 171 77 146 88 78 118 180 133 166 135 158 82 92 118 70 49 102 64 135 123 204 113 105 89 133 144 116 168 160 164 85 122 113 76 147 66 77 176 161 79 96 93 102 125 139 152 103 64 98 57 103 99 132 169 84 65 68 141 79 105 93 90 64 151 67 79 61 175 86 145 100 105 153 156 166 91 191 97 96 95 101 109 158 91 81 193 102 96 85 148 99 153 75 179 131 163 187 160 77 172 134 72 172 118 100 102 76 173 191 151 134 171 154 212 106 72 96 155 152 186 106 144 171 81 134 131 166 113 215 162 182 185 97 133 48 18 82 90 44 115 136 167 203 205 178 74 57 42 117 115 106 120 73 118 133 99 173 168 96 106 149 84 88 144 204 106 255 197 90 167 96 138 176 114 151 173 167 177 221 204 99 108 153 151 128 99 86 105 119 144 164 125 71 180 196 101 119 170 75 88 177 186 129 121 106 89 137 121 209 180 205 172 197 156 74 78 60 71 63 54 42 51 176 87 187 91 181 157 109 65 92 132 84 136 166 118 153 63 76 163 83 85 169 75 85 67 78 81 116 91 161 138 213
154 149 137 121 114 108 120 128 138 140 139 145 143 140 129 112 115 111 118 125 139 143 149 186 215 225 222 206 181 156 131 126 134 147 156 158 154 169 178 183 180 175 173 140 146 147 181 216 228 188 170 170 157 158 159 154 91 161 151 158 137 199 121 123 130 119 79 148 87 148 95 113 111 101 133 126 92 168 116 142 159 98 92 115 69 68 110 149 91 91 121 94 59 57 82 98 91 105 120 100 99 78 112 74 98 80 75 57 61 70 111 81 64 105 72 56 101 111 78 118 127 73 66 102 179 194 149 181 132 153 59 71 59 80 87 174 95 109 208 182 82 165 141 115 37 59 157 161 139 132 160 85 80 90 83 169 176 147 83 125 98 162 197 185 81 146 108 99 82 101 201 124 194 94 117 120 171 163 81 110 127 179 75 138 150 55 129 190 170 220 180 101 152 130 133 117 151 101 153 105 86 182 142 125 103 173 154 87 139 105 179 118 162 116 102 113 152 129 171 162 111 159 167 163 108 175 178 170 184 86 96 133 92 109 156 164 149 136 105 160 122 72 107 164 161 70 150 82 80 171 94 161 175 64 150 167 181 209 193 182 95 85 80 110 155 160 115 106 177 147 168 67 95 147 56 154 100 84 97 107 95 183 107 122 73 66 129 72 102 128 152 115 80 160 101 154 82 169 111 166 121 170 64 120 67 141 79 48 83 61 152 99 182 97 153 143 44 87 70 75 84 59 118 86 170 149 155 126 73 113 150 189 130 92 141 131 93 191 145 180 171 113 91 99 144 210 100 193 172 77 145 148 71 87 80 132 169 137 255 78 190 85 177 116 58 159 146 166 106 178 194 218 202 138 74 82 100 101 101 165 111 125 187 171 115 209 132 106 177 109 163 94 54 69 127 120 142 154 78 194 108 150 192 142 152 141 28 44 129 112 67 75 89 85 167 157 121 77 111 160 174 162 132 203 171 147 156 186 181 186 103 88 70 76 174 116 189 185 100 190 85 163 143 195 209 128 255 191 151 88 130 171 89 169 119 201 136 120 180 184 108 157 139 34 69 87 185 207 158 112 100 107 168 179 137 152 75 141 64 78 123 191 203 103 121 138 147 149 166 180 170 56 106 89 156 102 138 99 89 134 182 177 69 54 140 87 83 96 100 116 133 113
162 156 147 133 125 123 129 137 136 130 144 145 136 132 107 109 100 117 123 125 133 142 151 165 183 205 203 190 167 152 129 107 111 118 132 141 152 168 175 185 190 186 173 146 147 158 159 208 209 233 184 172 144 137 158 149 105 135 122 152 182 194 154 157 148 136 54 139 137 144 164 167 119 111 85 108 92 90 104 135 198 131 96 121 104 69 73 81 100 113 93 109 113 124 77 99 155 147 136 133 100 120 93 127 96 120 76 98 96 80 156 104 82 66 60 53 71 95 92 162 94 66 67 139 96 99 190 132 111 76 155 44 57 139 124 215 114 110 103 152 188 165 59 114 76 157 87 106 101 89 127 162 170 74 158 131 160 103 162 78 117 176 164 164 152 161 138 140 131 170 169 185 95 161 173 106 80 113 145 75 107 128 135 73 158 74 183 210 124 130 155 215 135 184 171 89 60 132 153 120 186 143 81 102 145 173 76 147 77 118 99 159 168 178 122 93 95 180 85 103 179 172 74 144 81 181 95 84 147 77 130 94 171 162 152 96 126 134 104 98 116 123 69 151 116 82 157 95 112 85 150 113 70 77 121 185 148 104 209 200 186 133 133 115 154 173 113 141 185 162 165 89 166 160 84 79 99 152 75 99 85 160 121 72 150 123 112 77 155 206 149 134 77 145 68 130 180 80 98 70 91 125 152 98 96 71 69 129 41 129 83 105 86 123 117 50 39 56 64 57 52 117 93 136 88 67 130 85 79 121 81 111 93 208 179 91 171 178 122 159 197 148 151 97 117 213 194 172 83 174 126 94 159 120 108 169 91 141 157 134 141 169 183 170 127 173 171 192 192 164 183 202 152 126 110 91 83 102 109 199 166 120 87 187 93 172 199 121 85 181 83 172 77 128 59 155 159 144 126 207 123 180 196 131 147 41 26 98 144 130 167 108 163 140 158 114 124 123 125 124 116 147 185 192 116 205 118 166 150 152 175 83 169 148 164 126 124 93 144 77 178 187 149 221 201 134 178 199 145 178 89 90 99 146 108 100 111 166 188 129 137 131 58 126 148 126 192 148 222 123 159 123 167 91 128 97 60 122 121 133 139 157 111 112 202 172 132 199 115 255 175 162 157 93 94 75 83 74 165 180 98 172 108 149 54 72 98 109 172 145 120 132
162 157 151 147 143 146 155 148 149 144 149 143 137 136 110 103 104 125 130 122 131 133 141 155 176 178 178 174 167 152 132 104 100 105 116 139 155 168 178 175 182 180 178 144 148 153 181 208 221 229 192 165 159 152 133 122 159 166 158 158 197 148 190 104 125 82 117 106 143 71 130 154 157 124 117 92 87 81 92 181 153 103 148 87 135 73 81 152 134 106 132 74 65 117 102 114 135 142 99 150 151 128 126 113 90 92 93 98 78 138 89 124 67 61 135 53 146 70 72 128 78 109 66 80 185 122 110 187 121 79 56 132 63 161 219 213 124 219 213 101 84 163 155 159 62 81 177 177 149 182 77 170 175 169 209 103 111 164 115 138 80 137 176 170 134 165 122 135 168 116 179 164 180 101 167 107 63 115 97 82 163 158 96 127 157 104 149 220 238 138 154 155 103 178 138 152 187 147 179 175 165 181 188 177 150 74 87 132 180 69 126 163 64 152 180 129 178 149 164 119 173 135 106 158 78 94 201 184 152 114 94 167 163 154 49 115 37 131 34 154 71 105 82 175 140 162 181 85 164 180 102 153 143 175 190 133 189 194 113 183 89 171 151 124 146 97 82 171 161 82 180 158 61 106 91 150 161 181 164 154 171 162 153 114 139 137 122 104 145 124 130 195 73 123 73 133 73 178 96 92 111 84 147 67 82 83 107 112 109 97 124 106 86 162 149 74 52 49 44 67 60 74 184 180 100 83 126 160 85 163 86 157 141 213 145 87 89 171 151 205 161 106 101 198 120 108 102 124 122 125 63 51 53 148 164 114 133 95 84 93 144 189 116 146 172 123 128 99 113 76 180 101 177 189 165 140 148 153 124 155 138 70 108 84 121 143 152 177 178 130 168 77 141 178 101 170 177 98 208 130 186 194 97 137 114 140 53 60 61 166 174 76 105 70 127 156 116 135 105 121 219 136 196 111 100 95 198 174 129 90 84 171 78 183 188 112 175 167 124 177 110 188 200 119 226 153 225 182 208 201 105 196 104 135 201 120 182 102 200 131 138 172 92 159 136 115 114 203 187 163 166 138 186 86 146 148 148 56 135 52 130 158 136 171 131 174 143 138 148 161 139 78 133 104 53 84 55 109 146 83 124 82 84 74 44 104 160 153 177 113 89 175
168 165 162 158 160 158 160 156 163 150 162 163 164 143 128 119 116 122 143 154 159 157 157 171 175 171 173 170 168 151 135 119 109 113 122 146 162 179 184 187 185 186 179 165 139 136 178 181 215 174 175 144 128 120 161 135 142 196 215 205 163 169 152 138 75 98 64 136 61 114 86 153 74 101 130 135 81 89 76 127 131 85 94 89 119 78 130 147 150 177 179 113 87 82 118 125 97 156 143 143 99 126 95 118 84 87 116 89 98 138 127 88 126 110 116 65 128 72 134 71 159 89 74 168 155 109 148 123 105 79 99 61 127 169 219 184 194 129 105 153 97 119 77 80 74 67 171 85 129 171 146 166 168 106 125 164 199 124 161 116 177 182 161 255 119 112 153 201 117 135 132 188 158 175 154 139 64 141 94 103 48 65 103 79 153 89 196 212 125 161 186 164 129 147 178 130 195 194 102 172 120 126 181 169 74 76 171 109 182 128 73 67 130 100 176 156 163 98 76 74 113 57 74 58 125 131 85 173 88 143 90 77 141 53 99 156 63 147 79 78 93 180 174 91 96 145 99 166 121 161 186 82 190 161 201 159 144 111 79 255 167 97 51 89 66 93 124 90 177 123 171 96 103 71 116 92 159 180 183 85 92 154 79 98 73 70 185 108 108 107 182 195 130 148 106 161 133 178 149 94 132 83 97 122 131 126 105 100 89 119 54 159 91 136 103 52 64 95 71 70 83 162 86 98 171 100 98 144 75 171 72 107 171 153 107 183 170 118 101 193 221 213 181 182 178 106 107 137 83 76 122 52 69 41 136 156 163 71 167 169 164 187 132 86 123 177 69 101 157 171 99 100 106 88 125 82 136 155 146 169 137 107 114 148 144 156 113 182 160 169 144 123 187 139 133 171 190 167 106 144 187 100 183 184 98 170 158 73 169 163 147 183 82 160 165 136 99 98 119 159 217 141 204 109 131 188 97 204 171 126 86 102 151 137 100 162 63 111 95 72 185 210 166 172 119 222 201 207 131 116 108 119 112 154 188 129 174 158 177 119 142 103 77 176 129 98 151 203 198 136 90 94 108 188 152 93 84 167 83 66 111 107 97 173 140 169 178 186 170 101 148 183 73 126 89 66 84 166 162 197 96 186 150 65 53 162 70 85 193 199 190 75
172 168 166 167 167 167 159 161 152 160 162 171 176 152 143 126 131 147 144 163 168 192 186 186 174 174 158 168 172 170 160 138 124 125 135 152 168 172 185 175 191 174 183 172 146 136 151 185 188 206 185 128 146 151 116 175 207 160 229 194 208 118 176 132 172 102 96 129 61 61 134 104 163 104 161 83 74 127 76 132 127 72 69 71 64 72 89 107 147 193 114 160 84 92 103 97 94 90 94 111 99 87 77 107 104 81 97 90 84 116 106 126 118 118 58 75 87 80 78 74 133 151 143 167 133 151 113 114 189 90 60 63 67 157 203 180 211 212 197 178 184 194 158 192 96 93 125 57 124 180 88 130 112 122 191 139 203 126 143 128 201 147 124 160 166 94 137 144 176 184 204 183 98 114 96 103 83 120 109 113 20 41 101 81 174 89 151 224 146 120 156 89 145 178 177 102 120 99 189 205 116 190 132 134 145 162 120 98 93 77 54 92 78 162 92 159 181 108 71 119 96 137 62 60 162 139 85 93 122 147 126 136 132 136 159 165 163 80 79 65 149 166 91 120 112 194 198 177 84 182 168 160 83 193 99 92 93 93 94 74 110 151 107 58 151 141 180 110 145 148 91 93 75 78 77 157 194 142 81 93 148 91 110 120 130 147 114 86 122 128 140 96 81 134 183 146 187 162 111 101 111 110 91 97 162 108 107 136 132 156 173 74 69 148 99 150 83 31 62 102 106 81 88 195 141 200 95 127 73 75 163 181 96 176 191 179 116 103 107 111 198 206 117 172 83 186 92 119 191 124 149 65 49 128 84 60 139 69 168 183 153 191 189 168 108 80 125 66 165 182 90 95 81 87 115 127 96 181 132 133 77 102 151 132 194 197 191 95 171 84 131 172 181 82 154 101 164 175 130 81 93 104 129 195 172 96 184 148 166 110 190 112 120 186 70 127 164 137 157 121 152 233 215 200 167 151 208 113 116 107 121 97 96 163 158 172 154 144 138 120 74 101 196 105 195 205 108 114 215 180 145 150 75 101 178 138 180 124 201 209 180 102 186 199 210 195 129 171 132 148 81 102 67 82 187 86 166 88 83 123 184 175 132 104 191 124 132 198 101 120 118 178 147 73 77 87 166 72 118 183 162 212 198 182 107 108 70 163 185 149 78 78
175 175 174 174 170 160 152 139 143 156 173 170 166 164 155 147 146 160 140 155 178 205 193 189 182 169 165 168 175 178 173 161 151 149 159 169 183 190 187 195 196 193 184 178 172 169 160 176 171 196 152 167 112 110 133 172 188 174 213 204 145 118 181 156 154 137 73 74 152 124 73 103 86 145 88 81 141 127 85 59 73 67 91 65 69 121 104 172 140 126 112 92 81 85 139 80 101 104 86 112 102 111 73 72 97 88 126 83 89 139 108 108 89 69 70 60 67 168 89 93 125 128 116 123 178 136 120 171 74 101 154 96 166 184 90 98 88 187 75 120 147 88 97 85 132 59 101 163 157 156 90 192 109 133 200 195 96 187 142 162 105 188 199 162 122 181 162 183 112 185 136 180 191 137 83 157 91 40 39 115 80 42 52 142 190 139 178 196 190 138 93 158 91 112 205 153 163 86 120 81 170 99 173 196 125 166 142 129 77 108 99 171 72 144 155 184 153 189 75 72 144 137 165 78 107 142 118 75 168 99 163 111 180 76 98 178 162 92 80 155 175 87 151 170 174 96 195 190 188 105 89 166 77 121 189 116 186 177 187 158 109 99 79 98 76 81 186 129 108 156 122 126 167 81 143 86 102 104 187 195 124 148 187 145 160 181 185 171 90 201 162 131 76 158 142 189 188 108 163 178 133 100 144 107 104 119 149 144 106 188 140 151 71 78 90 53 52 109 51 92 67 147 93 199 132 207 211 142 150 155 88 148 159 120 167 136 150 210 208 112 166 149 196 79 178 180 185 153 197 184 123 74 101 79 65 71 121 168 136 159 189 136 107 180 84 114 105 110 118 195 160 130 85 94 170 166 135 102 82 161 130 100 162 143 162 164 155 107 183 178 142 149 135 143 168 76 90 163 146 164 134 101 153 192 87 98 145 181 79 77 128 111 105 194 78 82 99 193 156 112 132 201 137 182 196 176 135 182 150 99 86 148 158 81 95 165 147 84 108 84 130 173 68 129 147 76 151 87 102 82 170 175 145 121 72 146 167 90 109 155 140 110 105 197 135 140 122 175 204 91 106 97 90 155 115 95 74 97 168 176 191 110 195 106 138 223 212 149 104 93 145 157 58 119 83 162 107 163 92 123 218 210 102 148 122 159 53 52 140 171 163 170
161 166 171 170 163 146 140 127 137 147 171 178 178 176 164 162 177 173 145 159 178 190 198 187 179 168 169 182 184 180 189 181 172 171 182 191 196 195 194 192 189 174 162 157 155 174 170 197 196 191 183 141 163 152 165 147 199 167 136 175 105 159 108 160 108 86 163 123 87 82 101 96 58 66 96 114 48 56 109 134 67 74 94 99 140 155 166 133 120 107 96 117 69 75 84 126 103 77 82 82 91 87 73 102 102 77 99 111 144 172 124 120 174 103 60 143 93 83 153 186 160 118 203 217 214 156 96 112 55 85 48 149 66 78 120 85 67 66 117 139 89 165 145 154 150 110 161 90 172 178 173 145 94 107 188 106 134 112 179 180 191 154 81 171 152 187 171 178 180 189 167 215 190 102 123 166 158 60 116 87 106 130 91 81 143 97 198 197 79 125 79 153 165 110 168 200 159 147 176 173 82 156 149 103 151 56 157 71 130 84 128 124 105 85 162 94 179 190 95 97 107 181 87 104 137 98 151 115 160 186 198 203 192 188 148 136 185 117 117 125 84 134 163 90 142 101 88 182 177 99 189 88 146 96 115 157 204 206 99 86 130 89 114 94 178 137 166 204 151 110 97 165 129 94 147 91 141 90 178 194 174 102 122 132 180 187 87 98 191 86 129 165 66 63 147 122 109 167 161 104 100 97 103 123 204 173 107 195 102 171 68 138 96 123 79 125 69 78 93 149 83 122 98 136 141 232 130 115 94 125 86 154 183 142 120 120 188 193 134 191 172 87 186 75 90 168 64 179 176 200 150 193 164 120 36 61 41 155 129 173 98 199 166 154 184 117 143 113 184 178 112 218 210 92 190 202 181 124 185 134 92 176 166 81 86 189 194 87 122 167 83 181 86 116 88 82 144 178 69 113 46 100 166 180 87 187 75 255 142 167 73 136 114 115 90 176 140 130 198 184 192 211 155 147 115 168 94 148 212 94 76 78 169 109 174 106 155 92 72 157 145 114 101 88 153 67 151 89 159 161 164 69 79 173 94 155 69 82 188 185 199 189 131 198 192 201 222 212 167 94 76 110 82 165 121 75 130 113 87 108 132 165 85 102 92 115 198 179 147 155 162 158 95 63 171 118 117 82 153 208 119 104 86 152 116 153 44 139 108 56 170 146
144 154 163 160 149 136 121 126 125 147 154 173 172 177 172 196 184 191 182 174 180 196 197 180 174 162 178 192 201 201 203 194 197 201 206 212 207 198 189 193 187 176 166 153 149 175 198 208 209 192 156 179 128 157 172 194 135 179 133 95 128 115 151 102 156 146 122 141 110 92 107 70 54 135 130 76 72 77 84 86 150 91 76 83 119 128 123 115 133 105 144 111 65 77 53 58 73 76 119 104 76 119 82 71 65 104 73 149 104 111 139 136 138 163 123 63 91 107 110 97 116 140 180 164 115 163 95 55 112 93 101 70 174 125 149 108 65 68 153 58 163 66 168 81 135 62 165 167 164 90 182 179 119 183 158 165 69 121 169 139 133 98 143 129 169 175 123 117 106 104 195 196 153 176 104 150 100 108 68 113 90 86 91 116 118 116 184 162 80 122 130 153 142 138 103 167 84 185 95 111 88 177 83 166 95 79 104 125 124 129 102 190 160 139 68 172 123 165 140 105 160 87 181 79 80 131 108 174 169 175 132 146 171 180 83 101 172 181 200 174 192 181 113 92 175 111 146 115 67 92 113 162 168 153 132 127 219 194 154 86 120 119 100 128 134 103 158 221 182 211 205 162 109 143 106 155 149 187 116 92 121 105 155 106 194 179 88 81 176 103 149 74 136 45 47 117 196 104 101 88 146 126 105 191 184 162 129 204 88 167 81 95 66 82 73 60 102 85 52 108 76 92 114 149 136 215 236 212 153 189 82 180 121 103 121 210 115 125 188 96 178 81 127 105 114 64 149 168 148 173 161 92 161 64 60 58 133 51 87 91 96 199 202 95 92 60 105 159 134 202 150 216 136 117 198 125 196 185 107 90 90 109 80 158 125 159 83 106 81 119 186 143 184 178 64 91 96 66 114 41 47 136 129 67 107 115 72 86 141 58 132 137 140 153 78 74 134 173 77 171 99 88 87 81 137 148 168 121 165 175 120 75 71 182 164 118 184 183 125 120 164 131 160 65 58 138 138 56 118 107 55 74 79 73 92 160 58 68 184 191 117 100 68 84 190 204 225 176 218 155 104 79 88 164 136 177 129 118 111 58 63 153 74 125 81 73 178 185 168 135 96 156 157 61 64 67 70 184 175 106 170 184 161 108 124 69 38 37 99 123 93 157
129 137 143 140 126 122 124 127 127 130 149 154 173 165 176 190 212 201 186 188 190 197 184 176 166 163 182 192 195 207 195 192 198 208 222 213 210 204 197 187 157 153 122 133 159 187 186 198 213 200 170 189 149 153 187 153 139 166 133 145 128 95 147 152 173 126 169 127 101 68 61 107 99 71 109 129 95 70 57 127 64 91 76 153 117 141 116 118 145 143 131 79 84 73 71 67 95 98 73 72 66 58 65 123 99 73 118 75 94 144 138 175 179 144 165 157 99 100 84 169 112 115 130 191 130 68 117 97 148 58 91 186 95 108 112 139 142 146 55 55 163 169 66 136 154 122 147 157 121 96 76 89 109 138 160 130 149 81 133 149 161 120 148 93 69 167 179 178 116 118 196 171 197 154 163 78 81 98 38 39 67 88 136 125 111 105 72 166 181 70 142 139 173 79 100 180 79 128 166 92 121 71 180 124 151 186 166 90 153 139 110 144 100 135 54 137 105 149 122 106 200 203 86 178 151 129 158 132 84 174 176 189 137 155 184 115 190 123 145 96 192 90 136 93 91 75 164 145 82 52 154 175 168 120 135 136 181 216 110 186 130 77 140 127 121 199 124 133 128 202 163 168 98 126 188 157 203 103 134 183 179 97 90 83 192 164 135 97 127 96 152 169 163 149 85 68 179 165 161 76 74 110 131 119 103 97 199 97 120 126 100 68 112 60 54 93 147 105 103 128 188 156 188 172 231 178 171 123 118 199 152 143 188 255 127 204 158 201 85 89 103 137 149 175 138 169 130 114 142 112 153 160 163 64 115 112 67 125 134 73 164 116 161 76 134 60 44 51 155 93 197 135 171 128 197 148 200 126 186 164 132 172 82 70 120 176 110 180 88 155 80 79 159 97 73 161 49 42 45 43 155 68 91 155 154 152 63 129 94 98 156 162 177 160 159 180 162 172 158 136 138 172 124 129 74 148 186 133 130 63 67 116 184 200 194 88 87 168 125 132 167 179 157 152 130 147 49 145 36 148 60 129 106 77 68 79 57 75 75 185 155 149 120 151 171 187 223 211 126 202 183 87 124 177 112 139 130 50 41 115 106 131 144 138 72 71 58 159 134 79 89 119 128 122 133 71 106 145 124 190 174 168 57 65 150 113 70 103 49 159 105 161
128 128 123 114 114 121 128 129 133 133 139 156 171 160 179 194 196 209 196 202 206 198 193 181 164 160 166 190 189 190 182 176 188 201 218 219 208 203 180 176 158 152 131 113 153 181 177 219 201 192 148 197 193 193 147 164 145 130 108 87 143 156 178 157 138 102 110 131 135 100 64 108 118 106 78 128 93 68 141 54 57 99 86 80 165 104 131 158 150 120 123 127 56 70 73 80 89 88 81 74 65 46 58 85 80 76 96 122 128 123 117 119 103 96 95 105 190 94 169 105 113 187 120 120 109 75 87 67 163 141 151 106 105 188 99 147 52 151 62 155 115 101 69 73 167 159 87 171 172 165 131 159 110 144 117 59 93 60 70 171 152 132 99 157 75 116 181 131 157 93 129 148 154 147 94 174 106 115 71 152 81 88 169 127 116 82 170 75 79 73 64 68 67 168 172 100 107 93 161 87 74 77 125 204 199 88 88 141 95 166 214 100 90 128 159 86 61 178 139 208 136 196 157 174 131 50 65 151 85 151 99 92 99 199 126 97 115 176 101 176 98 200 107 139 185 69 53 143 104 160 68 173 111 235 220 197 119 187 145 140 94 116 138 56 159 181 171 210 115 116 93 170 75 77 76 103 184 148 139 75 69 170 85 97 88 150 185 94 123 80 165 176 174 82 69 106 132 77 91 64 73 84 135 79 75 103 171 155 73 141 138 154 127 136 52 138 49 60 141 172 79 126 102 191 115 191 188 206 124 184 95 108 177 165 110 138 205 168 101 155 117 180 168 90 82 93 143 139 142 193 102 190 160 31 7 69 91 44 168 161 155 130 152 180 129 62 135 66 123 91 123 148 188 81 180 168 200 110 133 135 143 132 127 120 167 192 114 198 172 73 58 171 74 167 138 95 45 106 58 129 83 95 76 69 97 110 106 24 28 40 90 158 128 185 129 147 158 104 161 90 155 140 170 143 106 179 80 120 172 255 151 119 104 100 192 188 173 194 113 117 130 172 159 77 115 164 89 112 153 56 133 93 115 99 97 138 158 75 105 135 82 93 158 101 102 165 177 156 151 111 114 190 173 99 106 186 176 91 34 133 125 56 43 65 98 74 57 106 72 163 138 129 112 66 74 101 163 160 97 139 180 172 84 78 42 49 48 108 65 100 107 157
133 122 106 98 99 120 131 137 141 140 159 156 157 166 158 156 171 181 193 191 205 223 216 192 180 158 171 171 168 156 152 157 168 186 196 204 188 188 179 176 156 157 141 116 128 167 156 171 186 171 161 189 177 193 192 189 182 169 155 90 174 181 150 182 142 172 154 118 98 111 155 99 105 166 171 85 83 56 48 85 58 65 74 80 117 128 79 143 112 129 101 65 57 73 82 115 105 98 80 52 40 32 53 71 134 90 103 100 105 76 88 89 161 120 179 195 124 194 118 182 116 137 224 108 191 143 108 183 85 132 187 121 146 210 96 75 52 113 75 170 72 79 176 174 96 69 159 79 187 181 152 120 92 97 42 62 154 62 74 114 96 168 155 103 149 79 150 161 140 98 103 112 123 134 185 124 131 159 114 123 158 117 133 179 97 64 82 73 129 164 167 64 91 70 165 72 144 159 173 255 87 180 190 121 170 186 110 156 84 174 208 155 152 66 136 82 71 64 100 172 192 182 176 84 144 142 99 111 94 105 80 141 112 177 130 125 158 160 174 164 114 207 214 206 195 110 58 164 66 65 107 177 106 183 121 194 176 120 94 83 165 121 65 53 118 192 156 177 198 181 156 134 157 104 98 187 155 115 113 178 128 122 82 186 165 194 110 121 146 152 172 102 159 81 180 110 106 102 118 62 119 129 67 67 77 138 89 106 82 89 64 61 68 45 81 95 139 83 61 55 100 99 82 96 181 175 125 100 149 202 143 76 77 94 193 144 215 196 137 127 147 145 93 127 96 182 72 154 77 203 139 124 146 32 99 42 137 146 62 177 110 132 95 97 179 160 157 161 178 87 130 157 105 102 173 165 161 76 140 60 67 79 69 181 142 115 152 142 157 156 115 157 157 108 151 83 52 65 60 166 69 156 124 175 162 111 115 109 41 142 164 170 156 86 118 127 183 146 56 120 58 128 90 112 90 181 116 183 82 50 153 149 114 192 129 171 165 80 94 174 130 179 100 150 97 189 112 85 59 149 156 183 81 157 97 68 152 169 184 118 158 72 122 168 187 148 112 207 185 93 168 112 91 96 108 174 171 61 78 255 49 150 159 61 165 92 125 64 100 255 57 64 151 70 57 79 184 114 201 102 91 184 173 137 159 83 45 136 86 173 85 61
144 128 106 94 100 120 144 150 144 154 170 164 151 142 137 136 141 149 182 194 215 224 228 206 180 164 161 144 147 144 136 148 156 168 177 186 182 180 177 172 171 160 153 152 153 161 136 183 180 197 169 191 180 138 185 188 190 163 168 165 175 193 187 168 103 117 179 169 158 139 84 155 130 168 139 76 78 126 108 116 50 63 94 85 124 91 118 83 82 92 146 95 66 126 110 140 173 110 87 41 23 20 84 61 128 128 100 67 105 123 83 102 81 107 153 180 155 139 201 118 129 119 130 110 108 134 130 113 196 107 79 81 133 200 198 75 105 55 170 125 87 94 88 166 164 71 180 167 177 96 69 87 131 92 122 165 171 172 130 126 71 176 160 178 95 178 118 167 110 119 112 101 145 189 99 141 195 152 100 76 99 183 167 111 70 45 76 61 163 88 94 158 173 173 66 136 64 162 128 99 127 102 195 114 118 67 126 169 107 155 204 100 158 93 40 150 155 163 148 165 106 99 82 178 119 145 139 137 153 159 103 103 201 125 184 101 95 75 124 85 131 103 137 128 168 154 133 164 161 166 168 76 92 184 168 159 163 91 105 152 85 108 107 173 157 84 99 155 149 131 181 192 77 96 75 152 151 153 166 106 171 143 86 128 94 181 186 103 106 190 87 104 84 163 185 73 161 166 80 150 67 72 84 177 122 76 120 104 123 81 100 104 137 59 46 74 81 70 42 49 56 118 144 136 84 92 190 93 95 103 174 175 64 79 179 186 105 199 80 169 97 127 152 201 155 86 166 161 117 189 201 170 170 120 124 68 138 47 160 98 62 107 86 71 110 145 93 168 185 109 172 84 159 78 85 72 63 143 64 123 150 63 110 133 133 159 98 180 137 142 139 134 148 78 73 60 88 152 150 143 153 180 134 124 127 123 152 106 64 146 97 95 110 161 138 166 143 80 57 147 116 51 158 166 154 183 139 180 70 96 142 75 179 110 255 104 161 164 83 180 120 92 92 192 192 199 91 91 68 97 72 176 115 75 144 117 179 156 198 203 112 171 98 163 80 187 150 183 176 185 157 86 163 146 165 80 172 109 79 87 49 60 172 185 95 160 108 173 141 59 160 146 122 136 50 81 153 94 184 105 110 99 134 80 106 160 149 76 111 81 171 126
152 139 120 110 116 128 141 144 146 151 165 166 155 118 110 120 140 151 159 175 218 224 219 198 184 174 155 152 149 148 146 157 161 164 161 167 164 167 170 179 163 172 163 139 155 145 121 165 153 192 210 168 176 148 121 120 161 173 120 123 174 176 104 126 142 108 122 106 177 98 156 101 114 177 117 100 131 93 127 77 43 95 151 100 176 120 98 131 99 144 125 120 99 144 126 129 146 169 76 41 32 16 30 72 87 114 118 134 103 77 76 61 101 177 135 146 154 213 156 121 109 197 104 110 119 169 123 99 194 148 99 141 171 157 112 119 76 57 78 116 190 181 111 71 174 121 168 195 186 90 90 120 152 142 161 127 92 169 143 170 131 124 157 118 114 90 88 141 100 103 117 137 142 147 176 139 183 136 160 165 89 203 197 180 51 82 72 119 170 121 143 132 154 154 179 69 122 78 120 96 126 174 180 144 174 107 59 172 100 161 195 72 131 133 47 113 137 139 161 174 174 180 178 75 170 136 151 72 145 152 75 172 113 143 109 116 194 146 144 142 182 109 127 163 193 160 187 189 176 127 108 64 148 204 203 182 185 147 169 153 110 167 102 112 147 77 176 66 154 66 145 103 122 179 127 69 157 120 159 113 148 144 152 91 133 179 95 124 96 139 187 98 148 193 113 159 94 62 172 90 120 126 86 103 98 158 80 111 72 121 86 116 143 78 37 77 49 38 41 87 80 63 159 93 106 125 87 182 102 189 181 91 86 95 95 206 199 123 133 175 176 157 133 198 198 145 190 71 155 78 189 82 103 163 131 87 49 127 105 107 157 143 103 119 99 196 144 199 145 175 177 158 169 72 86 129 112 55 143 71 63 100 81 138 183 173 151 105 155 108 53 122 99 63 87 138 112 88 164 127 102 136 104 93 104 124 70 93 61 63 124 161 162 96 86 79 126 63 158 136 146 67 63 154 103 120 187 146 133 137 75 85 100 195 162 170 143 145 111 126 72 175 183 77 181 169 190 99 64 108 162 101 83 164 162 179 78 97 195 113 185 165 108 96 121 86 185 105 166 126 179 76 157 179 177 84 178 99 51 73 93 79 81 161 206 111 118 99 150 56 157 180 180 150 87 122 115 91 159 157 137 135 98 158 140 94 179 110 182 126 153 70
154 149 142 134 137 137 143 141 143 138 135 134 137 111 102 119 138 138 157 185 191 208 207 191 180 175 161 161 157 165 166 179 175 168 161 161 173 180 185 184 178 172 164 164 145 159 135 135 173 206 215 189 145 131 143 164 154 173 160 127 124 162 155 146 145 139 116 173 126 131 148 155 165 94 74 130 37 48 255 70 111 135 99 93 141 117 170 110 90 124 98 101 104 104 114 112 129 140 112 49 22 30 71 59 63 114 97 66 72 61 80 83 137 164 154 164 135 173 186 87 106 138 90 98 194 188 204 108 164 170 157 152 83 188 195 173 51 134 74 185 200 181 180 166 85 82 172 155 89 91 167 76 161 117 158 171 173 167 117 162 133 72 93 114 161 75 159 154 113 153 116 91 156 98 172 184 174 78 68 71 139 203 100 128 150 137 77 127 151 61 106 179 185 187 190 189 194 189 105 62 109 153 69 100 175 72 169 93 105 191 148 58 77 97 130 37 67 142 148 155 169 94 157 109 102 139 53 46 133 147 123 78 96 204 204 102 117 183 121 71 76 180 91 178 119 192 89 192 78 160 54 118 76 147 185 166 189 121 100 114 140 201 201 144 96 60 148 156 96 66 97 200 180 172 109 72 96 153 129 161 112 133 161 84 195 94 90 88 100 99 211 159 106 91 109 107 122 155 63 90 84 179 78 164 163 59 94 74 178 121 88 97 76 147 51 138 119 94 90 61 79 76 91 176 87 96 94 175 173 165 80 168 184 160 159 139 187 87 179 198 158 220 116 161 115 110 109 86 132 69 90 185 81 150 123 89 127 82 138 124 123 118 142 76 123 191 178 197 190 180 75 104 147 161 130 81 51 83 36 44 133 60 70 77 102 174 59 118 76 126 152 59 67 90 98 152 103 69 156 69 153 96 87 126 141 166 61 159 94 64 77 126 71 154 177 152 73 126 94 143 39 100 61 134 150 81 89 137 86 174 84 89 186 200 206 95 114 107 79 118 105 77 145 80 52 92 155 85 151 67 150 145 173 186 107 93 159 163 193 207 129 193 168 110 73 181 150 182 181 193 153 118 82 114 151 92 121 137 137 81 69 120 82 132 206 97 157 164 159 106 102 188 142 70 62 57 77 112 138 101 97 183 111 134 102 196 161 80 75 130 117 61
149 157 160 161 155 153 152 146 137 134 132 118 110 102 105 133 140 153 154 158 183 176 178 168 181 173 176 165 174 180 190 191 186 164 158 163 181 192 186 183 169 174 174 156 172 150 173 178 198 199 205 199 181 111 124 110 129 123 119 165 160 95 119 107 80 93 101 136 175 158 130 111 88 58 112 101 37 127 121 127 136 49 131 140 112 98 139 91 157 97 150 104 88 87 91 105 120 148 114 70 44 41 49 57 79 80 82 122 90 59 95 62 85 103 126 121 114 117 79 111 92 73 60 67 83 101 206 121 165 57 154 63 184 177 186 74 136 157 169 180 98 89 96 181 85 120 113 82 188 192 89 92 152 154 174 110 156 179 170 119 153 68 81 104 118 75 170 122 91 109 170 129 143 140 119 97 155 80 89 180 138 197 136 100 54 148 159 106 173 131 63 169 93 202 149 141 116 97 180 60 123 46 122 104 182 155 130 167 200 195 147 118 127 123 95 106 140 75 68 146 161 81 102 78 143 89 45 133 43 57 137 78 83 177 191 200 181 100 147 182 148 82 172 144 167 116 202 90 177 59 65 102 141 175 145 172 147 92 99 211 121 203 216 103 175 153 133 81 125 145 136 194 195 87 68 68 122 96 166 97 140 183 67 145 84 189 180 87 123 100 139 199 126 153 76 90 50 74 129 64 80 121 93 121 59 116 57 75 87 168 96 155 165 154 116 102 60 87 105 86 155 105 111 168 197 132 142 174 72 88 113 162 195 208 161 140 74 128 76 200 215 123 173 163 125 127 109 194 80 160 66 178 130 119 171 255 106 161 74 72 177 127 164 89 173 160 176 181 147 175 88 70 85 154 144 121 127 103 40 87 67 123 136 168 154 127 93 52 105 162 148 157 135 117 69 130 56 139 50 64 169 142 178 176 69 69 149 130 53 59 66 63 132 197 101 155 142 135 65 62 98 74 49 150 82 193 107 187 177 165 160 198 203 112 113 196 255 160 40 39 39 82 42 121 145 76 88 178 99 108 78 112 171 193 174 160 180 90 174 141 190 138 168 88 77 152 82 167 99 152 150 165 180 140 159 164 187 141 96 40 57 142 185 95 96 115 86 123 73 88 97 130 72 72 148 70 49 96 62 157 176 83 196 103 104 178 99 110 104 105 155 150
140 155 167 172 161 153 146 144 137 127 122 108 109 112 122 137 158 144 158 160 147 151 143 146 174 179 170 171 175 170 185 188 183 173 162 172 190 208 212 209 201 187 174 177 180 187 188 164 211 192 167 197 132 151 150 113 164 158 182 138 159 142 102 132 111 89 143 184 127 114 115 182 105 118 98 131 108 80 103 66 54 48 97 42 92 64 73 84 149 103 119 110 108 90 103 124 140 160 106 100 105 94 56 74 53 62 76 97 102 95 67 119 91 124 132 138 150 157 77 123 70 69 26 46 170 86 100 117 92 59 76 65 153 132 87 80 132 62 174 185 129 184 131 84 189 89 183 73 74 173 81 141 93 195 110 93 106 156 183 161 95 187 165 70 163 142 96 70 137 87 174 127 171 82 96 138 95 87 121 100 116 138 84 67 159 130 165 76 168 107 68 125 105 101 184 189 201 185 84 83 80 141 67 116 179 207 116 132 188 96 166 57 47 89 94 76 165 149 131 153 88 142 69 115 144 139 104 133 140 161 126 179 112 147 183 84 105 108 190 189 86 177 63 88 79 182 204 189 173 152 138 173 101 105 88 161 171 170 187 97 190 210 113 169 177 62 153 44 67 109 154 124 188 129 111 151 151 196 185 181 146 96 157 101 178 183 120 199 119 163 113 166 162 181 66 155 106 87 70 69 107 174 62 69 48 125 69 71 174 116 255 111 90 78 72 85 155 110 149 95 194 163 170 203 120 171 200 125 88 68 117 111 197 164 117 182 175 170 179 162 145 126 128 223 193 221 211 145 191 183 71 173 172 177 144 182 186 116 179 87 101 192 199 255 111 176 133 170 97 91 141 66 100 156 89 123 54 152 88 119 84 117 148 73 93 98 95 81 99 157 150 181 78 86 163 69 56 63 25 35 55 108 67 174 157 164 59 143 71 61 64 66 94 191 213 172 91 137 55 70 138 39 54 76 143 139 189 167 136 61 176 191 201 213 101 139 102 55 133 43 79 55 131 136 53 138 87 102 124 180 180 179 175 195 138 196 173 93 156 193 185 85 255 183 133 188 118 181 159 141 86 142 128 107 113 138 109 68 95 55 110 124 175 97 97 175 139 90 91 125 171 74 96 152 54 101 39 27 29 37 71 98 179 90 144 171 121 189 158 103 127 99
128 148 164 172 158 151 142 149 149 139 126 114 114 120 141 161 155 166 154 156 151 138 133 147 158 173 168 178 176 178 183 183 182 176 175 178 195 211 216 215 213 199 198 173 178 195 210 180 212 205 150 184 153 150 154 148 125 160 122 107 108 116 135 182 188 122 191 182 139 104 187 93 124 106 152 62 59 110 136 66 124 46 29 58 69 110 126 76 165 138 184 117 178 101 111 144 159 119 106 110 103 108 101 87 59 118 83 65 96 85 105 89 103 139 89 117 115 79 103 53 101 32 46 57 120 62 176 166 65 54 58 70 164 94 130 183 69 147 82 194 195 188 200 110 194 198 172 152 173 154 176 86 198 189 180 184 180 177 118 195 135 147 145 180 161 87 142 131 111 83 87 155 160 78 86 170 112 135 99 151 175 190 144 140 146 145 153 59 137 102 97 106 86 170 95 146 131 89 176 181 158 78 73 185 129 199 114 180 117 109 84 126 103 151 141 147 121 76 174 67 155 135 149 45 105 127 125 33 134 158 120 73 151 65 69 103 87 96 158 191 115 143 116 70 75 163 152 215 96 156 178 146 148 102 69 70 144 130 136 100 89 200 125 137 77 167 74 128 157 131 97 177 71 125 87 189 94 145 180 143 141 100 139 144 157 87 83 87 188 121 164 96 86 113 142 164 64 171 75 79 164 103 165 51 45 43 144 47 96 90 206 178 101 113 71 139 66 154 126 172 86 194 198 207 156 134 163 93 158 112 87 80 96 96 153 86 130 173 93 163 206 123 162 218 166 190 177 131 196 177 160 111 182 102 178 212 161 96 139 190 153 156 201 181 115 65 93 131 48 154 152 158 147 154 53 43 149 80 72 107 38 119 155 164 133 139 88 139 63 110 84 111 163 153 104 58 135 41 71 66 63 81 161 87 159 94 119 114 108 157 165 119 129 210 200 111 75 165 139 49 115 51 98 168 166 109 87 154 156 149 86 184 151 210 109 193 183 170 157 60 152 140 146 88 84 107 159 94 96 86 115 143 125 131 100 192 123 75 78 121 176 178 150 176 106 135 185 207 104 185 191 96 188 200 163 112 172 134 156 85 138 66 57 160 124 73 182 159 207 193 188 72 74 56 45 127 26 121 95 255 74 91 86 158 173 113 199 123 77 164 81 51
111 129 148 155 146 137 139 149 155 152 133 116 115 125 151 159 172 163 157 154 160 133 140 143 149 180 186 176 183 171 176 179 182 186 191 195 195 204 216 217 208 212 205 200 197 212 199 208 205 171 134 139 145 136 159 176 187 145 168 121 133 163 104 148 130 182 177 176 102 145 115 96 104 183 120 134 70 114 65 88 116 79 33 24 101 110 50 73 88 97 156 121 120 140 108 107 135 132 147 94 95 73 88 52 57 63 93 119 137 92 152 128 165 107 67 78 94 78 116 55 52 55 41 35 104 36 123 160 78 68 62 168 134 76 181 79 107 164 203 190 207 99 102 198 209 194 115 181 56 49 95 178 191 195 150 190 107 95 184 188 196 191 104 85 73 120 110 75 158 77 72 79 65 60 101 173 173 182 172 179 180 255 111 82 155 130 110 81 118 55 115 166 140 89 90 167 173 105 177 85 100 96 87 165 110 177 193 132 130 151 73 100 60 63 95 63 65 67 62 80 146 148 136 136 20 124 130 52 47 141 169 72 167 148 157 157 128 141 91 118 95 86 66 116 160 125 119 224 210 176 199 101 185 183 132 62 81 54 153 59 81 117 95 172 77 67 105 146 157 132 74 156 87 94 97 193 172 186 192 124 126 144 67 48 52 88 172 144 142 146 88 140 136 75 83 102 127 188 185 169 198 162 69 70 56 79 140 130 65 195 121 185 117 81 150 61 80 82 127 175 174 75 110 206 147 119 159 99 84 160 123 159 177 158 103 91 147 156 171 138 204 214 200 208 205 113 114 114 136 198 205 131 152 184 142 181 146 91 194 169 155 176 182 94 162 65 92 118 80 129 59 95 91 77 136 35 146 134 147 118 94 118 130 93 167 120 127 100 154 93 84 88 166 125 50 163 67 157 87 107 158 131 113 87 89 190 201 140 214 183 190 152 106 183 196 178 62 74 64 50 65 132 88 144 96 176 116 178 88 87 108 161 91 203 183 107 162 80 178 109 164 164 122 175 120 172 113 85 104 188 109 213 106 171 188 165 114 169 96 103 175 75 165 172 105 119 107 203 209 135 90 90 170 181 109 114 168 139 166 82 151 64 42 86 154 116 178 115 141 167 204 168 153 129 23 85 130 42 44 92 82 128 60 95 84 154 145 104 118 59 53 146
94 108 125 139 142 136 139 144 161 156 153 133 122 130 147 179 174 184 178 172 162 154 154 159 173 183 185 194 184 180 168 176 187 198 198 199 201 203 211 211 210 206 193 205 207 215 205 194 255 161 146 154 156 116 152 144 126 189 167 183 124 157 92 164 122 78 89 163 169 88 88 116 102 147 180 153 79 79 93 106 140 128 31 33 34 48 128 132 79 95 150 102 145 127 100 90 128 136 105 96 87 107 64 63 66 76 88 113 84 99 107 104 124 72 84 70 70 85 109 82 135 154 71 67 59 30 39 51 65 166 176 74 164 85 173 145 135 192 110 203 177 100 144 121 132 105 188 147 79 133 137 174 154 255 131 176 193 188 106 76 154 139 184 98 148 58 84 73 163 101 143 116 255 56 54 163 116 123 151 173 139 187 188 181 91 73 36 128 67 132 90 162 73 134 152 83 169 156 69 122 134 150 88 164 202 106 136 153 71 87 39 83 117 89 146 123 160 91 68 156 77 42 75 126 67 74 79 159 61 89 60 78 145 151 145 74 120 85 92 95 195 89 108 173 88 212 177 164 228 140 200 215 112 154 192 153 166 129 146 161 125 80 81 172 66 133 121 70 60 55 132 140 67 83 199 109 125 184 148 144 80 117 176 97 158 135 81 117 129 163 105 180 74 74 82 178 127 104 140 123 205 115 188 110 66 159 94 159 92 187 196 125 101 113 122 116 101 109 111 105 90 138 79 97 157 191 141 177 105 156 62 69 142 179 105 175 179 113 74 90 182 205 151 108 200 193 157 107 132 131 161 194 175 77 255 126 133 189 185 183 84 123 102 186 198 151 108 132 78 64 63 131 93 72 148 73 80 96 89 171 168 175 176 163 116 123 133 99 104 122 90 176 156 90 103 148 109 154 139 96 96 198 104 203 94 203 153 126 171 117 182 140 108 100 97 69 128 98 98 141 152 78 146 149 127 133 61 81 66 130 93 91 94 97 194 107 158 101 95 95 166 129 185 114 102 107 188 129 78 164 205 195 226 178 153 90 120 143 174 107 171 74 73 56 163 78 86 197 99 105 90 93 78 143 144 154 125 91 144 147 96 34 40 154 87 167 65 86 116 112 107 115 60 43 84 67 92 94 77 165 121 41 43 137 84 189 125 158 106 173 62 109
90 98 111 126 136 135 138 142 146 146 154 154 141 160 169 176 181 183 180 169 163 156 153 174 181 182 190 203 194 183 173 175 190 197 206 198 207 209 213 203 192 184 183 211 203 217 197 153 168 127 114 108 150 131 134 163 162 186 185 140 143 129 128 139 51 138 80 141 146 112 92 154 121 160 189 91 86 114 117 139 72 108 114 112 101 54 97 64 117 127 104 88 120 86 80 76 115 156 103 154 112 87 84 107 88 142 94 131 134 138 143 104 158 147 102 102 82 70 88 91 105 114 76 64 49 26 41 146 61 146 87 167 61 56 57 68 160 134 132 158 99 82 105 86 173 85 169 96 139 117 151 183 168 180 117 152 175 143 182 123 176 178 100 153 49 51 153 76 89 80 78 80 78 132 52 141 134 71 74 121 128 110 175 166 146 33 128 74 146 47 131 98 168 181 106 105 171 166 166 101 128 177 90 95 171 173 136 78 42 33 62 61 83 62 154 126 90 60 140 67 61 147 57 104 127 89 172 124 80 135 76 170 145 97 112 84 103 173 87 191 88 176 91 186 117 115 206 161 123 225 160 221 144 189 143 106 158 129 167 172 109 86 62 55 95 134 72 100 155 144 67 129 142 115 104 172 140 127 158 175 171 84 83 140 163 94 153 58 132 57 115 151 85 92 84 84 145 102 118 133 171 119 95 171 142 80 71 85 86 196 178 104 110 90 188 122 146 77 80 71 61 124 146 160 158 100 111 90 141 129 66 136 65 184 179 91 126 131 180 133 167 217 116 109 103 186 105 191 144 125 193 150 177 72 180 157 102 168 179 162 153 111 113 158 118 144 70 45 95 71 70 150 127 156 70 71 66 84 140 187 196 113 100 99 156 89 152 103 199 202 182 149 134 64 161 143 165 183 137 93 193 168 158 118 203 202 126 236 165 226 220 164 122 88 169 141 142 147 79 83 156 114 88 74 40 145 77 172 135 109 83 99 200 202 91 86 191 168 184 101 61 119 87 179 107 102 152 163 110 210 135 143 194 117 163 98 71 144 127 104 149 91 140 92 81 101 157 170 90 177 184 188 123 115 170 178 109 173 104 137 42 100 45 58 113 170 94 67 71 189 79 170 54 146 145 136 93 125 178 110 142 114 46 154 128 124 183 160 81 78 86 185
110 111 117 128 142 143 132 131 129 130 143 154 158 157 153 171 177 176 185 172 177 171 182 181 186 199 193 197 190 168 171 171 185 199 205 200 210 215 208 204 188 178 190 196 196 216 170 164 166 127 124 151 152 136 112 162 179 171 154 106 105 118 139 128 95 139 123 154 65 113 51 104 162 104 118 188 90 92 69 99 127 79 78 79 119 138 67 116 71 67 103 75 101 87 90 103 81 116 103 100 98 100 122 111 103 114 102 103 143 93 170 147 97 114 107 78 121 73 87 140 116 191 95 124 61 142 32 128 134 61 145 156 131 55 152 170 186 100 203 152 176 152 165 161 85 86 178 144 64 122 163 82 193 162 177 172 173 177 125 182 175 75 100 142 68 145 165 107 102 152 90 162 144 85 83 112 160 73 97 140 177 126 106 84 36 132 28 74 106 159 124 109 126 191 96 89 159 131 69 68 165 84 139 120 71 166 166 69 79 108 157 140 123 64 105 143 100 72 87 162 163 71 98 167 57 65 178 168 170 114 83 146 71 153 37 55 150 59 97 108 149 163 96 100 214 136 114 205 110 220 208 122 199 190 202 183 182 83 110 189 109 122 54 135 136 43 139 55 70 75 61 112 166 161 86 122 98 164 158 78 82 127 185 164 92 91 54 56 94 150 94 187 159 185 135 167 107 99 110 200 144 165 135 100 113 117 97 97 88 122 143 167 149 130 115 172 87 184 138 178 164 165 57 165 68 97 149 87 70 126 33 56 139 74 105 181 173 78 132 190 116 136 219 106 205 164 134 70 109 67 174 163 161 68 162 147 74 100 72 127 177 130 107 164 178 198 88 128 125 124 69 46 155 139 83 153 142 171 168 147 109 169 128 187 161 84 162 149 122 115 165 144 101 169 178 104 120 178 101 91 205 182 123 170 206 120 225 134 206 125 134 102 111 74 162 111 145 153 81 136 177 78 179 141 86 84 133 116 73 131 81 99 107 197 151 83 170 132 171 153 60 63 165 119 199 120 125 162 200 115 140 214 232 117 81 81 179 96 170 191 73 147 152 144 51 151 62 165 255 195 173 107 141 144 73 151 147 120 78 36 76 98 138 89 97 169 62 78 61 166 95 65 57 114 47 138 107 90 140 190 64 80 77 123 93 99 199 119 188 142 95 161
142 134 129 134 144 151 139 120 117 125 132 139 149 155 166 152 167 176 172 169 157 159 177 174 184 185 184 188 184 172 173 177 191 202 207 208 213 217 215 196 166 162 170 191 191 213 191 180 170 147 138 148 155 120 129 173 144 161 153 166 151 89 100 109 99 133 78 162 113 86 139 96 88 138 186 195 157 156 67 153 140 89 60 63 69 149 77 79 74 108 69 137 77 92 79 98 101 127 107 146 88 120 155 120 109 115 111 128 86 85 133 109 178 138 137 90 78 128 113 114 154 125 194 77 96 55 147 49 87 62 55 149 74 64 162 175 125 79 188 175 169 164 101 164 103 204 180 169 165 135 172 83 112 106 147 182 176 186 137 168 116 96 131 161 183 110 208 122 204 176 167 136 161 148 153 76 166 99 125 167 112 128 115 59 47 81 72 122 60 68 88 174 103 120 153 165 89 173 182 149 152 60 147 136 89 117 72 158 157 161 178 119 169 75 57 129 88 167 161 81 186 197 93 114 92 133 68 166 74 79 168 166 73 50 97 43 74 155 84 133 171 187 144 112 212 125 186 197 119 154 177 199 223 147 181 187 114 162 117 101 88 158 105 82 58 90 157 90 147 76 150 137 67 179 151 162 103 144 178 151 88 118 168 83 143 169 175 75 146 76 170 103 129 150 113 73 73 193 96 101 131 182 82 88 133 68 183 95 88 121 75 171 113 140 129 107 110 83 108 154 75 151 145 60 67 152 157 78 145 136 30 137 57 75 105 170 171 165 159 179 110 217 181 169 188 176 184 174 142 165 160 179 117 152 177 144 146 174 177 165 150 100 204 139 144 196 166 63 59 41 137 150 167 89 182 186 105 189 128 100 116 191 189 132 144 105 130 120 211 226 205 114 88 100 94 173 146 148 182 178 98 194 99 166 121 205 139 204 122 147 136 193 133 75 136 70 62 159 172 156 151 184 176 79 173 165 156 83 147 171 178 123 95 200 111 81 132 105 61 100 138 52 168 191 99 141 85 176 135 195 165 128 134 199 139 151 147 179 172 94 68 150 100 115 125 125 153 105 113 128 194 96 151 67 77 68 92 164 56 65 83 150 108 104 78 85 176 81 167 67 158 161 122 99 70 149 57 126 165 188 153 91 44 69 94 116 161 118 149 187 196 189
156 145 132 137 143 153 145 139 116 120 113 129 153 159 170 151 152 175 166 180 179 169 180 166 183 179 177 174 172 171 171 189 202 215 218 216 208 255 198 176 149 146 131 167 167 186 168 186 145 158 133 166 159 140 140 139 162 186 178 163 115 100 144 90 255 117 174 131 179 87 150 120 100 106 129 181 129 134 62 122 130 104 85 52 68 135 152 84 82 123 121 82 87 82 89 83 142 97 85 102 113 102 126 99 119 96 99 105 99 68 94 141 99 132 105 172 134 72 159 117 112 199 90 126 94 144 123 75 113 127 47 156 123 116 186 89 181 69 161 163 147 94 85 170 185 212 110 170 169 172 165 175 203 215 117 205 178 183 171 116 175 95 111 98 193 197 174 211 182 129 195 104 194 184 174 135 151 194 190 185 83 166 72 117 148 144 73 178 147 147 159 95 149 81 84 122 91 139 163 101 172 99 152 113 58 157 69 121 154 171 120 202 121 171 178 174 154 104 164 122 164 116 219 177 137 93 117 145 161 80 191 125 61 39 85 133 144 51 122 79 110 198 195 96 199 157 179 172 99 157 166 217 139 220 219 187 102 160 110 205 136 163 65 108 141 82 114 57 156 147 155 109 128 92 138 94 129 173 73 159 167 145 139 165 128 89 132 89 113 168 98 119 100 197 79 159 78 178 105 165 94 77 80 121 176 170 125 88 134 108 125 181 104 138 105 100 145 164 151 169 125 75 96 83 69 82 108 164 60 45 92 148 135 72 158 157 66 94 123 77 155 196 194 131 93 131 131 194 163 73 154 163 173 136 175 76 178 175 77 175 106 192 104 128 184 144 188 162 88 107 74 115 102 83 76 155 85 104 143 113 198 89 180 176 137 166 255 204 219 201 175 144 198 181 109 160 127 173 118 187 135 191 155 111 91 105 112 126 105 171 97 168 66 134 147 163 74 151 80 171 193 195 121 155 174 106 185 116 123 122 121 177 139 86 179 165 60 77 70 124 84 136 161 100 94 130 175 86 166 98 96 92 168 189 187 104 162 188 96 128 98 58 155 114 133 106 60 157 70 134 186 174 159 160 106 159 180 103 118 143 65 152 87 179 95 153 154 163 170 155 55 113 153 55 140 39 109 162 75 144 79 50 77 62 183 183 193 99 163 187 96 111
143 132 123 127 143 158 159 154 139 125 129 131 151 178 177 166 169 159 172 180 176 171 183 162 172 167 150 152 163 173 185 197 210 226 221 219 200 191 177 157 146 132 127 159 173 164 173 178 151 171 139 175 131 140 183 184 177 190 167 91 120 125 134 102 110 111 164 145 175 147 133 166 125 94 148 89 113 149 61 108 73 65 93 66 92 80 69 64 56 116 70 62 79 97 111 107 81 75 78 91 75 82 99 113 87 90 88 76 67 73 97 80 104 124 108 103 150 114 77 106 116 184 104 168 68 169 74 114 135 59 58 64 82 139 204 200 82 165 126 129 103 90 156 150 95 207 206 114 188 177 162 130 186 228 200 210 120 186 192 170 154 107 106 135 131 107 116 162 117 191 190 121 207 100 115 195 150 139 84 173 165 74 139 85 196 185 131 90 99 111 127 149 196 85 126 152 140 96 92 93 80 139 159 153 68 53 79 74 66 167 95 166 203 211 172 90 105 87 139 181 200 131 205 123 119 92 96 65 126 178 255 109 135 67 117 18 67 128 121 112 116 86 150 192 91 189 192 97 171 110 223 232 204 187 149 180 134 202 105 171 189 155 86 188 82 73 147 100 70 140 117 92 110 74 72 255 156 78 140 91 180 151 152 92 84 141 179 122 104 109 104 119 89 188 161 98 96 146 136 98 82 66 107 77 113 174 122 83 82 72 71 142 142 69 87 66 183 186 120 110 177 165 135 169 56 86 171 115 67 161 67 141 153 164 85 118 65 159 65 53 116 62 168 156 119 147 116 189 191 187 194 191 146 159 130 174 97 90 138 118 156 88 163 117 138 178 142 172 54 66 51 140 187 97 179 122 153 101 171 104 176 107 169 170 69 120 104 135 126 122 111 185 147 147 101 85 64 100 138 106 189 84 87 107 115 150 155 205 203 146 112 159 55 144 132 156 144 88 181 117 93 100 116 105 209 104 199 143 45 37 47 76 161 76 169 62 110 82 163 67 149 104 195 149 169 166 148 106 127 98 121 176 181 171 189 145 189 85 111 149 70 163 89 161 74 157 156 48 91 126 102 108 96 129 61 108 106 102 174 140 125 65 85 170 141 198 104 80 125 137 127 146 43 63 46 123 70 46 107 104 74 154 140 61 94 105 106 138 114 94 86 86
113 107 101 112 128 151 161 158 156 157 150 159 175 184 172 174 167 156 166 184 174 176 173 171 170 147 152 149 146 173 187 206 212 221 219 210 187 171 151 144 131 150 154 155 168 158 135 142 126 159 139 149 204 206 205 193 161 199 177 129 140 141 139 127 151 106 161 116 169 103 122 91 137 169 130 157 60 126 129 150 67 50 64 54 45 65 57 58 51 61 107 53 78 90 105 87 92 68 75 84 119 90 71 121 112 90 93 73 69 66 57 71 166 104 128 162 101 255 122 85 117 72 123 135 73 157 173 180 177 72 73 76 187 154 105 103 168 170 70 148 44 51 114 159 121 101 192 196 168 202 167 107 203 127 231 151 147 179 117 82 86 140 128 157 85 176 118 168 157 87 134 174 121 108 191 132 112 188 132 97 64 119 183 105 130 153 173 117 150 97 113 133 149 180 131 73 85 170 91 168 104 181 159 162 92 57 134 160 124 170 128 186 213 131 100 188 182 120 187 185 206 223 170 207 175 123 81 120 166 84 159 193 165 137 106 59 37 150 127 174 158 157 77 135 188 180 194 172 160 111 204 225 210 144 166 114 198 153 87 116 95 119 169 202 159 176 161 95 169 94 85 153 103 90 104 126 134 162 78 83 130 102 119 163 123 186 129 117 144 94 156 78 127 174 79 95 193 157 110 178 70 144 131 149 78 133 184 185 108 101 101 142 58 107 141 54 75 157 197 126 180 90 115 90 77 129 76 87 154 152 60 107 55 71 151 79 74 70 114 39 83 51 87 107 208 165 158 216 112 185 99 109 197 155 111 169 65 166 93 144 111 75 96 120 131 112 139 192 82 84 53 68 117 156 101 76 127 137 98 119 125 132 131 173 181 116 159 163 225 178 109 199 190 104 76 68 163 86 171 96 90 108 69 95 172 199 173 185 161 129 115 70 57 136 155 172 172 66 83 173 194 185 164 182 206 209 106 162 146 96 48 124 141 61 61 89 160 77 182 146 178 190 202 92 85 161 160 71 191 197 194 171 176 81 180 88 116 122 158 161 95 67 105 112 130 108 135 45 127 255 147 130 81 48 57 94 100 132 103 70 167 77 88 100 127 114 130 131 120 96 97 47 58 49 84 62 146 129 129 82 71 133 69 64 161 90 166 66 164 133 174 183
99 98 93 99 113 131 150 160 172 180 182 179 180 193 193 189 164 161 160 179 176 190 181 180 172 169 151 146 152 179 199 207 203 205 204 199 178 153 142 143 154 159 172 169 172 163 131 152 154 167 185 198 169 226 196 181 146 159 154 149 118 155 168 135 170 111 119 175 160 171 131 144 168 117 97 66 106 139 81 98 109 68 133 50 128 138 75 71 63 118 97 49 72 102 75 100 65 120 73 112 71 72 82 70 85 116 83 71 63 50 78 70 133 105 182 116 119 172 81 168 86 74 80 62 73 177 85 94 149 90 192 165 95 92 121 208 110 186 178 79 131 81 62 177 84 153 129 112 101 204 193 211 217 126 153 161 161 195 179 71 148 60 56 83 161 110 139 161 122 91 161 120 144 195 160 169 129 139 118 132 63 124 140 68 175 180 180 165 96 181 165 97 168 78 141 109 103 139 139 125 182 101 84 94 54 138 123 129 87 138 122 82 166 103 98 131 79 126 136 172 178 143 203 163 133 86 171 181 113 192 111 142 164 106 58 139 96 170 95 172 114 66 166 111 185 123 187 188 197 113 188 216 133 118 211 120 173 178 100 177 125 148 112 137 133 138 82 109 161 110 97 162 87 79 135 153 119 70 76 180 82 97 170 72 119 76 116 186 92 122 83 114 101 58 125 171 92 90 84 153 140 134 172 178 85 165 113 123 106 124 61 49 42 64 128 58 124 126 148 126 81 126 98 151 57 132 86 86 131 190 66 133 62 127 40 58 134 150 172 116 117 142 154 171 108 214 177 116 96 115 193 179 177 85 179 162 63 137 129 187 87 78 77 183 176 190 199 187 163 35 42 108 90 98 186 152 76 91 165 154 151 192 157 149 148 109 188 139 175 164 164 91 154 70 156 58 55 87 141 93 177 66 140 151 82 151 201 112 195 91 183 147 165 106 122 87 155 159 120 99 164 88 198 168 158 112 116 139 151 136 59 72 138 161 170 156 187 195 142 193 151 199 158 84 64 148 110 77 99 162 194 179 179 175 190 174 207 194 145 147 180 178 84 123 92 147 155 43 139 98 150 88 153 162 127 141 100 136 140 149 62 104 100 160 104 142 162 87 76 107 43 109 53 132 73 114 61 164 83 147 173 74 97 149 52 102 103 70 137 34 116 51
107 106 100 97 92 109 123 148 175 182 197 187 187 188 189 180 173 171 173 174 177 181 186 187 172 177 168 156 160 181 206 201 198 192 195 193 176 159 135 147 168 182 203 184 189 167 152 156 130 122 176 179 186 169 156 209 169 142 159 158 148 103 151 158 126 156 163 138 176 176 152 147 115 82 60 80 148 79 117 97 113 163 71 72 75 83 166 170 91 119 89 69 68 58 70 70 124 138 113 86 90 120 91 81 98 111 100 114 95 122 55 57 124 153 133 116 152 121 98 168 87 80 150 91 127 185 92 174 121 100 126 97 72 86 191 188 155 161 100 122 57 155 66 71 88 154 179 121 146 199 125 113 211 205 167 142 172 157 75 140 72 80 155 124 166 147 174 178 77 105 114 189 126 161 166 113 108 94 180 166 146 99 90 60 53 62 94 173 192 210 109 203 107 180 169 67 78 158 196 112 169 181 165 146 95 50 148 45 55 49 79 155 144 118 137 150 86 167 108 159 201 206 106 185 168 105 89 165 97 116 127 106 188 56 79 86 159 151 176 155 62 129 65 92 193 89 180 188 186 190 103 199 91 135 187 99 86 84 152 117 169 162 165 104 173 120 178 101 182 181 137 78 74 94 100 107 71 106 169 174 79 158 101 104 95 120 158 149 77 177 69 167 101 60 149 255 79 152 179 125 166 67 170 171 189 195 171 174 174 186 131 110 51 59 50 161 83 82 143 152 196 156 98 109 41 151 65 175 182 160 80 84 51 39 144 96 171 134 99 117 102 43 139 100 128 143 117 255 194 90 97 142 189 154 123 122 144 150 187 155 161 103 63 129 139 88 191 123 150 74 132 132 82 157 168 166 155 164 133 204 208 129 111 111 202 132 130 223 185 198 169 107 89 82 91 70 66 177 144 99 188 117 97 144 76 142 196 94 124 172 154 126 111 113 118 96 131 57 102 160 90 74 156 95 128 148 171 113 101 143 65 169 178 115 90 187 154 193 203 204 190 87 185 155 148 155 73 102 160 180 196 196 148 70 184 185 172 149 203 201 180 176 149 122 146 142 151 103 97 140 136 88 87 156 159 166 122 155 95 121 105 111 92 174 100 180 192 177 88 86 113 128 87 130 97 147 60 150 148 176 85 72 104 130 61 51 46 102 48 94 107 27
132 132 121 107 94 102 111 132 160 179 181 183 171 181 175 174 176 161 166 179 171 165 178 187 180 177 177 177 189 204 214 211 204 200 196 193 179 155 157 160 174 212 220 220 194 163 180 147 166 149 139 181 165 162 127 154 176 165 125 107 168 98 115 162 144 122 173 166 151 160 87 171 148 116 91 82 76 138 115 171 110 91 130 138 152 157 150 136 143 131 152 73 74 58 94 56 71 116 114 152 93 77 103 78 73 110 88 96 70 68 70 93 86 85 101 181 196 115 95 96 94 101 160 97 130 173 172 117 135 178 191 172 82 69 85 179 134 187 162 170 78 134 161 117 183 189 194 93 176 205 101 117 108 144 196 115 100 160 79 156 156 106 81 111 112 133 134 92 94 177 110 130 198 96 144 120 130 172 166 164 159 147 100 109 131 126 97 184 101 205 107 197 163 64 163 82 182 154 89 133 136 131 71 73 160 159 98 77 43 139 78 66 139 107 150 63 164 140 113 90 136 185 193 189 192 179 184 185 208 118 167 121 194 79 62 125 151 84 182 86 69 141 182 158 116 197 156 191 185 132 170 101 74 161 173 166 151 155 169 157 189 125 117 179 173 109 171 162 94 184 174 106 113 100 133 177 90 163 95 190 106 101 142 89 65 61 82 102 139 176 159 113 52 47 56 135 105 118 63 107 122 71 82 89 81 115 99 109 98 119 75 71 99 59 164 65 132 92 176 131 103 74 100 93 31 75 160 73 134 108 142 163 154 54 158 67 69 145 59 100 63 78 128 168 105 145 183 145 192 190 199 166 104 194 88 69 158 139 77 127 89 122 107 66 129 97 181 126 155 124 114 68 60 85 116 55 44 132 63 115 107 169 130 191 184 178 182 222 209 102 152 75 145 128 68 81 75 142 112 117 91 166 155 123 91 108 89 155 176 92 125 145 161 203 99 175 116 58 54 60 68 106 171 116 153 80 108 60 69 173 125 127 193 209 161 149 213 150 209 152 185 140 119 84 148 71 155 132 72 156 176 84 90 159 91 193 189 130 214 145 192 169 255 138 56 74 135 124 171 78 129 104 97 82 130 56 136 49 44 111 61 155 175 92 164 205 160 140 94 67 70 81 86 79 103 91 79 60 162 129 179 78 125 174 125 127 90 43 33 60 26 106
155 153 142 126 105 109 119 133 150 160 155 151 152 157 160 172 167 167 169 171 172 177 184 190 196 179 173 188 196 205 207 213 206 210 201 202 187 174 166 166 190 219 236 230 213 197 184 190 172 139 168 112 153 133 148 155 170 134 172 123 121 145 165 155 138 169 131 100 177 97 85 155 86 107 146 90 143 113 133 112 109 101 134 116 150 118 174 164 116 175 160 87 129 95 49 68 106 115 95 102 127 116 104 115 79 92 94 104 82 51 58 85 73 81 109 103 132 149 140 179 130 142 127 153 120 73 143 179 194 195 88 77 104 66 78 78 183 80 162 58 103 49 105 170 160 188 83 165 189 169 165 94 160 160 158 186 198 119 84 92 100 119 137 157 165 142 151 112 187 133 138 156 129 120 138 146 127 149 133 110 88 73 81 49 163 149 98 201 186 119 184 94 112 154 96 157 177 92 143 131 168 167 77 174 72 59 103 89 25 72 67 160 79 164 67 100 53 51 61 155 152 169 76 184 106 206 127 186 98 121 183 206 141 186 165 96 145 158 170 119 122 178 107 178 203 200 189 116 118 156 165 66 159 104 166 167 70 148 166 138 171 132 122 85 177 171 97 163 177 170 124 77 126 66 158 166 195 97 133 183 112 102 162 151 82 84 72 67 72 134 136 127 79 55 121 65 75 109 70 61 153 81 94 103 173 88 114 202 204 105 134 113 71 144 130 166 87 145 118 87 186 114 108 94 138 147 64 58 104 119 63 70 74 155 111 156 92 97 127 158 126 161 188 204 196 176 120 84 178 181 193 145 188 162 89 175 112 111 77 130 63 149 150 167 155 119 176 105 134 73 141 140 112 118 154 67 147 98 50 84 179 130 98 196 165 115 180 169 228 159 97 178 88 154 72 78 109 107 219 150 185 106 116 136 155 81 155 56 70 79 187 179 119 108 137 112 167 65 64 104 166 161 80 116 125 141 124 165 160 182 152 97 166 124 236 169 188 121 101 97 81 117 138 137 163 109 138 167 91 148 255 68 165 96 146 93 105 202 130 202 89 81 76 172 173 162 110 170 108 87 102 200 103 176 74 152 66 151 69 57 171 72 121 99 140 172 181 93 164 164 179 192 103 141 74 96 62 91 131 163 99 88 87 174 169 78 150 141 152 61 60 21
166 166 159 141 127 116 128 137 148 141 138 138 137 145 171 166 168 172 171 165 159 172 183 181 187 187 185 192 189 185 196 208 213 212 205 198 185 170 163 176 182 197 226 217 205 196 198 203 161 178 165 104 131 144 141 157 139 180 186 131 136 143 145 148 136 174 120 179 167 167 108 97 90 148 158 151 149 96 182 117 179 107 129 133 110 108 110 114 100 92 130 83 87 117 59 65 105 78 137 145 127 140 138 99 96 98 124 137 88 53 97 91 82 88 110 116 150 79 91 109 103 171 115 182 153 62 102 91 163 82 165 101 164 91 107 69 156 175 174 63 151 122 63 160 112 181 82 119 185 126 173 109 109 129 143 168 180 195 168 103 178 175 117 203 117 183 163 186 98 87 164 162 114 119 125 154 99 180 139 122 161 161 105 81 151 169 164 101 154 124 118 172 83 172 152 164 167 90 75 168 61 170 176 92 152 152 50 59 43 10 122 72 120 165 69 145 160 122 62 61 135 81 157 77 151 190 203 169 168 157 167 182 191 126 149 84 153 86 50 154 60 85 207 213 212 133 114 183 146 118 64 113 93 56 162 145 92 77 182 195 132 165 149 77 70 175 93 85 162 133 47 59 69 73 160 78 173 213 152 121 156 114 94 122 77 179 170 130 99 98 65 57 52 150 112 128 43 87 108 89 63 79 95 107 165 121 167 136 213 115 117 95 98 155 125 64 112 93 156 186 130 64 30 31 116 52 64 158 161 67 125 71 84 196 166 109 87 107 82 166 83 94 191 220 218 135 200 197 186 187 96 160 169 148 99 95 150 77 86 148 113 148 142 170 152 78 185 121 88 139 182 143 119 100 131 163 106 80 164 67 154 175 81 193 180 216 190 144 176 138 217 157 93 173 148 117 162 127 121 118 102 80 74 144 132 164 162 60 160 70 95 177 102 165 95 172 85 174 169 82 180 74 148 140 169 136 127 73 81 187 197 97 183 176 210 160 222 134 111 180 159 48 140 45 56 147 163 58 137 131 115 102 169 77 198 143 174 165 136 129 156 197 119 177 120 166 158 149 155 199 189 129 168 153 131 145 52 53 73 109 68 170 115 126 175 111 112 201 97 117 181 173 115 73 71 56 102 53 67 77 109 142 95 91 96 65 101 96 155 53 77 142
168 170 165 154 142 133 142 153 145 143 139 138 147 162 165 174 181 172 175 173 173 168 185 183 180 174 186 178 186 181 184 196 208 213 208 201 189 182 172 177 186 200 206 202 178 157 184 182 189 178 255 148 138 80 96 148 103 173 174 178 194 141 163 122 176 125 198 139 117 183 128 173 105 91 115 97 126 84 117 159 136 106 120 100 103 97 94 90 114 89 94 153 89 75 62 67 84 105 104 141 157 139 151 163 111 133 94 68 56 58 87 91 99 156 130 77 118 140 61 74 87 77 81 82 68 50 76 111 133 124 161 148 79 94 77 121 159 86 143 152 63 52 165 70 179 158 65 99 130 170 141 132 129 136 144 156 180 186 175 144 171 139 107 190 209 194 208 193 168 79 100 98 193 126 155 175 169 175 160 183 104 111 144 163 93 161 178 101 215 125 211 180 168 81 127 65 102 70 107 103 62 108 140 78 89 174 169 68 19 81 124 117 74 176 179 165 65 87 121 138 141 112 156 61 174 182 153 141 172 142 73 168 192 95 94 181 156 150 37 82 160 187 115 115 130 107 191 205 110 159 147 167 124 88 100 103 153 149 198 132 208 137 181 81 108 152 72 152 149 108 44 153 56 136 95 141 199 104 158 221 188 196 88 86 112 119 170 166 145 85 118 47 157 150 97 91 134 33 47 76 77 118 201 97 191 119 105 146 110 136 127 120 126 164 102 166 106 88 122 135 161 87 66 124 136 87 78 150 156 159 63 86 157 175 177 79 79 121 141 180 200 206 158 157 218 122 204 106 97 191 179 120 175 212 138 173 198 191 158 155 76 139 56 131 164 173 94 153 177 199 204 114 216 198 157 212 99 186 124 120 188 115 194 165 209 214 156 188 203 145 143 183 209 110 120 189 95 194 96 193 176 85 175 68 133 66 85 129 89 54 93 174 134 156 152 145 176 187 187 86 190 124 171 167 96 137 114 175 152 131 101 120 121 195 156 158 203 165 203 154 158 139 133 97 135 155 124 150 106 96 50 60 167 129 189 165 130 142 183 138 207 196 118 213 182 143 96 91 140 158 142 98 129 114 153 103 156 99 170 170 177 80 81 83 136 174 135 123 136 147 106 112 152 87 116 135 160 151 96 90 142 108 195 184 176 162 163 59 61 66 128 129
255 165 161 156 151 152 158 160 160 148 150 136 147 160 171 186 191 179 186 183 181 189 189 172 178 167 188 191 180 167 161 180 199 210 210 204 195 175 172 174 174 172 172 176 180 172 143 172 167 151 141 136 139 137 139 151 147 124 157 175 180 157 177 201 195 178 132 176 111 146 136 134 143 81 135 101 85 97 255 116 113 135 99 125 104 114 92 165 79 77 80 93 95 84 86 78 88 118 132 142 177 132 255 123 116 103 93 91 65 79 136 167 114 162 99 77 47 104 61 51 116 63 104 85 62 67 136 124 122 72 89 125 76 88 180 82 84 168 115 161 62 64 69 75 181 132 151 117 160 188 91 184 136 62 155 124 96 110 129 177 143 200 186 193 140 143 140 137 122 79 164 148 91 127 100 199 136 168 121 104 112 92 57 153 92 83 88 94 170 187 107 182 149 109 146 156 143 71 154 172 81 82 80 131 85 88 98 138 118 106 66 53 86 182 122 146 142 111 105 146 118 139 46 64 160 108 96 176 163 149 77 80 100 136 126 172 164 63 24 128 152 155 118 203 142 124 200 197 183 160 103 141 170 134 177 142 195 104 195 95 111 146 121 162 122 160 65 120 75 39 49 98 81 193 144 170 192 100 110 153 137 92 77 131 105 120 168 57 142 117 92 32 81 50 59 44 50 85 107 156 134 165 145 109 106 169 195 117 141 188 151 109 92 59 47 104 153 87 114 111 128 133 71 65 67 62 183 89 135 137 143 111 70 131 143 166 153 172 179 99 182 171 219 220 239 151 235 177 190 126 187 187 129 182 136 105 207 101 151 112 79 80 156 64 110 190 185 114 192 164 208 130 151 241 209 232 180 205 165 134 109 206 194 164 157 110 104 205 172 123 146 222 146 207 128 194 190 183 186 157 88 97 84 156 116 136 168 61 82 65 65 73 132 196 97 204 201 160 129 127 255 122 195 102 104 118 120 154 121 116 105 198 126 204 140 131 93 115 160 78 152 119 103 78 102 152 121 95 50 41 131 151 64 67 94 169 147 61 79 144 205 149 206 182 120 169 88 92 90 127 154 183 133 140 63 138 87 80 186 163 174 162 80 69 72 127 126 143 183 129 137 155 131 155 152 57 120 120 122 175 149 159 200 97 72 113 162 54 146 145 98 132
161 161 159 155 157 159 164 166 169 160 152 153 136 146 170 175 192 178 183 180 204 190 197 174 183 184 179 179 174 150 140 163 181 209 215 214 202 191 169 171 164 171 173 182 178 149 164 127 128 152 139 128 121 121 97 140 103 122 95 160 168 131 169 195 191 193 147 128 139 83 135 140 67 123 133 130 81 134 186 190 110 181 177 83 79 86 147 163 119 71 134 73 73 75 82 85 108 100 122 130 140 135 162 129 132 150 84 71 55 126 108 112 95 118 122 103 72 85 42 40 42 74 81 79 131 59 135 118 66 161 93 78 163 78 77 78 84 183 75 78 169 163 171 154 150 65 146 144 114 132 200 191 147 180 141 172 123 125 73 130 156 199 147 168 113 144 81 159 104 136 155 105 151 160 142 202 174 213 203 91 87 47 133 138 69 121 192 153 98 94 209 182 121 165 160 144 77 158 146 83 180 91 114 99 162 80 143 86 168 149 70 172 171 90 103 79 130 168 103 171 153 44 73 114 52 129 124 153 162 83 134 133 186 153 193 73 146 118 110 121 136 62 126 199 151 107 144 146 133 189 155 166 110 116 98 183 198 175 160 155 178 67 143 111 183 124 100 154 99 126 76 141 136 143 147 97 100 116 193 132 152 160 83 72 138 105 152 153 145 32 26 33 153 57 86 162 60 68 127 82 151 187 126 153 115 165 84 81 161 180 97 96 138 157 60 62 84 115 185 122 67 70 33 104 138 139 82 88 88 83 128 114 163 164 61 151 71 163 71 190 93 194 195 194 136 246 240 231 108 124 185 75 192 134 104 124 210 108 134 171 200 160 143 98 103 116 255 160 109 189 180 178 218 171 168 205 204 145 145 195 132 129 170 96 135 97 178 176 197 122 219 206 149 154 190 180 183 176 177 134 179 67 99 158 90 60 169 175 84 93 144 98 154 96 136 105 122 135 86 188 118 188 110 153 194 121 106 137 203 105 201 161 199 107 149 128 106 132 114 86 176 166 58 74 79 93 52 59 147 98 57 156 148 59 109 53 111 128 183 178 114 151 118 119 189 110 152 177 153 90 83 175 134 157 135 156 76 150 115 173 106 143 183 79 100 111 193 189 101 115 76 122 132 92 64 49 161 186 161 106 148 156 255 163 112 145 61 78 156 76 79 52
158 158 155 160 167 170 177 179 181 180 165 140 127 141 150 178 187 173 169 186 202 207 192 192 194 194 193 179 173 140 138 142 178 202 212 216 205 194 176 166 159 163 169 171 171 131 129 125 140 151 178 128 150 152 146 152 148 142 119 95 136 154 104 113 138 87 141 148 71 86 64 69 66 90 74 118 134 123 95 104 112 116 148 150 98 94 97 153 85 109 124 82 68 126 83 72 72 122 107 183 128 160 122 107 139 138 104 63 60 77 67 132 117 97 131 94 23 98 30 51 100 70 175 186 74 112 92 137 69 98 78 83 182 123 194 192 80 175 64 142 124 126 157 60 62 96 51 52 166 103 169 109 127 179 78 135 110 179 173 125 184 160 181 89 154 63 122 130 101 60 103 150 96 192 168 200 141 231 149 116 107 120 65 122 93 164 141 151 164 107 116 215 123 210 97 83 170 71 83 93 165 179 112 107 178 107 169 176 95 65 153 185 117 175 112 157 195 115 96 97 110 48 115 126 70 165 98 154 100 100 49 123 182 187 102 155 110 146 42 69 146 82 126 84 98 207 187 179 142 164 84 92 76 143 141 179 173 161 181 130 102 127 69 173 84 148 108 93 41 97 110 132 129 207 210 198 199 172 96 59 135 144 65 73 152 191 90 186 143 72 38 130 42 118 88 179 104 123 129 105 112 141 153 127 125 95 81 67 103 71 146 118 181 58 41 145 164 106 92 190 68 50 93 111 27 44 49 85 147 132 57 156 86 107 149 66 57 157 116 169 87 76 122 190 213 143 233 231 139 171 189 150 181 184 174 161 158 196 100 172 177 150 183 89 117 72 82 155 189 192 191 200 210 147 168 233 182 109 169 176 112 197 189 158 96 115 84 164 175 158 123 183 200 124 139 167 154 178 77 119 115 88 75 143 75 115 155 83 145 176 163 154 164 157 91 131 116 183 189 83 178 174 192 99 103 195 185 104 112 146 200 114 181 188 139 184 152 88 184 109 83 109 145 137 160 68 69 61 152 114 151 150 152 81 158 129 113 110 131 103 107 213 168 97 180 180 85 108 127 198 192 99 174 99 91 87 79 154 158 100 129 163 149 96 77 181 158 115 98 148 90 130 107 131 44 151 85 176 99 181 75 162 168 162 89 87 132 66 111 146 176 81
148 151 157 165 179 180 178 183 176 177 159 141 113 127 141 171 180 179 186 181 179 188 192 195 203 201 198 185 170 147 136 148 176 198 213 214 202 193 163 164 158 160 167 175 137 141 117 143 170 178 142 153 151 119 134 149 105 132 92 141 147 102 131 111 143 101 133 82 99 66 69 149 145 77 80 138 81 84 129 120 128 109 109 81 97 105 116 133 83 66 54 51 57 105 78 80 78 110 129 132 159 139 95 122 87 105 113 66 62 75 80 121 59 62 88 65 112 43 52 61 81 168 85 162 90 140 55 114 97 71 74 72 158 116 134 94 76 80 106 154 154 116 94 156 153 61 42 44 91 163 106 181 187 107 174 174 127 130 133 82 117 118 99 126 94 100 129 106 84 152 55 116 114 156 120 173 218 183 175 170 133 127 144 52 68 174 177 117 171 176 99 142 145 161 138 189 156 151 123 124 186 153 174 84 185 81 176 163 177 159 90 93 172 106 168 110 186 192 100 164 109 54 83 158 120 87 129 145 157 64 123 167 160 118 77 163 168 71 167 117 158 119 100 73 127 206 198 190 169 72 132 93 118 166 73 89 174 162 64 167 155 136 118 71 81 112 74 75 62 108 103 117 154 199 106 163 162 104 75 157 66 149 60 86 129 101 203 93 156 69 154 82 110 58 78 133 104 175 137 88 86 180 89 91 98 69 91 68 40 68 148 89 109 76 153 125 99 149 129 95 139 66 119 37 132 35 121 161 60 97 95 122 54 163 171 178 84 144 140 123 82 156 59 160 91 211 204 129 125 146 194 173 91 187 131 103 162 87 184 92 206 213 164 204 172 151 155 91 82 153 170 196 129 226 185 160 196 95 89 167 116 81 84 164 133 80 166 83 139 124 81 162 87 115 187 154 82 187 146 175 137 178 115 137 86 162 67 124 80 76 75 145 133 112 154 153 114 143 124 80 148 93 178 116 146 94 119 134 202 185 137 79 95 97 183 95 184 201 171 181 157 162 75 167 72 102 78 168 158 109 76 128 133 153 112 140 94 172 198 114 159 137 188 190 129 103 118 131 196 132 161 185 72 168 120 69 149 158 65 134 98 204 138 83 87 106 157 94 153 79 71 92 97 83 75 71 146 94 79 72 145 110 161 167 172 109 193 92 104 119 104 141
129 137 154 175 184 190 187 180 179 174 154 146 121 122 138 164 187 184 182 171 177 179 200 199 205 215 209 192 180 154 140 156 180 197 204 203 194 186 169 164 161 165 156 142 157 123 128 117 167 169 178 186 161 133 139 155 125 141 132 89 130 92 134 151 149 122 204 141 116 124 123 72 138 135 137 75 141 150 123 191 127 123 93 104 89 95 100 91 85 66 80 58 70 78 141 104 80 126 117 129 109 106 138 135 107 80 98 119 91 118 136 80 62 126 78 141 74 81 145 103 70 115 181 110 113 107 76 119 66 60 64 76 91 152 197 193 122 151 80 119 90 132 49 156 154 44 39 93 61 102 200 101 167 180 71 81 126 199 178 165 171 174 180 99 101 134 125 104 159 117 148 97 84 158 168 197 130 133 105 121 156 50 148 134 127 175 114 83 144 167 80 164 94 161 185 198 107 83 179 173 89 73 158 85 79 180 164 128 97 153 206 115 129 127 134 96 95 190 195 170 62 155 106 173 188 138 197 91 187 107 96 69 159 117 88 78 95 200 160 203 92 118 168 159 136 201 108 159 192 75 166 112 73 110 160 171 150 147 67 152 119 173 125 138 103 120 128 133 69 96 124 90 160 168 111 95 145 76 84 117 123 79 120 185 129 95 111 93 108 102 158 70 57 115 118 128 173 99 159 90 121 84 60 59 65 132 151 133 97 58 84 157 99 172 101 175 74 159 134 150 149 137 146 146 92 149 161 90 113 141 147 45 58 134 161 105 196 128 138 82 115 162 75 147 136 171 204 205 137 115 185 137 79 85 188 100 170 173 72 97 123 111 216 152 98 164 167 113 159 126 193 199 176 196 171 97 109 169 167 163 177 139 78 158 177 174 167 76 122 168 85 102 112 102 103 183 174 94 84 158 91 142 107 101 81 57 68 71 109 88 169 69 49 155 138 85 191 139 111 130 181 96 202 125 175 116 214 130 115 188 188 92 164 255 87 146 106 134 168 192 124 138 120 178 158 182 182 170 163 70 125 143 87 157 67 150 185 140 169 121 131 124 137 180 119 179 181 154 131 149 178 180 77 98 167 159 125 90 66 108 104 209 187 179 80 145 87 151 73 51 63 134 142 48 65 112 191 189 181 151 136 83 184 96 201 108 202 203 118 226 128 118
103 120 143 169 188 188 182 171 169 160 148 136 130 139 149 165 167 180 177 173 168 165 192 199 217 214 202 194 183 167 162 160 180 187 188 183 186 171 164 166 165 167 177 172 165 140 135 143 128 174 166 151 176 184 135 169 139 126 113 86 161 94 170 184 125 185 135 207 172 142 95 159 164 66 83 130 85 96 136 150 182 113 110 72 133 85 128 86 130 104 58 133 71 144 107 120 79 102 130 117 114 102 90 91 81 77 101 63 65 66 89 75 130 101 94 153 187 80 148 108 68 160 181 98 159 169 83 158 120 114 159 131 176 108 190 143 84 80 77 152 166 164 77 166 74 140 41 150 138 150 200 149 89 119 159 157 186 198 168 170 164 162 164 170 157 158 186 151 151 160 132 118 179 178 167 179 115 82 110 122 56 152 72 61 77 50 135 138 167 72 91 71 130 167 183 138 90 166 119 156 151 162 177 123 181 183 83 86 88 99 136 224 204 191 101 201 167 207 154 91 80 93 63 93 130 98 198 116 109 80 119 167 67 171 173 99 103 120 226 222 197 106 155 97 148 136 139 164 196 119 143 113 143 97 165 161 123 97 76 166 177 178 187 129 176 167 171 93 181 110 182 176 89 91 169 121 141 82 131 111 78 73 113 135 93 86 90 135 113 129 160 52 144 146 79 133 100 198 91 131 87 130 147 123 37 39 149 147 109 101 173 91 144 166 170 170 120 142 88 67 60 61 137 62 137 99 108 104 72 91 118 64 75 136 95 214 216 204 103 173 85 118 134 62 158 114 170 155 109 188 81 97 177 177 75 178 143 161 86 81 167 135 200 139 203 168 126 90 203 201 167 189 137 166 79 149 170 167 141 81 62 130 124 82 188 78 137 66 126 141 133 181 82 150 159 174 189 91 88 176 78 193 101 108 144 162 255 173 195 97 179 128 131 147 70 104 188 188 80 181 101 210 199 185 203 118 182 146 193 96 84 75 70 99 75 139 143 172 210 138 197 116 179 79 179 190 165 80 172 138 91 60 164 168 180 154 198 176 169 132 133 216 117 93 115 155 156 87 84 137 160 171 174 109 94 140 163 89 159 90 117 189 186 188 103 89 196 125 182 141 101 119 44 157 139 137 167 168 119 118 75 188 126 186 199 163 160 160 136 203 127 144
90 112 143 172 184 188 184 163 148 140 150 154 153 156 162 169 174 175 169 161 172 179 190 194 205 216 220 214 199 180 167 166 171 171 164 159 165 167 158 169 173 178 187 185 152 153 134 143 124 130 167 167 169 174 176 154 136 149 157 145 166 112 157 186 133 221 207 199 110 179 176 95 139 78 155 82 115 165 189 102 130 92 142 97 108 117 85 102 71 122 70 64 83 99 72 88 110 98 112 147 143 121 88 84 87 114 143 94 111 104 80 104 136 94 110 116 98 88 75 159 74 70 75 185 187 124 77 157 154 157 161 61 144 99 144 115 99 82 191 185 86 125 68 145 102 149 146 129 137 166 193 169 150 143 186 142 161 128 146 151 148 172 82 114 162 103 204 106 147 93 138 166 137 180 89 178 153 185 139 168 128 46 114 79 120 90 69 130 155 41 122 58 146 163 75 70 72 78 173 149 80 69 172 109 125 124 99 192 186 199 196 148 199 210 125 108 202 176 141 140 93 170 80 185 143 198 90 85 155 79 105 168 169 59 76 189 123 144 197 223 171 127 116 99 82 89 179 199 156 163 152 170 168 168 99 92 135 162 168 104 86 179 116 133 130 85 78 124 111 218 181 160 126 99 149 102 90 168 143 179 195 205 201 154 196 130 76 158 64 134 156 71 60 62 67 131 86 87 85 151 95 42 39 72 31 100 71 85 84 186 94 154 197 183 151 202 107 91 85 125 130 52 139 111 177 167 112 171 114 72 60 155 65 105 199 189 160 223 104 154 99 91 148 120 77 60 71 127 194 145 131 144 146 96 87 137 134 95 76 152 106 94 90 141 132 183 76 169 114 102 87 146 137 167 86 139 118 131 53 146 52 90 174 164 172 81 119 87 101 177 129 174 95 184 173 135 78 124 180 148 161 121 202 196 138 145 77 79 139 154 136 85 72 123 48 157 182 182 151 149 159 131 227 185 127 132 135 210 109 195 185 177 161 119 115 160 156 112 143 167 91 155 67 167 157 88 181 189 90 91 97 183 88 126 161 176 152 113 170 206 180 122 192 89 86 151 154 67 110 123 200 200 191 96 184 185 72 148 89 105 120 129 212 155 116 130 139 197 94 69 128 105 105 124 132 102 94 65 92 82 81 125 117 153 87 107 207 169 158 159 200 107
87 111 144 171 180 188 175 165 140 143 133 153 159 151 156 170 159 159 158 170 171 171 182 183 187 207 209 217 205 177 168 157 161 156 148 141 137 156 170 179 175 194 180 196 187 174 148 119 119 163 152 154 193 185 200 183 185 125 147 111 181 170 180 180 160 153 133 147 147 116 90 135 106 65 70 87 87 93 129 170 93 102 77 117 89 96 142 127 115 64 64 59 81 92 96 67 77 116 101 123 143 105 83 111 80 87 91 144 100 134 103 87 88 134 114 107 146 96 92 90 126 99 164 159 102 121 67 56 62 85 82 74 85 80 68 61 132 171 196 101 158 189 176 74 146 119 131 102 86 74 169 177 107 122 158 187 185 152 122 110 98 173 164 167 158 177 136 193 126 178 151 141 103 126 171 149 106 192 113 162 140 117 126 73 157 82 131 65 79 127 37 124 135 54 110 143 56 65 176 79 143 173 92 91 98 76 83 85 183 95 94 201 199 104 129 184 107 124 186 193 136 161 180 148 156 93 79 153 166 112 69 93 72 72 83 172 209 160 165 157 186 150 142 136 67 123 115 78 174 112 78 142 116 96 67 179 174 150 72 175 146 143 94 123 145 153 100 173 199 154 146 165 97 167 109 106 97 194 211 136 137 115 186 192 191 144 162 129 146 71 59 104 79 119 74 164 78 91 62 56 122 116 122 29 29 51 59 136 87 85 166 119 138 156 155 237 137 135 72 63 75 78 73 142 206 186 137 162 168 88 175 96 52 65 141 189 229 220 182 167 54 153 153 62 165 112 170 88 81 76 85 110 97 112 140 119 155 131 76 131 123 176 126 175 144 63 62 167 146 69 50 80 79 126 133 109 100 78 134 154 122 53 99 78 52 140 84 118 64 130 185 152 183 116 118 171 174 130 124 113 139 108 188 110 140 58 86 106 200 110 159 167 76 46 92 59 122 117 67 151 78 116 177 235 172 227 171 226 156 94 158 162 115 120 104 69 154 180 111 161 126 71 165 69 71 92 168 190 102 117 106 87 167 172 100 169 118 220 174 218 128 189 179 181 90 128 169 163 128 102 115 200 122 139 97 169 117 110 117 158 138 110 186 184 132 107 113 168 187 174 112 120 62 118 163 152 83 144 144 152 67 169 78 155 173 87 148 211 108 165 126 107
98 120 149 170 183 180 169 160 143 140 147 155 169 169 166 163 161 160 151 155 156 164 157 166 178 201 218 218 205 194 171 158 156 150 137 136 140 163 182 182 199 187 203 192 181 181 150 165 162 174 178 150 149 176 207 164 204 180 180 169 134 137 160 137 193 142 109 94 166 148 138 109 89 148 137 75 82 171 123 79 92 112 69 139 81 131 165 99 96 95 68 64 66 133 68 61 63 116 115 95 100 82 68 67 71 79 99 149 129 98 133 132 95 115 86 115 120 77 77 147 94 100 85 70 69 66 61 63 118 174 84 176 106 82 78 61 67 156 194 172 157 183 154 49 149 144 103 77 131 151 78 159 128 171 187 96 104 90 174 115 157 79 88 196 128 134 190 156 177 69 151 76 52 67 126 179 107 207 120 128 210 131 144 151 190 155 170 180 76 160 35 26 61 120 45 110 139 116 132 160 98 61 143 255 77 180 87 91 141 72 178 204 118 206 195 85 87 137 180 94 173 85 96 102 167 170 168 59 88 93 64 78 76 127 92 187 104 207 190 149 120 121 50 125 69 107 88 158 73 76 66 140 155 60 67 91 187 104 154 126 115 188 89 140 170 126 144 122 118 121 155 111 162 180 175 116 127 107 128 188 213 179 101 118 158 164 60 163 62 72 101 176 107 90 147 86 179 74 75 54 42 63 128 131 137 71 58 176 100 81 98 126 187 162 162 157 108 123 124 56 55 54 174 192 99 114 123 219 102 175 73 105 77 69 151 89 104 200 86 171 48 68 125 108 168 130 130 141 176 151 63 63 149 59 94 117 110 56 179 165 157 178 152 137 106 89 49 152 67 131 47 140 120 71 148 194 130 81 150 131 56 164 93 145 48 118 31 140 68 128 126 200 183 166 95 115 148 81 156 193 210 198 193 154 100 89 167 123 106 208 201 136 178 67 66 49 131 58 59 159 75 198 203 228 218 139 191 202 133 113 166 93 128 123 66 151 152 116 208 199 189 144 92 65 84 177 102 131 184 188 189 150 113 161 190 130 144 179 195 180 180 119 90 173 167 70 148 58 98 196 159 111 103 165 65 149 103 130 78 114 172 127 99 138 186 194 156 93 91 175 75 166 144 82 53 76 51 153 62 75 101 63 63 94 166 73 78 178 171 128 185 89
102 120 141 158 168 169 161 153 147 149 148 154 172 158 162 156 149 139 148 155 145 134 130 145 155 180 200 218 217 201 189 183 174 165 147 148 157 181 198 204 203 186 196 181 179 178 166 189 181 162 155 204 199 166 189 165 186 124 132 176 170 183 185 161 124 120 159 148 153 133 133 63 145 94 80 124 81 72 68 64 64 133 60 67 144 161 112 145 127 129 130 72 79 70 76 70 69 76 89 95 84 71 95 55 84 65 77 94 95 95 97 125 167 92 88 81 81 102 121 148 99 165 155 42 102 53 113 112 81 91 196 192 160 91 79 136 129 81 146 105 184 70 157 48 45 145 147 63 105 149 79 110 157 78 138 151 198 151 126 134 126 70 149 175 169 105 170 139 159 102 74 152 83 144 131 172 187 213 225 232 211 150 166 175 181 123 208 100 173 71 149 35 36 52 55 149 79 94 137 81 156 140 159 78 88 172 116 59 66 149 128 207 194 191 120 89 141 139 149 66 109 110 175 89 87 162 63 54 148 151 168 102 91 95 191 171 189 171 94 204 148 174 147 129 29 48 135 77 136 66 150 139 138 43 65 177 146 100 89 154 128 156 139 104 79 63 128 73 100 120 73 90 160 151 104 139 179 178 215 123 125 158 133 169 156 77 111 55 110 93 145 123 188 97 99 186 79 147 74 73 129 81 70 43 125 145 67 168 91 73 189 213 153 188 138 132 153 150 63 68 131 172 88 203 101 177 136 133 115 176 144 46 45 66 120 66 81 118 177 89 138 118 46 66 169 137 153 137 134 80 75 170 108 153 64 77 136 154 144 150 125 147 129 118 141 134 142 149 150 62 57 111 57 154 124 206 170 153 184 183 175 117 155 139 54 115 107 119 80 140 203 200 173 137 52 50 122 185 93 188 139 93 71 82 104 136 102 94 130 112 128 161 111 171 143 68 148 39 73 118 84 208 213 189 114 255 119 98 193 185 145 115 58 84 56 158 176 187 109 104 184 164 168 96 104 72 130 183 120 93 188 179 175 76 76 181 115 100 101 200 180 187 136 103 80 88 171 83 98 138 190 115 106 168 74 87 75 86 146 93 100 157 148 112 167 255 83 167 99 165 170 164 170 162 154 99 130 91 71 101 74 94 134 92 92 103 73 70 180 182 75 110
111 119 128 140 153 161 162 155 144 145 162 163 171 164 171 159 150 127 132 125 139 132 118 136 144 182 197 206 207 207 206 200 197 182 171 166 171 188 203 194 198 184 161 176 152 149 182 152 178 184 210 177 194 168 134 143 164 102 121 110 124 125 116 128 150 84 122 129 121 88 133 140 109 174 159 184 168 114 77 117 101 70 51 58 91 124 167 128 113 171 136 92 88 110 85 127 77 83 112 84 82 108 106 85 57 85 132 90 107 116 103 164 117 151 163 118 145 133 78 163 103 83 126 139 130 75 90 174 96 122 211 106 104 100 149 106 183 170 78 101 74 158 111 48 142 129 104 158 165 138 73 70 70 92 112 125 196 139 92 92 164 163 102 54 87 67 145 179 145 172 104 157 133 89 161 176 163 145 156 175 148 137 152 130 205 190 201 187 180 121 132 123 139 63 112 134 62 69 167 56 83 154 93 182 127 93 69 99 103 153 172 106 158 192 192 187 144 137 140 129 163 96 169 154 82 100 92 105 111 87 69 165 149 155 198 138 125 172 140 168 199 79 53 30 23 127 57 155 89 150 65 32 119 34 88 151 134 180 100 81 179 193 153 166 150 124 117 105 160 79 82 134 88 181 129 121 173 100 185 211 118 107 98 75 119 131 53 101 90 91 171 83 127 159 110 98 148 105 77 141 69 70 55 40 48 80 54 61 171 174 107 111 172 175 180 102 109 166 64 164 113 96 104 115 123 116 155 193 112 83 57 89 63 69 117 49 109 137 81 52 65 140 41 105 113 109 107 120 178 146 159 120 143 75 84 139 81 167 76 86 152 88 81 136 84 148 126 125 162 113 68 152 158 166 167 186 201 154 150 142 110 99 191 183 135 147 64 172 89 196 223 146 128 54 101 61 160 100 193 138 111 142 71 62 66 71 189 96 98 129 165 128 198 173 104 61 119 129 51 103 96 211 203 128 173 96 91 188 129 169 90 136 56 140 54 133 88 200 200 128 144 89 183 173 75 156 95 147 168 145 117 166 78 90 132 162 111 188 193 143 99 197 84 184 90 103 175 100 198 208 235 116 113 106 121 139 93 153 131 116 209 143 158 151 112 137 67 88 58 159 137 54 163 103 61 79 183 91 192 108 83 81 159 51 105 58 137 159 71 121 164 143
117 115 113 121 137 151 161 165 162 161 162 174 176 174 163 151 137 128 118 133 132 128 135 143 160 181 187 208 206 203 208 213 213 199 183 176 182 195 201 194 178 158 165 167 163 177 174 156 177 159 198 209 187 151 164 161 163 115 127 100 136 152 146 104 75 161 182 171 72 109 107 103 143 113 161 190 144 152 93 142 82 111 96 55 65 133 69 104 105 100 124 95 124 147 119 96 97 124 94 87 131 76 70 60 65 100 113 95 165 103 139 123 102 128 158 85 91 74 71 82 115 159 58 143 50 64 177 167 77 86 96 203 197 96 184 203 96 149 77 78 131 150 52 112 112 99 164 59 173 138 181 171 69 149 107 180 182 156 148 193 108 141 144 130 99 71 100 165 109 102 132 101 126 104 160 90 160 193 202 151 208 183 210 210 172 190 153 168 186 182 155 54 160 62 79 146 66 127 84 174 84 95 177 183 102 87 115 138 164 93 201 211 155 133 101 173 157 66 149 76 66 166 172 77 77 92 110 44 125 142 76 175 195 198 153 87 115 70 171 196 207 108 161 39 47 130 134 71 95 154 34 111 121 42 69 177 152 104 150 132 193 159 98 183 159 166 87 43 102 68 159 160 115 154 157 122 169 95 131 172 86 125 195 183 125 150 72 172 169 146 184 191 108 194 92 179 197 199 177 70 67 81 134 136 139 38 154 80 149 68 92 207 126 146 100 186 168 124 149 74 140 208 185 114 113 128 91 134 67 125 52 119 90 169 155 148 50 45 138 134 56 117 147 131 165 188 181 140 76 168 58 58 57 61 118 75 142 156 140 134 125 169 73 70 62 81 68 134 143 91 145 140 182 115 200 138 112 168 110 156 151 101 174 184 152 87 76 108 196 220 178 185 171 156 48 148 81 76 89 147 95 185 189 105 89 145 179 185 111 129 91 108 156 175 65 160 154 151 79 90 129 131 104 144 85 166 78 75 166 148 76 58 139 106 148 168 109 174 170 115 177 91 86 185 125 138 84 141 103 141 77 168 73 135 115 172 87 204 169 212 97 140 138 180 172 147 184 210 231 222 158 217 175 154 135 73 167 173 83 198 103 207 171 189 90 151 107 112 96 98 146 88 98 174 164 128 145 107 115 104 101 158 106 113 51 71 90 79 148 58 44 50
126 118 107 115 134 159 175 182 179 177 173 173 180 179 159 167 145 145 138 138 142 151 158 159 169 182 193 190 182 187 194 202 198 199 187 178 174 181 179 167 152 150 151 154 171 168 174 167 131 154 155 198 142 170 119 148 119 166 98 130 156 106 63 85 152 169 169 100 108 129 113 180 106 198 109 168 102 94 79 70 85 48 44 33 89 92 51 55 62 114 77 76 123 121 110 120 146 91 119 89 132 83 97 126 85 85 118 125 102 128 134 93 103 169 122 155 161 74 99 97 96 103 109 56 45 72 107 66 99 165 160 184 172 131 179 113 126 119 159 143 144 67 169 141 61 161 118 135 166 96 170 139 162 103 125 78 139 255 125 107 193 172 164 116 80 152 205 207 110 124 116 105 147 85 134 159 106 94 147 108 142 165 163 178 163 160 86 177 79 123 88 161 79 86 94 176 85 102 104 178 191 130 190 153 185 80 160 66 131 166 102 108 192 152 176 129 112 173 151 158 76 102 65 97 173 81 155 53 117 50 97 99 151 110 159 141 81 71 189 142 161 175 72 48 145 57 150 162 115 74 133 129 128 144 131 87 204 118 206 191 173 192 168 95 109 65 156 111 165 118 113 108 136 166 156 138 173 82 172 72 81 89 102 168 201 187 140 102 104 171 95 151 119 120 180 92 196 200 182 190 107 171 90 72 55 64 96 99 115 104 100 196 170 179 114 123 150 83 175 107 83 164 190 194 205 137 168 120 155 159 123 71 109 68 123 46 57 124 113 84 174 141 154 157 151 173 102 190 100 171 112 148 138 49 161 175 156 165 149 118 170 97 118 80 166 80 68 90 168 111 195 191 181 149 122 164 169 152 172 125 118 88 191 154 101 179 158 152 198 176 113 139 116 105 164 68 127 176 193 174 185 110 206 195 127 144 132 209 114 112 82 66 159 84 130 165 129 138 86 78 177 89 188 83 87 137 79 126 137 62 146 79 46 128 158 154 171 119 110 153 159 145 92 82 166 111 115 86 94 138 174 156 154 83 161 96 125 104 215 214 183 194 146 103 194 190 119 201 228 128 124 139 196 99 77 78 183 130 117 191 99 149 141 96 60 80 48 149 61 116 135 66 63 151 98 160 212 123 180 118 191 120 78 66 158 100 63 116 143 50 40 41
120 111 103 111 135 160 171 178 187 189 172 164 162 171 173 171 163 160 154 152 156 165 169 163 159 170 176 180 176 172 180 184 185 182 178 174 173 163 165 169 164 137 147 169 168 149 171 174 149 158 154 175 181 149 178 193 140 144 105 96 156 74 255 84 79 98 158 69 69 92 115 90 93 156 178 135 172 117 163 125 68 57 68 63 43 50 45 62 73 47 86 67 107 130 106 105 102 115 143 104 96 112 98 90 94 131 96 97 124 125 102 154 89 110 138 76 145 149 78 96 178 133 74 76 55 148 53 127 153 62 82 177 99 88 139 177 80 73 166 55 59 130 190 186 146 147 66 143 159 83 71 171 69 170 141 129 170 138 119 202 146 108 86 186 207 124 206 182 119 190 160 182 122 102 139 165 183 165 58 71 156 66 73 119 95 161 158 158 173 99 128 144 86 83 179 82 178 102 134 112 190 104 181 161 116 167 138 184 124 187 93 114 169 73 67 123 105 186 138 132 159 162 110 117 127 113 176 173 171 115 102 133 81 119 125 74 74 69 83 129 177 181 75 76 135 101 62 166 75 59 135 27 33 144 164 140 196 198 215 112 164 194 191 117 100 85 78 142 163 171 144 117 150 105 72 170 126 96 151 74 57 72 132 86 197 207 146 215 189 121 177 105 101 89 146 78 187 133 143 199 142 77 94 37 98 51 77 80 113 109 102 143 155 114 196 89 82 107 73 75 92 161 151 119 178 157 95 77 163 149 74 116 174 174 59 118 147 88 67 152 184 90 160 88 159 144 82 187 169 95 89 103 64 82 139 173 147 181 120 200 95 177 118 102 80 80 150 184 183 101 118 194 114 195 178 173 184 168 157 112 141 116 91 161 85 88 80 149 197 109 130 194 88 147 115 116 130 188 179 210 174 135 120 193 115 102 110 135 148 90 159 52 139 68 61 95 184 169 107 92 75 140 129 167 75 163 71 119 155 144 87 83 87 82 56 66 144 127 103 158 157 110 68 184 118 178 187 191 120 76 133 94 165 161 130 124 88 191 110 98 159 96 156 104 98 161 211 113 113 144 89 176 74 98 169 156 120 111 155 127 133 145 179 177 136 136 43 54 101 101 126 149 160 191 107 131 197 123 126 104 100 162 192 187 116 115 78 100 148 154 48 73
111 103 100 113 134 156 168 176 178 189 173 174 165 160 172 185 184 158 153 144 162 163 153 156 157 153 154 162 172 173 175 170 169 173 178 176 166 165 170 168 159 170 178 159 178 177 179 154 183 154 180 192 149 210 185 210 203 161 181 131 90 93 111 124 139 105 119 46 66 100 133 157 104 120 143 112 186 166 97 118 67 139 69 84 55 56 53 78 39 52 49 105 79 101 121 89 85 82 102 85 99 90 95 95 113 140 136 98 109 98 79 69 75 75 121 83 102 106 109 171 105 110 89 112 135 57 69 53 138 50 59 161 162 56 64 158 162 167 62 72 178 98 190 143 74 129 139 131 148 136 165 162 84 173 134 96 180 89 124 107 186 139 181 208 128 134 213 208 191 84 156 111 94 108 143 114 121 114 140 123 83 131 89 113 113 121 70 174 144 93 175 185 94 85 157 72 173 104 203 100 102 148 124 106 164 99 111 180 161 181 90 109 117 122 60 162 163 154 80 157 72 113 62 47 70 143 131 175 188 186 87 83 162 167 48 149 121 167 175 73 178 178 168 82 183 183 77 164 74 97 144 31 136 95 145 184 101 176 209 166 105 198 193 93 165 113 163 115 190 88 102 142 84 133 79 93 71 161 106 80 83 58 91 57 151 114 219 162 94 98 109 192 134 174 140 165 183 94 181 167 255 101 139 147 68 97 117 95 186 115 89 158 128 90 180 190 85 87 150 150 124 140 69 107 195 107 111 78 165 58 129 65 170 89 62 162 122 88 56 144 97 156 102 179 182 82 117 78 91 161 92 40 55 96 95 118 121 188 110 189 162 89 184 127 136 166 159 96 101 98 193 107 135 181 181 185 102 115 195 112 168 160 95 101 60 158 107 109 144 209 96 140 87 73 138 81 187 93 149 125 222 175 206 203 85 162 122 184 98 98 59 109 125 57 107 178 199 107 158 154 149 69 147 110 77 177 145 179 145 159 74 168 67 162 154 75 64 146 137 50 128 53 95 159 120 127 127 134 171 103 80 172 173 165 173 124 126 107 106 173 191 82 137 119 190 188 147 195 94 100 69 70 93 119 190 139 184 94 174 79 130 151 181 145 122 74 43 64 53 67 135 159 165 129 147 90 90 181 194 112 166 162 125 141 200 131 150 90 90 137 162 55
103 101 102 115 130 134 143 152 151 171 168 160 147 158 167 174 178 170 164 155 150 163 152 139 134 144 142 164 177 180 177 174 171 176 185 178 183 177 173 169 175 183 182 161 174 169 165 182 177 174 185 153 210 177 212 168 140 134 119 176 106 137 111 79 54 101 63 105 87 111 131 135 101 148 87 108 167 173 99 93 148 72 136 68 87 78 107 49 77 39 41 52 72 94 99 97 77 70 72 89 77 79 91 85 98 133 147 124 107 127 94 115 60 77 63 86 96 110 143 127 128 103 97 72 85 81 105 146 52 84 124 55 49 70 134 64 109 92 142 145 199 115 138 98 121 45 36 133 147 158 70 168 82 96 161 84 130 180 94 171 164 179 195 216 231 210 156 201 178 164 75 87 90 181 157 163 82 151 79 160 165 148 128 148 132 94 105 135 142 137 93 190 197 177 86 75 116 134 88 152 99 133 115 163 157 189 174 125 138 133 101 166 149 80 162 170 142 71 82 150 134 60 64 72 64 135 170 178 160 89 186 169 105 100 63 130 164 102 147 134 100 176 110 123 205 163 162 95 81 109 50 102 153 159 147 135 142 114 132 161 162 189 198 88 173 191 107 88 190 130 255 110 114 145 83 126 85 119 155 75 58 81 136 45 160 86 176 194 84 80 94 108 192 97 167 64 146 150 112 134 95 73 53 60 152 132 96 101 166 146 73 111 82 181 89 96 89 76 81 83 41 104 76 98 178 85 95 173 57 97 75 136 72 78 162 86 157 62 61 85 74 110 80 94 70 85 160 167 172 88 108 73 67 171 176 156 165 193 214 105 198 160 187 157 112 164 105 99 161 135 196 122 186 141 157 90 186 107 191 131 87 144 123 53 52 77 196 110 156 102 93 113 171 151 168 181 122 109 185 101 102 205 119 133 82 172 149 100 78 71 121 119 52 105 189 123 110 204 128 185 74 160 74 75 174 100 182 171 87 183 189 85 149 163 103 176 89 116 88 163 91 91 160 202 110 211 115 184 175 171 176 80 98 157 134 146 127 193 160 124 132 134 156 190 92 82 85 176 77 170 150 65 142 162 203 140 204 130 183 172 159 176 170 101 64 61 60 124 122 134 137 101 64 173 92 159 73 157 95 123 184 118 139 188 203 223 126 98 181 81 75 77
119 119 123 124 127 123 123 125 134 148 159 162 136 140 162 174 186 170 159 160 167 166 152 132 137 138 152 169 175 187 185 177 178 179 189 199 201 194 186 181 181 182 188 174 169 138 137 153 178 189 164 161 204 171 152 152 186 123 189 175 152 158 129 129 102 54 72 42 112 59 93 74 82 112 84 88 167 112 87 108 113 101 80 75 100 69 71 87 86 42 38 59 91 127 88 118 78 80 74 69 99 69 96 80 105 120 104 124 128 111 123 134 75 60 65 157 150 113 139 177 163 171 88 101 107 96 161 147 68 133 58 84 45 26 90 93 127 146 61 128 110 120 126 193 75 146 140 130 99 156 85 183 196 133 168 144 162 68 165 185 182 105 120 216 235 153 201 201 75 79 64 77 138 107 135 163 153 88 94 115 178 79 71 154 75 159 68 181 165 170 178 94 151 170 75 89 128 164 99 92 193 154 111 188 98 99 146 191 145 171 172 183 58 160 69 97 102 73 166 70 78 54 125 47 89 112 162 104 143 107 168 108 172 82 163 154 67 157 104 174 173 150 193 123 171 166 217 197 182 167 162 55 141 63 168 97 176 92 108 119 114 129 201 95 104 168 197 175 193 182 125 101 114 194 192 108 83 145 166 157 115 63 106 137 148 148 120 191 174 70 141 142 85 129 75 112 111 192 213 112 90 91 76 135 35 82 77 86 139 151 161 59 154 91 83 184 81 166 67 89 37 33 119 62 65 73 143 56 83 146 68 80 189 156 191 181 68 60 57 72 138 138 176 155 89 80 54 135 182 178 175 178 185 158 88 154 191 211 200 192 174 139 95 128 134 154 63 92 190 199 203 193 191 104 137 90 128 120 146 170 188 148 116 53 119 145 106 205 175 165 193 175 182 84 191 202 173 100 95 95 104 187 83 127 134 165 141 135 65 153 129 158 150 157 130 197 191 189 186 146 117 69 97 113 171 87 194 163 193 199 145 100 101 87 185 195 134 89 79 141 164 114 87 211 135 114 141 184 113 170 159 139 102 110 171 125 96 162 121 114 214 172 120 106 98 116 169 166 75 65 159 53 59 186 208 111 143 199 85 87 180 137 148 101 160 113 136 84 89 68 65 156 151 96 99 71 93 133 198 122 159 215 197 153 162 110 108 98 81 135 150 108
144 144 141 132 121 110 103 113 134 148 158 154 142 138 150 157 161 152 153 151 173 171 166 144 148 141 166 178 192 193 185 173 174 185 194 209 216 211 204 190 183 160 180 157 140 117 129 175 174 195 208 179 170 166 188 201 128 129 165 144 181 101 156 154 66 140 119 101 129 49 61 82 90 142 175 168 136 176 91 84 111 91 162 145 79 131 101 134 44 104 34 49 66 119 149 105 90 88 73 112 72 70 97 57 93 95 115 169 150 122 138 66 123 50 80 147 97 130 210 142 129 107 89 184 139 138 174 80 61 57 157 70 56 41 38 86 52 121 162 93 147 105 204 181 108 120 147 35 60 61 152 186 192 189 120 162 146 95 96 168 140 115 152 209 172 184 116 178 134 163 88 137 166 175 164 111 79 104 117 164 107 103 161 53 94 62 122 105 143 87 125 98 84 144 131 85 56 90 172 148 199 190 112 147 180 168 102 192 184 155 190 171 166 142 84 172 101 140 169 71 78 96 141 113 78 42 78 99 202 90 190 171 170 73 111 104 72 164 128 183 177 80 100 173 139 229 140 199 87 119 54 54 168 144 160 182 82 179 205 200 208 103 199 108 200 122 120 95 196 179 114 173 94 131 108 183 140 95 168 100 144 87 62 52 80 172 202 198 102 167 90 75 165 69 147 112 115 136 158 216 200 69 139 30 101 48 57 74 117 65 72 64 112 87 187 155 85 183 123 146 56 134 71 159 100 51 156 56 123 142 71 136 182 123 165 88 83 71 122 164 148 170 71 166 55 147 54 72 100 186 202 199 179 194 147 179 130 203 167 165 103 123 77 145 77 161 142 159 178 130 121 146 106 78 78 95 82 178 187 141 202 136 142 174 128 98 186 191 171 92 176 81 106 134 157 126 104 181 131 141 184 77 80 128 146 69 77 162 50 49 136 76 134 151 97 183 158 152 92 95 169 178 135 98 156 178 182 165 150 202 131 148 158 74 84 186 178 106 72 146 62 75 113 204 226 210 121 148 72 167 56 131 86 75 94 166 121 108 111 168 124 179 100 95 188 85 84 78 78 163 71 102 131 159 179 129 187 199 174 93 76 148 176 109 100 107 104 92 142 101 84 61 89 73 61 65 70 110 92 104 114 161 159 143 82 185 148 171 120 160 119 144
167 166 157 145 125 118 120 129 137 157 166 160 153 150 151 162 165 160 148 158 175 181 176 154 154 168 168 180 193 192 171 160 159 171 189 206 220 224 219 199 189 180 179 166 158 124 156 145 199 210 213 199 210 219 190 211 150 164 128 174 180 136 174 125 123 98 108 154 86 83 92 139 164 122 97 95 169 116 87 130 102 100 159 86 103 95 93 68 42 87 40 100 115 109 118 113 112 111 81 89 107 88 94 61 69 113 118 95 108 102 129 97 62 57 69 109 126 145 139 217 222 168 163 82 93 81 95 185 84 91 124 180 78 165 159 55 160 122 54 154 169 101 186 148 115 176 169 49 59 77 161 145 185 134 174 170 68 138 117 108 173 152 192 204 173 193 175 107 255 128 146 180 94 75 158 115 102 109 174 123 98 132 111 82 131 162 145 172 126 173 75 176 116 82 121 157 115 153 93 112 107 113 202 176 162 171 81 177 112 183 106 184 63 97 187 99 179 163 187 185 161 111 117 157 148 78 180 127 172 128 85 178 186 90 164 115 91 179 80 169 117 118 94 208 141 166 233 176 200 174 142 104 158 176 181 139 91 142 176 183 190 84 184 185 91 182 203 193 100 136 141 155 74 144 166 150 176 160 119 132 163 187 103 64 166 102 118 101 126 134 157 92 70 71 94 105 186 152 118 177 114 86 102 54 136 147 128 140 155 96 88 74 175 153 199 128 172 129 198 169 69 105 77 73 146 136 80 148 123 60 140 136 178 206 161 199 175 153 111 161 173 187 76 72 136 114 58 183 177 170 114 198 92 127 99 169 122 109 191 182 156 67 148 134 127 74 96 188 197 158 110 194 87 145 169 95 169 126 189 158 183 96 109 106 179 168 80 121 171 59 72 82 171 133 124 193 102 94 79 76 133 85 92 177 85 106 154 135 119 104 172 121 179 195 95 117 116 128 149 149 173 178 106 120 121 122 126 125 141 112 148 169 70 103 172 152 144 87 64 157 151 138 165 206 118 133 117 199 87 68 125 50 117 144 63 120 93 170 103 109 204 200 88 176 184 117 94 91 195 182 123 83 181 99 91 126 139 186 107 93 130 156 77 109 117 205 154 177 93 121 73 94 166 89 158 113 167 85 99 203 101 174 120 123 57 67 50 42 149 156 109 86
160 161 156 141 125 124 135 143 159 170 167 177 177 173 156 150 152 136 158 156 171 162 176 169 162 162 181 188 197 177 166 151 142 159 175 189 198 219 221 211 192 187 181 156 158 147 152 181 168 173 213 210 184 169 207 217 188 141 174 202 173 186 191 116 96 159 148 119 99 146 156 172 149 143 106 84 130 169 84 67 126 66 114 88 88 81 78 67 101 45 50 123 102 116 122 126 129 154 105 94 97 128 87 70 71 85 69 100 99 117 85 114 87 70 104 95 110 146 215 131 156 131 92 140 118 184 146 145 109 145 114 202 126 194 114 153 165 63 131 145 146 78 169 189 184 111 181 91 148 136 90 84 115 86 77 156 168 139 154 125 177 160 94 142 204 190 110 161 106 78 111 148 148 131 116 168 197 162 184 113 188 136 69 167 65 171 177 180 79 156 57 54 110 141 109 103 60 125 173 108 199 131 96 83 175 126 73 168 154 93 198 103 62 156 101 190 109 137 140 117 190 192 180 171 173 90 106 103 154 92 180 99 183 94 113 95 112 96 143 182 77 180 126 181 219 223 223 151 198 88 41 76 149 79 89 89 87 186 162 152 191 74 105 180 83 194 97 104 86 173 150 168 94 91 162 112 119 191 157 141 96 143 105 136 142 132 151 104 176 127 126 152 144 86 100 109 94 100 113 122 129 141 91 81 58 54 102 82 71 69 149 145 195 100 117 117 115 191 169 117 163 100 171 119 102 81 78 79 66 85 115 158 183 202 134 90 68 141 48 64 179 155 159 79 144 45 75 122 212 134 186 221 204 99 180 173 189 159 94 155 143 57 37 158 95 178 184 163 107 89 152 148 151 90 65 145 158 187 214 112 107 140 178 143 120 120 180 159 134 119 114 72 64 153 173 184 197 185 98 129 84 136 106 114 173 179 78 160 95 74 89 197 198 203 121 110 102 112 148 144 130 99 137 206 202 158 210 146 113 147 146 81 119 59 161 81 85 144 149 107 105 114 73 200 141 222 114 117 190 97 137 169 95 84 98 173 124 95 112 179 108 73 97 97 104 86 91 118 162 144 170 181 150 99 144 178 188 183 157 78 62 158 130 190 113 121 173 191 150 142 80 180 115 115 67 120 62 161 178 125 106 77 55 138 54 37 76 134 106 82 103 159
137 142 143 129 122 132 151 165 172 174 177 185 182 182 168 166 159 152 158 147 152 151 140 161 157 176 173 186 187 177 151 142 145 148 162 175 189 209 199 201 188 170 184 170 158 162 157 168 188 188 187 195 198 167 225 213 162 149 215 187 205 134 158 189 122 143 95 163 133 122 128 89 93 79 153 145 77 98 68 105 131 57 119 78 143 84 116 152 65 56 112 66 101 179 125 129 126 136 99 95 123 123 123 115 70 93 66 69 85 104 86 67 74 71 90 115 130 144 116 136 153 148 100 114 186 105 121 212 200 112 139 169 110 158 195 148 187 115 120 48 66 129 140 83 191 176 184 122 176 72 160 82 150 104 153 84 105 145 67 134 78 165 145 128 151 184 161 156 150 138 82 146 94 94 153 120 150 139 175 185 123 189 122 131 52 62 92 113 56 148 42 38 37 41 48 122 104 83 180 159 186 125 113 81 75 181 111 80 187 153 147 136 54 156 105 167 109 192 138 107 121 199 202 169 192 209 114 195 132 194 185 81 199 200 190 90 171 182 74 176 70 189 151 180 131 219 226 215 137 68 79 136 130 92 129 131 173 255 155 89 140 144 176 144 175 120 182 84 255 66 104 70 106 74 176 150 151 190 120 181 149 93 146 105 98 202 120 141 147 146 135 144 136 182 192 94 139 110 96 201 96 108 170 127 76 112 68 163 61 157 127 139 158 197 109 113 215 122 166 200 92 80 83 162 154 70 117 42 37 96 60 83 98 80 190 171 71 83 81 79 81 168 149 121 88 91 88 119 102 174 127 213 150 169 116 173 132 101 87 146 139 21 119 47 166 168 184 85 178 113 64 170 92 167 107 178 185 163 149 137 82 81 156 149 114 98 126 79 75 122 67 82 100 158 178 165 178 120 148 82 75 180 79 76 183 130 82 172 91 175 95 202 120 95 196 140 91 145 154 76 150 113 187 207 189 115 150 96 143 113 146 78 69 131 63 97 179 105 255 126 145 152 75 130 103 124 106 208 220 122 205 96 137 165 152 129 79 159 150 151 158 93 169 188 164 195 182 117 182 109 198 159 178 152 179 126 199 99 95 132 132 113 105 87 190 102 140 138 132 136 177 121 76 69 93 117 58 91 190 125 185 78 137 108 130 36 116 106 52 155 73 98
108 117 123 118 119 128 145 167 162 172 169 180 176 178 181 173 176 165 149 140 124 116 117 141 160 168 180 180 174 165 154 148 143 146 157 173 187 195 191 180 156 177 185 182 176 159 174 193 197 175 182 168 180 150 161 171 217 214 179 149 210 165 179 130 170 85 89 167 147 173 122 76 66 132 142 152 91 138 92 55 84 62 96 78 117 94 91 81 141 57 62 63 86 113 174 131 128 163 120 116 98 111 110 143 83 97 108 62 67 120 113 133 80 89 163 175 98 106 183 109 100 111 150 163 186 95 118 112 104 121 117 110 131 92 191 190 166 74 135 149 172 168 102 133 100 99 190 200 160 165 77 141 146 144 96 201 172 177 169 149 158 184 142 99 170 179 102 130 158 90 83 75 75 164 118 112 139 130 169 120 91 131 78 157 104 127 96 55 128 55 38 66 28 70 43 120 109 89 178 170 149 171 91 154 179 100 87 91 198 197 138 145 69 140 73 192 99 130 141 181 164 202 111 148 200 218 191 105 183 179 72 129 196 140 145 104 110 187 91 170 125 122 189 201 109 114 205 172 152 166 156 121 150 103 181 194 112 182 119 97 154 108 181 78 78 163 82 80 136 133 53 160 141 81 183 185 118 138 139 123 157 133 98 138 182 123 92 117 139 74 167 173 123 95 101 112 117 94 170 186 179 75 72 162 70 104 88 64 142 58 68 144 126 97 88 100 106 174 173 95 166 160 80 89 53 129 45 108 123 70 107 50 164 143 99 117 66 64 165 168 172 126 53 118 45 162 178 179 164 212 113 197 94 79 112 169 125 169 132 56 128 76 98 95 152 167 169 64 66 159 67 69 148 164 174 134 146 127 198 167 145 154 130 165 114 76 150 180 86 172 158 59 162 169 105 140 113 184 87 132 78 63 174 159 174 174 145 130 112 107 191 126 121 100 92 149 82 125 89 174 78 156 198 151 196 76 64 89 64 131 70 74 41 140 127 168 165 187 172 61 47 126 132 155 192 190 199 200 176 191 123 203 175 92 199 195 86 96 54 153 66 81 101 140 129 192 183 161 163 170 85 120 170 175 164 147 94 189 87 96 104 74 69 121 167 177 84 75 86 113 170 179 179 72 44 104 64 49 108 86 113 77 64 57 162 55 93 52 156 78 100 77
94 103 112 110 111 120 144 156 164 157 164 158 168 161 161 178 180 171 151 142 120 118 115 133 153 176 180 174 163 156 140 143 131 140 158 181 187 198 178 150 160 173 186 191 177 170 180 196 193 152 156 107 154 148 190 142 255 162 156 194 175 180 145 172 104 126 127 143 159 133 133 86 76 79 158 125 116 85 127 68 98 142 131 78 148 112 85 91 74 62 52 67 92 124 143 142 142 109 109 96 95 120 98 94 83 103 101 68 85 42 41 44 71 82 152 94 140 94 95 133 135 111 175 90 93 154 98 109 89 89 90 100 87 150 110 191 117 136 167 130 155 187 102 88 179 158 179 167 182 162 147 64 117 88 93 209 213 209 166 167 157 166 121 130 107 117 114 92 76 128 168 94 150 160 118 92 115 212 188 112 121 153 173 70 55 151 112 165 91 90 149 114 36 40 120 77 123 184 126 113 144 171 93 169 189 173 137 102 173 183 175 98 176 124 174 127 192 202 192 123 83 97 133 118 128 218 157 97 151 165 132 69 173 175 120 182 119 187 70 90 113 177 104 102 123 208 178 212 90 110 91 61 104 77 183 158 194 211 183 161 177 152 110 89 104 178 157 174 106 83 113 85 88 161 66 129 121 77 121 99 106 105 131 157 123 192 192 136 121 93 95 77 116 121 195 91 121 92 173 176 154 62 148 171 147 72 110 106 167 81 101 82 140 96 87 129 113 125 117 185 108 86 67 56 77 75 130 36 34 46 149 104 88 92 64 58 164 58 142 112 173 86 49 91 157 158 147 91 191 86 142 170 148 160 104 83 157 90 96 134 143 64 81 55 99 127 85 103 91 168 66 131 76 102 190 189 210 197 185 172 89 146 91 126 126 158 205 216 147 140 74 75 121 148 161 56 128 86 161 78 71 77 175 148 101 150 165 117 76 80 112 102 89 182 95 115 151 166 122 83 141 156 87 115 81 69 106 48 54 86 95 93 123 90 158 168 100 158 181 164 146 141 75 125 166 91 188 112 139 158 205 114 213 189 203 114 176 143 133 79 71 92 201 191 224 111 106 176 137 73 86 83 119 128 100 102 105 119 174 159 79 145 138 127 102 81 96 94 123 56 70 116 86 152 142 32 40 33 151 65 91 125 100 148 95 137 144 72 115 83 153 106
91 100 112 111 112 121 141 151 160 158 162 153 147 148 151 163 185 174 152 119 114 128 145 163 176 178 179 170 160 151 139 143 140 145 160 177 197 200 186 169 151 176 177 185 188 191 191 173 186 170 155 107 89 151 129 182 147 174 175 138 150 100 164 82 150 129 81 93 155 121 123 134 116 76 148 95 95 167 68 115 72 65 132 88 95 128 101 84 78 63 55 76 128 118 165 114 101 115 115 130 108 81 123 94 66 64 83 66 63 68 76 35 90 117 107 164 101 89 95 133 173 77 73 110 57 56 139 116 83 73 130 75 85 112 184 176 160 86 168 154 81 131 193 84 172 110 193 197 189 90 76 139 165 186 176 127 157 224 120 191 132 191 148 121 116 84 160 170 163 128 164 142 112 117 173 201 189 145 99 197 130 197 181 161 161 152 120 180 166 150 150 81 113 255 187 192 99 135 133 84 131 144 51 136 186 185 118 219 115 203 147 94 194 194 164 162 115 111 135 75 68 72 97 107 183 208 180 90 112 131 115 93 171 151 94 138 83 156 179 76 84 157 191 150 191 141 199 208 171 181 85 61 80 155 90 109 214 190 193 96 80 96 186 137 110 142 187 190 119 122 168 138 167 93 168 75 107 134 98 196 122 146 112 90 165 91 99 79 106 141 152 70 170 74 77 84 186 90 76 144 113 71 77 74 162 71 69 106 101 58 58 164 101 104 186 166 163 115 133 144 94 74 70 161 164 52 59 137 148 154 67 70 155 145 83 142 80 162 158 179 69 80 60 95 112 184 159 192 164 135 107 83 87 143 92 45 125 154 255 160 115 165 122 121 111 62 69 106 55 87 175 191 180 199 155 198 127 171 182 85 119 157 124 160 110 164 214 182 215 100 166 171 135 126 139 43 128 79 169 89 119 123 188 167 146 95 163 62 148 170 149 133 202 97 125 158 99 125 149 148 85 181 117 122 68 132 137 148 57 141 114 71 74 110 104 150 114 94 190 167 156 149 58 108 170 112 182 197 153 211 216 203 122 175 127 100 91 79 175 170 183 132 116 204 233 216 95 84 62 160 68 127 100 179 178 111 89 142 112 160 180 160 90 96 186 106 148 170 141 66 162 164 147 89 139 33 71 120 71 57 72 137 78 185 96 140 133 155 140 65 178 139
93 102 112 116 119 129 150 157 175 166 163 153 148 129 154 165 185 185 151 134 135 147 155 169 183 171 163 155 148 146 149 144 148 151 164 181 191 205 195 188 186 192 198 181 177 198 194 171 159 144 126 92 118 135 152 122 128 153 120 153 155 157 98 144 87 108 142 108 60 91 46 52 74 163 95 146 100 86 102 76 62 129 87 154 85 87 82 84 74 73 122 103 107 157 104 109 94 80 85 83 86 81 111 54 82 73 73 72 77 110 71 43 56 71 82 87 93 119 99 82 66 63 136 81 133 151 71 92 70 73 75 173 161 69 182 103 119 148 61 70 182 188 185 68 160 146 160 106 190 167 176 143 70 110 171 123 118 220 144 118 173 192 255 179 185 157 146 161 154 166 120 138 170 195 114 187 224 158 97 194 131 144 172 88 146 186 185 84 134 186 88 71 160 91 183 111 82 123 75 121 158 94 152 66 119 110 170 139 175 215 119 114 88 104 134 148 180 176 190 74 151 157 81 189 200 181 178 158 175 151 59 145 108 126 71 158 170 178 145 116 152 176 186 183 103 129 117 191 184 179 179 68 119 118 95 179 170 127 169 136 173 157 154 101 131 193 198 174 143 154 182 182 125 109 178 179 164 107 97 111 231 127 103 145 121 103 172 89 85 70 97 151 68 82 164 143 102 115 177 90 182 110 199 141 78 71 90 162 163 91 83 126 84 95 141 136 104 177 138 159 160 143 108 81 78 177 66 144 103 164 91 181 168 130 159 125 191 173 77 72 172 68 65 168 117 189 200 166 158 71 139 178 93 179 64 60 140 137 134 86 195 174 175 75 105 120 138 55 88 98 202 126 175 140 189 189 105 168 211 117 109 177 78 150 71 163 202 218 118 150 108 76 63 97 52 60 141 59 164 72 188 89 134 107 117 85 160 171 167 185 152 103 129 212 191 167 48 92 139 110 185 92 90 85 155 104 160 142 144 68 140 150 200 132 207 188 104 111 160 119 168 145 72 82 152 173 180 189 95 103 112 223 222 204 101 118 162 179 180 159 82 184 201 111 196 204 105 98 135 152 66 154 167 170 197 132 116 158 125 133 161 112 183 113 125 188 153 107 73 171 111 101 96 145 156 162 68 72 51 156 157 181 85 102 82 112 105 134 92 79 111 137
96 107 119 128 131 134 153 168 179 169 162 152 152 146 150 180 175 175 177 162 157 178 193 192 187 170 142 137 131 139 151 162 163 163 166 175 185 194 191 201 187 205 206 194 174 196 191 168 163 167 125 113 101 152 147 168 139 142 155 158 105 153 101 155 143 147 106 73 101 57 134 131 86 93 96 113 83 105 64 73 60 132 78 81 93 75 77 150 87 78 108 96 108 100 93 78 84 86 78 80 95 101 91 86 52 65 70 72 104 75 59 58 68 111 77 108 173 121 116 153 64 52 46 48 122 109 63 149 159 58 92 61 61 70 93 77 164 69 156 151 178 153 119 80 111 151 62 148 127 161 138 152 144 152 99 90 197 210 172 176 110 145 162 132 159 168 92 162 131 141 176 130 106 208 135 237 222 170 140 167 76 178 169 157 175 171 190 179 156 200 102 184 193 118 177 108 100 167 167 106 144 153 138 128 160 99 102 206 96 137 204 139 88 172 160 134 217 180 76 80 64 52 126 84 141 154 119 190 76 73 68 132 43 78 130 96 165 96 76 73 148 88 123 77 77 92 126 189 187 127 186 81 170 147 65 171 142 90 149 125 153 99 130 155 209 112 115 178 158 193 128 173 178 78 91 162 72 106 151 210 221 126 102 141 78 132 161 185 151 118 77 87 86 139 63 149 102 159 160 101 169 111 103 120 168 47 101 47 137 163 173 180 88 96 97 97 90 111 158 99 50 65 72 89 147 106 166 184 124 126 191 90 148 193 183 105 142 194 110 139 161 114 162 110 126 116 100 153 115 159 75 96 95 157 78 147 156 156 149 164 173 120 126 81 176 70 124 93 75 135 150 222 209 127 166 104 122 123 163 153 104 164 100 115 79 137 108 200 187 92 101 129 164 97 88 75 93 56 60 179 82 87 176 165 71 135 102 162 167 172 201 101 176 194 137 108 35 28 117 172 116 105 207 135 106 81 177 86 161 95 147 143 218 118 217 213 185 109 184 255 171 115 112 82 90 163 178 161 150 116 202 119 202 124 178 72 71 175 149 64 63 118 127 187 153 124 97 88 55 48 121 137 115 139 127 178 190 146 71 54 145 70 148 110 104 178 171 93 114 75 106 176 83 78 183 96 81 96 70 76 173 171 185 81 103 190 186 167 94 108 143 170
99 110 123 134 139 138 153 162 171 170 171 154 154 160 176 191 188 197 189 194 192 191 181 185 176 164 146 119 122 131 139 164 171 174 169 178 182 184 191 191 214 214 217 206 200 190 190 164 176 166 160 168 163 156 140 162 166 128 135 106 132 150 154 87 153 181 116 150 127 141 81 255 101 81 63 124 138 56 97 73 48 124 129 143 109 255 72 79 122 82 97 98 103 131 112 73 74 66 101 128 68 92 56 76 57 60 100 92 98 89 99 58 84 59 121 81 116 88 90 90 112 53 55 61 66 87 159 91 45 103 81 168 133 131 170 111 73 134 108 78 103 193 188 106 104 160 160 164 184 171 185 184 140 134 128 178 167 149 155 199 114 102 156 145 177 175 87 143 146 89 154 118 176 167 189 232 178 215 137 186 79 149 100 110 68 147 80 95 111 196 181 118 94 139 134 188 78 139 69 160 116 63 141 165 85 130 158 177 169 102 91 119 117 187 174 140 132 192 145 113 116 71 139 88 104 123 196 161 161 151 121 118 33 140 141 60 165 72 181 177 168 179 98 77 76 71 119 96 183 183 180 95 103 175 65 161 61 70 102 179 144 70 168 120 138 195 134 131 240 229 113 146 108 126 129 91 131 89 137 169 185 121 93 180 114 186 142 193 199 145 176 90 153 84 85 67 173 88 166 97 144 123 114 146 52 41 30 46 87 75 129 141 108 200 201 129 119 77 80 79 152 114 93 174 192 129 211 124 123 100 96 191 199 165 200 197 201 115 175 119 174 122 173 190 194 111 189 132 118 164 170 159 99 85 131 141 140 184 83 110 200 151 102 160 99 159 168 100 192 109 153 130 201 163 117 162 126 117 217 210 160 124 93 151 154 147 171 166 150 83 90 184 145 81 176 91 104 155 174 79 86 108 102 67 88 86 171 180 116 198 150 100 189 117 149 60 134 99 114 99 126 189 108 117 191 156 105 134 157 188 166 104 197 122 223 177 206 133 95 53 54 145 118 102 198 201 176 195 134 161 202 122 180 176 82 148 71 178 159 103 93 79 66 77 73 64 145 147 155 46 76 36 79 165 89 96 76 148 146 100 141 72 168 96 169 140 124 150 173 134 75 255 77 151 136 116 155 174 141 103 207 129 105 131 110 76 104 70 101 114 184 191
106 117 133 141 146 143 143 152 152 166 163 165 155 161 185 183 199 200 202 207 199 197 198 185 174 162 150 138 122 119 145 165 176 181 184 180 179 172 174 195 218 222 213 205 187 194 193 188 174 172 169 180 134 155 144 176 177 141 121 169 136 137 114 163 192 103 157 69 58 84 100 187 79 138 130 108 42 97 26 104 50 93 60 110 115 54 130 72 82 87 100 105 125 127 133 119 98 75 119 108 90 68 103 75 70 102 125 86 85 101 81 71 74 109 106 143 107 147 106 74 70 75 65 127 112 146 148 66 46 51 82 116 80 171 109 67 99 72 154 105 176 184 193 110 152 145 155 78 150 86 115 158 55 66 143 140 174 163 102 88 170 178 115 144 182 112 86 112 83 140 73 108 95 90 115 213 213 201 114 143 163 74 173 136 81 77 168 88 123 172 255 200 175 91 101 88 134 131 172 149 160 113 91 86 178 123 130 77 144 158 170 89 103 122 181 180 83 88 162 76 125 113 124 139 98 156 100 188 160 96 23 75 106 108 60 149 127 121 106 116 143 71 121 99 180 148 144 121 175 118 138 163 93 128 178 95 71 155 71 176 116 170 72 111 202 115 201 209 136 189 192 125 102 175 142 197 158 67 95 178 87 169 145 83 125 122 161 173 169 84 142 150 144 190 82 79 92 92 80 110 208 108 146 107 102 118 26 100 143 92 165 140 107 100 155 201 119 184 109 84 83 159 176 171 127 197 196 215 140 203 113 108 134 158 109 196 112 138 164 81 174 175 163 154 207 198 192 107 78 72 170 121 84 162 116 109 195 175 193 104 145 183 112 111 211 115 211 205 102 156 149 207 137 255 168 183 179 85 120 151 161 178 190 157 129 148 171 73 78 171 101 181 172 92 126 161 75 181 156 116 86 79 65 70 174 102 194 105 184 158 79 148 149 96 104 65 44 53 56 187 200 212 198 166 88 125 164 93 81 176 134 94 121 103 151 138 184 184 121 146 99 96 101 110 104 131 140 196 188 218 217 193 182 61 139 105 89 84 189 161 81 147 103 159 70 57 74 132 109 118 116 78 65 78 77 165 120 104 58 64 108 73 123 183 177 86 174 82 126 91 83 100 255 176 110 106 197 167 155 191 119 114 175 68 143 97 87 135 79 167 125 94
122 128 139 148 151 145 139 135 137 144 148 160 166 164 180 186 187 195 205 199 206 186 186 178 174 173 160 147 142 134 144 151 175 180 192 185 178 166 168 187 197 223 212 192 188 164 194 186 156 182 184 147 178 186 169 179 114 142 170 161 160 120 176 174 149 123 130 86 109 85 170 88 90 85 94 63 103 122 30 53 125 144 104 85 69 126 66 73 146 141 102 123 153 153 138 111 120 91 118 119 110 86 102 86 116 129 100 102 87 80 121 89 74 39 40 58 64 68 66 107 53 47 133 134 171 179 129 91 134 80 159 87 123 134 145 163 182 180 182 202 216 194 87 114 42 132 44 149 158 156 163 78 138 96 38 68 95 164 182 154 80 139 189 185 155 108 149 135 132 169 173 158 177 177 183 104 159 119 161 140 156 66 162 99 116 175 74 84 203 189 205 152 168 188 190 105 98 173 70 65 75 176 149 185 98 169 119 102 148 55 117 91 161 109 101 134 151 73 51 75 124 68 45 64 105 90 194 140 66 138 22 34 88 157 143 108 119 157 185 70 74 164 186 184 145 65 152 130 169 89 102 90 111 85 178 70 169 154 169 176 148 153 74 97 159 140 164 181 229 158 164 168 119 91 133 156 134 150 61 121 71 82 175 79 83 157 167 87 168 94 130 131 131 78 99 80 56 58 96 136 116 113 87 114 62 133 140 61 66 172 167 107 101 150 100 102 201 103 255 162 59 106 96 88 168 204 207 160 112 184 143 123 90 98 207 136 207 185 137 65 112 158 192 210 119 192 107 88 131 155 88 184 119 106 104 212 201 185 138 206 191 148 200 141 158 109 168 138 205 166 169 147 200 141 89 128 153 135 74 161 128 154 159 181 73 99 165 124 133 117 99 83 82 167 184 167 116 120 180 168 105 108 107 173 96 105 104 108 151 84 141 145 79 76 162 68 82 136 55 93 95 176 163 89 76 69 76 142 152 63 91 178 122 88 97 84 151 168 158 86 149 148 74 131 124 104 126 205 177 112 128 121 64 139 100 156 177 201 201 95 89 176 72 162 92 70 155 137 160 153 119 57 97 94 134 58 60 94 151 156 106 176 129 97 120 138 125 88 189 127 89 97 192 163 96 104 119 149 99 125 192 142 87 170 96 90 132 153 66 61 81 102
146 145 148 154 155 153 141 143 133 141 145 151 153 166 184 187 192 180 177 181 184 171 165 171 169 178 182 163 159 156 150 160 170 174 188 184 176 153 161 173 203 214 209 205 193 191 175 149 163 150 192 196 146 208 155 201 145 106 141 189 197 135 188 147 189 122 137 89 93 162 88 163 121 146 119 56 97 57 83 40 54 125 94 101 73 85 66 71 83 122 108 127 145 155 207 124 91 103 102 92 151 94 96 105 92 96 105 92 89 149 98 56 53 35 52 58 110 58 88 127 77 59 64 130 73 181 157 64 76 56 77 82 84 187 181 78 112 163 159 161 210 146 125 152 142 51 99 143 149 86 124 74 49 140 30 128 105 126 130 150 155 194 191 86 182 119 159 158 166 188 141 178 106 96 190 189 176 92 124 153 154 83 67 70 126 120 137 122 199 183 123 99 194 101 207 146 173 183 133 163 108 202 134 186 144 170 80 147 106 72 112 105 179 140 83 110 144 40 74 131 59 41 34 41 70 83 125 173 66 150 30 142 100 154 122 151 231 133 95 53 130 156 176 179 168 55 47 103 72 150 165 61 73 112 110 77 150 192 159 157 175 144 105 163 180 128 174 159 165 166 197 87 140 110 117 110 86 114 155 125 155 146 73 137 74 127 84 166 176 79 153 62 152 72 172 147 90 131 82 201 147 108 123 188 77 93 78 83 190 92 142 188 95 108 95 98 156 83 132 60 128 165 112 88 97 160 141 80 131 91 79 120 165 104 162 99 195 83 169 144 81 101 133 129 146 176 173 196 99 103 179 202 94 80 171 203 189 193 96 162 108 109 145 111 188 160 133 166 138 141 114 154 135 206 194 156 99 118 137 255 203 125 118 130 179 188 193 143 126 159 89 163 190 148 117 187 165 126 127 160 126 176 255 147 200 195 107 105 207 198 147 129 77 181 128 138 96 133 127 55 168 108 100 140 60 146 100 120 68 139 94 153 115 155 77 138 162 163 171 75 113 95 155 102 121 191 107 203 192 206 164 123 85 87 83 180 184 190 106 189 161 183 179 135 81 82 74 170 97 163 140 62 121 105 141 94 83 126 158 104 155 127 175 109 131 108 89 129 83 133 167 94 137 103 169 92 111 117 120 179 114 183 106 168 174 190 197 169 84 124 158 74
169 161 152 150 152 153 140 142 141 134 138 147 150 165 186 176 179 170 172 181 157 167 159 154 155 171 183 189 180 181 174 163 160 161 175 180 165 164 160 181 194 203 184 201 174 187 159 175 174 176 187 191 167 161 205 176 182 156 121 172 147 167 185 118 178 130 73 134 74 147 79 125 137 51 79 136 136 123 53 79 59 80 109 162 132 92 109 79 117 101 120 126 142 143 143 118 93 75 87 80 89 97 131 132 92 94 148 96 105 88 81 73 64 51 40 40 115 112 64 48 54 47 56 159 95 175 160 49 122 100 82 91 94 92 193 85 126 179 117 83 131 154 93 121 84 129 48 57 81 170 124 78 102 113 46 56 112 64 73 185 183 195 206 166 153 180 87 115 117 184 124 182 206 105 111 132 101 172 146 113 144 79 64 121 93 157 109 169 153 126 173 149 198 105 196 117 96 174 131 66 141 125 120 197 153 99 68 109 55 169 92 96 190 156 142 85 44 125 142 162 67 140 93 136 67 115 181 189 161 149 64 153 170 138 123 122 222 195 175 115 45 151 143 81 165 136 63 99 154 51 144 154 124 93 81 166 84 206 117 203 204 189 126 161 67 154 148 98 168 105 89 155 190 177 206 102 170 75 86 44 151 154 118 99 140 141 163 82 98 103 138 79 82 77 105 83 191 127 171 98 144 108 200 159 180 116 106 145 90 79 73 158 164 127 100 188 97 137 97 42 70 59 87 162 110 185 93 78 149 171 118 48 55 68 78 186 133 74 67 129 138 85 182 191 105 183 182 182 174 126 125 100 164 147 149 131 102 202 114 120 122 210 255 88 187 176 198 203 141 83 120 174 117 186 180 192 171 68 68 112 153 149 134 164 124 203 146 209 195 182 134 121 157 126 188 188 173 113 162 156 72 92 199 125 112 107 210 131 218 191 178 176 154 145 96 94 108 154 111 65 137 107 57 69 69 58 127 112 101 141 153 255 48 126 125 50 138 75 96 81 149 141 76 164 203 132 198 194 187 87 173 133 125 116 160 183 180 195 89 173 103 172 124 178 100 82 108 105 169 139 107 64 164 106 37 134 65 90 149 127 158 107 186 155 210 126 87 89 255 67 63 151 89 134 107 62 72 75 190 100 110 120 90 184 148 98 106 101 90 135 114 44
182 169 153 147 146 152 148 155 140 136 133 134 148 173 168 178 168 173 172 158 154 149 147 151 156 160 180 184 192 187 184 167 152 151 162 171 171 175 177 179 183 188 189 191 169 188 167 161 163 134 140 160 144 191 170 163 186 132 176 131 124 183 151 150 167 88 77 158 134 137 138 43 60 65 120 70 80 96 72 52 90 114 126 88 126 70 97 99 153 108 116 168 117 138 138 114 97 88 104 69 104 78 91 111 100 93 98 139 145 123 99 112 68 57 124 66 135 128 48 49 42 123 55 72 86 77 118 148 91 146 86 108 144 119 195 86 84 147 91 70 188 203 93 164 87 119 145 59 65 158 84 62 48 91 125 156 148 81 189 189 193 188 204 191 118 197 143 147 126 141 159 152 215 210 128 179 107 126 95 138 117 163 138 156 177 92 178 155 102 178 158 112 102 205 200 94 179 166 60 50 103 152 113 162 201 156 162 158 63 85 176 88 92 155 98 113 145 114 133 92 93 152 158 103 87 180 165 180 89 165 75 147 136 85 149 94 125 177 64 71 138 101 174 147 56 38 58 129 158 149 154 157 156 162 117 93 122 104 188 134 150 168 158 99 59 63 160 89 156 197 185 140 122 104 101 122 91 145 102 54 43 82 177 87 193 74 145 147 169 147 94 166 72 107 159 197 220 108 91 102 122 72 85 134 103 166 79 82 145 129 43 58 146 64 89 180 71 169 56 86 120 136 52 78 70 97 69 102 162 82 83 133 123 144 161 168 141 58 96 145 158 124 136 107 81 128 71 156 173 91 100 102 168 166 142 168 127 121 209 208 118 111 200 94 156 183 162 197 91 182 109 114 201 192 175 132 83 100 89 193 125 159 162 220 214 212 218 153 131 192 147 119 110 130 95 101 77 126 135 51 147 108 182 214 102 135 126 120 141 111 166 98 115 175 134 182 168 163 49 86 100 118 90 144 53 100 73 79 154 62 100 70 116 128 93 63 108 161 185 195 138 104 142 114 207 116 219 112 141 148 106 89 34 87 255 133 177 184 169 92 171 199 201 107 184 180 92 108 100 140 109 70 92 115 100 36 131 150 43 151 71 102 146 166 128 168 166 160 158 104 162 93 70 101 59 130 112 79 103 96 110 100 130 196 111 148 199 133 194 109 74 61
182 168 151 141 142 153 161 153 149 146 140 145 149 171 174 173 167 179 174 172 147 151 133 146 147 170 179 198 213 205 189 166 150 148 165 181 194 195 191 183 159 157 166 182 168 192 175 122 116 144 159 161 170 178 134 125 127 170 178 186 114 96 149 137 158 157 128 93 149 96 124 43 39 106 92 79 107 73 71 121 87 74 148 86 81 138 158 94 106 111 160 101 95 101 109 96 111 95 96 74 67 74 97 103 101 97 145 115 102 107 171 124 129 98 83 63 133 63 82 45 49 76 76 169 115 79 59 110 153 73 186 123 108 201 87 188 135 72 62 155 80 87 103 157 108 138 143 138 111 148 83 145 51 123 116 155 184 171 186 160 105 207 179 191 134 109 108 159 116 127 141 183 131 139 153 219 156 79 116 135 67 161 181 178 192 115 96 139 122 132 106 113 202 107 148 173 167 160 116 97 128 204 122 228 126 198 137 114 93 67 113 76 152 158 141 74 92 83 131 203 191 200 77 79 172 80 144 182 105 146 119 41 140 107 134 149 105 154 153 164 173 180 162 83 134 142 75 55 121 82 63 72 171 171 141 164 165 183 211 152 201 188 141 87 155 141 60 107 190 100 169 184 171 146 143 184 83 172 153 47 129 171 117 145 132 202 113 118 147 112 115 51 86 85 128 219 131 113 149 114 112 157 116 84 100 163 105 138 111 109 41 30 92 131 92 86 72 84 56 117 144 139 38 48 70 166 183 87 104 182 85 106 134 61 65 129 154 155 74 124 140 106 81 99 171 181 173 155 63 72 191 156 87 108 71 180 121 193 196 184 159 108 196 125 100 194 198 120 107 157 150 182 117 121 210 203 161 191 141 174 181 197 111 153 137 153 187 135 112 163 195 118 157 169 146 194 101 143 132 71 165 180 196 110 177 148 175 120 183 123 124 178 89 151 155 162 115 60 52 146 141 109 50 62 63 77 137 98 149 140 141 102 112 98 64 74 144 182 141 143 200 100 142 197 128 219 208 200 97 153 60 112 79 54 165 123 168 139 69 65 81 180 85 109 143 181 143 127 202 179 94 75 96 162 135 68 52 100 157 84 48 143 122 89 130 186 184 182 77 181 81 59 92 50 78 39 54 175 190 158 90 143 180 165 117 255 120 103 102 168 165 115
173 161 148 146 155 162 168 158 154 156 155 153 154 175 168 178 168 187 180 190 164 152 137 152 161 166 191 199 216 201 188 172 161 163 174 183 198 201 194 180 170 147 173 179 183 183 137 144 110 125 154 152 178 177 150 173 187 132 178 150 142 128 97 94 162 175 117 96 146 92 118 45 80 104 154 99 168 153 167 102 134 119 118 79 151 111 91 91 105 97 130 102 101 136 88 101 103 102 107 80 90 66 76 95 94 101 90 99 103 150 118 104 104 156 100 108 90 113 72 50 141 101 80 92 181 173 149 139 154 148 84 95 93 193 185 78 128 141 117 162 145 180 162 155 146 153 108 64 179 77 135 152 62 140 163 156 193 186 148 107 103 197 197 190 199 177 84 95 105 80 138 80 180 123 215 204 115 114 76 141 112 119 95 115 115 170 109 147 119 196 208 114 205 213 160 94 61 156 86 158 92 165 125 216 148 105 131 114 164 131 114 69 136 135 193 113 200 168 184 193 160 208 183 159 171 98 108 98 128 81 69 67 74 91 131 51 52 138 150 79 200 132 216 138 171 134 57 88 57 150 70 162 95 152 169 93 88 102 130 199 187 184 100 156 102 77 115 185 162 197 187 86 66 59 67 86 152 102 59 105 154 79 182 107 124 136 209 99 154 118 42 93 65 123 184 105 179 96 84 79 47 44 57 119 148 129 92 78 139 83 104 34 75 122 71 157 52 155 88 155 89 55 39 139 67 74 107 131 184 113 96 154 97 61 168 69 122 133 57 31 82 68 66 127 78 94 122 166 73 81 151 93 188 169 176 178 78 84 155 78 146 161 105 207 152 121 195 94 146 175 134 120 161 161 140 145 196 101 126 164 100 205 105 115 209 116 219 188 123 106 182 139 130 119 154 180 122 151 100 129 68 172 164 159 132 150 86 92 164 131 115 80 159 173 82 173 108 75 109 100 156 161 54 84 152 129 79 127 62 50 166 163 186 106 93 99 87 80 193 176 210 103 154 124 161 182 113 201 88 85 184 76 164 165 65 87 167 127 60 57 81 161 160 130 136 165 95 204 118 182 145 79 171 167 165 66 167 73 171 78 108 71 69 97 120 178 91 145 169 188 97 80 58 98 112 53 150 110 185 166 187 130 116 142 158 121 114 95 130 126 142 102
158 151 144 150 163 170 170 165 153 158 170 159 162 161 173 176 176 176 190 190 167 151 138 149 168 190 197 211 217 203 184 172 166 168 176 186 192 187 183 174 170 157 165 168 169 166 153 142 113 112 167 186 165 136 146 124 186 184 122 109 172 91 137 166 177 120 135 166 105 159 70 81 146 74 134 171 111 110 178 169 145 103 110 145 84 109 96 100 113 80 90 84 99 85 139 133 93 98 134 105 65 84 80 82 90 105 73 70 114 144 112 99 98 95 104 129 94 74 96 86 52 108 177 122 106 101 75 95 106 115 181 84 171 90 159 174 176 64 142 101 151 163 161 157 154 152 81 154 157 183 61 132 35 143 78 192 205 204 176 144 103 119 114 134 181 105 122 77 70 114 61 138 122 105 146 115 177 168 135 143 125 147 162 168 175 184 206 145 131 154 99 207 168 164 86 69 151 136 138 154 201 119 234 198 221 104 194 127 164 114 120 58 171 138 168 125 182 210 141 180 163 194 113 115 71 167 170 59 147 133 120 116 112 121 136 81 124 37 115 114 207 214 124 129 178 154 33 34 93 151 67 95 185 174 200 150 173 194 198 167 171 149 159 84 63 148 130 84 120 110 157 180 69 124 144 83 112 158 79 160 70 139 134 124 190 127 169 198 114 78 46 151 68 162 142 133 172 137 146 76 90 78 69 153 110 140 66 144 89 72 94 50 68 94 53 107 88 147 55 65 148 73 136 99 123 170 168 140 146 205 171 172 162 76 146 86 168 168 57 129 40 53 126 173 167 190 192 161 102 183 180 186 196 133 101 151 176 121 74 63 88 113 102 107 201 108 170 161 193 134 107 102 104 140 165 88 195 87 105 144 170 109 182 185 174 107 198 207 161 163 104 125 196 206 145 209 160 192 169 140 153 70 171 187 181 89 104 151 97 76 122 130 58 114 125 120 138 64 69 183 183 138 186 91 60 49 90 62 34 90 101 175 161 86 176 99 135 171 124 112 212 174 197 105 102 146 100 255 101 196 131 105 99 85 158 90 133 115 136 70 58 166 146 51 59 170 89 128 134 189 151 147 115 64 121 87 168 127 121 91 136 88 78 130 119 152 127 168 167 195 189 144 88 90 140 102 74 79 170 200 99 178 146 159 149 132 69 91 69 149 72 171
146 143 143 151 160 166 162 156 151 161 167 161 160 170 181 173 186 194 187 172 157 142 141 146 167 197 208 216 211 195 182 169 166 169 172 170 170 170 172 155 155 167 155 137 160 134 126 152 154 166 176 148 142 190 174 173 157 147 164 122 131 95 135 89 114 168 101 108 112 145 138 157 88 168 110 114 104 171 163 94 155 121 168 122 122 91 91 85 75 77 130 140 96 152 151 106 103 98 92 86 59 51 86 102 104 68 85 65 69 113 93 106 84 85 90 168 81 99 121 139 55 148 164 73 98 148 125 151 133 145 69 128 81 173 77 78 127 104 170 139 59 60 57 164 164 149 155 168 78 160 165 143 133 142 138 151 167 152 135 190 128 166 167 148 171 186 154 91 138 130 92 107 97 103 151 140 155 124 66 69 137 78 148 115 110 175 151 113 156 90 177 136 185 99 110 135 51 148 114 92 209 182 143 135 191 156 113 102 71 57 85 132 154 93 195 119 137 153 190 198 201 112 129 98 81 73 129 160 154 81 102 35 129 137 35 133 74 32 152 125 201 199 135 99 185 93 123 100 89 149 86 72 189 102 110 154 193 173 123 216 134 102 92 178 146 152 162 82 164 105 84 171 61 72 77 169 69 126 136 85 98 114 157 201 185 132 87 121 191 117 105 146 161 174 98 90 198 133 95 59 160 159 155 55 84 115 43 54 165 101 81 62 107 91 144 145 147 152 165 118 77 98 48 114 105 103 190 165 93 114 196 187 96 174 63 149 124 78 63 54 129 166 145 77 121 195 190 114 144 157 198 94 174 102 174 187 76 81 71 160 152 103 188 181 133 125 140 189 154 115 87 112 94 108 145 175 182 179 119 84 102 162 84 138 110 192 151 201 201 194 186 200 210 194 118 210 168 102 78 95 57 129 158 131 87 132 87 108 106 152 109 110 85 78 117 72 174 182 127 128 107 160 110 82 69 89 58 107 118 131 83 71 161 166 82 130 66 124 150 85 190 188 102 144 173 160 112 173 94 138 92 201 93 162 140 67 112 99 74 65 150 67 54 66 69 125 123 151 184 99 119 86 128 133 121 146 110 75 153 97 148 92 168 170 122 69 140 67 156 143 83 81 153 72 171 87 67 140 189 163 107 143 119 212 196 116 169 161 117 62 161 169
146 143 143 151 153 156 154 142 143 142 147 151 157 178 176 183 179 179 174 170 153 145 140 146 176 193 209 211 200 183 176 158 150 159 158 160 165 156 164 163 166 161 155 130 127 148 134 154 155 177 176 177 162 183 176 124 166 129 255 159 173 90 116 143 101 165 98 107 141 79 77 80 123 141 165 144 91 108 141 161 150 85 85 118 119 105 145 98 143 70 74 83 103 110 132 119 113 145 79 64 52 42 72 109 87 93 96 46 99 86 73 92 105 84 84 99 100 63 79 41 46 114 77 63 150 74 120 151 156 68 81 143 94 76 128 177 76 176 82 141 130 173 168 74 190 199 160 145 173 123 149 58 99 90 80 157 173 187 150 138 91 145 153 136 195 169 79 139 134 133 56 142 99 147 100 154 165 149 158 146 135 68 163 182 98 145 96 121 133 156 163 107 74 124 159 57 43 156 106 99 122 196 139 140 201 147 101 103 100 117 51 143 91 156 172 170 160 143 164 217 137 160 123 94 52 92 145 82 162 164 60 143 44 97 42 49 42 143 65 173 93 109 180 190 94 61 131 135 28 130 144 98 175 176 165 201 166 105 178 129 117 186 160 156 45 83 149 85 126 112 110 124 67 165 94 76 109 64 140 71 100 137 100 137 165 66 164 166 157 95 171 121 69 77 126 152 193 80 73 117 114 162 63 55 63 72 72 69 165 160 74 118 85 73 72 124 77 103 174 141 145 155 155 85 89 119 170 121 92 79 142 167 177 160 136 92 179 180 94 134 75 163 123 108 104 160 193 192 117 97 153 185 127 183 129 82 130 76 167 151 153 167 187 133 201 105 196 108 162 159 65 172 85 160 159 104 174 104 73 104 145 60 147 67 103 124 106 118 94 75 122 184 108 168 187 206 194 116 127 115 134 135 178 86 86 134 153 117 150 157 167 150 152 69 145 154 153 171 120 110 217 113 106 154 70 112 133 62 128 154 63 74 170 69 136 154 90 105 55 76 148 175 101 185 102 162 142 112 80 67 167 161 94 147 108 123 194 201 133 88 81 145 162 57 95 122 190 104 89 153 66 78 139 146 188 145 179 116 175 110 133 77 180 87 97 153 77 169 100 126 172 171 161 88 148 178 175 188 90 125 119 158 220 136 158 193 145 165 85 115 72 165
164 158 151 146 147 141 139 139 134 131 143 149 159 176 172 150 159 155 167 165 146 140 152 161 163 175 194 192 198 187 169 159 152 151 151 163 169 171 172 163 160 147 141 143 134 113 159 149 174 167 168 153 168 126 178 161 184 123 141 177 115 147 84 136 87 139 94 166 93 99 106 85 149 100 89 77 93 67 147 70 138 131 111 91 131 103 135 89 134 81 81 81 113 94 147 108 255 143 121 78 50 77 67 111 82 104 93 87 93 58 116 130 59 95 80 72 80 147 88 38 41 37 43 70 118 79 144 92 78 75 145 104 166 69 64 67 164 133 175 113 107 76 75 129 156 118 195 133 94 98 112 162 153 182 176 154 75 70 176 76 102 132 148 114 122 152 108 79 97 44 62 79 180 93 151 180 83 111 59 117 122 121 144 117 86 120 130 81 175 145 123 116 153 89 179 170 110 126 83 154 131 107 146 124 140 128 157 122 189 67 80 152 107 141 138 108 220 124 166 123 117 77 98 88 157 171 167 110 107 135 168 158 146 88 57 153 116 156 123 144 148 179 81 168 120 150 96 129 129 100 138 47 70 172 85 155 145 185 193 99 206 142 154 53 35 29 40 150 131 83 97 51 105 156 87 191 186 141 107 50 118 139 135 170 108 161 94 86 170 137 202 167 123 162 99 103 73 75 112 171 164 80 136 98 32 51 21 36 42 98 114 77 150 179 185 93 149 179 84 98 105 149 145 66 87 109 131 113 146 148 158 71 147 93 146 149 90 185 182 120 127 184 162 187 94 180 185 181 177 122 87 143 177 84 161 112 145 122 175 161 118 143 170 192 109 103 194 72 120 133 139 115 156 82 157 174 66 160 139 41 59 134 128 92 110 175 157 85 91 128 97 92 142 100 159 126 104 204 155 161 171 66 168 192 176 125 149 92 167 130 83 158 86 141 142 156 75 175 137 110 155 209 120 116 76 54 92 34 46 123 150 118 73 127 146 149 166 67 56 89 64 134 126 143 78 140 156 81 118 144 155 172 115 107 77 187 164 183 155 201 104 155 174 170 161 98 101 204 165 159 155 146 153 167 122 119 149 83 146 128 72 79 164 181 110 161 170 191 167 133 131 127 162 205 187 158 82 153 116 195 194 144 175 124 138 105 66 164 166 131 106 114
189 178 163 153 140 132 130 129 130 137 135 151 161 166 143 135 123 139 155 165 169 167 163 157 165 170 186 194 193 184 170 155 143 154 159 171 183 183 180 166 154 146 132 143 126 142 156 173 179 153 117 109 158 146 152 139 163 148 140 108 165 106 124 108 115 171 144 80 150 102 163 141 123 66 69 73 86 70 104 69 93 96 145 98 104 160 95 84 102 77 125 79 90 79 105 155 128 90 128 50 96 48 104 71 68 65 69 57 54 94 74 53 119 141 140 110 69 79 67 60 83 35 57 88 79 99 189 86 185 142 85 179 63 54 136 39 113 126 193 93 195 175 255 182 205 181 227 201 93 82 148 177 153 145 188 169 172 127 161 115 92 149 180 188 196 119 158 73 58 147 132 123 200 100 84 159 70 74 113 107 52 136 137 167 166 116 85 157 105 116 40 36 50 174 179 158 97 156 122 178 202 116 117 197 202 152 137 119 155 90 88 80 153 108 83 160 131 201 138 216 159 89 71 160 165 97 146 160 114 144 108 130 52 66 41 115 109 81 70 176 172 176 176 179 182 184 73 128 133 126 88 135 118 72 155 153 116 118 137 185 177 180 109 126 37 113 41 54 167 81 164 71 109 182 98 174 188 116 129 50 60 121 120 193 193 131 79 114 195 150 132 109 109 69 165 71 163 165 68 76 185 111 94 123 106 104 41 27 128 113 52 160 108 97 187 134 100 152 83 171 146 93 150 64 77 66 127 146 82 108 129 161 105 108 169 162 189 115 166 103 64 124 172 106 187 95 77 74 137 91 57 85 97 157 80 114 163 178 101 120 175 132 82 112 101 181 142 165 147 73 107 48 58 68 175 117 177 167 76 148 157 153 114 135 128 140 73 47 80 120 153 161 185 85 184 86 196 198 189 186 142 66 102 130 171 103 188 180 139 113 178 134 58 138 154 66 158 179 155 159 194 160 128 174 66 54 30 61 106 173 169 86 120 74 151 72 167 64 124 53 83 50 87 128 64 129 55 131 127 23 146 85 183 99 91 158 190 199 194 195 138 190 130 75 149 107 192 102 169 110 97 166 151 88 113 171 95 114 57 161 167 169 173 198 90 168 190 193 190 89 175 139 102 127 104 101 164 132 104 80 130 186 176 122 173 90 75 112 255 134 95 76
197 187 171 157 151 141 135 128 128 131 131 136 149 152 137 121 106 110 142 149 166 168 162 160 158 167 174 182 184 179 170 161 160 170 177 181 186 180 183 163 155 153 160 138 160 156 140 158 141 168 117 140 108 160 118 152 180 137 159 116 83 150 149 97 145 126 176 146 93 101 122 170 87 65 111 136 136 110 72 96 154 100 155 105 123 98 91 113 85 84 85 66 68 87 98 90 92 114 95 44 46 48 86 81 109 71 77 81 130 83 89 68 88 75 71 72 70 108 80 106 63 105 65 71 154 171 82 80 70 119 168 127 73 104 89 83 140 57 84 98 93 178 78 88 124 189 124 222 139 171 186 172 147 174 86 146 100 154 76 149 124 127 133 125 255 220 193 183 173 175 184 123 206 191 103 155 41 113 18 98 100 82 89 54 140 154 80 172 161 134 46 129 155 165 160 230 126 221 118 104 176 104 106 161 188 155 143 146 152 165 68 158 136 148 185 112 209 155 199 177 206 145 120 179 162 99 83 150 174 192 121 178 63 51 56 100 135 64 102 176 95 129 153 104 185 109 172 160 65 34 125 138 60 75 68 182 123 171 89 181 95 190 156 73 91 43 132 112 176 178 72 90 135 85 176 174 106 127 155 51 71 93 146 151 98 193 116 111 85 133 162 114 84 173 171 102 100 163 77 131 92 124 112 173 93 71 103 36 112 54 57 65 141 90 105 84 80 81 147 91 150 188 128 148 126 150 60 47 72 55 63 128 190 157 125 112 119 113 122 96 137 63 84 91 114 87 167 89 58 53 137 162 146 143 181 174 73 67 102 183 137 181 164 160 193 189 172 120 66 42 107 107 166 157 102 83 132 139 104 152 66 93 104 82 89 100 127 93 52 144 95 126 146 178 187 137 189 188 188 79 99 169 175 151 169 162 99 120 154 116 71 66 49 128 75 193 197 175 175 127 184 88 186 161 147 39 22 41 97 84 84 187 114 122 169 82 127 103 127 61 152 135 143 64 49 102 143 125 124 31 40 111 183 95 77 138 156 196 166 116 193 196 173 86 90 88 182 98 214 208 163 75 67 70 166 162 160 82 73 180 91 178 106 117 173 175 142 82 90 162 161 96 201 194 169 130 138 145 152 152 75 95 181 101 133 185 80 116 85 172 133 107
178 175 168 162 150 147 143 137 143 142 131 126 138 143 129 116 119 126 134 147 145 154 161 155 151 164 169 176 173 168 165 166 172 184 193 192 185 177 171 159 155 148 161 154 179 145 171 178 171 138 125 122 133 157 140 122 181 148 129 146 153 173 159 181 152 118 151 104 81 113 167 255 153 153 104 132 132 84 87 156 139 122 120 165 182 92 84 79 79 80 70 46 89 41 125 117 151 102 65 51 74 68 82 79 86 69 120 124 151 156 91 82 122 96 68 125 95 76 108 85 104 64 64 111 150 74 72 159 73 63 61 52 92 39 120 19 33 58 183 116 151 78 182 77 180 202 191 220 131 171 194 171 93 89 68 97 165 130 123 132 141 109 119 171 178 208 192 204 110 171 198 198 131 190 153 39 39 67 71 98 35 110 122 100 157 127 165 138 105 104 155 135 152 161 120 129 181 145 199 187 155 198 173 131 151 109 117 102 95 82 126 161 113 85 89 108 188 121 177 206 122 138 159 174 106 177 121 175 150 138 140 147 185 171 166 139 68 89 124 110 167 65 140 90 163 108 138 159 163 142 128 137 161 133 159 184 200 132 191 98 195 89 179 129 91 53 106 170 255 93 195 189 172 135 124 114 210 194 179 119 151 74 101 196 155 101 101 92 129 96 97 174 121 171 132 100 65 68 83 73 87 127 102 140 189 173 56 107 122 63 167 174 106 117 85 120 73 75 85 81 114 186 79 70 109 125 134 101 46 156 67 166 203 164 194 128 127 62 58 30 51 138 116 149 67 93 130 67 145 117 150 166 176 93 109 156 68 150 88 128 177 133 152 88 175 92 125 92 141 151 145 59 95 176 166 147 78 176 90 138 86 138 172 150 173 149 63 144 101 150 58 76 107 171 174 162 122 83 177 171 173 63 160 176 63 155 150 65 151 66 163 138 161 175 181 102 197 96 110 90 89 156 77 122 49 70 44 131 152 90 176 207 207 183 88 170 89 164 80 169 144 161 112 81 89 71 150 122 44 131 45 135 136 116 66 63 119 89 109 118 113 152 85 76 54 55 167 94 119 192 144 80 81 153 166 94 97 140 87 198 191 162 116 182 198 81 132 83 174 77 73 152 152 179 147 132 192 110 147 171 103 79 158 160 197 89 179 97 177 114 93 91
141 146 151 151 155 153 144 137 130 131 127 127 125 130 139 142 123 139 145 148 143 143 149 155 153 169 180 175 159 153 160 166 171 187 190 185 168 161 156 156 141 159 180 196 196 188 189 188 185 131 153 133 153 156 110 165 149 173 179 190 167 150 174 140 164 121 169 83 70 165 138 189 116 74 147 95 173 154 151 125 190 174 135 125 130 120 98 106 144 88 73 52 49 54 85 101 86 133 84 51 43 92 108 98 84 86 138 137 95 98 94 94 142 101 98 60 68 102 114 102 83 155 173 72 138 62 86 70 67 96 158 68 37 20 31 21 34 145 68 83 82 76 75 173 74 181 111 196 129 150 195 182 80 79 167 100 151 115 184 117 255 69 166 153 198 170 210 175 142 99 107 124 157 136 75 87 65 69 101 116 98 102 117 132 135 154 97 152 166 137 153 73 99 151 197 126 227 184 202 180 81 184 155 109 88 175 187 175 140 89 82 161 79 63 173 191 186 205 111 166 188 173 167 157 158 167 147 71 138 155 125 130 146 173 85 88 76 107 76 93 126 71 144 175 181 175 101 183 164 180 77 124 120 165 177 206 217 226 116 187 210 205 159 94 157 60 128 62 160 115 145 116 192 193 207 153 212 197 93 146 57 157 95 88 92 97 185 178 82 117 169 93 80 75 68 66 148 97 103 166 104 125 112 135 76 155 72 162 157 120 108 73 114 79 171 170 142 73 182 128 128 93 115 145 162 81 64 143 117 144 81 197 112 119 115 96 126 134 30 100 21 82 70 74 161 149 37 66 36 66 50 121 123 134 92 168 95 119 134 78 136 147 195 89 176 94 89 167 163 162 67 181 104 196 84 145 157 159 176 181 95 70 84 146 118 143 161 142 142 164 109 86 116 179 143 177 143 71 77 153 86 168 82 157 155 148 104 97 102 164 65 84 65 91 179 102 174 139 173 77 179 156 77 69 102 49 61 56 93 151 142 112 130 173 99 78 67 135 91 72 131 95 174 89 133 114 169 65 160 50 77 166 154 145 125 62 119 190 184 184 174 122 76 140 157 162 175 164 214 205 89 114 131 162 151 70 163 78 159 103 173 135 190 105 107 122 80 82 151 143 142 68 96 160 123 199 90 119 171 79 61 75 74 80 100 122 111 188 127 95 152 73
114 122 131 142 146 148 149 139 138 136 122 137 125 147 151 152 151 150 155 148 152 152 141 167 174 197 190 174 166 156 154 158 167 175 178 167 157 152 146 152 155 168 191 196 187 195 190 185 174 152 156 147 131 148 110 153 174 172 186 203 224 208 200 171 202 163 109 162 122 130 109 112 135 92 92 117 96 108 186 186 153 118 176 185 141 127 127 85 89 83 78 72 57 56 72 78 130 86 80 53 71 105 118 92 98 120 137 84 123 89 91 158 96 105 152 139 59 59 92 118 91 165 129 80 119 160 151 167 88 178 74 61 127 76 116 43 123 71 129 77 169 160 153 180 80 174 94 208 213 122 170 121 65 96 154 141 175 114 143 90 81 93 140 74 92 172 109 132 84 163 140 129 176 169 161 63 46 83 68 101 128 113 101 145 70 105 49 146 60 58 82 146 57 104 201 155 131 117 167 166 169 187 174 177 120 123 134 170 102 157 106 71 162 122 80 94 169 106 193 167 202 188 157 136 107 110 139 115 171 134 94 190 203 97 98 170 107 203 197 149 174 165 175 191 93 146 99 120 106 190 100 193 207 160 111 137 209 236 137 121 115 149 94 115 147 57 60 92 160 115 98 131 208 128 180 114 108 134 181 69 99 110 85 168 166 87 107 194 81 71 68 160 59 114 79 60 122 161 173 140 70 157 52 103 73 74 157 127 143 116 100 97 99 255 163 53 134 87 88 172 127 65 141 134 126 70 127 69 141 164 95 128 207 205 96 163 134 37 27 131 104 114 110 80 148 83 50 47 141 42 139 154 164 193 93 155 86 83 160 180 105 98 195 176 129 86 177 146 153 108 168 106 93 182 171 154 139 156 107 181 63 77 149 140 97 69 84 136 170 124 126 118 106 174 145 111 66 63 74 192 106 91 139 67 125 145 64 47 124 155 162 110 171 81 169 177 74 171 70 69 121 84 170 140 105 114 50 124 72 99 120 132 150 102 167 128 139 130 150 151 74 91 183 180 160 100 193 88 100 168 100 86 125 126 82 119 163 173 86 193 146 150 164 165 161 170 136 170 99 99 142 174 168 116 77 70 173 87 145 182 188 140 105 188 156 87 193 86 81 70 72 140 185 177 107 165 104 80 100 69 75 67 128 142 136 168 138 162 180 190 109 139
112 119 126 134 140 147 144 134 132 129 126 130 150 141 149 150 162 155 171 167 154 149 157 164 186 207 202 196 173 159 153 148 151 160 166 157 152 150 150 152 158 162 183 212 209 255 187 155 165 171 164 135 145 140 106 123 179 192 174 200 233 191 187 139 201 149 136 96 139 144 148 150 195 133 117 118 80 141 118 120 134 156 123 171 187 153 101 93 108 96 106 147 127 60 56 87 103 137 94 62 59 97 108 104 128 106 145 74 132 81 103 83 77 147 64 106 103 68 177 87 99 143 85 87 63 61 71 88 147 114 185 159 144 125 137 134 104 105 134 56 54 150 173 150 96 156 100 189 116 199 84 172 158 151 152 173 135 137 174 178 152 154 74 109 140 67 146 156 153 188 197 206 165 107 89 148 97 120 92 149 136 131 157 91 92 151 144 159 149 149 44 49 160 123 107 189 197 112 99 104 81 176 96 121 65 86 78 93 182 149 103 118 167 58 68 180 184 189 192 160 203 118 161 94 148 143 144 52 94 166 167 178 193 140 164 206 141 117 113 91 72 88 137 192 115 210 151 201 102 119 113 183 224 168 170 215 216 131 234 172 185 159 113 182 108 72 87 164 89 82 168 154 176 198 216 129 203 169 117 61 162 123 62 109 60 150 71 175 77 167 148 123 99 71 54 63 86 104 136 91 59 90 43 53 76 164 71 189 203 199 204 89 134 163 73 49 59 81 104 188 99 97 119 48 124 132 75 103 172 121 97 117 114 177 83 151 114 115 94 120 81 106 106 177 168 154 65 69 96 67 163 161 102 189 163 163 87 183 110 154 124 139 161 194 118 154 178 172 157 70 83 121 118 89 66 66 162 170 178 157 72 79 58 46 95 70 85 121 187 84 83 165 174 99 189 93 70 160 84 99 106 160 173 182 143 103 160 73 157 70 164 117 81 127 182 107 93 117 132 70 161 87 118 100 57 124 109 101 173 188 205 119 103 182 73 128 84 82 72 47 155 74 105 117 151 128 190 173 140 134 141 101 149 152 64 137 139 127 118 102 177 69 168 63 133 109 101 141 178 78 72 187 176 186 129 183 142 92 153 151 80 176 71 138 70 75 191 133 107 72 171 107 98 78 187 90 77 121 64 54 50 140 120 71 124 75 120 170 138 184 174 163
126 129 129 131 135 140 139 138 129 134 135 154 157 159 156 146 155 143 158 173 166 156 141 162 190 211 213 200 178 164 153 154 157 162 168 165 153 153 150 155 158 187 209 193 185 177 184 148 169 133 135 133 153 102 143 136 175 197 211 199 219 151 210 153 169 177 137 98 158 115 154 175 208 196 154 65 142 74 140 81 85 89 103 126 102 103 137 119 103 111 151 127 140 61 88 58 79 89 79 112 63 86 90 108 108 133 111 88 68 96 132 130 66 61 123 116 78 174 100 110 101 180 255 86 69 125 136 116 107 139 166 163 79 76 52 43 122 53 50 120 45 61 121 169 187 192 147 204 198 127 169 147 131 142 83 63 197 211 203 191 164 110 117 170 123 66 58 112 132 97 191 136 164 153 151 154 124 95 71 151 50 161 89 110 153 165 105 82 78 143 62 93 101 82 113 102 139 198 158 167 86 102 87 47 70 158 176 78 148 171 166 165 79 72 154 141 162 122 176 89 98 151 91 178 138 158 72 67 82 93 81 85 92 79 79 196 153 202 198 195 175 99 86 194 172 214 194 202 198 204 129 191 216 215 205 95 202 115 200 193 178 191 183 123 66 141 68 173 75 157 180 120 144 206 177 153 186 92 165 158 93 70 125 58 82 93 77 98 139 69 161 54 145 48 115 89 177 86 86 178 130 60 95 125 59 68 138 171 154 169 137 132 148 179 101 67 155 114 104 95 123 101 91 87 41 54 165 74 160 154 95 187 109 85 96 60 139 155 150 147 97 62 160 88 92 146 74 76 158 187 184 144 196 188 117 115 203 98 158 86 140 159 116 100 147 116 202 125 178 178 167 172 168 111 129 81 85 110 150 64 87 59 40 96 152 73 116 172 150 115 143 119 150 178 85 68 100 60 125 174 146 206 112 93 114 138 169 138 80 143 150 139 99 170 104 146 95 170 90 120 66 115 77 74 169 80 138 173 178 188 162 188 119 190 182 168 155 88 116 135 179 185 159 200 101 151 255 92 187 98 108 84 135 82 117 116 123 118 123 162 121 163 83 69 148 128 168 155 101 95 179 179 168 82 115 97 92 126 74 181 134 168 120 154 55 170 80 167 180 129 170 166 130 140 167 167 71 79 108 48 40 135 128 137 155 65 177 183 89 177 158 129
143 141 136 134 126 137 140 139 129 128 137 158 179 165 161 142 150 162 162 178 169 155 147 152 169 192 200 200 185 161 154 163 171 182 185 180 166 154 151 158 169 200 212 225 184 197 186 181 151 148 140 120 129 107 121 149 112 174 209 205 174 165 141 180 133 171 141 131 113 117 129 122 179 136 143 150 95 87 100 66 144 111 78 88 91 98 152 106 177 119 114 130 63 46 31 107 96 116 106 106 59 68 100 110 98 105 69 98 80 61 116 96 46 49 139 145 120 108 132 152 150 142 83 108 183 78 85 115 112 223 176 218 159 78 172 159 138 28 98 54 122 60 109 143 185 184 173 83 183 104 167 136 141 43 129 65 156 208 165 195 127 147 176 106 105 104 124 77 87 179 203 152 121 141 106 88 123 99 107 75 166 152 158 99 176 189 183 126 177 143 75 67 66 167 112 149 121 97 191 145 84 56 143 129 136 125 154 76 86 80 97 152 76 93 69 142 172 174 83 163 93 101 151 182 188 128 200 188 152 92 183 189 165 74 111 191 213 124 100 157 68 170 109 110 134 155 207 88 174 91 161 164 190 185 151 179 99 114 198 115 171 134 137 149 75 106 148 165 170 166 183 193 113 205 193 96 136 134 141 135 155 117 92 106 145 123 105 86 89 75 169 76 160 108 129 169 95 120 91 78 67 85 132 69 139 172 86 148 86 90 153 96 194 122 84 73 63 77 120 163 183 107 86 120 45 89 50 62 80 168 182 190 86 104 170 92 130 62 71 128 161 78 169 168 208 100 107 198 170 148 94 113 200 201 168 161 185 116 134 88 179 111 167 104 149 144 188 141 101 196 90 171 121 93 108 80 138 124 114 61 154 141 144 159 78 167 83 75 114 99 159 84 172 168 114 77 161 153 142 195 119 213 110 114 188 100 146 175 97 111 182 162 165 111 82 108 113 66 161 53 146 67 79 183 97 183 143 88 147 146 82 183 85 185 184 149 172 114 110 124 185 192 195 110 171 139 115 156 116 150 173 186 159 89 132 139 135 43 138 116 88 191 155 170 138 128 54 152 75 90 78 85 158 113 179 112 114 141 137 95 193 175 99 56 148 68 81 188 84 175 152 146 179 70 131 165 125 111 77 44 43 70 26 80 105 68 117 123 116 135 116 75
150 146 137 131 121 123 131 140 135 131 141 168 182 192 173 162 155 173 166 169 155 139 145 144 148 168 178 193 187 178 170 169 180 189 199 191 182 162 157 162 178 200 206 224 198 175 162 180 152 136 162 165 121 168 145 131 151 160 158 113 153 180 141 113 152 157 108 137 155 179 150 122 152 95 79 122 64 124 93 94 127 56 138 147 144 140 101 128 109 105 126 76 60 38 31 49 76 118 115 78 68 96 132 108 141 110 128 60 63 64 73 34 65 91 56 97 87 165 102 187 133 75 166 92 96 172 121 99 111 125 127 122 192 104 136 146 110 126 125 121 47 51 85 156 173 91 81 161 74 82 167 62 67 132 54 148 170 156 203 95 155 112 176 178 106 97 74 49 157 85 197 209 205 195 93 156 76 107 171 162 65 81 83 101 146 74 95 92 102 186 128 186 74 169 143 163 167 122 151 93 102 67 87 128 25 98 65 80 173 79 40 34 65 166 122 77 138 87 77 128 82 200 151 210 201 114 174 197 134 131 202 200 102 166 171 188 94 106 111 163 167 158 85 205 213 160 101 163 81 158 48 108 109 139 93 141 135 78 152 182 148 164 109 76 134 158 178 143 185 97 190 188 186 193 191 142 97 181 82 98 80 136 84 176 92 137 61 140 138 78 85 162 71 110 87 161 183 145 101 144 168 144 160 88 87 152 117 90 175 172 80 86 103 94 167 148 81 120 97 110 117 97 174 128 45 43 124 80 76 79 121 120 169 93 59 63 118 168 64 127 89 149 154 218 114 120 208 138 124 101 188 88 196 196 158 202 195 131 138 137 184 141 189 185 87 194 200 100 201 193 192 193 111 93 175 179 154 113 172 74 183 173 159 79 176 100 170 112 97 76 119 80 172 108 198 196 118 122 95 178 104 197 97 106 169 166 76 147 118 184 75 72 131 144 92 169 112 171 96 54 61 117 89 189 92 141 91 96 182 156 119 166 175 149 215 141 108 76 184 139 184 104 189 114 168 172 103 176 77 69 79 82 166 153 58 136 110 54 50 83 124 164 128 100 163 115 138 123 124 80 100 91 161 113 131 182 202 114 189 85 159 126 139 75 154 164 187 190 100 171 74 170 81 79 136 66 146 64 59 145 144 79 61 60 53 70 104 98 90 110 184 129
151 147 139 133 129 129 130 129 130 140 151 178 195 192 188 175 190 197 185 177 153 141 137 146 146 152 167 178 185 180 173 180 189 198 199 193 189 176 167 167 182 200 210 205 193 172 145 179 153 137 153 138 137 160 145 121 108 137 87 99 106 172 152 120 124 149 163 186 119 105 114 106 117 118 159 139 70 88 78 109 122 64 70 87 156 150 102 107 134 94 97 56 94 47 53 73 83 84 142 80 120 120 132 108 137 74 67 54 118 124 67 43 70 65 50 154 71 130 88 84 88 157 119 175 80 183 80 91 193 107 110 102 186 79 153 161 61 149 137 26 28 80 159 185 163 132 68 136 69 145 135 123 91 126 84 151 159 195 168 183 147 149 95 137 131 184 106 85 154 154 176 103 112 150 149 143 79 79 135 80 166 88 71 128 148 135 155 159 118 158 87 118 65 80 108 115 70 64 89 145 124 157 129 119 75 40 121 122 178 135 71 89 154 166 178 103 53 139 134 50 101 131 156 178 145 212 139 152 152 174 223 214 201 140 139 114 87 178 124 117 68 75 118 202 106 206 198 123 52 40 67 82 142 39 42 143 154 81 159 73 175 179 188 176 84 153 177 117 166 128 190 187 185 170 102 163 178 84 152 167 132 196 104 178 74 81 54 61 132 164 83 126 142 79 148 148 96 192 77 82 95 128 92 92 101 181 103 159 147 69 148 43 68 87 122 92 77 90 151 193 112 118 124 133 63 54 84 62 81 178 153 180 168 58 54 53 122 162 66 154 128 137 104 153 119 131 104 96 79 71 80 142 86 139 155 204 109 120 215 150 122 115 82 153 196 131 90 97 109 211 165 197 187 174 175 78 147 127 158 190 92 98 130 182 82 157 173 93 140 122 61 75 88 123 117 169 107 186 75 145 91 153 100 74 83 52 74 131 81 78 124 77 97 81 78 155 110 132 118 128 160 153 141 134 149 100 122 197 180 179 70 84 102 220 154 116 157 132 88 88 142 97 85 94 112 187 176 78 159 123 182 94 150 167 54 46 84 56 53 164 150 128 76 127 93 128 157 162 187 92 162 143 114 118 103 153 148 148 173 84 97 72 109 59 54 177 130 158 96 88 90 176 183 158 89 66 82 50 36 57 81 69 135 68 56 138 100 163 164 87 147 169
150 148 140 140 135 129 124 125 122 135 164 190 210 202 190 192 191 188 197 179 168 158 147 139 155 168 167 181 173 172 180 187 191 187 185 188 186 167 177 177 185 192 178 193 181 145 169 172 141 152 157 129 114 115 143 97 134 96 104 93 144 169 182 150 117 132 134 186 104 154 166 91 85 155 133 105 81 161 93 157 69 92 69 136 94 128 114 115 147 138 87 50 42 31 61 59 118 105 104 124 66 78 94 107 101 75 83 76 60 114 89 71 55 49 55 89 105 68 72 89 61 60 132 73 147 157 74 143 89 164 104 102 182 69 79 135 168 119 137 126 78 143 107 164 103 154 77 142 130 54 63 106 142 69 169 187 174 183 90 145 134 119 171 178 192 192 148 170 117 107 164 122 164 92 91 85 166 96 146 168 110 61 90 56 102 73 147 173 83 143 82 107 143 53 107 72 120 171 170 131 70 72 132 109 114 73 154 169 112 94 118 117 171 78 86 98 48 44 108 103 157 184 103 137 205 220 126 222 125 219 157 206 108 105 138 132 70 60 57 165 138 175 88 109 188 181 121 166 99 134 141 38 136 126 106 148 69 111 137 140 174 177 114 198 186 127 78 153 100 86 193 143 135 188 184 103 119 155 177 123 180 91 98 127 85 127 89 105 131 125 54 159 152 182 88 135 87 157 163 69 126 97 117 87 90 82 82 88 175 80 59 47 49 140 105 190 158 91 105 170 123 109 97 141 57 146 51 64 99 123 116 84 124 107 73 132 77 159 178 84 136 147 95 105 166 177 207 107 121 71 180 182 183 119 82 190 198 183 120 190 177 125 163 189 171 191 159 118 145 171 130 162 181 107 94 156 171 158 82 98 174 167 127 171 72 122 157 131 142 124 65 183 161 206 108 190 87 143 101 130 102 94 139 94 95 57 37 39 140 128 71 151 87 70 93 89 171 136 151 156 72 92 108 162 131 173 91 193 192 163 76 187 97 121 113 121 91 83 128 108 67 160 165 113 178 164 78 79 57 171 147 126 184 171 58 142 146 144 74 77 149 181 164 154 138 52 67 142 196 103 148 164 159 163 166 196 190 159 95 138 149 107 53 100 64 93 99 163 103 173 96 192 86 115 109 66 130 144 133 39 107 123 143 81 71 102 65 61 166 133 104 101
156 151 144 151 146 135 121 116 115 143 169 181 202 188 182 181 184 178 189 185 177 168 156 166 161 166 175 170 179 167 177 180 176 178 172 170 171 177 185 186 171 171 186 182 177 176 184 187 148 133 158 138 168 167 99 107 135 160 145 135 151 145 140 173 167 168 150 160 156 149 83 165 105 174 84 148 76 120 87 148 141 68 115 143 166 182 117 177 123 135 87 123 43 76 47 53 59 101 119 71 78 73 69 104 116 56 53 62 90 88 76 87 71 91 78 131 89 54 116 52 47 68 63 120 81 135 148 121 69 55 115 77 85 169 99 69 71 156 92 20 124 95 155 164 76 160 182 142 177 145 75 143 131 68 74 176 166 190 90 195 86 75 139 85 183 110 94 179 158 135 108 190 90 155 79 165 124 104 131 108 129 66 168 132 153 155 122 162 71 172 158 97 126 157 145 62 124 128 186 105 161 66 158 98 145 71 123 95 110 149 188 134 157 122 195 139 148 66 42 156 153 170 163 154 176 155 194 154 105 114 217 228 209 201 159 86 87 161 151 121 79 84 132 173 143 139 111 72 65 120 154 64 52 37 78 51 106 179 162 141 75 161 145 109 187 140 99 172 142 183 109 194 166 145 95 166 153 89 185 116 81 105 88 98 144 138 172 79 130 172 116 109 141 126 185 112 159 139 117 130 128 110 179 147 121 168 79 126 140 61 132 26 70 66 160 185 101 106 102 111 137 96 169 51 135 132 105 133 195 120 100 175 69 166 70 168 163 131 88 255 207 200 172 183 97 207 204 195 143 96 102 138 139 148 179 196 102 210 169 101 161 161 123 122 153 97 98 120 173 184 128 116 89 128 77 147 164 149 138 139 144 183 102 180 89 168 62 134 134 161 160 142 189 99 120 138 164 86 165 78 61 116 37 140 56 35 68 138 43 53 134 94 129 178 85 86 166 180 82 53 139 67 139 65 41 131 128 142 174 172 138 174 93 206 125 106 194 99 105 142 48 159 91 188 176 123 93 150 90 187 177 144 171 82 154 108 88 121 104 115 89 130 147 147 141 67 155 127 139 153 179 179 99 74 182 113 116 115 193 114 157 118 144 53 74 150 168 110 174 194 119 82 146 94 76 138 116 51 48 108 57 65 124 188 93 146 108 71 89 162 148 103
167 160 151 153 150 144 129 119 120 138 164 176 189 186 177 164 159 180 177 178 169 176 170 159 172 176 174 182 175 177 178 179 178 175 172 167 166 175 188 255 190 183 166 159 165 169 180 157 185 164 136 130 180 168 120 117 103 156 136 255 165 150 114 187 136 139 161 179 140 136 115 158 101 113 150 77 108 73 124 106 102 138 86 84 80 101 116 127 169 121 101 140 129 65 56 60 77 85 81 84 91 63 64 96 66 63 70 80 86 91 88 92 98 82 85 71 110 57 75 61 114 100 122 24 89 44 39 97 128 47 48 79 165 141 173 178 178 84 148 132 25 81 156 58 57 156 169 196 189 166 107 63 158 132 59 106 98 163 119 110 177 154 124 69 130 139 126 122 99 190 181 192 171 89 150 80 184 190 122 103 140 159 72 120 112 103 85 171 63 116 138 153 141 84 119 75 83 165 180 135 184 137 150 127 46 112 84 92 190 150 165 163 224 192 213 83 66 156 98 145 139 177 138 85 165 185 81 90 175 208 211 147 114 150 184 90 92 169 73 163 121 188 172 172 69 147 145 78 88 82 168 86 130 148 140 152 177 176 154 97 79 147 154 126 126 104 167 102 138 174 188 88 83 164 99 76 175 88 79 93 76 107 137 192 88 163 168 193 114 100 98 86 127 130 135 99 186 152 161 56 91 169 76 90 78 114 86 131 135 96 85 98 107 70 100 85 111 101 100 203 112 77 108 52 48 116 109 82 100 116 134 91 183 170 79 120 124 170 148 228 197 217 119 111 95 90 211 110 128 134 191 101 86 178 95 100 160 129 144 73 147 150 152 188 106 166 175 145 154 126 201 152 105 150 132 76 112 88 174 70 95 87 96 102 168 183 136 84 65 167 177 200 189 193 144 167 57 135 66 62 41 127 35 135 106 90 139 65 129 140 161 165 113 107 151 188 148 74 84 58 91 130 42 53 139 132 140 134 109 123 80 147 118 114 204 113 204 124 82 157 76 147 171 130 103 187 187 88 163 97 132 199 172 80 97 96 166 156 151 63 135 76 75 42 143 66 88 163 91 108 114 160 174 77 91 108 110 202 179 177 129 134 55 72 148 166 181 111 112 182 166 159 74 174 149 75 83 75 140 74 158 126 111 150 184 193 197 108 130 161 70 153
173 162 153 153 156 150 145 132 128 143 149 170 182 178 179 164 152 163 176 172 177 171 166 169 160 170 171 177 176 175 172 174 173 174 171 166 165 175 192 178 181 173 177 180 180 180 208 194 180 169 156 169 181 139 99 151 104 169 163 145 117 169 169 183 153 131 168 112 112 112 66 102 118 142 159 72 79 71 130 104 117 86 83 69 74 132 124 116 180 154 107 104 132 100 109 59 72 142 104 80 81 69 57 52 83 74 59 95 108 162 117 88 76 85 102 81 76 71 155 63 55 60 55 39 100 55 48 131 120 51 97 134 169 174 113 132 123 146 96 53 38 141 78 153 148 176 149 110 93 138 177 139 172 67 166 158 155 133 166 188 105 82 170 87 138 154 126 176 196 111 129 105 157 152 86 127 189 201 101 115 96 187 138 95 147 147 89 68 161 78 89 169 160 156 143 97 99 107 122 160 119 169 102 155 148 88 62 185 95 107 190 201 144 147 132 161 90 93 181 118 178 117 201 86 107 128 161 87 151 148 112 215 132 199 88 98 184 128 173 90 113 105 183 174 151 173 184 196 199 129 181 194 132 155 50 89 118 101 59 86 83 44 144 91 111 73 133 111 136 65 162 181 113 108 112 93 70 88 135 138 135 97 96 113 137 109 175 140 199 109 133 151 158 146 137 142 196 87 61 120 74 113 149 158 80 139 165 97 83 76 92 52 143 96 133 182 96 72 91 175 113 130 72 140 83 149 127 172 131 143 109 185 116 180 200 113 206 131 220 136 132 171 180 71 85 188 106 158 186 154 165 130 119 152 82 179 148 140 129 119 64 60 177 90 182 181 81 73 186 151 159 162 178 101 100 129 120 177 139 104 105 94 197 95 196 198 146 139 83 76 183 139 160 123 183 65 70 47 88 151 92 128 68 137 118 118 47 156 109 142 80 122 104 144 109 164 123 94 169 137 50 41 74 86 35 86 44 91 165 173 83 172 92 98 185 195 186 184 184 113 55 152 179 190 105 152 94 204 107 196 202 186 95 94 141 189 146 90 255 152 80 125 70 98 53 173 165 162 103 190 85 113 81 107 97 100 132 205 114 166 73 163 107 93 204 212 200 137 107 77 171 141 142 63 156 87 145 98 57 140 124 82 194 134 106 121 183 100 127 80 112 100
173 161 152 153 160 166 157 141 131 130 131 146 170 173 169 158 144 158 156 176 176 180 166 162 164 169 171 166 177 176 179 176 181 184 182 168 172 179 182 191 181 171 145 150 191 208 184 167 192 155 181 186 180 166 152 130 109 117 172 130 100 167 153 169 109 146 157 108 117 143 72 86 70 73 155 129 137 102 87 130 105 138 107 116 90 148 173 106 106 154 100 89 76 41 65 66 80 86 85 114 101 66 99 65 62 83 105 71 132 115 137 87 63 98 69 76 60 65 105 168 122 86 84 73 49 45 125 45 149 80 141 85 155 173 75 165 158 112 76 91 156 59 174 151 176 183 91 137 102 200 193 173 102 99 121 108 82 66 180 166 140 151 180 92 183 185 189 124 145 123 190 177 107 178 155 129 195 188 185 134 136 118 98 109 199 145 134 114 100 79 133 154 98 116 167 186 110 134 125 119 162 102 75 132 152 61 175 88 118 214 155 154 214 189 137 147 159 82 168 154 116 204 124 140 184 170 145 150 63 185 120 107 201 97 184 120 105 109 192 203 208 186 173 179 72 111 78 115 92 119 152 163 179 144 157 172 172 166 97 114 98 137 71 179 153 163 143 145 80 107 179 176 169 158 144 119 179 157 111 189 145 84 66 95 143 79 126 159 134 108 151 183 92 93 86 114 129 85 77 55 110 138 93 140 164 80 183 100 187 193 167 86 91 81 65 73 83 73 176 134 163 78 142 95 41 87 166 143 95 113 137 113 100 162 154 121 143 135 223 115 213 196 143 63 98 124 180 219 159 84 174 78 93 162 152 159 128 71 182 121 163 178 120 188 203 138 189 178 97 90 144 99 125 152 109 186 115 67 77 102 92 114 111 170 94 172 168 81 96 182 132 105 109 84 116 126 57 73 134 143 135 109 69 98 129 139 162 164 151 84 91 178 95 107 87 172 105 190 76 54 63 43 37 121 91 51 36 144 104 104 75 120 147 207 124 150 169 110 112 159 77 175 113 147 150 110 105 167 222 150 198 191 188 136 158 199 78 161 77 135 144 114 77 152 175 175 97 170 128 124 166 190 135 133 127 190 162 105 106 122 86 79 186 192 152 121 120 175 70 152 93 124 38 52 90 179 106 59 54 48 255 130 150 101 179 100 154 89 143 163 52 122
166 157 152 156 169 169 165 139 125 112 120 143 143 167 157 148 132 147 162 178 189 178 170 163 154 158 160 173 174 172 181 192 202 198 194 185 179 189 194 179 175 158 147 163 190 195 205 212 201 153 193 149 133 133 113 105 92 134 117 169 176 124 143 163 150 143 135 106 91 67 117 102 153 84 128 161 101 133 107 85 149 101 87 132 117 130 168 97 139 114 97 111 30 78 31 59 64 76 101 84 48 89 58 90 95 83 58 255 81 91 103 108 83 55 45 48 107 113 161 141 92 193 96 163 69 78 106 116 139 50 135 98 111 156 94 187 195 197 142 139 78 72 160 89 92 176 85 80 113 126 175 104 206 100 109 91 140 174 189 103 141 177 100 170 150 152 101 153 190 103 120 171 103 118 114 193 214 162 152 173 90 92 185 119 169 167 90 169 146 55 68 166 105 153 124 182 198 194 136 209 193 135 96 76 71 167 173 142 137 193 176 120 158 199 131 97 87 149 161 82 169 198 196 102 181 83 135 59 87 87 189 102 99 192 165 180 183 183 87 204 114 211 195 96 144 163 160 153 117 187 90 135 164 71 65 103 107 155 166 151 66 73 83 187 180 168 97 145 124 170 157 87 91 47 52 63 159 181 97 156 203 85 70 42 78 91 144 83 133 86 136 99 77 57 166 80 88 114 101 86 127 81 101 85 178 189 103 106 160 107 137 123 138 99 96 64 66 77 90 164 124 84 62 40 137 52 151 174 179 93 177 136 193 190 98 184 142 203 164 106 124 185 85 50 158 112 195 124 84 161 88 159 152 130 122 156 171 73 140 135 83 96 100 156 116 113 133 160 169 172 156 80 151 164 181 155 168 141 138 154 118 100 177 160 118 90 99 126 97 181 191 88 112 153 126 49 145 132 98 59 64 167 67 116 81 132 100 64 66 166 88 112 107 165 88 190 199 98 170 153 24 121 72 36 141 155 153 137 160 59 149 167 82 168 140 194 156 115 103 115 128 181 102 99 169 200 123 224 154 198 185 183 106 161 187 94 109 111 125 60 167 191 115 170 165 153 114 125 141 106 186 172 125 82 163 109 90 100 198 133 138 170 96 189 162 129 86 152 127 106 131 62 26 116 98 106 91 70 117 121 65 144 147 95 194 167 170 157 82 72 74 92
163 156 151 154 162 168 166 143 116 107 105 123 143 163 154 152 128 136 152 168 186 183 174 162 155 168 166 169 187 184 197 193 210 210 209 197 187 192 193 183 165 153 144 161 183 189 187 200 208 179 185 176 152 175 123 121 109 142 165 142 121 149 163 117 116 114 84 152 83 140 131 155 169 147 188 152 135 180 130 178 90 161 94 118 99 103 101 141 134 106 84 105 67 26 30 74 62 68 48 77 64 61 60 49 54 108 97 99 102 86 126 91 68 71 74 93 255 161 98 106 119 97 143 91 175 121 45 141 63 131 146 95 83 105 154 84 91 119 109 79 74 99 95 107 104 163 139 69 72 176 176 139 209 147 103 124 162 255 121 165 197 103 81 108 87 82 171 175 145 164 164 75 137 157 194 117 175 193 115 80 157 189 187 169 151 91 136 177 57 101 152 162 163 75 115 70 87 199 184 203 155 196 170 179 88 69 153 179 130 135 110 217 159 180 120 96 163 96 160 168 182 143 91 200 198 113 163 169 168 80 78 84 89 155 193 110 86 172 167 99 108 119 216 116 163 84 156 121 105 161 88 179 117 121 180 116 166 103 143 172 137 169 176 140 175 141 161 143 86 176 118 69 49 59 139 72 85 172 98 148 180 160 89 120 135 40 67 78 176 145 121 136 154 151 129 65 154 158 90 43 34 127 105 72 84 162 201 127 123 195 207 159 162 87 108 119 138 87 130 200 172 169 93 34 138 84 79 131 176 130 186 135 79 133 162 115 181 104 172 116 138 102 105 148 60 169 122 122 164 54 102 64 137 62 117 142 168 116 74 180 179 164 105 195 152 179 172 157 75 94 97 63 74 62 128 141 153 158 152 88 181 85 102 169 100 78 97 107 128 138 148 159 119 85 31 31 124 115 143 112 153 89 178 83 159 115 59 61 130 73 157 146 81 70 73 162 197 194 77 89 52 38 82 134 118 63 120 154 56 156 162 159 180 137 111 181 195 185 135 152 139 153 135 182 92 188 170 212 164 111 167 93 197 212 154 123 85 161 74 161 95 117 200 150 214 212 142 108 255 196 137 129 181 120 180 110 153 146 93 215 137 133 176 166 122 88 130 65 42 62 48 49 102 74 50 74 93 80 172 76 80 188 181 158 96 164 135 70 131 118 55 71
160 155 148 151 157 166 158 147 110 101 110 129 133 153 160 150 116 112 121 166 174 204 203 184 255 180 182 182 185 187 198 203 211 210 213 201 194 187 173 161 161 142 139 164 185 207 222 214 176 181 182 166 186 187 126 107 125 128 171 161 192 139 117 179 130 94 142 101 75 54 77 161 118 203 158 194 127 124 176 132 106 85 84 119 156 91 104 104 111 83 51 50 42 49 47 40 63 83 64 69 61 107 63 45 69 53 59 101 117 64 128 105 70 69 91 153 107 91 88 158 172 95 95 97 92 119 162 126 37 45 34 49 145 43 133 96 50 174 82 190 82 255 199 157 99 159 116 136 121 111 160 191 142 198 171 72 150 138 128 164 161 125 82 168 75 87 106 86 103 174 166 168 144 75 102 155 117 86 181 159 190 81 120 123 255 134 99 139 115 152 147 145 161 162 163 77 116 99 187 122 192 170 127 105 170 122 158 97 151 93 141 135 150 157 197 100 79 154 63 103 63 143 180 144 176 177 102 139 86 123 178 178 147 152 147 166 150 67 180 94 214 115 139 111 193 81 111 135 155 85 59 159 165 90 125 184 84 91 85 131 85 156 80 184 179 114 102 119 72 159 186 82 74 120 81 48 142 145 204 178 120 158 72 147 42 76 124 118 100 69 107 160 64 45 105 147 130 52 22 59 60 55 111 146 176 97 136 127 186 170 197 116 85 87 184 87 153 191 186 142 103 53 60 55 128 130 53 144 112 111 70 141 177 100 125 214 114 115 219 128 198 86 175 106 160 79 169 67 73 139 50 73 49 54 116 134 173 115 91 74 101 173 186 188 138 122 83 73 157 255 160 49 108 113 147 164 79 88 57 81 167 90 81 112 153 108 139 71 178 179 72 160 60 77 100 86 13 41 71 58 73 121 108 132 61 84 129 155 115 63 162 138 159 127 154 135 192 89 164 90 69 86 122 125 51 81 110 122 114 98 165 157 100 95 99 171 179 103 201 109 102 118 132 119 135 209 163 121 162 177 152 181 98 154 215 100 81 168 167 129 87 138 107 154 179 159 204 109 141 107 193 205 128 104 178 80 120 126 255 148 192 207 198 138 94 82 88 129 43 30 67 42 107 60 67 84 170 77 80 191 200 212 124 92 86 63 73 149 44 118 77 147
157 151 142 140 147 158 155 148 132 121 115 138 156 170 157 136 110 112 113 155 190 201 219 195 200 195 192 179 182 177 192 201 202 200 203 191 183 176 167 164 139 155 149 170 168 197 216 213 198 146 129 185 141 194 177 172 158 129 110 144 161 177 111 188 164 102 166 156 88 141 78 178 115 131 196 211 167 135 140 86 114 74 74 114 78 86 103 99 151 73 57 56 117 79 54 44 37 21 28 43 66 115 71 99 59 49 114 71 88 112 122 98 87 97 81 82 164 118 145 71 119 95 123 134 94 109 97 98 44 35 138 68 101 40 32 101 38 72 187 146 189 107 135 181 80 159 111 21 129 159 151 87 116 89 186 167 133 175 182 187 185 101 135 73 130 168 79 164 96 87 167 76 80 97 141 121 173 94 146 170 175 102 139 97 156 180 194 136 91 106 81 58 49 75 156 48 59 99 174 135 84 130 82 171 70 153 118 151 90 78 122 107 201 168 184 189 112 70 103 52 86 118 127 78 81 84 113 147 158 152 71 71 173 130 77 167 102 76 78 189 136 193 156 219 112 153 124 174 69 56 146 66 171 151 80 75 155 179 80 140 81 175 74 175 184 169 135 143 170 75 121 160 84 141 112 62 173 148 195 109 209 152 131 83 40 59 93 53 75 89 155 62 108 85 59 154 37 110 93 79 84 101 82 92 104 85 128 125 165 176 115 100 71 109 106 86 132 117 100 145 115 53 72 64 127 63 137 78 106 112 140 182 99 139 234 216 235 234 195 223 202 193 79 99 176 183 184 66 156 145 62 165 132 153 65 176 178 172 140 75 141 143 140 112 181 74 102 117 169 86 166 65 157 141 96 173 103 74 162 143 65 119 196 110 101 103 164 150 171 125 125 68 60 45 118 116 130 142 110 106 90 146 188 98 156 147 119 147 115 164 174 182 96 80 114 91 96 178 134 141 42 24 63 66 149 115 60 85 158 160 105 139 90 93 148 156 144 116 101 91 93 191 190 184 196 161 176 94 181 134 130 87 154 173 194 213 192 177 70 92 184 186 150 107 206 146 167 163 148 126 144 255 158 204 151 95 162 159 172 91 125 177 154 191 88 67 117 127 141 92 42 46 97 111 181 121 81 81 127 135 113 118 165 161 180 77 132 62 160 152 73 61
143 138 131 126 133 144 145 149 143 154 155 152 166 172 157 145 109 108 124 145 183 191 214 202 195 195 190 188 188 185 188 189 189 186 182 176 169 164 160 150 153 161 174 192 196 188 200 203 164 147 132 152 170 190 169 168 142 143 110 137 181 117 128 145 148 179 173 137 112 80 140 151 128 169 213 141 125 102 60 51 129 142 144 72 76 89 104 95 117 79 71 93 146 78 71 80 76 59 83 44 58 72 95 75 49 49 101 65 50 44 69 81 143 91 125 84 96 110 85 86 69 101 106 113 117 207 195 140 71 44 54 167 62 90 137 131 100 84 99 212 105 200 194 85 87 134 116 119 119 133 160 179 164 122 85 159 179 89 89 173 123 123 184 84 109 113 133 198 183 142 167 138 163 119 101 78 165 110 186 147 167 120 117 115 143 143 167 179 123 172 131 122 42 146 62 61 122 160 168 131 148 77 124 177 79 55 40 81 47 164 133 190 98 124 123 183 203 87 148 161 63 75 165 124 168 74 148 161 155 163 168 128 62 158 87 91 167 164 67 120 135 207 204 220 175 201 182 77 67 82 165 110 126 76 91 116 167 80 140 175 89 115 61 128 165 90 177 137 149 175 82 104 154 74 159 69 95 94 101 90 95 189 121 96 64 62 74 158 174 154 94 57 117 123 68 123 62 31 21 64 43 70 74 113 182 76 104 73 67 70 78 52 66 118 143 74 124 193 167 118 73 96 156 148 58 65 64 104 63 93 170 160 201 157 217 143 142 158 201 215 100 168 86 174 188 183 190 172 77 159 158 102 168 67 131 118 104 184 86 120 171 137 139 177 127 97 169 94 123 108 122 115 75 83 168 74 171 97 65 154 102 178 111 191 151 162 88 115 103 153 171 95 98 118 118 89 85 76 156 137 162 67 170 168 176 125 112 139 159 60 88 61 66 122 181 154 144 166 157 93 86 155 152 157 161 58 87 75 74 71 144 87 86 80 156 76 62 174 78 181 163 195 200 199 145 191 186 118 143 64 80 77 205 255 178 137 125 80 79 124 158 98 188 147 193 86 170 69 172 175 180 176 152 113 185 171 98 189 139 179 106 152 127 167 184 148 113 129 48 96 124 164 163 132 115 170 87 83 166 110 223 117 193 189 210 99 109 182 78 63 65 163
131 123 113 112 112 123 137 145 166 179 178 186 186 185 166 151 142 125 134 135 157 188 195 193 186 189 194 200 184 187 181 181 180 175 166 161 149 159 159 160 148 167 183 200 208 208 186 162 156 171 144 164 163 130 130 145 124 146 137 159 106 112 166 146 182 167 145 165 153 131 108 90 130 178 200 165 106 152 56 54 134 99 75 82 136 133 121 126 132 75 80 87 104 100 102 129 61 51 60 88 57 78 77 63 97 61 51 56 55 50 119 82 104 115 91 160 72 116 102 73 88 185 174 111 198 110 151 86 72 131 170 143 185 152 149 48 87 153 213 123 118 132 205 170 104 27 91 32 61 94 163 188 129 102 151 181 135 122 200 104 147 157 124 92 182 147 201 105 161 172 149 150 88 163 179 175 74 170 199 175 133 96 147 64 124 160 81 190 186 101 146 137 122 69 128 67 144 86 176 160 68 68 135 114 64 117 93 31 126 103 149 192 104 169 168 140 147 183 75 123 168 91 172 137 164 151 166 166 160 115 156 69 164 81 72 110 103 184 87 146 149 189 166 115 214 105 196 152 173 77 75 169 128 94 182 71 72 100 86 183 78 70 151 62 175 74 101 128 178 104 198 188 67 110 166 96 172 160 85 157 183 188 80 171 137 46 69 67 136 172 101 55 64 153 65 59 129 134 117 142 68 110 127 84 122 103 180 131 73 68 47 59 152 83 89 142 114 162 86 103 163 69 85 152 83 155 79 166 126 93 112 129 102 155 124 213 133 225 113 101 106 87 134 88 139 85 125 97 68 100 68 182 108 153 171 110 96 95 131 144 124 145 134 179 143 148 120 91 91 145 149 100 142 89 74 176 142 181 100 90 131 155 199 166 141 81 76 68 149 60 154 110 165 114 187 85 86 148 146 70 85 137 94 149 75 179 75 151 90 93 159 94 152 155 89 77 165 67 109 128 120 148 149 108 70 94 74 64 154 129 175 148 172 163 70 164 141 122 147 182 192 94 193 193 88 110 166 63 127 87 164 92 108 120 222 122 107 96 120 165 100 76 82 128 83 176 75 125 155 160 81 94 165 144 220 208 192 172 83 177 77 159 151 188 143 151 255 163 65 168 121 87 73 153 131 114 87 75 112 115 130 176 162 119 155 172 204 119 167 143 62 57
122 111 96 90 101 116 136 156 178 183 197 184 184 196 179 171 156 138 138 145 147 165 175 179 178 180 196 197 194 184 177 168 177 170 163 156 156 152 166 165 166 176 183 202 199 195 188 188 183 158 168 130 142 136 157 138 91 113 74 106 127 116 148 147 109 187 105 153 91 151 148 74 134 161 178 169 155 131 119 110 148 94 157 95 148 81 78 105 105 142 76 127 92 101 110 95 95 79 82 99 74 103 96 58 57 100 70 72 92 121 77 92 166 178 90 79 78 79 132 163 181 185 101 163 161 99 108 161 85 129 80 189 189 175 161 156 166 93 122 169 236 217 209 112 169 93 126 51 160 69 83 148 168 184 188 147 127 184 193 201 134 185 141 189 120 115 147 128 193 188 98 176 188 123 191 195 153 197 140 114 186 174 43 137 41 137 168 192 184 81 63 125 167 182 151 97 145 199 137 89 72 58 162 127 169 159 107 39 145 142 71 120 199 208 130 115 127 151 163 88 72 69 176 162 182 180 174 123 177 121 70 173 171 127 179 90 178 99 196 181 151 162 169 155 178 127 184 172 128 132 158 185 184 166 124 99 159 117 174 183 164 147 72 151 73 156 117 192 194 114 177 113 133 73 124 118 150 111 107 184 99 167 102 163 65 57 85 76 96 87 91 47 63 50 75 165 65 33 36 151 107 135 93 107 168 120 94 119 83 149 68 92 93 160 144 167 161 169 90 112 189 111 95 159 102 123 87 159 57 55 57 76 85 169 96 109 148 132 207 197 183 185 75 175 179 150 177 82 152 167 177 144 189 185 177 107 170 121 167 154 76 177 127 158 182 178 70 156 95 160 188 192 183 107 184 91 115 151 88 169 76 96 97 164 105 163 104 165 105 114 173 190 88 143 78 130 98 119 82 101 45 61 147 67 121 147 181 64 146 60 255 62 140 47 60 105 114 155 152 134 144 127 98 68 165 111 96 136 59 71 91 128 160 138 69 64 168 166 168 182 183 150 209 141 123 92 84 136 67 142 174 72 157 151 186 184 168 126 110 146 112 131 117 108 184 102 162 61 93 115 184 117 144 153 155 165 179 199 116 179 129 180 81 146 113 105 198 149 80 154 72 173 79 111 67 63 132 121 97 102 196 185 162 182 182 187 125 111 75 120 69 114
125 108 88 82 88 111 126 149 177 188 189 193 182 195 188 180 157 143 146 136 141 143 164 168 159 170 180 194 184 182 178 184 185 177 165 146 151 157 163 171 172 190 192 198 202 194 168 160 163 183 168 145 166 157 154 149 147 159 93 132 113 114 104 104 183 157 138 124 92 141 161 151 155 147 148 185 102 119 154 90 156 86 142 133 81 67 111 46 90 89 78 116 122 101 94 102 100 92 88 86 108 95 129 93 112 66 68 116 73 127 82 131 99 164 88 127 88 115 83 186 192 159 155 115 75 80 167 113 88 86 140 194 91 177 170 158 150 102 114 229 135 136 131 140 194 181 70 135 169 140 171 177 100 166 145 171 97 108 186 198 161 159 184 182 124 192 178 137 96 116 172 169 163 181 162 133 192 141 214 223 148 76 145 62 145 134 161 90 88 136 141 129 93 173 217 183 192 213 155 199 157 175 101 167 114 71 74 108 152 151 92 137 168 210 193 216 213 164 175 170 176 73 62 71 193 152 192 166 192 121 75 77 123 156 96 166 193 197 159 163 104 152 171 123 162 167 186 131 112 153 91 192 217 190 223 108 177 127 118 175 114 177 77 173 106 127 94 184 179 216 114 192 145 81 65 167 110 107 90 108 185 101 176 138 160 71 105 84 190 155 65 59 51 91 102 65 86 86 45 76 186 103 108 156 106 194 145 132 81 113 112 117 218 141 91 115 124 131 166 180 187 204 189 93 71 75 77 82 66 64 159 163 72 96 138 176 123 209 139 159 96 89 184 154 81 82 84 98 165 176 107 88 168 128 97 76 46 144 154 137 133 124 112 165 144 69 159 106 69 164 187 190 151 121 101 151 122 163 79 171 167 175 112 114 173 107 174 77 88 91 86 108 159 113 66 72 167 138 175 69 66 64 103 149 188 114 183 134 106 62 154 133 125 164 122 132 160 126 155 71 135 44 157 115 73 175 166 51 41 107 151 149 104 74 129 89 93 183 172 94 72 192 209 140 91 158 60 114 133 124 67 65 77 191 212 158 102 181 102 82 129 177 139 167 102 179 171 85 159 115 172 133 168 166 125 200 93 96 137 155 138 85 79 163 134 102 142 109 163 146 180 65 86 63 68 104 63 157 99 116 182 160 104 104 97 187 161 100 94 88 164 63
130 110 87 76 89 108 137 154 179 181 194 178 188 184 175 157 160 143 147 137 148 164 164 170 159 165 176 186 173 178 178 179 192 180 161 151 145 147 152 163 180 201 191 203 179 179 176 160 189 179 183 185 184 182 187 164 167 176 117 138 161 98 169 96 134 182 166 182 174 105 141 123 171 101 176 136 114 101 166 166 117 157 118 112 69 64 128 87 117 58 81 74 98 112 95 104 109 107 119 88 100 105 114 74 56 59 43 69 110 90 115 124 165 97 92 103 98 95 181 198 198 102 93 162 58 47 166 136 85 69 119 75 170 74 76 135 97 135 114 214 206 169 162 233 223 156 176 193 159 89 121 158 195 192 178 175 84 179 108 127 152 98 172 130 189 133 167 103 190 135 180 157 87 149 167 181 211 120 226 122 189 100 158 73 154 101 166 170 153 80 180 86 156 121 196 199 110 121 176 87 81 188 191 94 95 97 61 60 104 55 70 79 193 111 138 126 144 101 149 189 139 78 109 84 98 120 208 166 193 108 156 72 158 87 150 134 97 107 185 205 202 107 132 138 103 121 186 99 172 88 199 196 225 216 228 223 116 146 174 155 196 145 112 135 116 117 124 196 189 117 161 88 68 46 56 124 93 122 111 194 166 85 193 92 99 177 148 125 174 115 157 65 93 131 122 88 141 115 49 82 102 179 123 143 227 185 193 185 107 145 109 132 146 150 207 90 118 137 151 109 221 139 200 197 144 160 176 166 172 78 159 167 69 79 64 70 101 197 109 125 198 184 123 171 193 189 164 100 174 172 73 137 147 140 122 145 107 144 83 70 172 171 92 173 144 66 100 135 86 170 149 151 148 189 80 178 114 111 78 133 94 108 169 106 154 111 171 96 68 75 186 132 165 63 59 78 68 57 137 69 101 66 53 75 82 112 192 181 81 106 106 64 125 84 175 147 61 96 165 151 54 46 129 117 125 182 132 137 73 47 92 109 126 157 74 94 182 107 61 136 153 99 101 208 166 101 102 113 170 152 132 119 80 137 160 196 199 160 170 173 180 171 63 106 127 139 149 165 86 197 181 215 116 179 178 149 184 196 91 146 103 190 127 89 178 96 110 106 169 97 110 81 83 118 173 170 152 137 111 96 113 116 71 98 101 175 97 121 172 159 136 53
139 119 98 87 98 120 146 155 167 178 185 178 182 172 153 152 137 132 143 146 162 180 175 176 179 180 180 187 181 178 174 183 188 175 160 145 138 135 147 165 184 207 218 206 186 154 168 177 187 163 150 196 187 184 160 151 144 135 139 107 154 110 153 92 182 181 138 132 140 196 174 135 136 169 137 113 127 125 161 121 128 89 120 118 63 143 99 125 133 119 116 85 78 116 102 105 101 120 103 106 101 101 106 101 97 52 71 52 63 99 94 83 99 113 97 124 121 125 199 152 103 103 82 111 59 134 71 117 169 74 96 108 131 78 164 74 150 85 92 210 156 121 141 228 220 196 191 94 107 150 204 107 189 97 93 171 104 174 158 180 162 98 149 110 172 169 156 144 134 146 196 157 142 86 106 119 168 191 181 159 227 185 136 174 159 123 129 90 74 71 73 165 171 216 217 185 131 114 90 81 82 198 108 201 101 145 164 71 55 54 167 130 90 118 180 108 95 91 184 170 170 85 152 130 152 118 101 183 161 99 70 163 70 141 154 104 171 87 185 184 198 107 136 65 128 175 177 185 123 169 191 171 148 161 146 221 218 123 177 203 187 175 153 129 171 155 189 189 181 105 184 173 130 137 103 98 122 125 117 191 166 149 108 194 134 80 90 124 95 154 102 77 92 214 115 112 136 91 169 90 150 165 208 175 215 201 88 86 180 91 135 134 146 188 138 98 91 112 113 123 136 204 216 107 169 76 87 94 93 156 164 75 102 67 74 102 184 203 179 204 194 144 188 104 103 192 177 118 61 110 159 63 170 156 160 47 66 114 52 157 79 71 127 131 67 132 130 152 61 120 143 154 115 169 130 168 98 81 79 150 125 184 93 167 179 117 129 167 63 176 202 102 176 82 67 100 54 33 130 79 111 91 88 63 81 102 173 144 114 145 121 109 173 131 176 87 174 167 118 120 150 150 137 105 78 121 178 160 48 127 62 49 56 174 91 142 202 161 162 156 83 179 201 158 190 111 202 145 184 182 174 85 164 170 197 196 197 197 192 127 170 146 128 97 108 165 86 135 102 133 204 158 109 105 98 113 102 160 128 100 183 98 141 81 85 148 177 95 159 198 92 128 80 81 93 75 72 167 60 164 123 68 88 72 111 176 129 179 172 83 172 81
139 124 109 106 119 140 156 159 167 177 184 193 173 159 134 124 123 129 132 158 160 169 180 181 176 183 189 179 176 170 165 170 177 171 158 148 133 139 149 173 180 216 195 195 179 169 163 135 172 190 180 151 180 193 151 206 164 161 197 155 138 172 113 108 194 154 122 144 169 203 151 90 85 151 90 164 180 121 139 172 113 126 100 64 66 73 68 75 108 72 66 78 102 114 122 102 91 121 111 94 141 138 115 92 128 63 93 82 81 62 62 106 77 83 85 96 122 120 132 80 73 124 158 88 141 119 129 167 82 186 159 70 100 65 68 141 113 172 119 100 102 145 211 177 207 194 143 74 80 178 184 189 140 202 173 127 100 127 148 178 153 157 116 181 116 183 169 208 223 219 196 160 111 167 147 197 205 209 197 194 198 158 195 158 176 125 155 128 159 59 125 91 184 109 166 94 157 92 153 99 128 90 99 147 92 170 126 44 43 124 89 178 112 84 182 123 79 157 125 77 159 99 103 94 182 150 93 162 118 79 60 65 168 170 83 163 143 177 131 86 185 84 125 115 105 158 178 155 90 79 196 167 164 213 214 120 179 146 189 99 178 132 132 149 78 81 69 138 90 121 101 179 138 72 83 95 131 95 112 145 126 206 162 192 89 140 81 93 190 85 169 77 115 203 198 133 216 191 87 82 173 100 131 211 103 109 78 69 165 184 208 200 218 127 178 101 190 182 189 158 174 169 212 94 179 141 164 134 78 89 82 118 167 87 185 146 185 206 188 166 113 75 184 127 146 95 167 159 58 113 63 148 166 165 154 44 40 146 72 142 183 91 94 107 172 154 161 99 164 160 163 144 155 166 156 113 163 176 98 190 157 158 183 133 120 93 131 76 61 101 172 202 181 181 171 111 119 97 26 74 31 66 84 149 139 156 75 157 143 136 69 116 113 177 99 90 159 97 131 139 147 98 89 123 181 164 113 142 47 95 55 119 172 95 200 145 115 182 60 134 81 115 97 209 163 155 127 212 205 141 80 103 173 189 147 143 195 91 81 71 164 65 113 149 186 114 191 81 167 192 195 109 186 98 149 93 171 145 133 91 143 199 125 129 190 100 69 86 139 155 95 103 54 65 161 89 156 170 64 60 140 119 92 96 177 152 139 185 95 102 82 114
130 122 114 120 137 151 164 162 164 179 194 196 174 151 122 129 130 133 139 156 164 166 164 173 163 181 189 185 175 164 156 160 174 175 167 157 148 144 163 188 208 197 190 194 175 149 165 145 166 195 200 155 163 183 144 172 148 170 121 161 152 166 164 160 176 170 193 109 189 203 160 123 140 82 171 113 144 182 131 110 100 137 68 81 129 84 73 140 71 145 84 157 158 116 116 113 94 92 130 108 102 110 109 131 105 116 70 108 115 101 85 137 76 111 148 176 160 95 93 148 61 64 58 59 89 83 92 171 100 176 94 79 159 86 152 97 162 105 182 103 201 91 200 120 200 193 177 176 176 182 183 153 184 190 143 179 82 120 87 172 171 207 124 81 146 162 166 220 182 181 150 206 85 135 99 95 173 88 128 212 142 224 201 205 86 70 64 93 147 132 52 117 137 142 95 90 77 90 43 147 160 165 129 113 191 134 62 49 101 142 73 125 136 102 125 65 65 175 84 97 90 169 77 74 80 172 137 156 59 151 160 104 173 176 179 133 87 133 154 123 143 153 75 68 169 117 151 69 157 185 104 111 131 180 98 136 172 171 139 174 87 170 113 78 148 157 92 104 103 95 121 95 172 172 176 166 164 94 95 205 199 154 109 175 88 112 168 100 110 131 65 73 153 116 166 173 207 149 102 66 172 148 82 107 88 75 143 72 78 104 124 216 109 184 153 84 82 82 91 152 166 124 209 92 87 134 72 57 112 63 141 81 114 111 200 203 111 104 197 149 162 90 82 176 85 95 152 69 255 65 64 114 150 97 149 58 107 120 140 169 120 190 117 193 183 140 115 58 171 161 178 172 142 99 77 110 73 147 88 128 117 185 71 158 98 136 39 104 50 155 88 145 163 100 80 172 56 148 48 120 137 99 43 68 72 65 176 75 46 134 58 64 163 160 154 170 172 73 157 89 72 111 166 78 129 80 89 158 55 64 60 101 72 117 156 148 168 80 145 59 165 125 87 208 140 129 236 233 211 100 125 185 110 128 195 127 133 144 145 105 135 116 162 180 198 137 189 181 182 126 92 185 126 125 185 163 179 175 193 96 208 209 187 142 132 104 130 159 162 109 182 142 139 53 89 67 153 73 149 65 138 58 61 169 100 91 146 94 202 166 81 100
106 105 109 117 135 154 159 160 155 175 188 191 175 154 129 141 144 149 149 153 148 154 148 161 157 178 189 189 165 160 153 160 169 179 178 176 166 166 174 175 184 209 190 206 201 196 168 164 148 184 168 169 132 169 171 172 152 174 146 169 157 179 184 187 108 113 99 170 170 146 113 115 62 142 66 154 84 85 95 165 88 76 70 71 77 78 96 139 73 141 77 141 103 100 102 113 97 97 102 108 119 135 123 134 125 93 94 95 112 103 79 106 65 125 70 159 170 99 93 59 49 81 61 87 72 149 97 187 122 181 181 117 158 151 43 59 162 86 200 99 93 110 79 99 115 135 88 82 178 67 163 177 105 116 128 158 150 130 134 189 184 205 110 157 174 143 139 148 180 134 106 137 100 165 97 78 128 164 93 190 156 221 123 195 206 187 56 136 102 78 150 64 113 203 100 185 183 170 110 112 163 77 112 93 191 78 77 77 153 109 116 165 95 123 87 94 131 163 170 150 158 164 118 75 135 142 183 100 68 73 96 155 130 178 188 190 192 157 153 81 96 96 193 148 133 80 168 172 160 73 80 180 155 151 96 181 178 141 63 159 76 164 138 148 150 60 157 64 100 157 171 183 112 184 165 166 127 96 101 144 199 147 110 179 181 137 84 174 100 128 73 134 85 104 143 224 187 137 143 171 68 63 100 62 127 145 90 72 101 108 208 103 161 123 88 145 58 140 81 110 155 195 183 100 138 147 71 57 55 158 122 134 146 123 120 215 212 154 126 108 83 135 100 116 170 176 137 80 94 88 78 67 151 149 102 148 55 84 67 143 116 188 146 177 91 116 84 118 83 167 159 146 192 194 94 181 103 84 118 111 140 197 178 72 155 151 100 75 44 65 64 127 187 134 145 136 87 64 62 113 169 155 62 58 57 178 93 170 123 91 126 124 146 120 183 169 92 55 81 75 148 82 119 137 103 75 78 156 90 167 169 141 109 102 176 101 109 121 58 72 150 70 184 202 169 226 185 145 217 103 94 113 88 191 108 163 202 193 177 87 175 78 158 187 151 93 159 133 107 100 160 193 92 188 76 112 72 181 98 157 129 146 163 172 147 81 161 143 167 82 116 64 108 71 152 95 162 108 108 179 171 125 148 165 168 70 95 175 159 196 141 73
83 87 94 108 127 140 145 148 149 161 176 178 170 137 132 150 152 159 156 170 143 146 130 142 156 174 196 195 193 179 166 171 179 181 186 180 179 181 185 197 185 208 208 213 218 214 166 145 168 130 169 176 159 164 156 181 192 165 126 112 196 152 119 136 136 76 148 97 92 131 149 107 63 108 131 81 160 76 160 164 80 70 65 79 76 99 90 89 75 132 78 107 90 94 85 96 96 124 109 137 124 160 127 119 104 79 93 66 72 78 112 96 77 130 98 85 114 109 81 89 61 132 73 146 80 160 209 214 125 212 150 148 59 77 40 81 100 98 194 189 90 167 67 131 90 141 179 93 161 134 137 88 61 178 95 189 137 175 85 115 178 195 179 176 100 111 67 94 157 177 170 87 184 81 128 158 108 129 99 120 192 136 159 141 207 123 141 75 31 124 146 72 184 114 117 143 183 188 176 64 170 161 89 164 156 176 141 138 70 83 131 75 149 162 62 149 66 69 165 99 122 178 156 93 129 87 191 131 78 120 102 156 99 87 179 95 173 120 138 115 125 105 138 98 199 125 151 86 134 119 57 150 160 174 152 179 131 152 149 167 163 71 123 180 132 73 117 113 145 84 174 88 184 91 178 189 182 123 175 111 162 123 126 156 99 151 96 145 142 110 93 77 133 200 208 120 170 102 102 64 70 129 53 76 80 145 176 119 110 117 133 121 117 107 62 142 90 128 84 73 81 190 169 168 85 103 75 165 58 163 113 136 146 116 226 172 128 108 60 69 126 100 144 49 64 74 175 174 123 77 123 147 154 136 124 132 110 158 162 177 139 75 154 79 176 183 192 158 205 154 180 224 108 198 108 106 109 195 190 110 200 89 175 96 128 120 57 127 61 58 118 162 147 132 179 86 87 183 83 102 178 189 68 94 138 96 93 96 125 72 80 107 107 185 176 123 131 104 138 90 61 122 75 38 106 135 37 40 158 144 135 151 138 137 146 137 75 52 93 134 56 157 180 132 131 179 215 226 181 209 150 96 190 121 119 195 119 188 122 107 85 94 158 82 95 169 203 117 136 200 196 202 194 114 137 68 115 180 134 108 190 103 176 67 163 60 82 80 154 179 100 86 164 51 94 57 62 73 179 146 101 73 172 66 92 146 119 125 94 90 81 166
73 79 87 96 112 122 130 144 156 170 182 173 154 139 136 158 175 178 180 179 158 159 134 142 164 186 214 210 203 183 163 168 175 180 179 181 174 183 192 201 206 200 210 216 211 223 199 159 151 152 126 167 169 139 183 149 187 112 97 171 189 122 168 150 106 83 154 82 123 174 124 112 72 102 69 67 79 110 78 78 114 141 155 158 84 88 163 117 92 106 62 62 122 62 97 121 109 124 139 121 144 166 164 129 116 94 57 70 144 100 140 108 175 100 137 107 92 99 128 131 74 127 146 73 125 92 210 115 138 174 139 158 58 141 141 160 133 107 103 171 100 79 142 83 74 83 107 194 173 125 40 125 142 139 185 172 183 142 84 178 177 194 145 87 166 163 158 158 130 101 81 113 255 103 164 89 65 46 80 162 135 183 169 136 184 185 93 43 121 138 147 160 126 216 123 110 178 175 187 99 65 173 75 187 182 135 95 150 167 150 192 87 168 89 127 134 148 147 166 139 156 78 102 172 86 181 150 190 148 107 60 136 46 160 181 192 117 158 192 195 190 111 154 214 110 178 117 112 61 57 48 127 98 96 132 66 150 132 76 100 93 121 87 102 123 130 194 84 91 160 108 167 136 184 156 131 181 79 66 103 74 141 100 82 144 107 86 200 92 129 83 78 148 144 107 145 212 199 193 88 52 156 74 130 169 169 85 141 102 165 148 109 161 172 64 132 81 68 62 113 176 167 131 120 161 106 78 74 166 132 78 193 139 142 205 105 158 160 69 89 54 143 88 51 69 76 91 134 94 105 149 67 64 61 34 138 138 175 171 180 173 150 93 59 132 129 148 218 192 181 153 123 205 170 183 192 186 155 148 137 185 182 150 174 180 173 130 146 70 61 152 160 98 127 121 75 132 171 174 123 183 106 185 79 73 93 116 186 189 153 132 166 93 181 106 71 124 119 72 255 90 170 101 146 105 36 36 143 156 99 76 76 133 79 75 69 89 58 45 37 131 66 132 204 211 122 214 133 209 130 107 204 145 210 213 166 155 183 134 171 126 72 168 151 131 107 125 207 101 159 196 138 171 179 182 165 79 111 162 97 82 151 99 89 79 60 64 68 106 124 148 74 119 57 71 130 51 105 90 90 169 75 142 105 145 169 175 182 115 121 172 144
79 86 93 100 103 109 120 139 162 167 172 175 173 160 136 145 175 191 206 198 194 160 159 152 170 196 221 232 221 202 177 161 164 165 172 174 185 192 203 196 196 202 214 229 226 226 171 174 139 136 142 122 133 188 190 192 142 176 137 172 147 133 114 144 159 100 100 96 176 120 170 69 150 137 67 117 144 129 73 70 80 73 84 91 99 83 85 81 72 139 59 63 73 51 73 114 107 106 133 146 124 154 143 151 92 72 95 97 78 92 106 128 113 86 94 68 90 174 153 85 107 86 127 84 90 142 98 196 211 164 220 196 132 148 151 61 165 190 91 98 102 106 103 135 84 171 179 163 109 147 129 135 133 98 180 194 170 174 93 111 189 170 180 134 134 166 84 115 88 71 154 82 194 152 201 189 162 123 76 91 97 168 164 164 163 184 86 54 71 98 139 139 190 122 121 218 157 126 131 124 166 121 66 98 111 171 69 166 150 177 151 105 154 183 165 178 147 112 158 184 98 81 155 107 165 180 126 155 94 88 63 40 139 79 175 193 101 178 185 128 107 105 211 177 221 216 134 173 137 126 129 98 98 133 149 139 98 88 74 68 177 196 201 195 124 104 100 125 125 122 175 94 76 144 172 92 172 137 60 97 121 69 89 91 159 152 169 105 81 159 88 123 185 202 194 194 156 122 91 167 130 82 129 160 90 79 76 73 77 90 171 188 95 166 174 116 187 102 72 92 169 168 61 96 52 126 185 106 146 89 101 197 137 102 177 114 99 127 78 139 65 91 154 82 174 128 177 113 166 177 127 154 152 98 139 53 108 86 169 108 88 113 59 153 141 141 94 129 124 229 164 149 162 94 162 99 194 109 172 90 76 158 165 111 195 208 214 178 97 85 86 114 165 92 62 88 54 115 130 198 140 220 171 179 176 186 178 194 255 218 195 123 143 122 151 130 55 102 71 88 83 100 91 110 127 53 65 129 147 175 175 122 142 98 196 146 66 115 126 86 141 73 132 125 204 144 114 131 165 184 193 100 111 202 112 104 84 178 123 77 157 133 170 109 191 190 189 145 209 170 108 112 144 169 69 100 183 193 121 104 138 67 78 148 68 69 177 77 91 143 75 111 144 87 51 84 65 133 56 116 168 170 75 97 122 118 111 72 100 69 152 158
96 104 114 120 120 129 131 150 162 166 177 189 183 172 148 144 147 172 188 203 204 186 166 169 173 182 206 226 218 201 176 163 160 160 166 172 184 189 203 203 184 198 207 218 215 221 199 180 159 150 166 141 154 162 159 195 183 130 179 159 164 162 124 144 189 155 123 190 120 134 127 89 172 106 78 163 140 83 127 62 126 145 91 161 81 94 98 93 65 100 76 96 56 52 57 58 70 125 107 126 107 141 113 89 122 125 63 62 99 88 109 104 92 77 83 46 117 104 74 85 97 201 115 79 88 80 130 195 107 102 126 89 127 144 149 53 112 104 84 198 200 194 173 164 83 151 182 73 130 146 138 154 154 178 174 118 194 205 95 163 189 129 89 178 135 179 166 170 161 122 140 107 205 222 207 132 192 179 73 182 133 132 73 164 83 116 72 128 154 134 45 63 108 202 153 223 141 108 198 110 78 56 144 65 167 172 150 134 171 77 120 80 171 176 177 95 109 190 170 139 172 88 134 141 157 164 95 172 149 151 164 44 151 166 187 196 88 102 93 77 97 198 167 167 203 217 103 84 91 67 142 109 94 97 135 41 153 151 71 97 91 167 124 255 122 183 126 82 168 148 150 89 137 155 135 193 138 110 153 73 81 64 118 62 142 77 86 165 95 154 51 115 185 144 179 209 138 93 99 68 56 170 102 145 98 195 186 78 90 255 90 135 137 190 90 123 178 159 108 169 77 156 48 118 149 132 178 104 118 77 180 183 95 190 94 110 102 163 54 129 42 79 155 63 170 97 154 160 83 171 158 173 143 88 160 89 84 171 192 122 139 75 128 136 95 149 112 129 166 180 215 199 177 163 141 133 172 86 150 145 79 153 86 96 177 189 221 224 194 161 192 123 85 124 160 46 139 123 161 113 148 137 126 93 99 118 108 154 188 143 230 183 125 121 143 152 100 55 148 153 175 155 138 176 151 255 174 64 145 153 180 190 123 106 130 197 176 167 81 93 180 191 209 133 185 94 83 106 141 113 175 173 102 197 196 148 122 87 94 122 100 76 118 80 125 84 92 114 91 176 195 182 89 79 60 65 176 103 84 83 81 97 114 151 133 152 110 105 163 88 88 181 113 153 161 45 59 128 87 39 46 68 80 165 109 110 167 167 106 158 111 168
112 123 138 148 149 148 142 151 153 152 172 180 194 176 141 136 139 141 163 192 199 202 192 175 187 194 201 201 205 187 171 158 152 156 164 174 187 194 182 184 187 175 177 203 215 208 199 186 163 176 160 185 130 158 154 158 191 202 202 208 171 177 140 195 189 198 120 122 128 102 186 123 155 90 137 112 109 84 119 41 47 63 86 92 77 83 51 90 118 74 71 74 80 98 56 88 78 76 85 132 128 102 116 89 91 83 123 98 91 147 154 108 149 94 43 50 31 40 67 170 109 139 99 83 176 92 146 181 177 167 168 89 69 102 48 129 171 146 173 159 125 106 150 199 89 189 166 169 152 162 66 117 180 92 173 182 196 113 113 168 114 184 156 103 74 168 105 120 111 75 118 172 206 222 131 215 158 182 84 190 186 117 178 169 82 90 182 178 93 77 116 133 175 159 115 188 204 109 159 178 111 135 163 167 69 70 146 58 124 82 94 66 82 53 158 122 114 168 116 182 159 95 121 158 96 109 134 176 179 105 156 139 144 139 86 195 189 95 90 158 148 199 130 208 120 212 182 175 183 73 157 135 132 97 135 119 90 96 160 82 100 185 156 149 109 98 76 176 80 180 67 126 113 112 177 193 107 84 148 135 172 176 176 95 75 192 91 79 153 124 79 99 155 196 165 118 84 155 113 52 160 134 105 207 105 122 89 128 160 72 94 139 170 198 90 164 196 87 128 161 91 117 107 81 91 167 109 130 84 84 108 164 194 130 203 190 196 87 164 57 121 148 145 146 62 63 70 106 88 89 166 116 89 93 78 97 153 191 187 178 113 99 78 71 117 61 128 78 177 146 95 155 75 48 48 100 82 158 115 166 155 148 145 187 125 191 127 111 118 223 132 123 111 152 67 114 119 113 136 129 193 95 169 129 129 102 157 214 202 186 229 195 188 187 180 195 164 91 68 116 145 137 214 213 188 202 181 75 179 150 195 101 189 112 145 93 129 102 122 86 201 217 194 184 197 181 90 140 124 157 153 93 121 75 136 185 101 172 173 135 195 128 126 99 116 73 114 96 143 118 176 190 173 169 110 160 160 165 84 68 61 162 168 84 99 132 94 143 82 75 79 75 73 153 161 59 133 120 142 42 57 106 170 187 167 181 70 60 154 150 82 72
120 135 157 168 174 162 148 139 144 153 171 185 181 160 147 124 112 128 131 157 178 193 197 202 194 192 202 190 189 184 166 157 154 160 167 172 184 190 171 167 170 171 175 161 184 178 194 170 174 149 193 194 187 130 139 187 196 181 159 171 189 152 146 165 158 175 188 142 120 106 144 78 173 162 162 74 53 113 119 40 48 96 153 99 89 93 110 58 53 67 100 126 71 114 54 75 107 75 96 84 87 72 85 97 87 142 105 93 255 139 79 81 70 60 75 89 116 54 88 113 105 91 123 96 174 168 76 73 77 73 143 107 163 67 134 164 178 180 208 108 205 137 111 101 198 112 186 156 176 146 181 187 185 202 179 176 104 202 181 134 164 185 78 147 146 78 171 103 79 138 81 154 168 132 198 119 161 98 105 200 151 123 167 203 197 89 76 98 133 38 64 132 139 94 155 116 107 166 98 95 71 111 81 174 74 99 100 169 164 86 165 163 124 64 96 165 174 107 184 170 69 56 146 160 94 186 124 152 163 163 165 86 137 167 183 189 77 78 177 141 184 90 93 167 98 145 143 91 114 138 154 72 166 164 133 92 36 111 62 86 189 208 147 114 93 96 96 147 106 62 99 139 60 77 76 101 97 159 156 170 151 176 110 88 123 102 179 139 57 133 105 117 72 150 142 83 110 175 97 97 62 74 181 148 173 205 200 157 72 138 102 175 92 101 92 120 80 127 102 110 77 65 89 45 53 139 112 163 76 83 113 74 186 109 117 209 206 195 168 93 127 88 75 129 151 136 64 143 81 116 177 142 149 75 140 153 141 100 122 131 100 168 92 95 169 70 93 110 172 94 188 89 172 130 152 147 97 110 169 114 137 116 108 140 78 154 84 132 137 145 161 196 141 65 119 135 118 117 117 89 94 163 86 83 196 123 114 141 133 150 110 98 137 120 178 194 159 98 153 157 133 243 248 239 162 198 87 91 160 186 121 111 137 113 117 181 67 157 130 193 169 151 123 217 96 91 101 198 183 168 147 142 148 121 67 110 167 172 132 196 205 105 102 107 163 68 126 86 105 94 157 198 137 149 66 108 132 140 69 90 97 66 136 80 80 58 116 71 157 125 68 130 76 141 60 53 137 122 98 87 37 65 58 138 171 141 66 117 133 123 90 191
127 143 164 176 177 156 139 123 123 138 157 165 173 155 133 115 119 110 131 154 156 175 179 201 193 205 198 201 189 176 167 154 153 161 168 178 184 180 172 166 148 169 167 178 181 199 173 181 180 182 188 164 192 199 204 227 193 199 216 165 133 164 179 116 112 141 178 151 99 83 125 71 123 81 63 69 117 46 66 62 54 95 104 93 62 50 46 122 65 74 145 87 129 126 56 57 96 96 89 88 92 59 49 72 99 112 114 105 155 74 81 114 97 77 132 77 154 68 97 74 94 73 75 103 74 84 96 102 126 61 111 80 75 47 103 172 115 153 118 222 215 225 167 180 187 201 126 85 178 89 98 182 104 109 96 167 145 124 191 124 184 84 130 57 130 149 134 77 75 141 74 177 205 128 202 202 186 190 192 89 146 165 160 153 199 173 138 79 161 80 147 132 147 102 116 84 186 99 152 115 100 103 162 141 168 161 87 117 79 176 84 82 128 37 114 55 93 106 153 105 155 116 156 80 112 200 97 82 170 105 174 140 110 143 101 73 110 188 193 106 127 121 147 105 179 183 95 100 172 103 80 196 99 169 173 134 144 113 153 129 190 161 172 97 124 83 84 124 58 55 68 150 164 147 118 159 81 76 106 88 104 163 144 154 96 183 167 106 61 92 135 52 156 157 133 176 78 74 117 161 70 84 163 180 196 131 120 88 175 164 69 72 108 70 136 114 156 145 56 164 75 112 69 102 88 84 153 110 97 133 121 152 140 108 192 210 138 98 177 166 154 65 163 117 45 52 120 49 135 127 121 180 98 96 86 186 165 187 78 138 128 200 152 197 163 114 167 68 171 166 82 154 129 76 59 156 159 75 172 104 108 113 187 163 172 73 132 161 189 102 207 94 119 167 147 122 132 46 48 157 97 98 73 179 171 92 197 159 138 191 145 156 82 77 98 191 170 195 178 112 180 148 185 172 214 137 141 171 86 192 148 126 128 210 180 119 86 165 124 202 122 201 216 120 203 125 135 142 95 78 103 66 112 151 138 94 182 143 165 136 138 212 196 211 97 185 90 87 80 179 142 186 106 99 170 56 38 80 94 51 96 146 67 171 91 165 57 59 62 57 132 55 54 119 95 61 95 70 180 67 122 56 149 169 114 135 64 70 60 181 104 158
135 145 157 166 165 151 129 111 117 127 144 156 176 155 148 138 126 124 122 140 147 161 185 184 194 196 201 200 191 192 178 165 162 164 170 179 188 187 178 172 163 172 148 172 189 198 190 184 176 150 173 166 169 197 216 224 208 211 176 199 108 107 108 154 110 146 86 140 145 72 93 85 139 138 85 86 47 121 87 63 72 100 61 71 79 59 123 105 76 135 106 70 71 62 89 69 83 108 71 63 79 49 50 64 87 131 114 99 130 122 75 96 109 178 170 121 101 99 81 145 158 54 58 61 84 128 172 129 105 75 67 50 91 44 64 181 107 125 127 196 209 159 160 171 96 182 194 186 160 175 175 197 190 159 69 136 59 146 84 181 173 129 104 77 129 147 118 145 158 144 116 184 113 207 109 164 107 165 161 104 186 109 207 104 167 179 84 82 139 96 82 65 75 180 170 162 164 121 161 107 73 107 76 99 81 132 81 167 93 172 175 165 95 134 75 66 181 112 116 83 110 174 182 195 141 116 187 114 141 91 148 71 170 167 124 182 163 98 103 204 163 123 177 117 130 176 157 87 87 180 84 107 125 134 93 170 165 143 114 103 139 175 77 68 155 132 130 103 69 76 155 99 67 90 83 92 154 67 131 159 92 188 150 174 101 87 92 118 42 99 255 67 153 111 76 77 130 185 103 97 88 97 64 61 175 123 110 106 194 82 120 176 66 78 84 109 70 80 96 57 99 172 160 107 150 159 156 72 152 61 144 108 63 91 176 98 102 111 158 132 171 159 111 110 47 17 52 104 114 185 85 82 65 125 157 108 161 70 82 176 111 169 191 135 194 132 160 153 182 88 97 133 85 114 124 112 162 186 94 157 218 180 209 149 167 93 75 102 175 90 206 185 189 165 60 133 47 47 91 157 54 68 65 67 177 80 153 169 94 167 163 62 75 134 77 173 131 142 162 166 211 138 196 118 130 175 120 91 75 184 196 173 103 155 90 76 165 117 125 195 102 124 156 123 184 111 193 152 160 177 163 156 154 154 60 89 101 184 196 193 161 91 102 104 144 177 89 113 115 147 224 169 138 191 79 71 74 92 86 109 66 61 67 150 143 142 150 97 117 152 145 127 58 49 133 61 75 162 144 132 170 79 162 85 169 70 56 148 68 103 138 119
149 148 147 147 147 132 117 109 104 126 135 149 164 166 150 155 139 138 150 168 160 184 188 190 191 196 188 198 195 199 186 174 158 164 169 181 193 197 184 174 181 174 177 199 206 209 180 183 180 181 153 175 133 190 195 218 211 229 148 138 176 112 108 152 95 84 133 81 67 84 73 68 142 123 62 117 54 138 68 97 96 139 109 96 131 83 143 132 123 83 138 88 86 79 67 69 87 77 69 59 36 49 39 87 97 108 152 93 89 84 81 106 107 130 138 150 138 140 94 66 68 85 39 61 59 154 135 65 79 84 91 63 46 134 171 101 208 135 174 118 109 205 197 88 86 170 94 183 171 187 117 125 78 174 157 162 50 130 143 93 163 173 89 152 117 146 118 161 79 94 89 130 201 123 168 146 147 96 177 151 129 95 194 105 134 207 161 164 89 116 153 88 72 131 62 52 52 153 113 75 76 163 94 111 184 180 184 100 106 137 157 136 86 54 128 138 184 163 179 88 122 161 165 147 116 182 193 194 209 103 193 162 159 72 103 102 115 157 173 98 172 130 163 182 196 93 192 82 180 93 94 147 213 225 112 203 186 181 132 178 109 154 161 60 128 157 141 21 124 34 135 60 170 93 101 170 155 139 77 92 146 118 205 146 78 70 61 105 128 137 128 43 73 137 102 175 146 98 122 115 192 84 171 160 156 174 95 122 120 108 91 190 170 97 156 88 116 92 160 130 81 177 93 116 184 122 81 174 151 163 93 144 69 179 188 117 157 81 126 54 169 73 60 141 56 108 103 72 129 98 181 165 164 175 143 63 165 159 58 107 146 173 205 211 192 166 166 130 173 183 168 121 131 121 117 80 112 101 185 220 160 124 153 126 164 79 133 44 150 185 203 146 122 179 168 163 68 81 153 113 53 152 125 162 76 138 90 83 130 115 160 172 76 118 120 57 119 205 223 131 140 121 192 177 162 76 151 160 100 118 197 185 146 145 175 167 91 167 172 83 152 89 189 136 83 125 90 102 135 172 61 55 160 124 160 165 168 96 189 193 177 183 175 127 90 175 166 203 190 117 148 139 187 205 79 157 97 78 147 116 148 79 64 126 78 160 119 150 75 79 92 102 146 53 141 63 66 139 134 123 96 115 172 69 110 162 70 163 176 129 206 169
158 148 135 131 128 130 126 115 122 124 133 152 166 157 158 158 150 164 171 180 190 199 190 182 186 190 184 202 206 192 182 164 165 160 163 177 188 192 194 191 190 202 209 215 205 208 193 162 181 255 180 155 139 144 216 233 172 208 157 186 144 129 86 158 94 149 155 95 121 82 82 67 124 109 126 83 75 134 125 80 138 159 148 76 81 120 116 129 95 101 95 101 91 85 91 92 80 125 58 57 54 33 58 103 115 129 104 84 105 75 78 100 103 163 113 118 106 155 84 55 48 55 38 44 68 145 150 133 159 114 102 163 81 165 97 111 129 127 155 116 195 92 131 176 94 120 191 111 107 203 199 143 153 165 104 84 110 116 123 73 168 136 158 121 64 157 116 142 145 143 173 141 169 99 196 194 184 184 170 186 168 102 121 138 218 196 116 112 185 196 146 83 170 64 158 60 51 156 74 146 64 110 161 185 142 94 136 181 207 122 138 128 122 135 93 153 78 105 135 74 186 145 103 97 127 199 123 147 206 132 200 93 120 82 163 91 206 217 213 188 164 166 144 120 198 197 137 77 84 185 124 216 131 232 198 215 182 202 174 130 135 92 93 159 93 166 77 127 82 105 138 255 109 140 149 148 109 94 102 86 114 175 108 121 157 100 108 123 77 108 132 44 84 102 66 70 189 89 131 197 111 107 116 111 90 178 128 108 115 121 122 207 96 115 141 126 97 70 112 71 181 139 83 151 165 159 69 167 108 177 165 76 109 132 90 88 77 63 60 54 77 93 144 104 43 31 14 57 143 178 96 200 116 188 97 107 103 44 145 144 139 176 146 111 112 176 161 59 70 136 93 182 142 184 147 151 129 95 201 112 157 105 178 119 126 112 55 86 64 184 106 100 196 87 166 102 110 74 49 82 156 130 54 155 90 165 63 163 107 154 141 154 178 110 114 94 164 202 127 171 196 160 178 176 103 109 85 79 89 165 90 187 113 169 119 79 130 161 70 78 172 97 146 129 74 78 55 114 163 168 63 71 142 66 168 156 138 126 115 87 75 169 65 105 120 163 152 202 198 115 195 217 122 187 187 186 149 83 49 144 83 65 139 154 124 73 69 147 55 146 41 82 118 126 72 103 62 148 91 101 159 85 170 154 68 68 78 174 144 132 119 133
169 153 132 120 120 127 126 130 134 129 141 144 163 159 163 151 155 168 189 194 209 193 187 187 184 181 203 207 194 179 165 164 159 162 162 173 185 192 189 190 190 192 210 219 201 197 186 171 163 163 162 187 149 181 201 187 222 213 165 121 132 182 154 123 140 156 102 155 165 92 92 62 106 96 87 86 76 72 160 89 81 99 95 114 125 112 90 161 167 108 106 150 80 94 104 87 102 96 74 71 34 77 62 82 80 124 112 134 138 112 76 104 87 105 134 119 98 79 57 66 49 139 51 127 123 73 146 57 173 154 177 88 178 171 194 134 228 175 139 194 153 176 177 185 130 119 90 186 90 171 180 89 147 160 79 166 164 161 54 134 129 164 117 122 164 100 72 123 127 99 157 174 136 187 174 125 204 159 109 109 169 162 111 149 107 110 205 161 193 114 83 76 112 74 162 54 162 58 110 159 167 183 128 118 136 145 134 106 105 177 178 183 75 155 77 168 158 164 145 161 178 95 97 88 91 91 149 166 192 186 99 137 83 81 182 202 214 179 165 146 94 176 72 176 122 193 188 101 161 125 108 200 117 221 127 199 178 209 187 114 88 137 149 147 81 171 124 71 89 90 45 132 121 162 135 172 104 76 151 183 179 163 174 166 121 125 104 141 133 129 59 113 157 60 69 179 129 120 146 174 104 162 98 155 76 67 75 75 82 137 204 109 152 147 147 79 94 126 144 183 170 99 109 127 61 114 89 153 171 163 69 97 141 177 76 183 170 134 57 60 69 143 184 59 43 119 126 119 91 176 211 181 194 191 167 52 120 142 143 44 60 146 177 216 174 187 140 152 120 86 90 203 202 123 145 138 138 116 138 190 124 175 151 60 64 96 42 103 154 109 122 101 167 194 183 90 107 143 61 103 173 166 127 134 131 62 159 71 81 64 147 84 98 186 170 98 168 119 188 152 131 108 100 132 116 79 159 57 154 115 106 103 105 176 192 82 113 122 154 148 163 92 133 144 119 124 119 161 65 70 156 86 72 175 94 76 96 122 142 129 107 182 132 149 183 125 122 190 141 149 136 144 156 208 157 163 166 154 60 45 50 32 130 128 107 63 110 132 159 94 58 57 114 127 157 116 78 138 164 138 114 167 68 101 159 96 88 165 99 163 153 227
180 163 140 125 122 136 137 149 153 157 151 146 141 143 137 141 159 170 178 201 191 205 185 183 188 181 197 255 190 175 169 165 170 174 170 170 170 170 172 167 186 200 204 177 190 177 174 145 187 170 204 185 183 188 144 168 175 163 182 167 163 190 148 206 191 208 173 173 136 147 163 114 109 143 171 179 101 101 77 78 167 100 126 118 95 100 100 162 104 93 117 66 115 74 81 89 80 89 255 58 38 66 82 69 123 106 143 76 83 62 60 83 71 85 99 86 105 123 50 52 57 91 80 95 65 57 156 68 142 93 134 125 78 182 192 202 215 156 103 100 179 132 172 98 89 125 94 165 150 178 86 176 166 118 255 170 160 109 165 145 64 122 143 119 122 161 102 94 129 192 142 107 122 100 91 159 127 144 161 101 160 153 124 96 105 102 100 179 85 158 177 81 175 133 75 117 65 97 177 166 94 135 111 153 182 204 109 111 113 131 184 79 150 87 86 69 50 86 122 160 90 181 99 85 157 120 158 73 177 95 197 153 183 187 84 201 211 185 216 207 190 131 178 72 84 181 104 134 128 143 107 96 178 98 209 207 162 200 135 161 127 43 129 61 71 132 68 53 95 159 120 148 177 93 174 139 160 84 175 158 115 200 180 119 97 65 64 159 131 161 181 172 146 77 128 94 84 72 69 76 195 103 142 167 132 70 62 69 108 85 88 171 95 89 122 140 129 156 89 181 169 182 162 170 148 66 53 73 101 82 117 102 152 57 158 122 63 80 141 55 75 147 94 121 155 120 135 70 97 137 205 214 197 85 82 50 144 131 134 137 160 84 102 170 195 85 123 116 149 90 188 221 116 125 171 175 135 127 155 97 154 177 80 115 76 53 71 100 133 163 140 111 154 101 198 186 175 115 164 177 86 187 134 164 146 164 105 163 68 82 149 120 194 92 136 152 182 147 219 126 191 121 167 87 81 113 125 133 67 91 163 195 201 111 109 74 61 69 150 97 82 118 116 43 42 129 47 62 144 178 186 103 88 132 121 101 187 171 165 85 84 162 202 206 129 179 116 113 123 104 114 176 191 198 156 184 96 122 70 44 30 37 51 43 138 154 69 120 121 131 65 66 125 91 110 157 67 169 180 186 80 174 136 67 122 191 205 102 122 126 205 133
190 172 152 139 141 151 157 168 164 168 155 138 137 119 111 136 157 176 188 180 197 198 189 194 178 184 190 195 197 184 176 179 189 193 182 173 162 255 154 157 169 166 193 178 181 172 169 187 165 185 195 195 180 156 147 194 161 135 177 138 167 196 174 152 187 147 192 103 147 170 121 122 147 126 255 131 91 134 92 123 133 135 162 139 87 90 99 104 119 100 130 51 59 77 85 97 132 82 63 93 39 46 100 76 105 123 103 81 70 83 67 133 99 114 118 94 89 80 44 44 59 65 81 98 101 113 103 68 137 93 136 101 172 89 166 148 109 160 178 169 132 79 195 142 188 78 160 141 149 165 111 103 180 154 132 130 76 107 184 188 119 164 126 155 101 114 145 167 182 109 178 170 103 142 108 164 185 188 190 137 154 146 99 163 115 102 204 102 145 169 172 155 174 94 162 169 152 164 101 93 122 126 138 82 125 136 112 199 118 142 172 100 172 101 194 131 145 62 110 61 92 197 110 178 61 153 152 80 64 138 126 89 108 177 144 91 119 153 178 168 198 132 75 75 167 93 185 108 137 196 118 154 111 163 102 193 92 164 180 115 54 152 84 55 73 76 164 163 157 145 116 93 124 159 129 103 133 113 96 189 181 171 127 83 66 111 47 68 123 94 191 161 192 173 170 157 124 59 66 69 88 106 138 92 107 64 105 56 56 98 98 115 170 110 142 151 111 96 147 103 88 94 79 66 80 93 88 87 39 73 97 41 99 113 35 47 91 140 58 123 88 153 105 194 181 64 153 134 190 221 209 172 104 158 130 77 93 142 61 90 156 60 170 89 150 188 90 76 122 184 204 151 223 127 87 93 137 142 134 154 144 78 158 88 77 143 169 64 88 170 171 95 102 167 158 132 135 73 168 111 199 104 184 87 137 172 119 94 146 138 115 196 111 158 167 211 209 138 175 132 190 121 95 100 180 162 177 150 163 172 158 174 134 95 183 161 61 126 93 160 171 107 162 150 79 141 98 72 103 198 146 181 75 178 170 152 158 139 113 190 154 165 222 233 216 92 164 91 159 49 102 113 114 131 148 102 157 95 135 68 122 57 49 51 149 46 128 156 144 86 172 155 76 167 141 117 111 110 76 187 128 87 127 106 148 135 93 193 172 193 177 78
183 170 156 148 160 167 255 181 178 164 156 136 122 106 106 138 155 170 181 175 192 190 199 200 190 174 180 190 188 183 186 196 206 201 194 173 154 147 141 144 159 170 166 160 147 144 186 177 177 172 153 154 130 163 134 133 169 190 183 143 144 179 158 140 173 203 124 98 112 173 133 109 105 196 191 106 110 115 149 170 140 90 122 76 128 81 108 109 158 82 57 59 87 139 97 113 106 132 103 93 47 70 62 85 92 119 160 114 101 71 70 121 96 80 116 78 115 60 112 54 70 148 79 163 151 102 117 170 82 138 104 113 148 125 128 211 123 145 103 135 160 101 110 183 187 73 145 157 89 184 187 165 97 66 146 158 118 89 158 187 96 162 54 153 111 170 91 115 185 157 120 96 163 85 102 105 151 136 135 173 88 168 76 139 140 187 214 177 157 84 160 64 124 83 178 87 89 168 91 81 97 100 69 168 205 167 166 117 194 70 66 165 125 101 143 87 151 123 56 156 125 142 194 118 152 82 172 90 164 169 94 172 177 174 120 193 200 200 142 128 90 86 184 173 170 119 172 109 151 204 186 133 68 153 151 79 162 156 99 102 163 59 50 96 105 134 179 95 154 176 191 162 118 162 87 151 85 166 114 198 125 175 151 87 118 45 145 67 178 94 195 95 108 165 103 80 69 92 93 60 158 77 109 191 110 174 101 78 78 68 55 64 149 103 114 213 116 120 212 206 123 88 78 173 130 172 165 143 133 118 117 75 48 119 133 66 60 84 136 95 89 179 142 168 162 89 175 166 134 123 240 129 191 128 75 47 135 138 91 164 133 156 87 168 93 137 101 134 97 103 181 216 156 132 194 196 185 125 118 159 154 160 70 182 95 137 173 126 92 139 93 110 175 109 88 161 182 85 165 121 145 119 195 98 151 171 166 94 168 177 164 96 203 157 171 219 200 91 137 183 122 188 175 122 99 111 176 102 96 78 115 87 79 129 73 134 152 162 148 146 122 170 157 58 136 133 49 77 83 180 186 195 105 71 91 101 97 146 125 130 214 193 170 210 221 102 167 72 75 35 39 69 108 112 108 142 78 153 185 78 62 57 155 80 44 38 112 146 165 120 131 91 170 99 158 65 113 146 159 123 76 121 175 74 175 163 183 169 184 111 162 136
155 150 148 151 170 180 183 182 177 161 146 123 112 125 131 144 161 184 183 186 188 213 223 205 190 172 168 177 177 177 189 197 216 209 196 174 149 149 144 148 160 173 176 175 170 159 158 202 212 164 173 121 129 166 161 150 170 153 153 182 144 166 147 152 126 130 169 178 127 89 173 166 116 114 116 178 147 138 141 163 102 134 103 66 64 132 89 162 88 96 108 81 67 128 126 156 164 134 101 78 60 60 97 102 120 114 143 146 89 127 99 142 80 102 96 104 82 55 49 79 91 78 140 103 101 166 74 173 198 114 114 119 126 222 139 229 173 206 88 178 162 255 174 174 77 182 185 176 156 194 173 155 173 58 86 55 169 196 152 209 88 56 118 121 92 125 124 92 166 193 117 192 180 154 65 106 88 118 165 172 108 146 171 86 125 212 174 140 207 96 104 65 136 64 139 157 152 107 112 101 146 107 77 161 192 215 195 202 163 84 67 173 187 168 179 121 141 84 151 189 121 154 102 184 171 159 176 103 187 183 150 89 164 162 172 95 96 124 162 97 197 187 75 119 110 163 190 179 204 108 195 89 115 119 143 126 68 70 163 87 65 126 69 95 133 184 147 175 184 173 120 206 174 182 92 97 144 89 94 111 100 185 159 139 107 148 143 132 123 86 88 158 101 97 81 95 137 99 76 104 87 134 200 122 100 95 59 77 68 54 79 95 198 173 129 147 168 153 122 110 127 76 148 100 125 177 113 129 92 68 32 71 114 102 120 136 89 101 161 179 102 176 85 180 131 117 179 208 207 191 233 222 102 174 56 137 79 110 56 82 126 89 70 142 66 99 112 83 155 128 198 166 167 239 192 198 203 88 89 154 95 111 144 168 95 188 73 93 146 99 147 176 172 70 119 171 143 176 121 166 173 208 208 149 133 74 70 115 110 196 170 163 155 204 204 170 175 198 181 176 167 207 119 197 114 185 84 74 72 177 71 159 51 161 172 96 190 102 111 62 76 56 126 132 82 152 159 179 178 141 150 108 116 126 158 184 192 145 161 168 142 210 199 153 119 177 165 90 166 154 47 128 141 102 116 140 156 203 157 117 92 125 122 61 68 89 89 97 161 82 200 109 192 205 155 66 157 148 172 190 183 82 95 162 80 76 165 54 151 64 103 126
121 123 131 148 165 176 179 177 166 151 140 130 137 135 146 163 184 173 181 171 199 220 226 207 184 165 255 174 172 175 188 199 210 199 190 168 158 152 148 156 160 172 167 170 136 131 156 174 195 150 180 163 170 117 133 141 192 157 113 146 178 124 143 138 92 84 141 132 105 120 157 132 112 136 94 111 75 141 162 149 127 141 85 62 59 62 68 114 156 90 142 116 90 94 108 121 107 139 112 132 102 90 98 125 114 161 101 127 119 100 95 92 118 124 120 88 62 61 116 172 83 111 158 181 76 72 74 199 138 176 224 232 173 146 248 234 117 146 85 72 129 167 167 82 81 101 226 237 224 224 207 193 176 82 154 149 99 100 208 191 190 123 155 89 170 147 151 96 180 189 117 151 129 89 49 104 60 107 138 169 151 181 181 95 167 191 228 196 139 174 184 74 152 70 170 99 134 224 132 168 114 131 87 161 144 115 100 175 160 177 75 79 99 83 180 173 122 179 191 179 99 102 179 88 174 110 166 188 166 182 114 170 156 147 162 165 173 203 200 93 84 184 175 167 153 175 185 203 127 151 207 157 192 143 87 122 161 96 159 108 175 145 80 149 147 89 187 174 127 203 208 169 192 103 84 181 148 106 183 187 175 182 184 175 155 61 52 88 155 106 186 161 198 139 77 78 141 96 157 167 133 213 147 110 153 74 110 141 80 78 151 202 139 119 118 214 119 139 135 103 88 70 78 108 82 106 198 152 140 69 51 48 116 123 175 176 156 88 142 91 151 145 50 51 104 183 126 110 188 208 194 223 201 79 148 43 61 91 82 71 127 155 152 166 73 187 153 115 188 144 201 172 140 233 167 182 216 175 100 182 71 110 66 136 193 118 171 177 95 79 153 141 107 111 104 163 118 155 212 223 202 222 118 148 129 63 114 145 83 166 79 77 163 179 120 204 121 173 190 193 160 187 219 113 104 196 83 183 100 79 113 128 159 95 81 121 187 191 115 146 50 148 88 57 84 154 176 93 131 172 106 120 189 114 133 133 195 187 195 177 98 97 195 167 166 82 94 154 92 121 106 145 109 89 137 124 158 179 172 227 161 166 94 101 40 128 133 75 167 161 134 190 123 180 96 171 152 156 124 89 171 177 183 158 176 125 50 42 146 102 36 40
95 101 113 133 155 163 162 147 154 149 144 144 141 164 176 172 173 183 178 176 192 214 222 192 194 174 181 184 177 172 185 195 201 201 191 180 169 167 164 168 170 172 170 164 153 143 141 140 165 176 145 177 136 161 155 161 166 130 185 132 174 139 104 108 68 152 155 121 161 145 95 109 111 123 88 151 114 120 162 178 95 102 78 70 66 83 87 141 133 82 79 84 116 96 100 107 97 91 105 85 116 74 95 133 107 92 94 137 120 111 110 98 107 83 75 92 134 82 151 178 98 95 153 100 149 84 87 100 213 129 126 131 237 240 215 118 180 152 74 76 154 156 158 154 83 182 134 166 218 137 186 85 180 62 110 114 156 182 146 128 148 179 76 160 96 114 127 158 82 144 123 96 178 120 49 128 125 135 82 103 108 100 166 196 192 118 223 146 200 160 104 177 85 155 91 146 124 216 197 255 190 179 196 185 136 198 117 74 90 89 82 170 83 73 169 82 150 89 159 181 159 126 101 162 172 98 106 136 99 186 125 72 97 83 103 117 87 185 194 143 81 162 67 61 90 180 158 193 208 182 218 215 211 160 174 149 168 141 90 138 180 129 189 180 96 116 202 152 146 196 213 135 155 130 84 76 83 77 154 131 89 174 100 144 109 51 70 64 136 83 149 185 81 167 133 97 181 184 161 170 122 177 196 116 123 101 135 55 55 73 100 159 186 192 104 97 130 148 146 159 90 168 176 98 104 193 100 105 130 104 81 72 79 93 183 85 74 183 174 95 145 103 113 115 154 176 189 142 102 97 196 168 83 68 149 145 94 50 97 153 180 116 175 131 145 201 210 215 211 193 159 142 124 234 145 146 192 92 163 167 136 162 145 147 167 156 157 133 164 90 170 86 99 112 148 152 155 151 219 130 178 226 135 95 100 93 151 80 79 165 86 130 160 170 127 219 121 101 187 93 179 207 125 139 102 144 125 186 173 132 84 93 86 132 155 87 81 82 159 147 99 78 102 71 176 179 191 175 167 222 113 169 84 162 162 78 133 137 179 104 122 191 180 109 136 76 184 170 150 102 81 134 141 48 154 80 197 205 187 204 156 188 183 141 121 77 129 72 122 144 149 127 208 108 157 147 163 79 75 100 121 195 101 180 97 108 75 61 50 106 140 83
96 97 102 120 137 139 134 135 131 143 143 148 156 157 162 172 176 182 172 197 193 215 216 198 196 197 198 192 185 180 182 182 193 188 190 184 181 183 180 176 173 151 165 153 149 134 139 143 160 182 172 151 127 155 184 196 159 136 192 181 154 172 145 131 78 106 151 148 127 94 80 80 118 132 87 67 82 131 146 160 129 158 78 76 98 108 135 113 66 68 80 121 83 103 93 118 84 83 78 75 74 104 105 90 87 146 107 99 115 111 145 99 98 140 85 86 88 127 107 154 120 159 83 86 98 102 105 201 106 130 115 202 166 106 202 160 201 187 145 136 152 42 47 153 160 216 235 225 203 162 94 169 186 173 168 103 162 157 159 119 144 152 106 142 169 160 85 158 166 174 139 172 170 134 132 135 98 48 167 161 90 186 145 203 155 205 217 210 187 104 113 203 84 111 81 103 96 187 203 193 190 132 175 145 255 94 97 91 163 100 92 97 101 157 67 85 170 168 171 123 68 174 179 169 167 67 181 189 198 197 196 86 158 46 152 87 153 197 181 119 169 93 74 164 109 97 202 158 119 162 125 120 121 202 117 73 118 75 83 152 190 100 154 195 146 190 180 192 163 217 177 176 104 144 58 173 164 71 138 88 114 122 86 157 68 72 127 126 87 165 185 91 75 177 132 94 143 95 101 179 183 189 174 112 73 137 150 49 164 90 167 166 160 136 107 164 112 104 160 110 114 87 193 130 138 111 203 191 151 130 196 97 98 194 158 168 111 179 93 90 179 89 120 118 153 85 176 173 109 161 86 175 180 161 126 48 41 28 81 128 187 125 79 94 189 176 232 193 210 126 166 134 205 117 157 201 183 132 148 148 75 126 76 113 113 104 189 108 76 167 65 146 52 93 118 170 149 142 211 211 216 178 97 159 96 130 93 81 188 120 102 97 95 154 177 128 173 169 137 114 135 191 91 172 123 192 102 160 131 142 132 84 75 165 159 59 138 63 156 93 68 118 169 188 173 178 211 128 198 212 122 114 110 175 171 70 178 163 104 148 175 151 132 176 102 118 188 99 137 137 102 94 82 151 162 201 145 188 156 144 196 125 71 79 81 139 79 156 136 102 139 93 146 106 129 104 183 162 179 151 99 134 122 194 105 142 162 75 134 110 113 157
110 107 108 116 130 134 128 119 119 137 137 144 149 141 145 158 169 178 181 187 193 205 213 203 209 190 187 185 178 183 175 181 187 186 188 183 192 196 195 184 175 164 150 151 151 146 124 128 164 184 175 190 128 181 128 192 184 195 188 203 121 101 114 48 81 87 150 116 104 94 161 152 70 132 133 70 115 148 94 174 88 80 138 73 118 59 108 95 44 48 61 102 90 141 127 255 69 68 70 76 77 89 121 104 100 96 84 101 95 103 126 173 111 98 163 130 161 85 174 132 100 97 102 104 179 104 92 105 188 107 108 203 89 150 137 192 131 186 130 148 139 101 40 70 146 153 135 163 129 201 147 197 92 193 189 75 165 94 126 139 75 151 141 188 191 118 160 107 90 128 106 115 113 71 150 54 138 105 129 177 144 77 141 103 136 209 169 90 196 165 209 194 184 126 174 89 128 136 105 117 94 171 79 154 122 114 120 61 155 176 79 83 154 139 91 118 99 152 88 74 159 64 150 167 70 64 167 189 196 201 109 75 140 148 143 70 88 202 195 202 198 109 122 146 149 188 111 206 162 216 222 158 119 102 89 155 154 172 112 195 202 194 125 107 140 130 145 83 105 208 208 126 157 157 148 74 183 146 172 89 175 169 129 69 63 59 79 124 86 130 167 112 141 68 86 112 111 98 90 189 127 131 156 97 58 50 69 80 65 153 194 152 183 221 136 168 146 199 198 104 192 144 95 210 129 180 146 197 99 94 126 99 158 171 140 181 173 115 153 122 81 105 82 166 80 133 118 81 65 169 166 112 154 173 154 86 48 39 149 70 125 123 134 78 125 139 133 179 118 162 155 138 199 153 140 174 171 116 79 67 109 71 130 170 170 113 169 90 175 88 149 155 65 140 164 92 195 114 197 147 155 161 99 104 175 98 91 183 95 189 176 122 88 171 108 167 114 171 160 158 105 120 175 78 182 181 128 166 201 104 98 106 83 160 89 136 38 143 150 87 174 97 206 192 186 116 132 168 153 114 102 81 95 72 75 60 122 56 77 123 89 101 157 119 140 152 125 114 96 125 117 108 151 83 87 138 172 227 184 186 111 164 89 114 103 72 74 124 205 184 195 192 122 131 190 124 196 84 149 182 94 101 104 199 132 105 152 95 145 181 138 92
133 130 126 130 126 124 120 116 121 135 130 132 126 124 136 150 157 165 165 171 190 204 213 220 215 210 195 187 184 173 181 177 181 183 181 187 193 201 202 189 175 165 156 143 128 150 165 165 173 156 195 194 176 143 184 146 195 151 160 192 143 170 112 97 71 87 156 183 170 143 175 97 93 86 54 128 78 98 175 122 160 94 70 129 79 49 102 74 41 58 72 87 109 128 134 83 99 59 47 77 95 81 85 103 133 97 106 69 81 100 109 103 98 84 124 116 89 91 108 121 145 93 96 121 196 99 179 100 134 136 106 78 162 153 89 195 165 196 179 163 149 144 120 156 125 103 200 212 203 189 186 198 194 98 163 183 127 69 140 97 104 173 94 135 110 150 90 91 106 105 174 157 82 89 46 143 41 147 64 172 140 155 93 138 106 96 93 169 125 143 169 140 173 139 137 175 155 193 116 96 142 87 72 74 186 186 150 177 168 69 70 117 49 112 50 136 40 51 130 118 156 66 96 56 54 153 62 104 187 191 100 172 166 81 157 111 110 104 205 210 189 107 189 200 159 205 207 215 219 158 156 126 217 198 81 133 72 172 146 98 140 137 188 188 80 167 101 70 81 185 110 80 83 81 164 84 96 83 140 160 186 113 76 143 72 172 114 180 100 182 90 125 68 76 81 176 181 93 144 123 108 133 106 180 147 141 35 43 80 164 86 102 121 111 153 90 146 91 155 160 187 144 162 177 109 118 100 166 198 131 197 110 96 98 110 202 91 192 163 97 83 71 136 71 67 171 173 156 150 142 78 166 182 80 151 98 93 90 156 127 107 69 112 104 82 139 205 197 116 153 180 185 190 111 102 138 157 71 160 163 132 150 75 103 120 174 193 131 77 119 132 84 122 97 81 85 155 195 97 199 126 86 116 177 188 188 122 202 125 95 185 176 118 77 132 171 166 169 60 137 162 104 68 69 114 115 183 135 153 195 158 83 74 78 69 123 133 58 163 183 152 153 190 86 136 80 196 205 156 130 200 119 92 70 58 66 147 39 93 155 65 79 103 126 188 109 189 101 186 87 102 76 93 65 90 161 198 115 105 194 186 89 153 33 31 130 102 174 150 160 197 111 213 125 119 143 196 81 103 166 96 208 177 143 177 126 80 107 141 101 206 212
143 146 147 138 131 116 116 120 134 134 135 134 130 124 129 142 152 144 152 164 177 196 195 207 216 200 192 181 175 175 178 169 174 176 187 190 190 204 194 189 183 156 137 129 160 139 160 164 135 165 180 165 183 179 179 133 188 145 206 192 139 178 80 101 69 129 99 201 124 190 181 77 124 115 91 99 101 127 118 155 103 74 82 85 69 47 42 42 52 69 87 98 119 122 84 88 93 110 70 38 54 111 102 91 110 83 86 67 84 94 119 124 85 167 128 166 101 186 92 98 139 152 112 137 134 99 177 183 86 88 157 158 58 72 190 197 185 102 107 161 79 55 160 134 181 169 102 201 97 166 102 201 197 161 183 154 118 128 162 153 128 100 108 177 82 170 115 102 116 125 132 104 166 65 149 146 56 135 122 96 83 154 86 186 93 173 63 151 178 159 175 146 183 116 121 147 131 135 133 116 149 165 135 168 131 88 105 87 88 97 110 79 129 104 161 88 118 47 56 164 87 141 156 107 96 160 69 78 180 171 128 161 116 158 94 137 115 192 199 165 181 148 195 96 96 104 120 124 124 211 215 219 205 82 109 169 102 69 123 101 185 146 134 60 56 68 146 122 110 145 137 125 62 166 168 182 192 97 155 154 169 177 177 85 164 80 81 112 118 78 79 56 116 75 186 87 73 65 72 75 103 199 187 92 51 51 73 66 91 166 173 112 117 123 170 118 122 73 77 82 129 88 83 185 91 90 101 89 87 108 255 174 108 94 174 157 139 99 135 125 173 97 83 184 83 103 188 80 70 121 108 176 75 147 158 162 86 180 159 178 133 155 116 108 185 202 102 147 128 189 92 181 170 196 179 105 100 89 162 165 161 163 151 135 122 191 135 189 163 67 159 132 66 172 85 181 167 87 200 191 151 97 116 112 171 102 103 200 113 141 103 165 106 89 137 136 68 55 130 81 76 152 82 57 156 188 173 120 188 158 96 151 129 24 115 60 69 55 75 178 196 208 113 147 69 104 143 198 134 135 214 146 119 104 145 155 90 143 109 125 154 135 133 188 141 206 187 125 184 153 108 186 95 166 163 149 126 164 64 91 97 94 255 133 103 39 55 94 199 102 154 107 161 171 118 112 122 95 79 86 206 138 125 168 175 140 186 79 116 103 186 122
140 147 151 141 121 108 113 125 144 150 155 144 145 130 148 141 161 158 157 163 173 190 200 199 210 209 197 185 169 174 176 170 174 177 185 195 200 192 195 187 175 148 157 159 165 180 182 155 146 150 174 179 141 177 174 167 137 196 148 159 185 178 168 130 148 113 130 193 158 112 158 153 158 89 143 95 140 127 112 133 78 255 91 71 63 93 52 121 66 74 154 93 93 103 134 102 93 61 102 46 67 89 121 98 105 113 57 56 75 81 87 87 95 143 107 123 110 157 95 166 93 118 190 91 105 179 178 81 118 189 102 70 63 152 150 200 212 98 76 77 153 108 74 178 154 112 204 208 106 206 117 133 159 188 185 154 181 139 165 150 150 136 119 125 162 91 135 137 162 172 141 117 165 84 114 79 160 77 169 68 164 83 149 175 109 104 159 126 72 95 171 255 70 127 126 185 163 85 84 145 182 179 78 143 143 194 164 201 92 114 121 71 179 178 186 112 62 134 94 177 77 164 113 153 170 174 176 77 140 68 148 255 160 69 183 173 202 111 197 185 87 179 180 174 182 127 134 110 95 166 210 103 169 157 174 118 127 120 94 93 97 138 123 73 136 145 89 88 101 101 81 102 78 149 163 186 197 125 207 128 107 139 157 135 159 122 162 155 85 176 84 63 124 169 86 92 69 158 115 142 174 95 105 171 76 56 113 99 66 85 179 93 151 109 83 89 98 142 150 70 133 167 173 154 121 100 127 147 190 91 79 147 166 74 169 157 113 98 120 178 75 126 76 86 124 171 129 85 70 168 169 165 127 98 162 99 175 150 92 120 93 101 162 151 180 126 114 124 127 158 85 91 180 130 127 160 77 74 165 172 142 95 96 187 136 142 105 184 65 84 160 67 149 153 113 107 107 167 101 154 156 185 196 116 152 158 191 93 92 155 111 154 145 60 127 122 138 50 130 180 191 74 158 87 140 112 153 216 213 139 178 85 22 46 115 131 115 126 86 206 110 171 153 171 78 67 187 112 131 201 225 178 161 95 172 173 167 151 65 60 152 132 176 100 116 177 91 183 85 170 194 115 184 80 132 111 125 148 118 139 85 99 38 47 61 129 40 153 134 96 181 169 210 115 159 105 170 121 170 90 180 105 192 169 98 200 132 104 183 97 122 200
124 134 138 128 120 109 126 144 157 165 160 159 163 154 159 169 167 155 163 160 163 177 190 187 197 206 192 183 185 179 167 173 172 180 189 196 189 195 188 176 170 158 169 166 187 176 168 171 165 137 160 161 133 176 179 126 187 167 184 181 146 187 107 137 109 89 124 112 200 188 137 75 138 140 159 181 90 90 85 115 148 78 70 116 128 59 58 128 108 78 81 134 85 72 87 83 83 99 90 92 100 82 94 58 93 103 64 84 124 86 82 93 83 116 137 187 142 159 82 83 111 182 95 109 187 79 76 86 174 179 85 178 76 85 123 207 181 189 71 182 88 175 183 122 131 185 207 186 189 189 133 164 205 189 101 152 105 79 154 59 48 115 135 49 96 93 133 164 113 175 89 92 181 172 183 123 160 155 152 84 159 178 94 184 110 144 41 76 81 177 72 104 136 174 188 185 169 77 178 157 145 186 74 82 131 186 184 196 157 191 144 194 133 203 102 164 117 90 160 122 178 146 148 161 100 112 140 144 61 118 56 93 130 99 82 165 195 95 189 181 70 98 44 113 110 171 83 134 168 152 103 96 196 96 140 82 176 157 183 92 182 128 83 109 144 145 49 158 89 194 138 98 154 144 84 165 193 214 219 129 101 169 117 135 190 191 105 119 190 96 152 71 94 159 151 154 125 139 142 50 71 85 180 73 67 48 150 73 85 152 98 117 88 117 69 119 48 49 67 144 179 81 179 172 144 155 161 134 125 145 182 118 135 67 74 156 184 100 83 166 80 93 98 203 129 112 198 92 168 157 159 130 50 78 131 199 116 146 97 185 97 107 66 170 187 141 159 117 97 64 138 182 84 182 121 99 162 79 79 185 100 174 108 105 187 95 156 138 167 139 145 106 105 162 96 54 52 73 184 196 207 136 162 107 94 172 93 175 124 107 153 40 137 51 79 86 116 96 84 182 145 76 56 79 100 139 160 109 204 97 177 53 114 7 28 83 90 146 199 114 212 186 171 167 61 79 84 204 219 179 218 117 209 210 116 113 92 159 34 33 62 70 110 197 186 157 82 170 76 152 189 220 195 107 185 125 60 98 130 32 54 53 96 83 26 88 37 73 66 129 196 197 105 98 180 95 149 124 172 158 110 105 137 176 179 103 116 131 137 171 103 107
114 121 126 117 116 120 131 143 150 163 165 157 150 160 155 184 176 160 154 158 163 189 177 181 192 204 207 203 190 181 172 174 176 180 184 181 186 183 173 160 255 171 185 193 199 195 175 183 171 142 155 149 172 171 154 143 192 171 190 173 129 163 102 65 119 141 186 139 190 109 171 97 186 195 198 147 104 78 85 71 62 71 143 148 79 61 113 102 57 103 102 80 99 92 128 86 121 135 79 82 60 68 56 79 67 76 62 75 115 64 124 47 93 116 145 127 111 117 99 117 70 79 86 97 92 160 72 124 133 96 105 90 178 189 142 101 174 128 81 180 191 195 86 81 94 177 194 87 193 92 180 195 167 191 141 169 182 180 101 132 85 90 113 56 100 57 107 137 71 151 76 76 152 193 141 150 108 118 87 172 193 183 201 168 164 130 107 148 78 148 135 65 137 85 185 129 164 153 129 161 158 120 65 99 113 67 120 180 101 194 177 134 158 221 207 130 143 176 118 88 146 151 188 137 200 144 170 90 147 81 48 124 158 189 133 78 74 151 125 124 73 121 130 142 153 167 160 122 149 180 177 110 192 191 199 203 198 145 79 184 194 188 176 90 136 67 166 165 91 201 198 131 161 130 73 183 163 180 152 150 155 156 140 178 100 113 129 146 115 135 94 179 75 90 174 177 170 80 61 64 72 84 161 150 122 89 46 69 146 168 119 107 122 92 136 171 165 110 79 97 63 164 156 167 164 170 70 181 89 107 139 79 174 63 55 138 89 82 150 114 174 175 193 209 222 136 152 135 134 135 141 93 133 157 158 156 151 145 90 190 164 82 177 169 157 77 77 167 121 71 187 183 156 103 69 65 146 84 180 175 136 214 143 135 179 71 156 87 163 100 105 73 70 109 51 39 62 154 130 106 152 135 176 92 155 175 159 67 92 65 63 101 36 143 85 111 84 144 129 188 201 183 143 166 119 148 172 156 210 191 98 90 87 4 108 21 137 123 96 194 159 118 178 135 171 68 80 196 119 102 164 120 204 114 182 95 88 70 50 99 154 79 121 78 184 168 150 105 155 171 106 223 229 119 145 81 144 145 61 136 48 109 57 48 43 78 111 63 81 154 151 92 107 128 120 192 170 132 138 83 86 93 125 98 115 150 97 105 87 85 100 132
113 114 115 112 116 124 132 137 141 151 154 150 157 161 161 181 172 165 149 146 169 190 195 193 194 196 203 205 184 182 178 175 176 171 178 180 175 173 167 168 168 174 201 220 208 226 180 178 162 138 125 173 132 189 175 127 127 191 139 175 151 120 95 106 137 85 124 142 113 99 127 174 166 118 179 105 91 106 83 83 70 55 94 137 70 61 42 71 50 60 68 79 60 62 75 83 106 117 100 59 52 62 83 90 79 102 90 134 125 132 84 39 60 145 113 150 175 110 87 127 73 96 98 143 198 128 93 96 89 93 94 94 188 136 85 96 194 98 176 76 181 78 173 161 152 170 178 177 151 178 197 152 182 111 85 156 164 71 76 107 105 165 106 91 109 116 101 81 104 98 88 120 105 147 181 106 92 82 176 112 145 176 209 130 157 149 140 119 89 153 129 160 108 167 91 119 74 160 167 193 90 177 80 78 83 154 66 71 117 139 108 144 107 127 123 135 210 178 142 177 96 171 189 142 78 94 157 86 143 147 107 151 162 174 87 168 161 160 149 82 49 35 125 71 146 153 82 120 160 74 138 167 163 226 219 209 201 154 174 112 85 156 152 174 171 101 102 194 201 179 172 81 77 85 106 183 129 185 161 133 202 107 92 70 88 117 147 220 117 193 105 170 68 84 146 121 101 92 125 157 151 135 176 95 80 151 57 88 96 97 106 163 110 188 77 128 78 68 130 61 92 101 62 174 126 132 188 156 92 77 123 72 72 91 55 53 61 119 158 158 75 187 156 113 109 194 156 77 101 93 154 73 44 107 108 117 99 102 172 81 105 111 176 118 90 177 112 128 105 164 175 101 182 138 66 121 121 87 93 223 192 176 109 193 87 69 116 109 125 82 151 131 141 82 67 46 41 153 90 150 177 181 136 148 105 166 90 151 137 102 62 154 72 154 120 126 75 150 115 128 94 130 164 85 168 76 181 194 197 139 155 56 16 82 75 15 31 98 80 192 192 144 119 93 131 178 131 79 133 182 168 82 107 198 198 194 179 123 165 155 114 99 53 159 158 91 121 57 175 194 103 189 202 201 124 83 144 147 162 72 140 167 78 73 160 139 68 59 98 84 134 181 176 79 99 186 140 186 141 107 93 168 199 191 182 87 105 157 164 64 173 97
117 115 109 111 120 130 136 143 136 142 147 150 152 155 167 175 177 151 135 138 161 187 197 183 184 182 188 189 190 184 174 165 174 180 178 172 162 161 161 162 173 185 207 225 235 230 213 191 146 182 175 179 191 138 179 139 144 175 171 198 103 90 119 126 150 133 164 181 157 86 154 131 150 104 131 115 98 75 77 123 129 68 86 67 70 59 43 40 48 96 89 107 65 121 103 92 98 137 77 48 70 61 87 53 55 92 106 126 121 87 82 48 78 114 173 123 148 72 65 72 63 114 129 189 107 126 74 150 88 119 137 77 131 89 90 182 177 181 173 67 167 92 151 59 80 57 54 122 67 92 108 209 213 111 180 116 172 74 173 180 110 127 143 122 64 62 108 143 139 94 114 122 141 125 152 168 146 99 66 171 110 175 146 122 153 163 106 189 165 176 175 74 165 150 86 160 178 91 105 108 127 177 161 137 255 107 88 62 98 72 129 120 189 108 171 119 113 159 144 197 106 112 94 64 54 153 166 84 136 137 157 108 154 163 90 69 157 155 51 156 52 128 89 140 136 142 88 80 172 139 94 186 131 201 228 142 165 160 169 81 84 163 91 120 132 255 86 108 184 163 190 102 76 175 117 129 173 201 191 96 191 93 132 91 136 111 112 102 164 113 113 107 158 184 141 209 126 132 174 119 174 115 109 122 100 64 159 69 76 88 101 109 197 87 192 189 105 93 135 58 83 140 112 152 113 201 136 97 162 96 182 177 164 160 99 163 75 138 74 101 68 89 88 199 93 141 140 171 176 175 175 57 94 135 54 153 154 82 162 164 161 134 76 86 166 128 97 198 135 170 116 189 75 84 94 62 168 83 167 220 184 185 127 171 72 117 96 150 75 77 63 131 96 162 74 64 83 150 150 180 178 191 137 84 172 67 57 158 61 140 153 44 125 163 181 113 164 67 75 79 196 115 105 103 166 69 164 106 163 153 64 133 101 61 119 67 35 45 90 126 89 140 183 147 148 87 166 84 70 61 129 89 130 122 136 174 169 168 127 110 174 55 143 101 81 139 51 150 101 129 202 156 178 132 189 128 151 111 64 154 67 161 112 173 71 162 67 169 182 90 191 71 132 154 111 176 211 124 151 130 103 116 201 91 185 184 175 91 90 87 84 65
117 113 108 114 124 140 140 139 145 153 162 171 170 184 191 180 163 143 151 153 175 179 191 184 168 161 166 170 186 182 172 164 172 175 184 177 175 161 166 166 170 185 200 221 225 215 201 181 172 162 147 144 183 186 169 173 142 161 196 177 171 86 104 150 173 146 172 120 90 161 120 106 158 174 163 165 101 145 87 75 65 56 61 129 108 61 48 44 66 53 66 90 75 100 75 91 90 107 60 73 81 47 106 64 86 96 149 158 162 119 93 79 144 74 86 94 90 162 96 111 68 188 96 193 186 88 143 158 63 164 66 60 134 110 168 170 182 177 171 132 167 90 148 100 157 98 97 40 40 59 168 121 165 165 91 138 168 150 181 166 129 128 176 122 40 113 72 88 146 152 121 90 190 108 138 189 96 159 157 163 100 172 189 162 168 179 100 86 188 139 97 187 179 128 110 156 186 99 81 78 98 52 102 45 146 51 98 93 96 129 50 86 90 199 162 174 221 165 144 125 206 120 156 73 37 36 65 116 153 115 114 59 134 84 160 55 159 92 154 55 159 148 49 63 65 163 69 174 155 174 117 115 172 165 155 181 213 206 101 181 167 71 144 123 104 86 128 121 160 157 94 100 83 191 192 117 198 99 152 153 157 205 146 103 183 82 112 149 137 127 139 105 59 92 164 206 125 105 144 71 64 116 54 101 72 116 78 75 167 167 126 193 151 172 197 94 94 105 134 148 127 70 78 179 120 199 145 90 139 83 149 79 69 78 164 148 76 127 131 128 68 77 79 80 115 160 171 112 81 171 155 94 46 130 58 146 164 161 128 122 181 137 137 128 109 163 106 112 158 184 157 181 135 144 115 64 152 202 156 200 179 209 121 121 131 79 168 81 170 121 138 166 189 175 193 113 187 166 192 102 179 164 156 150 110 136 90 67 74 61 94 114 146 166 161 210 100 175 100 146 138 158 126 127 145 112 136 88 143 116 156 67 104 38 100 145 58 46 56 78 124 161 185 120 194 96 102 135 66 123 73 149 55 72 66 159 65 87 156 170 126 96 127 31 69 115 52 93 122 125 86 118 180 130 82 163 156 131 116 91 126 106 86 89 145 124 79 73 170 101 173 148 71 165 93 209 202 118 203 201 171 120 98 149 97 167 93 94 86 74 62 115
119 115 106 112 118 139 139 145 145 154 173 185 191 194 189 177 167 160 150 162 179 187 176 173 149 154 146 163 165 177 170 163 166 180 189 194 178 176 168 168 168 179 190 213 215 175 184 165 164 198 194 194 173 173 172 167 159 138 158 149 148 155 138 169 165 116 110 165 168 93 118 71 164 169 176 140 137 161 76 86 115 83 72 109 86 79 109 45 47 56 78 77 79 83 83 119 102 115 109 46 48 69 81 77 82 133 166 176 117 140 162 111 79 145 80 99 90 80 65 63 87 100 90 105 183 92 101 144 67 75 126 153 163 164 84 193 183 151 142 165 88 154 105 111 123 154 75 147 145 57 73 92 194 85 152 73 143 79 174 187 149 190 117 82 117 117 110 151 133 150 184 143 197 181 126 160 99 67 74 92 137 87 188 190 184 146 189 175 207 116 201 143 94 159 189 168 142 156 149 158 135 64 104 42 70 123 42 126 147 98 53 107 61 81 195 146 227 155 204 223 218 169 109 150 124 122 109 47 47 70 75 111 106 151 160 129 66 86 84 182 142 170 87 171 176 112 97 183 79 160 111 162 107 184 106 194 116 136 142 187 131 148 134 105 146 137 87 95 175 104 100 82 177 155 155 125 181 88 191 105 155 205 170 148 103 94 142 97 121 117 123 116 113 170 88 96 137 94 93 72 71 49 57 155 154 86 88 89 130 92 206 169 150 125 202 167 126 74 123 66 95 82 86 125 117 134 107 96 194 154 179 143 81 155 58 146 62 124 78 122 141 125 100 84 60 80 113 179 181 196 189 162 106 138 129 147 70 169 93 176 176 255 125 84 133 105 177 175 136 114 141 72 54 107 111 71 201 201 237 236 227 192 223 193 94 76 143 181 104 92 176 146 201 116 114 174 203 150 116 110 222 128 91 144 68 173 68 163 68 150 150 75 99 170 201 127 168 167 197 117 172 198 142 141 162 172 154 153 104 102 102 150 85 143 52 133 161 162 89 165 76 97 179 87 136 156 155 182 77 120 90 141 152 56 54 39 108 110 51 76 186 83 100 30 125 67 42 156 151 121 107 167 82 89 132 90 147 161 108 57 82 156 115 83 130 98 162 95 98 199 163 80 58 59 84 137 102 192 159 182 171 70 171 88 83 171 119 98 92 78 160 105
131 123 112 106 113 131 132 147 140 155 177 194 199 191 189 177 176 159 174 171 188 199 175 178 150 146 145 150 167 168 166 162 163 179 193 201 187 183 176 165 177 180 192 209 188 180 184 190 193 185 197 193 138 139 150 153 108 141 140 141 97 160 154 164 156 189 126 192 184 102 109 86 81 105 150 139 98 156 70 54 101 66 88 103 97 74 60 56 98 71 75 130 87 63 125 72 98 125 63 58 58 105 72 118 103 109 143 146 160 117 137 167 163 91 83 115 113 129 124 133 97 104 130 194 100 82 68 69 31 38 140 48 70 148 104 207 91 180 138 168 105 88 149 139 84 160 148 164 160 139 145 115 93 175 167 147 91 96 79 175 185 187 109 81 71 125 109 157 171 185 164 186 155 216 208 180 99 162 80 164 71 175 104 164 78 106 198 185 201 209 105 176 90 193 98 189 176 73 55 120 141 55 124 68 129 123 139 102 90 88 99 78 155 106 193 204 216 133 227 194 121 143 185 155 116 60 30 106 37 154 161 99 114 90 166 120 186 188 95 111 186 192 104 73 184 81 190 81 128 174 165 156 112 151 140 157 210 179 117 76 150 154 147 79 81 133 176 148 98 181 114 166 65 60 69 152 93 78 129 92 113 185 210 104 177 100 146 175 113 123 111 152 132 96 173 91 116 139 171 162 144 148 63 64 168 79 103 119 100 108 135 126 126 141 195 195 180 147 74 171 87 85 95 111 174 110 197 112 176 141 160 98 142 77 161 120 73 72 138 171 86 177 115 56 118 161 141 104 170 126 136 84 70 60 154 151 138 128 166 109 150 160 180 118 171 213 125 208 187 139 159 136 148 62 255 158 147 224 229 211 231 129 175 114 150 180 99 123 98 154 98 132 119 126 197 222 101 169 92 109 111 138 132 77 180 158 85 120 88 107 108 94 153 99 131 136 184 181 201 144 158 146 105 220 126 200 85 90 153 157 94 76 55 147 130 121 161 95 85 63 149 132 109 122 186 90 96 82 81 146 116 138 149 54 84 120 38 41 145 168 131 144 149 142 54 77 86 46 91 66 69 138 86 184 88 117 135 159 158 62 75 178 142 182 180 180 134 160 112 122 149 184 75 56 80 135 176 94 149 114 110 66 103 60 85 172 83 89 162 73 98 148
151 139 121 110 109 113 125 132 136 149 171 178 198 192 198 175 183 179 175 182 186 193 196 176 163 154 140 148 150 158 158 153 162 186 202 203 195 184 178 183 179 171 198 205 207 204 184 166 194 184 181 185 163 171 163 153 139 148 130 146 121 89 148 110 177 199 184 168 141 107 133 181 176 114 105 152 144 136 51 89 102 149 123 89 87 74 76 137 69 76 126 131 132 73 86 124 100 131 82 55 93 73 104 107 63 83 78 81 85 85 146 105 93 121 103 143 174 127 135 141 120 91 88 98 112 174 121 52 114 142 81 102 72 165 205 106 95 140 168 114 98 89 170 102 147 186 129 101 153 126 53 119 160 99 119 165 160 179 168 174 74 78 79 143 72 42 152 136 127 179 204 175 192 158 191 173 137 110 118 151 89 159 100 158 165 81 112 225 130 130 117 202 84 116 146 86 94 147 46 147 65 61 52 84 55 96 75 104 100 128 129 130 117 166 157 123 198 163 216 200 101 129 162 92 151 141 31 41 143 90 73 176 77 147 70 105 189 193 128 165 135 199 167 176 178 99 129 168 98 175 79 107 176 178 191 208 159 96 139 108 151 70 140 131 140 188 93 88 95 121 108 156 160 108 146 134 142 61 155 145 189 161 102 101 121 83 185 94 80 103 139 68 176 183 91 188 91 110 108 56 66 72 117 65 115 136 137 82 127 128 206 239 226 199 130 225 116 101 76 111 104 159 181 183 206 95 190 136 86 130 114 126 136 76 154 93 151 67 162 78 107 65 58 55 114 176 175 77 142 75 168 161 145 169 122 114 123 161 66 155 93 122 198 192 109 105 105 109 115 109 156 47 121 255 159 89 125 126 219 102 115 197 201 145 168 77 153 143 168 83 199 157 189 152 202 119 109 77 170 93 169 102 186 152 197 171 207 95 169 156 56 146 145 164 165 201 204 158 200 172 167 199 201 111 213 104 108 110 153 122 129 150 154 151 154 70 72 157 106 63 155 71 122 132 89 172 128 111 130 73 141 66 151 148 153 139 132 87 142 89 153 83 94 166 63 124 160 148 155 60 56 68 78 193 120 167 108 147 62 175 110 192 123 132 154 99 93 205 204 218 133 172 100 145 55 72 114 75 153 170 127 61 70 55 111 65 172 78 79 66 61 62
170 153 130 112 107 111 123 134 140 146 160 173 181 184 186 183 193 171 185 185 193 201 179 182 167 155 153 149 143 147 148 157 176 192 204 205 196 186 182 191 197 196 193 196 201 187 170 186 170 185 187 166 164 115 154 116 107 111 106 163 157 142 155 124 139 164 171 195 170 131 175 185 174 82 69 97 53 47 57 69 52 90 135 79 131 57 61 89 111 90 117 102 96 89 113 115 123 90 66 68 48 91 68 75 77 78 81 120 78 76 124 150 127 138 124 101 116 153 144 112 131 92 132 102 103 163 76 83 124 47 122 157 171 95 124 203 138 87 76 60 173 166 189 162 177 193 195 104 194 108 77 150 121 177 84 95 190 180 176 146 119 106 103 156 145 107 74 104 106 119 222 191 221 118 149 107 80 123 170 116 120 67 58 149 144 158 196 221 207 221 107 92 75 61 121 75 157 48 129 98 78 86 97 168 120 60 86 113 58 44 49 120 50 56 98 170 133 126 94 174 147 124 98 183 172 150 96 47 147 91 180 90 179 152 177 152 138 216 226 230 219 90 157 105 74 182 163 85 189 108 81 72 145 152 210 185 174 103 92 135 87 73 181 183 116 101 199 115 83 102 255 134 164 159 67 54 125 148 78 132 75 81 89 174 73 100 74 61 71 117 86 80 128 93 128 125 149 108 84 69 114 144 95 181 178 182 184 105 200 126 162 143 140 118 129 156 155 112 83 148 117 76 194 179 89 104 72 90 80 187 189 185 126 84 76 147 151 92 156 76 97 164 67 154 61 178 174 80 174 67 166 134 185 90 148 104 167 99 64 160 128 86 175 178 172 183 94 134 143 62 75 67 139 53 138 167 214 216 133 137 136 118 161 148 120 62 63 122 72 84 173 181 168 181 160 203 93 151 72 172 123 80 98 196 147 207 220 163 86 172 137 62 76 70 109 78 90 119 90 183 99 106 130 156 112 124 93 89 176 60 130 158 129 104 88 146 60 131 126 121 171 143 101 79 114 113 206 151 188 173 178 119 165 86 118 152 149 157 87 172 82 113 145 167 125 69 134 60 162 93 87 77 165 122 134 99 160 71 121 134 155 206 111 135 106 193 127 98 172 199 87 149 47 92 125 95 107 149 82 91 112 158 110 84 148 160 168 156 76 99 164 54
167 153 131 109 103 106 123 132 139 145 168 181 188 180 196 202 187 194 185 171 187 183 181 179 182 184 169 168 156 151 152 164 179 187 195 199 194 186 177 193 195 192 183 184 167 200 190 191 178 145 168 144 168 177 167 151 157 132 144 107 182 175 142 181 131 128 138 195 185 121 119 112 188 73 94 122 57 104 75 41 52 130 69 62 90 74 88 111 153 106 112 104 105 109 179 157 109 77 79 77 45 73 86 75 114 113 98 127 80 76 66 79 61 96 155 184 178 140 118 110 90 128 76 187 173 177 167 70 78 130 125 131 142 84 101 176 171 106 47 156 98 159 78 180 213 120 117 216 186 182 143 167 170 84 181 184 185 175 150 86 174 115 127 100 144 70 173 83 83 127 172 195 114 138 174 152 159 71 121 79 146 170 63 99 95 170 109 178 217 136 191 161 142 82 47 143 97 129 85 159 158 186 185 71 155 112 146 72 137 54 99 54 153 157 155 81 106 103 105 188 196 204 127 105 195 98 81 87 156 173 163 146 86 128 178 178 135 157 219 122 103 180 156 124 151 182 83 193 188 192 130 158 156 141 208 188 207 173 107 75 148 129 109 126 172 112 180 192 97 71 82 124 174 81 97 67 84 109 183 143 152 104 132 150 109 69 116 81 68 86 140 78 101 174 199 107 100 106 174 65 78 86 169 182 105 105 106 90 101 190 215 109 166 93 152 138 113 113 169 135 131 162 87 177 90 99 154 118 85 176 136 96 175 113 118 67 154 115 182 115 66 57 51 67 59 171 189 186 179 165 76 182 188 120 88 95 70 157 154 172 135 102 161 156 185 101 190 130 77 80 84 48 47 128 93 199 115 154 158 140 101 150 79 124 173 77 139 64 98 175 138 155 195 193 109 205 156 177 154 76 79 134 173 194 199 195 198 135 135 169 117 156 103 169 163 147 137 155 76 98 163 87 100 178 107 132 179 99 117 148 62 85 134 98 157 156 172 98 170 142 184 92 81 145 94 209 114 191 140 86 113 140 105 174 109 166 99 75 134 165 177 82 84 134 94 91 148 78 88 183 126 120 106 170 112 123 150 144 70 93 149 187 115 133 181 153 100 145 121 193 99 68 116 149 86 92 87 90 152 74 145 122 127 84 172 99 90 117 97 168 155 110
147 138 124 106 103 107 118 135 138 147 159 173 173 187 185 202 187 189 176 175 168 180 198 205 201 189 193 183 165 155 159 167 178 183 183 187 188 180 188 188 184 180 171 175 183 186 195 195 170 160 142 191 165 142 179 136 166 107 118 175 122 138 180 168 144 176 122 102 107 121 185 182 175 143 81 28 45 89 40 50 52 99 98 53 56 97 51 74 163 112 119 113 113 146 133 109 99 76 114 84 39 68 68 113 126 111 91 94 136 89 100 77 74 68 88 93 145 172 98 115 154 75 78 78 128 178 94 170 125 91 65 135 170 110 175 189 106 96 114 148 158 166 124 116 213 183 146 116 188 187 95 161 119 118 127 133 159 67 161 133 193 188 144 189 122 102 175 84 89 85 113 117 166 181 133 82 59 153 152 91 101 99 150 94 68 125 158 141 192 142 159 55 118 106 68 30 30 128 39 63 185 144 97 177 113 108 121 112 56 42 57 148 73 137 88 105 134 106 75 152 174 154 127 121 210 117 184 178 182 107 189 172 183 175 71 170 158 199 126 156 144 59 98 123 150 63 173 111 99 81 149 82 157 87 203 135 108 94 168 74 76 109 104 136 113 185 107 176 86 125 51 158 128 135 180 172 125 185 196 200 149 148 71 132 123 135 89 121 80 190 84 85 81 84 91 163 88 132 117 97 112 145 137 116 160 135 106 131 164 93 179 170 82 84 153 181 132 110 255 95 81 171 190 186 199 191 115 73 120 133 155 136 179 101 70 70 182 86 108 130 171 119 57 62 143 72 108 188 193 194 107 167 95 138 146 91 165 121 71 85 99 119 117 212 124 199 162 95 185 100 117 73 64 102 155 97 123 211 194 176 60 62 159 119 170 104 142 88 74 143 159 185 144 140 207 207 140 161 176 174 129 144 153 96 118 202 144 118 189 162 149 166 81 69 51 121 73 97 156 85 136 80 78 99 121 107 181 142 154 169 155 170 132 86 120 171 144 104 212 194 163 171 66 103 174 185 204 193 179 162 153 147 161 132 116 161 83 73 173 127 124 174 139 192 182 107 104 195 162 176 96 125 175 115 195 161 88 148 93 167 150 203 217 160 134 140 94 91 108 73 166 82 163 88 98 162 195 158 95 125 172 88 93 156 139 192 102 98 178 121 170 146
118 118 112 109 107 110 119 126 136 139 136 148 153 161 172 172 183 176 165 175 175 182 197 200 189 200 197 185 173 156 164 167 168 173 176 183 183 185 177 177 173 164 171 171 173 162 191 190 183 148 144 194 193 179 130 172 122 117 159 101 135 174 165 147 104 84 153 92 124 112 118 126 123 86 68 95 45 118 77 63 122 76 54 46 30 39 80 98 107 184 120 142 106 149 110 103 109 101 60 61 47 93 74 95 133 115 83 132 89 104 85 79 82 79 80 76 80 105 78 150 123 56 112 67 128 79 185 130 82 167 161 85 77 139 140 197 110 169 117 140 135 157 136 174 221 182 198 176 175 93 107 112 117 178 136 125 75 132 144 172 162 194 107 131 175 92 114 88 137 108 77 159 138 180 84 141 77 116 65 122 173 128 128 126 140 59 119 132 135 144 117 63 65 94 140 115 125 134 67 102 189 143 95 79 60 120 48 45 57 92 136 115 188 92 122 71 134 115 80 171 114 134 98 190 168 184 104 149 190 87 165 138 138 113 174 126 181 182 148 135 55 143 136 36 42 99 78 168 179 93 124 160 175 106 98 127 171 166 55 137 155 103 116 177 92 104 207 147 89 165 75 112 91 100 143 85 173 184 216 182 122 81 72 142 145 145 105 172 93 96 127 80 177 109 170 115 152 185 193 139 81 107 93 110 99 103 109 63 51 117 84 101 163 179 128 108 185 195 142 89 138 130 157 144 189 177 92 72 69 129 149 100 148 169 143 69 255 115 95 176 64 77 60 54 58 148 195 105 194 200 141 90 67 55 152 138 148 48 165 80 113 170 111 171 210 116 205 196 181 146 94 139 145 65 76 193 205 152 92 78 97 169 88 123 184 93 186 142 67 145 136 160 171 152 134 138 202 143 170 92 103 91 168 65 184 174 189 204 171 164 135 75 183 178 117 106 64 137 156 158 178 84 139 114 89 167 79 183 178 76 84 163 74 178 175 132 184 218 143 143 184 81 141 57 91 83 161 188 174 164 158 139 85 144 142 47 56 143 93 130 90 64 110 79 92 206 194 198 102 203 102 109 182 221 165 196 183 68 75 174 155 124 96 194 105 186 135 145 55 156 68 146 74 171 125 194 88 90 97 98 92 124 141 135 122 187 104 101 127 93 108 81
99 105 109 113 110 119 123 125 123 123 124 136 144 145 142 155 163 161 161 174 182 199 198 182 192 190 186 178 169 168 167 169 166 170 182 185 186 185 178 175 172 164 168 183 174 194 167 171 134 167 169 157 210 199 187 134 171 179 131 97 115 175 127 160 94 102 165 88 155 144 109 141 103 78 124 69 68 142 157 72 116 49 41 106 61 61 78 132 176 122 112 112 102 83 146 142 82 112 86 77 96 71 116 94 126 100 137 77 109 103 106 140 119 139 75 79 155 151 65 99 44 113 46 88 63 95 81 97 106 99 175 87 129 89 124 112 207 120 177 89 163 122 176 188 171 175 184 125 172 116 65 76 130 60 128 115 75 116 60 88 187 207 173 129 96 64 135 79 98 101 126 182 87 143 74 167 110 162 156 122 143 162 138 143 133 127 111 74 173 117 41 72 103 55 55 131 94 56 116 165 189 100 105 173 186 86 68 89 159 69 166 171 92 152 183 73 147 176 117 167 181 159 92 201 98 187 91 110 139 84 173 74 177 179 173 151 149 162 49 139 143 37 48 33 72 114 69 71 117 55 50 119 82 191 165 182 159 158 64 152 100 76 170 159 176 192 160 185 117 127 167 159 71 86 187 109 194 166 211 167 107 82 85 79 96 93 159 149 162 93 171 185 184 146 154 105 208 156 112 123 137 129 70 143 156 149 66 48 68 28 81 100 136 152 200 130 117 187 128 144 104 93 89 156 193 93 153 124 173 87 164 177 80 60 73 133 88 187 176 133 126 151 63 156 72 143 88 201 198 80 124 59 106 109 30 59 44 47 120 116 93 101 193 144 142 138 191 167 124 101 123 149 174 177 95 136 108 144 82 180 163 87 174 210 215 205 125 130 150 140 148 70 176 116 224 196 200 101 98 193 139 172 161 144 169 178 88 168 142 104 124 157 105 197 133 47 112 128 88 160 166 83 62 110 124 150 143 93 111 121 68 127 120 82 176 123 189 213 229 221 113 134 155 69 164 140 182 177 159 53 133 84 41 126 36 133 114 46 54 146 160 60 137 119 111 194 137 204 131 206 141 116 143 112 118 113 115 140 116 178 172 189 121 126 163 161 149 127 80 159 77 166 108 116 191 86 85 183 168 148 142 151 117 96 90 76 170 94 179 175 100 169
95 102 109 121 127 126 131 127 110 111 123 130 135 135 137 127 139 153 166 160 177 177 190 165 171 168 154 160 158 157 161 168 178 180 188 195 194 187 183 182 185 188 179 191 190 188 183 165 136 130 148 194 207 148 152 136 158 171 136 164 169 140 174 147 164 163 148 103 69 143 110 130 93 165 103 168 142 102 100 68 118 54 90 93 144 83 118 104 127 108 143 109 94 78 89 96 75 64 59 65 104 127 141 130 87 113 121 115 110 125 151 163 108 97 125 107 139 118 69 58 41 91 56 163 96 181 124 134 195 93 72 74 107 140 209 225 129 132 197 153 88 144 203 215 164 119 170 118 152 92 145 115 132 156 131 134 98 93 81 165 136 195 139 108 81 134 65 124 168 125 126 140 118 151 172 94 115 182 170 212 108 160 85 89 100 149 192 92 129 130 53 111 121 113 65 136 112 158 153 85 87 107 143 131 149 111 172 122 149 140 180 102 127 177 113 90 134 74 77 169 69 71 173 193 110 178 185 177 122 175 67 129 110 87 183 111 134 53 79 136 115 62 140 60 144 111 168 151 143 128 51 52 181 199 208 103 87 54 152 55 77 182 99 132 210 156 169 186 97 162 97 139 59 63 180 192 119 113 173 169 123 74 165 155 96 70 82 98 113 115 204 191 92 124 114 206 228 201 202 96 179 59 52 107 73 92 59 99 110 35 51 94 213 134 134 117 153 135 182 165 111 93 110 159 187 95 93 100 102 153 74 91 147 169 134 151 182 153 146 52 32 142 113 103 83 141 189 85 77 78 54 127 50 106 122 25 35 145 46 111 61 170 152 255 109 102 188 180 150 124 87 179 154 81 186 85 103 169 138 62 66 100 109 144 143 139 181 149 162 45 144 138 149 196 132 162 122 141 204 90 83 105 67 162 71 114 144 129 80 62 71 84 197 201 134 150 51 40 44 155 68 59 114 137 61 95 90 79 98 66 113 91 134 154 97 193 207 154 190 204 195 106 162 85 154 79 147 69 112 107 145 55 43 83 35 25 126 34 93 62 121 139 118 96 152 179 175 170 93 142 201 187 190 121 168 168 123 172 191 167 139 177 166 173 120 90 182 148 167 106 132 177 173 116 136 196 86 166 173 95 128 135 97 139 174 83 75 120 178 176 110 128
108 110 113 124 134 143 136 123 118 117 122 123 135 129 128 139 133 157 166 177 186 176 164 159 151 146 150 155 159 164 175 180 181 190 189 194 198 201 198 188 196 201 202 185 179 171 170 162 140 137 139 171 188 147 170 177 166 166 169 110 170 117 98 141 127 105 156 138 156 89 86 160 106 129 107 104 90 159 108 69 134 67 75 102 95 153 107 104 99 91 163 90 90 124 60 128 72 63 83 66 83 90 125 89 70 109 111 101 157 117 104 96 113 75 109 99 87 88 101 62 74 53 80 156 168 146 106 163 97 124 115 128 117 87 170 219 163 179 189 155 175 83 106 218 195 135 158 95 43 104 104 108 109 93 131 148 143 141 146 59 176 125 125 115 121 123 45 69 108 179 181 154 118 156 106 123 140 211 187 187 127 118 178 127 165 184 167 198 179 157 80 108 103 73 156 120 181 163 114 163 113 157 135 158 222 232 130 137 164 177 121 166 78 148 147 126 118 141 146 104 162 158 75 123 84 130 68 88 149 169 109 160 163 81 175 185 77 101 39 46 49 140 146 63 96 170 172 159 70 148 146 87 109 118 115 132 183 61 157 133 82 111 177 120 192 111 165 178 104 164 124 153 132 53 99 184 131 179 155 118 83 100 80 52 157 63 138 183 168 160 138 105 161 127 122 127 241 133 217 116 177 156 152 62 160 73 124 36 30 46 115 86 218 129 129 160 137 163 95 125 158 96 173 157 157 109 84 169 101 84 122 86 182 74 154 167 86 178 142 139 75 59 112 49 76 72 90 182 66 53 85 60 95 39 68 135 43 153 98 43 42 147 160 88 196 185 83 85 126 174 96 110 109 160 75 101 113 159 154 83 156 156 144 106 214 173 134 182 61 105 157 63 122 136 194 128 220 207 128 173 173 88 175 155 171 156 170 136 134 152 157 92 177 89 96 83 93 89 73 115 99 169 107 62 121 41 118 63 163 166 163 115 60 170 100 88 204 152 226 176 107 180 137 151 153 152 100 102 131 34 28 84 150 113 138 126 123 123 93 91 48 141 108 133 157 131 180 90 171 168 169 173 178 92 129 139 209 143 162 109 171 98 179 97 115 157 129 81 115 159 111 98 188 200 101 197 77 120 155 75 154 169 113 126 157 72 164 119 120 75 87 134
124 121 120 125 136 143 137 124 121 128 134 144 134 130 131 136 148 155 166 180 171 166 162 144 141 145 151 158 163 155 176 186 194 187 180 180 198 210 211 204 197 201 210 178 168 164 170 160 133 125 134 171 198 195 164 156 165 120 151 157 98 146 159 169 105 174 94 150 90 62 116 92 88 94 148 99 159 175 127 69 149 161 148 172 129 116 115 114 122 166 146 124 84 67 65 68 108 67 62 77 85 138 83 127 62 65 99 119 95 111 108 164 94 84 86 74 85 101 126 63 83 162 106 101 101 94 193 129 166 207 101 156 104 98 205 102 101 104 200 93 80 93 154 213 138 104 170 155 138 137 130 106 139 150 163 137 145 169 114 142 137 142 192 94 159 109 49 150 59 71 114 73 147 135 169 182 150 170 156 207 185 157 122 196 197 138 110 175 107 97 93 132 123 158 178 84 130 78 143 162 94 198 226 196 237 182 142 194 94 160 86 148 126 89 123 85 105 101 72 161 72 65 135 64 163 58 46 155 56 159 163 98 186 188 100 193 135 146 112 97 28 112 147 145 106 183 84 165 138 147 60 156 153 191 100 200 84 118 157 66 148 181 156 155 84 88 110 74 80 104 120 166 173 97 151 161 111 129 143 159 179 133 43 40 53 67 118 150 198 218 124 173 147 204 113 204 219 149 143 145 191 66 153 62 138 71 104 45 78 53 169 105 111 118 134 141 255 86 66 86 147 187 200 140 173 132 85 74 87 179 86 193 105 94 101 69 119 168 72 112 42 42 62 68 88 176 133 174 155 135 44 116 87 159 88 135 47 141 68 110 148 150 76 144 189 184 181 146 159 93 174 131 156 255 99 61 119 150 73 88 134 91 156 100 120 123 155 87 139 154 166 95 110 169 188 147 103 169 179 117 98 161 72 152 128 120 60 124 111 43 89 143 141 91 81 52 141 100 126 43 72 75 99 69 118 113 142 151 159 165 174 68 96 158 83 85 162 209 147 213 155 169 146 158 160 155 43 102 115 121 51 40 160 167 150 48 74 79 129 121 92 141 165 154 171 122 184 176 95 71 78 167 119 70 159 163 114 223 181 105 119 130 81 179 140 162 137 142 144 71 148 135 196 194 197 104 150 122 153 145 170 174 130 90 97 88 122 157 157 85 189 185
135 131 127 132 138 143 137 135 138 142 139 152 150 134 140 148 172 178 192 181 165 154 153 131 137 148 149 168 167 168 185 188 196 188 169 175 194 210 216 212 209 202 205 165 176 169 172 155 177 164 180 134 193 166 120 159 124 115 115 171 136 122 96 154 111 164 99 161 98 72 63 95 138 119 150 162 112 114 113 163 80 112 147 153 95 129 140 168 115 161 96 144 79 66 74 72 77 72 72 88 81 132 135 112 86 72 81 107 96 109 136 116 102 72 140 255 92 91 95 90 161 168 127 167 102 91 102 138 128 112 207 108 101 137 200 111 185 84 133 151 198 96 98 189 188 111 70 64 141 68 98 129 70 185 154 190 107 123 125 180 173 166 115 181 166 64 65 66 118 156 66 116 151 69 156 98 166 175 117 110 189 89 193 171 183 105 95 76 162 53 144 142 78 153 86 181 182 171 72 81 86 198 119 172 230 180 126 126 129 84 151 71 149 118 158 201 185 85 162 167 151 147 62 75 139 138 31 106 156 117 109 104 116 201 208 187 159 126 49 54 105 77 39 66 180 186 101 119 61 53 114 164 68 120 154 138 94 76 68 113 110 103 151 142 125 72 152 98 89 82 85 182 119 130 84 85 193 159 107 199 148 162 145 88 53 141 174 102 108 223 128 120 191 87 187 159 153 173 155 148 120 173 83 93 102 81 79 58 161 112 102 114 113 153 136 169 108 47 139 64 82 192 147 137 188 85 128 95 140 139 191 184 85 136 158 98 177 78 148 62 64 117 166 186 190 189 194 146 146 64 96 147 166 62 63 126 53 163 142 148 85 131 71 197 205 124 172 169 98 165 77 105 169 83 126 149 106 147 88 106 162 154 172 137 165 94 82 105 128 90 100 179 91 103 147 188 86 181 115 158 109 131 158 154 77 70 38 141 97 39 110 64 92 255 137 57 102 74 126 92 147 155 131 158 91 123 135 121 95 136 98 149 83 103 188 186 98 189 150 103 89 122 91 161 155 67 76 42 102 96 79 147 166 147 129 53 89 45 138 44 147 72 178 77 82 159 191 137 105 150 116 60 155 131 113 115 140 191 116 106 96 156 162 184 117 100 81 84 170 120 166 141 178 177 205 124 71 96 55 140 166 121 98 150 135 174 114 151 148 53 161 130
135 134 129 132 133 143 137 146 141 159 163 169 166 157 141 163 168 187 179 180 166 136 147 135 137 156 171 179 179 175 183 197 193 181 170 176 195 210 212 190 196 199 194 186 148 162 176 154 173 155 187 162 182 180 161 154 124 137 177 153 160 159 151 180 157 191 161 168 72 129 146 118 144 139 106 161 118 202 166 90 160 97 131 79 80 107 98 175 171 103 127 97 130 73 92 116 112 134 65 73 86 116 99 105 79 49 57 79 104 116 97 82 115 61 125 122 154 172 111 96 82 92 86 82 95 185 95 183 207 146 126 162 173 105 201 193 91 136 93 204 104 105 124 144 90 158 176 177 163 170 116 73 160 100 212 222 210 145 100 183 158 173 192 130 119 170 107 148 61 145 147 128 53 150 153 112 200 206 171 176 90 126 173 193 207 144 128 111 147 47 83 130 163 112 167 177 125 169 96 82 147 113 129 215 118 174 135 193 169 102 96 124 131 159 107 113 190 98 182 132 184 183 163 154 68 50 38 56 133 121 198 186 216 193 169 132 100 66 62 42 124 21 107 48 171 71 180 176 155 68 166 160 94 163 89 147 106 174 138 174 67 114 151 121 133 154 103 144 156 151 120 161 210 205 173 120 190 199 255 119 89 255 46 51 121 91 167 210 119 190 162 132 97 82 174 158 165 217 145 237 204 132 136 121 70 162 67 153 157 122 69 122 160 111 121 141 50 144 112 119 153 96 99 139 209 99 173 86 100 80 164 135 89 111 53 152 172 165 87 139 169 177 127 109 137 214 165 133 107 104 119 159 108 63 61 47 78 64 172 116 78 66 156 190 205 153 93 94 70 74 160 148 64 145 106 98 100 137 52 119 77 163 116 142 98 157 188 95 174 121 123 101 186 173 95 147 180 97 81 149 121 126 158 163 64 89 150 120 80 68 92 102 145 129 106 127 82 55 65 114 78 109 107 176 145 42 129 91 105 76 165 126 198 103 204 93 82 183 93 160 204 104 134 149 91 73 127 151 139 100 44 66 147 60 136 45 136 89 58 143 111 106 75 83 109 99 110 161 111 57 142 120 159 109 185 137 144 200 156 198 128 184 116 102 158 121 86 159 148 76 119 183 202 177 201 188 76 86 86 153 66 76 130 187 92 81 118 121 124 112 137 95
137 133 127 125 128 140 141 151 158 167 181 173 174 150 151 160 176 191 175 181 166 139 146 145 149 167 171 180 189 196 200 205 199 184 164 177 192 193 200 191 185 176 169 181 176 175 158 188 191 189 185 172 164 165 160 144 161 169 121 179 131 136 92 141 136 194 149 103 98 73 105 94 161 177 135 130 148 144 160 173 80 101 145 70 75 93 146 161 156 149 139 142 79 99 81 98 128 82 87 68 108 133 101 131 72 54 43 79 125 103 102 89 57 109 69 108 93 101 85 92 99 112 157 153 76 81 138 115 231 144 175 152 127 151 158 98 115 143 207 110 217 208 205 203 152 158 176 187 139 178 97 166 169 171 146 199 226 178 170 144 180 128 197 189 181 180 79 162 67 133 47 48 141 155 74 193 165 92 130 150 155 141 116 108 164 194 68 149 125 113 49 70 137 102 99 159 183 101 169 98 115 137 108 94 157 114 200 174 91 192 164 70 155 174 138 182 175 186 175 109 192 146 78 129 68 134 104 53 174 198 205 127 204 162 107 95 182 122 56 135 126 119 39 144 52 163 72 170 71 104 141 123 75 173 204 169 120 84 174 118 155 177 83 184 172 141 120 96 63 167 121 106 186 121 169 224 163 175 204 145 178 131 144 128 61 106 100 136 174 122 192 180 89 125 129 111 109 114 187 158 118 149 192 148 79 87 55 42 155 147 60 109 70 167 114 87 78 73 116 78 108 166 110 113 157 194 126 86 172 82 139 156 156 87 167 77 154 188 89 135 182 161 99 129 217 213 91 72 159 153 111 106 84 119 156 148 51 58 176 110 144 135 169 146 101 162 126 66 152 148 170 168 161 133 145 50 137 52 54 102 145 62 164 74 82 151 153 143 92 153 181 83 130 77 107 76 180 121 137 95 113 173 176 174 135 147 167 156 56 49 149 154 159 118 123 127 101 27 65 141 116 91 191 154 53 137 140 104 63 69 166 114 102 213 101 151 93 182 160 196 127 99 153 90 153 87 131 132 151 119 66 94 178 129 82 43 56 98 140 82 100 137 175 76 92 91 177 131 72 48 129 96 105 72 92 165 128 161 96 147 156 194 171 70 87 70 163 109 170 69 94 80 179 96 171 145 78 114 115 74 124 138 117 91 186 85 105 46 71 62 58 113
142 133 123 114 121 130 143 153 153 169 176 188 173 156 138 144 165 178 182 168 172 172 162 167 168 171 173 178 179 185 191 193 191 178 173 180 190 198 192 190 188 193 190 170 164 187 189 157 152 148 171 158 155 130 105 97 132 121 174 170 131 135 128 175 184 182 176 168 168 130 148 120 84 94 107 193 154 178 143 103 78 82 153 80 86 61 107 78 93 161 91 87 89 108 83 134 123 128 77 76 118 128 105 125 57 40 51 71 80 117 105 131 78 70 65 64 154 67 162 89 157 179 129 113 115 93 124 225 226 139 118 211 181 132 150 118 111 207 211 194 160 135 214 201 90 176 81 186 209 180 134 175 161 182 143 222 216 112 165 137 105 104 173 186 149 117 137 80 73 144 80 139 124 162 178 102 108 113 101 147 141 169 192 205 117 139 69 149 132 57 72 152 193 215 166 152 164 137 85 191 191 117 183 195 104 147 129 190 122 178 154 86 154 157 154 162 152 148 104 167 184 166 80 69 45 125 97 169 119 203 196 117 204 152 138 123 91 127 102 145 119 85 126 137 71 152 121 157 149 91 75 156 162 197 211 109 98 90 166 174 75 124 189 170 100 149 56 83 140 45 157 151 153 213 131 151 123 112 159 148 181 95 62 55 57 69 145 174 114 163 172 185 144 136 64 66 76 130 103 113 119 166 131 86 120 45 53 108 93 131 153 89 71 140 107 86 159 151 191 125 149 93 169 210 195 134 102 168 78 76 81 82 135 188 147 85 90 143 103 130 192 90 95 104 92 182 187 72 61 70 165 125 158 103 142 116 145 160 155 166 51 141 82 166 83 74 176 171 122 133 130 158 60 165 154 164 163 96 136 120 83 78 161 149 130 118 139 187 116 82 66 69 179 162 147 75 180 183 140 151 80 98 117 183 141 143 84 123 114 139 152 59 131 161 87 113 118 119 159 184 110 175 102 75 57 49 66 127 137 94 171 132 91 201 126 137 89 166 186 193 153 210 106 109 161 102 156 187 162 109 186 115 123 85 168 141 136 35 128 152 129 165 82 95 175 82 149 170 170 112 72 113 61 165 164 192 137 181 87 184 170 155 103 182 146 81 106 71 123 170 174 72 174 195 200 164 178 159 130 183 102 131 88 87 91 171 91 163 42 118 74 56
154 137 117 103 110 123 143 156 168 168 176 180 171 150 148 147 147 169 181 181 186 179 182 195 193 186 173 166 166 170 176 180 178 177 173 186 189 190 198 184 184 202 200 196 189 182 166 182 182 175 171 172 150 125 163 104 148 175 125 133 102 88 92 99 134 169 98 125 154 131 156 97 161 118 88 124 187 174 180 178 80 141 115 130 48 107 63 93 131 129 97 113 77 76 95 108 82 139 79 97 99 94 91 121 79 64 63 49 88 87 89 90 69 122 103 67 75 130 61 97 187 127 211 121 114 143 119 120 131 126 113 118 108 114 228 238 130 118 161 210 131 206 116 100 164 177 91 183 203 102 175 185 112 206 203 188 153 160 180 89 205 211 161 194 187 180 83 176 150 72 145 153 165 91 171 155 115 153 68 111 157 101 96 204 201 157 86 124 128 59 75 192 115 211 216 97 156 166 137 157 154 156 153 155 155 108 101 190 107 86 156 146 146 47 48 131 139 112 85 90 67 46 54 49 73 161 175 161 110 209 133 184 118 106 150 62 103 76 147 60 57 131 75 143 84 161 182 139 176 136 164 115 77 165 158 255 102 146 172 77 146 174 194 174 103 56 81 41 48 35 68 106 108 140 163 197 111 103 148 167 93 177 135 103 145 126 60 131 184 137 166 108 157 57 126 57 107 78 100 79 132 114 131 99 151 116 61 58 63 50 97 64 132 100 145 208 175 145 160 155 90 125 129 193 134 231 188 128 71 173 92 174 210 184 142 103 94 186 103 171 195 178 189 173 78 169 125 91 154 78 192 194 135 109 142 143 155 99 144 122 103 143 97 106 136 181 127 63 71 152 66 141 148 163 176 133 105 172 185 174 166 152 125 85 52 86 118 183 183 165 96 64 171 182 106 135 79 100 200 96 164 158 79 70 99 86 97 107 51 108 160 91 73 99 164 96 64 66 183 110 201 193 77 151 62 60 150 100 74 56 143 164 162 180 149 168 255 187 185 103 147 198 111 185 144 74 112 88 156 183 157 101 174 145 157 102 153 34 125 61 162 166 91 153 168 167 86 80 153 164 124 164 170 159 84 125 106 177 82 123 185 193 103 105 178 71 58 104 165 67 69 111 96 150 194 154 131 153 133 108 187 199 182 79 185 178 94 128 169 103 60 148
165 147 125 106 109 132 148 163 161 165 168 157 161 157 144 151 151 160 178 183 190 179 193 203 196 194 177 145 141 150 160 166 169 175 180 198 209 201 197 207 208 208 209 187 193 170 175 255 135 155 143 152 172 135 170 124 120 148 87 99 110 63 91 78 170 160 167 157 68 83 76 89 169 110 115 95 157 166 141 121 101 116 161 65 55 97 100 83 116 95 125 115 97 64 63 64 69 80 127 93 102 90 84 98 85 58 52 58 113 149 100 100 81 77 121 91 81 45 54 110 114 135 163 198 205 126 113 128 190 214 110 181 129 201 227 171 184 221 110 209 107 103 101 189 135 149 174 158 200 159 210 170 227 194 133 165 135 79 177 133 122 185 200 137 174 115 164 95 165 149 150 138 75 165 161 113 181 139 107 63 176 105 195 159 199 136 157 166 78 180 82 145 195 118 165 144 111 123 123 55 170 129 125 105 116 151 201 115 166 178 111 55 70 78 148 50 142 65 109 93 134 73 46 56 142 171 181 208 149 114 222 193 126 179 173 65 156 133 184 125 165 149 146 96 175 113 135 190 91 151 130 182 149 173 114 85 184 187 96 171 190 121 118 99 109 114 67 83 48 137 147 167 94 130 142 120 201 186 168 162 87 124 189 74 56 131 110 90 73 157 112 123 148 136 53 58 62 121 67 69 167 162 151 106 163 183 113 59 159 160 91 64 122 155 120 215 161 189 143 110 163 156 165 159 150 137 121 93 95 155 116 154 108 98 96 137 110 126 208 149 174 184 78 80 109 115 177 74 168 137 95 180 193 154 75 61 91 140 81 135 101 88 126 170 79 88 176 165 90 145 138 110 97 91 97 155 114 192 151 111 76 149 88 87 134 129 133 184 178 172 162 70 176 177 154 178 159 188 115 185 108 72 92 154 160 57 156 91 143 117 151 171 181 86 135 107 172 146 172 202 203 198 93 169 89 85 172 135 83 119 165 161 71 192 102 219 115 162 83 76 176 215 203 167 97 144 77 75 188 215 202 197 100 94 91 255 119 63 138 119 160 91 78 167 112 85 173 185 142 165 141 80 120 111 145 131 176 88 98 90 174 191 146 211 160 197 105 77 139 139 109 181 125 84 143 179 94 142 87 93 104 135 175 84 73 170 149 136 168 126 81 156
173 155 132 114 117 133 152 160 163 159 152 153 140 142 155 145 157 160 165 196 186 197 184 187 203 203 176 149 147 148 155 167 176 183 191 202 215 215 202 201 205 211 211 190 185 179 167 138 156 128 168 139 131 175 255 134 111 128 137 124 75 56 75 148 154 158 129 172 79 103 138 117 106 131 94 86 151 129 131 207 110 96 81 70 46 39 52 70 90 167 113 138 74 123 114 65 111 82 97 134 112 80 72 83 51 59 80 73 76 73 71 77 125 140 78 156 71 60 117 92 104 132 115 107 119 142 190 152 119 172 110 136 131 145 184 137 152 120 141 201 201 199 203 99 89 128 82 150 166 168 199 124 162 211 207 200 81 142 113 137 208 114 139 178 103 116 166 165 169 129 96 82 179 101 188 151 185 103 105 90 172 91 211 206 111 196 139 171 111 95 147 151 172 113 205 197 83 131 128 43 114 186 104 214 225 227 148 148 125 152 121 65 57 113 143 158 92 146 158 75 47 129 90 43 151 134 119 124 212 214 227 233 226 115 96 188 119 113 179 133 73 107 114 103 189 101 129 202 197 100 104 183 169 171 168 117 150 160 186 185 179 190 145 190 121 163 140 146 40 136 144 105 135 123 128 194 189 107 168 131 84 190 188 108 69 73 29 56 137 156 147 177 133 56 58 167 136 97 115 66 60 177 98 127 164 175 90 93 178 108 79 64 144 150 131 144 121 196 75 160 137 95 201 186 158 120 105 148 88 79 103 138 124 197 180 173 115 118 116 192 107 106 72 81 77 74 99 103 127 168 198 199 196 89 100 162 167 89 54 50 159 166 172 76 138 187 122 119 143 47 43 35 70 152 104 126 201 214 130 157 177 116 127 65 100 117 102 135 156 162 67 166 73 169 112 108 101 173 163 162 164 176 69 65 106 69 132 129 33 146 69 101 187 196 142 165 68 164 160 163 111 202 116 111 88 92 85 89 154 182 154 93 179 151 193 108 206 175 87 76 195 182 134 102 174 105 152 71 187 207 160 181 76 157 117 171 59 108 92 99 117 93 82 168 90 156 76 75 156 140 50 104 67 116 152 72 109 68 78 134 91 186 134 142 153 194 102 102 168 158 114 199 121 141 139 120 65 171 184 87 136 175 137 121 149 141 125 88 189 122 93 127
174 160 140 121 125 139 151 156 149 141 133 133 129 152 151 148 156 161 181 200 208 198 198 195 197 191 182 157 138 148 154 172 188 193 194 199 205 202 189 186 188 189 208 199 189 174 140 149 146 150 131 170 166 136 152 144 93 83 109 59 97 115 152 151 190 141 178 160 87 132 169 139 124 96 83 135 106 160 139 145 182 171 73 56 51 54 57 74 144 108 103 87 82 87 114 71 94 76 130 108 72 65 54 76 95 94 91 117 127 68 70 89 61 99 91 82 108 121 92 136 200 120 199 138 170 169 102 114 164 100 103 158 77 182 166 119 178 197 105 152 188 179 91 194 87 123 76 156 191 166 193 190 116 200 173 148 82 97 168 176 191 145 150 146 184 117 128 85 154 137 125 174 112 151 139 96 179 168 157 70 104 188 142 190 107 198 190 189 111 113 145 169 187 155 102 153 102 122 111 152 100 96 141 113 190 196 204 195 89 148 74 92 82 67 53 158 145 138 72 67 150 146 118 130 152 172 175 186 124 216 136 149 146 139 212 97 170 181 174 160 170 114 172 91 105 123 213 124 198 198 153 173 174 68 158 107 170 187 183 155 180 105 175 180 183 171 110 103 135 143 148 108 167 202 210 147 179 105 143 74 155 143 171 85 155 137 123 41 158 86 157 144 79 172 74 129 98 88 67 71 65 132 165 116 136 128 155 127 103 181 80 85 126 212 134 120 103 76 64 95 161 150 103 110 140 152 150 133 100 156 149 116 107 172 75 176 83 133 100 149 98 133 65 172 158 87 135 191 88 169 166 160 161 82 95 72 164 161 128 129 145 96 103 98 95 174 157 177 139 71 146 138 156 179 112 183 190 180 147 95 70 114 132 26 44 162 172 176 128 164 95 74 142 88 106 58 113 60 95 173 181 152 140 122 145 148 139 45 128 54 94 103 194 148 150 83 111 70 183 133 160 133 112 109 52 141 160 102 146 221 122 95 83 85 117 197 212 97 107 93 196 128 133 111 171 80 92 65 111 197 106 185 88 84 166 78 142 166 58 130 68 147 147 84 99 166 185 81 118 73 122 23 36 117 114 61 52 110 50 63 79 84 186 146 217 134 161 163 194 99 117 188 145 151 78 89 68 163 93 134 93 75 97 54 40 58 60 143 116 86 66 87
166 151 131 113 118 132 143 150 140 135 126 126 141 144 162 163 168 176 187 186 195 186 195 191 197 186 187 168 158 153 161 174 193 194 186 186 182 176 173 183 195 192 196 185 180 170 141 150 133 111 157 166 169 181 145 96 125 110 72 78 112 139 100 167 203 145 107 80 149 149 130 104 137 122 92 101 146 110 129 150 145 71 92 77 78 77 129 94 126 105 100 86 74 72 114 102 121 129 82 94 85 68 76 85 50 112 71 96 99 88 96 85 95 124 67 77 88 133 109 93 100 180 140 71 86 190 195 180 112 103 152 76 157 167 77 190 139 99 117 197 93 145 86 186 185 74 67 168 179 158 154 168 69 71 157 80 61 56 77 125 174 203 202 188 92 148 131 146 162 134 99 178 174 175 200 96 132 142 132 169 173 172 199 139 124 155 132 194 101 190 194 140 161 98 191 135 175 156 79 180 103 89 87 128 150 175 116 174 170 138 50 144 88 156 41 50 80 107 158 71 154 72 127 136 130 203 126 208 124 111 210 105 141 102 106 172 137 168 120 172 112 171 94 186 127 139 193 133 106 137 207 192 200 162 80 175 182 194 120 187 157 80 106 164 121 174 139 152 131 115 173 197 162 146 145 182 183 169 151 73 91 110 148 194 68 59 86 63 177 134 210 207 197 90 155 77 82 161 126 137 167 119 195 195 103 126 113 146 163 119 151 123 124 130 148 114 165 98 127 111 101 93 104 103 187 98 110 94 120 79 147 193 139 129 102 80 138 103 194 85 66 118 81 172 140 92 175 140 155 71 176 179 100 120 156 146 94 87 96 92 145 98 151 61 115 127 87 180 132 84 71 138 95 151 133 101 196 133 168 179 149 151 44 146 144 139 164 125 81 76 64 64 61 126 37 68 119 137 255 62 155 93 198 103 114 79 89 148 72 122 178 101 159 136 86 177 149 179 114 173 178 142 137 135 144 82 125 183 203 119 116 124 199 104 195 208 186 196 198 138 195 144 122 173 139 59 66 93 184 89 195 190 185 92 180 92 94 82 82 176 139 75 117 156 195 103 110 143 61 69 36 73 141 55 79 102 140 151 132 143 123 74 178 162 203 134 118 192 124 149 150 127 100 136 184 130 136 73 77 94 94 120 128 55 145 52 85 153 154 64 170 159
150 136 117 104 107 118 136 139 131 127 113 119 140 139 150 154 171 171 183 188 193 196 188 187 181 181 175 166 155 151 154 171 185 187 181 168 162 164 172 182 199 191 191 177 176 170 151 148 154 122 137 170 180 182 182 105 141 123 111 53 87 65 104 147 173 156 92 98 87 148 181 198 92 81 129 154 97 176 93 118 128 59 70 70 89 255 137 74 81 91 118 100 81 152 109 103 102 146 86 82 101 55 49 63 66 118 80 62 79 86 97 110 123 127 117 108 82 100 75 93 194 107 72 76 170 97 168 207 187 196 108 177 79 150 159 148 86 122 86 101 195 147 176 76 160 118 160 117 162 175 160 57 155 77 106 137 141 137 98 76 142 177 211 206 128 152 150 176 96 104 175 191 107 86 109 179 140 140 85 141 111 158 83 78 162 121 112 89 108 135 190 155 175 102 138 141 171 94 166 88 191 160 85 177 135 208 178 196 110 96 57 59 58 47 99 138 64 89 63 150 127 159 123 113 188 136 103 110 186 92 141 172 175 99 182 103 148 73 174 160 114 130 77 90 147 209 196 110 151 171 204 191 186 168 166 71 169 142 89 131 154 73 159 76 65 69 178 86 65 107 123 184 137 145 147 163 165 97 175 153 120 107 103 169 169 66 118 96 140 107 189 172 112 115 85 166 187 191 95 103 135 94 79 156 103 91 139 219 139 225 212 186 213 111 202 166 95 142 67 81 77 136 202 97 160 164 125 83 127 135 90 114 162 138 164 96 190 112 206 152 64 82 154 171 184 198 92 134 152 99 161 120 167 154 147 192 200 184 214 203 166 146 56 71 63 101 191 172 135 138 147 107 175 157 168 97 72 152 107 167 168 103 79 121 53 149 89 142 143 145 44 57 108 64 140 134 53 144 54 65 108 108 217 148 214 115 171 162 59 139 106 122 196 182 136 138 73 172 154 202 165 194 94 133 255 64 61 180 167 155 216 174 139 168 193 205 173 105 103 82 176 172 96 124 72 84 157 112 169 170 171 183 148 113 216 171 118 192 109 186 170 101 130 74 130 141 109 111 63 139 157 151 58 150 136 157 55 139 49 163 172 175 97 201 145 192 100 191 89 154 170 151 140 156 120 166 165 91 100 148 194 158 179 109 73 129 106 168 61 83 143 103
131 123 110 103 106 116 126 134 127 130 128 131 137 150 150 142 159 183 184 194 177 172 171 176 167 183 175 165 155 148 152 162 176 179 169 159 155 158 164 188 206 191 207 194 179 168 182 176 150 140 165 147 164 175 180 159 119 110 124 115 77 142 143 115 140 168 130 154 158 162 120 200 124 165 91 99 195 117 171 80 157 103 63 72 111 104 154 81 93 87 88 121 117 101 170 131 116 89 78 91 101 59 53 57 86 101 63 75 101 86 146 92 94 156 140 120 68 87 74 101 115 69 75 73 170 180 144 197 101 88 180 69 65 90 74 67 68 173 85 109 148 153 190 176 168 134 96 159 72 174 147 124 148 39 151 82 149 157 110 125 176 179 121 198 123 120 94 168 130 154 216 202 188 94 169 165 181 172 116 111 158 159 77 73 125 142 176 139 184 80 87 138 78 152 138 164 174 130 153 172 182 80 63 175 140 122 136 177 148 151 90 58 118 117 70 94 146 136 140 143 153 164 93 153 181 96 182 179 104 116 93 124 80 178 84 184 82 169 105 163 68 68 170 136 180 127 201 205 195 175 176 187 187 110 132 131 67 177 182 180 161 46 140 133 87 119 131 138 153 126 155 105 143 169 83 98 203 107 100 163 90 160 208 118 94 157 53 136 188 110 102 165 200 142 139 77 109 184 168 154 145 78 164 139 72 82 93 156 126 206 208 200 124 160 109 165 141 141 115 95 156 91 142 133 116 149 101 161 99 99 176 94 183 75 85 184 99 210 179 112 68 96 139 150 105 157 206 126 170 146 149 106 57 102 156 200 119 206 207 185 99 127 161 164 71 92 177 135 96 179 181 108 175 164 166 128 138 132 60 136 102 93 154 153 68 59 167 76 101 92 141 102 81 101 43 143 77 145 159 184 115 200 177 194 234 222 185 149 76 72 165 106 76 71 130 120 85 138 120 199 184 176 86 82 63 130 154 79 191 107 206 203 139 120 171 93 88 162 83 70 151 89 139 106 166 85 138 171 176 139 175 81 138 118 202 152 146 149 109 123 71 134 133 49 76 176 192 93 166 130 130 160 116 165 153 66 56 66 158 161 182 91 77 138 197 117 174 110 83 176 167 125 110 66 73 160 90 180 143 192 118 171 108 92 114 120 95 153 89 151 116 125
120 122 119 111 107 115 129 138 137 127 126 130 147 133 132 134 160 159 169 171 169 166 151 166 181 170 255 153 156 149 156 156 170 166 168 163 161 168 177 191 203 209 205 195 193 162 199 187 188 186 190 159 155 196 145 203 203 164 93 120 73 67 82 174 161 88 131 95 124 181 166 115 123 113 102 140 125 109 102 99 93 77 79 92 157 161 101 87 81 85 104 116 110 152 119 143 125 115 132 94 92 97 75 116 123 119 88 109 88 89 94 86 141 126 81 129 74 59 70 77 81 64 114 145 85 161 205 201 188 129 111 163 68 165 138 77 175 59 152 139 97 88 151 65 99 136 46 145 157 161 142 122 49 141 131 163 145 168 128 167 190 195 153 151 118 88 182 144 196 137 196 131 120 110 77 112 89 191 143 126 196 137 137 109 190 169 186 91 97 138 92 139 69 86 144 130 60 178 176 77 86 80 171 99 157 193 212 208 154 172 173 168 122 144 38 122 80 95 86 80 146 105 118 133 174 101 186 120 82 122 96 78 107 131 164 81 160 63 107 110 165 65 152 159 79 190 200 151 178 78 183 193 135 178 174 106 162 72 173 169 57 61 142 43 85 152 131 106 112 102 112 74 138 152 197 151 118 210 203 129 144 113 101 150 79 169 106 146 108 111 143 96 94 85 86 71 125 102 143 188 109 98 79 164 175 175 93 125 120 164 156 109 112 129 173 66 133 101 183 128 124 93 108 101 161 136 185 141 151 176 136 93 172 80 141 128 113 191 214 105 164 136 61 175 136 174 209 176 96 146 150 140 106 75 89 104 113 146 184 180 178 75 171 89 118 97 139 93 183 179 169 201 208 98 112 69 91 96 133 144 181 148 182 101 85 72 186 194 187 81 58 45 62 139 82 168 153 195 117 197 161 164 229 139 230 218 164 179 103 133 160 124 141 161 142 42 50 105 154 85 141 154 76 158 161 163 56 135 165 191 101 102 152 161 201 189 86 182 66 80 139 52 89 61 142 67 133 58 70 147 160 143 144 171 98 102 161 90 164 122 73 138 147 107 50 133 167 101 176 105 181 206 197 175 102 41 135 92 85 96 102 192 162 162 76 121 149 142 93 81 67 181 71 122 54 58 71 176 166 128 195 132 132 114 160 112 69 167 177 164 198 105
117 126 130 129 120 122 136 135 137 135 131 142 144 141 136 144 153 159 153 160 169 164 170 171 178 178 166 152 164 165 164 161 169 169 168 170 170 166 171 183 193 193 197 186 198 201 203 177 196 168 198 173 149 185 193 201 164 207 175 131 72 94 146 161 103 96 143 176 138 145 140 173 136 103 102 111 110 151 157 160 170 143 74 132 173 111 153 149 86 85 96 110 130 133 126 153 115 86 131 74 80 77 96 91 93 120 118 79 84 107 118 94 79 112 108 111 99 93 94 61 58 57 122 95 99 100 144 163 75 161 62 176 80 183 205 206 183 166 98 64 88 163 156 153 156 103 145 148 186 88 174 56 60 53 124 78 164 91 163 149 182 135 206 137 154 85 156 192 153 177 185 106 109 123 58 156 100 99 205 172 190 75 138 159 170 210 160 83 160 102 93 127 151 163 152 90 45 58 154 153 163 94 74 179 134 198 171 177 154 142 186 104 175 79 64 74 131 138 122 46 140 53 118 104 143 166 168 87 145 166 76 102 174 99 79 77 175 67 89 145 143 144 39 60 255 82 92 165 70 60 82 162 185 123 116 160 91 177 136 130 130 70 154 88 94 150 74 88 163 147 119 160 152 174 203 159 177 211 166 119 78 163 112 92 73 84 170 113 114 82 138 80 185 182 142 58 103 148 151 174 131 89 197 158 96 113 208 150 164 224 127 100 89 182 75 42 51 156 64 171 148 170 92 118 85 151 179 198 174 214 198 96 92 139 100 183 109 145 153 185 148 55 69 185 203 232 168 168 199 157 143 131 56 144 172 112 206 172 154 158 90 111 104 194 125 187 96 184 172 86 184 155 198 187 80 162 57 124 44 148 93 165 102 156 150 140 193 173 121 122 164 88 56 44 99 77 202 116 153 218 223 221 129 198 202 150 204 145 116 79 127 57 56 106 118 131 125 58 76 79 120 154 163 131 70 164 54 103 120 119 160 101 202 110 142 104 161 102 150 80 48 150 152 107 156 162 161 53 140 65 44 47 56 89 190 107 183 121 172 83 64 142 131 35 92 158 93 192 188 196 133 102 183 171 137 125 66 131 184 175 151 199 123 85 71 66 103 124 46 129 62 79 121 158 81 119 66 96 82 136 111 137 114 141 175 126 146 81 68 96 179 164
121 133 142 140 132 126 128 133 134 124 133 143 159 157 162 137 136 144 159 155 176 176 173 189 179 177 171 167 164 178 182 181 182 183 180 175 172 165 177 183 186 174 182 189 198 204 212 194 175 206 194 194 180 179 185 206 164 203 147 119 84 87 152 138 111 113 182 168 104 103 181 140 104 121 122 115 118 135 157 119 126 135 63 65 115 144 113 91 120 85 106 170 111 159 96 95 84 84 76 81 66 106 101 141 137 95 115 81 84 99 73 135 76 83 84 100 131 61 125 32 20 99 50 127 146 111 73 140 67 79 165 76 95 110 159 183 95 168 117 160 112 160 108 43 47 156 58 154 129 94 93 129 137 45 58 92 90 88 139 61 165 179 200 179 120 179 126 198 186 207 165 102 87 85 155 103 183 201 181 140 182 185 139 188 141 156 101 156 137 99 95 131 178 170 148 36 47 59 63 65 55 55 92 160 129 147 234 134 162 135 193 180 184 157 140 126 141 35 125 130 59 48 123 142 162 105 123 82 128 81 99 158 178 75 172 128 177 71 62 137 42 77 92 62 158 137 168 143 69 149 167 107 163 196 133 201 161 149 70 145 156 62 161 80 88 169 160 104 152 156 173 143 82 84 195 131 89 87 128 180 71 70 171 151 95 90 155 111 85 92 116 185 87 180 128 148 153 149 63 94 151 110 115 88 108 130 214 127 150 187 126 92 97 99 118 67 86 88 57 101 70 166 87 90 82 64 135 88 202 100 102 94 129 138 207 208 206 159 201 100 162 108 70 97 209 127 209 163 97 72 85 42 157 147 202 215 111 138 174 142 158 160 129 194 187 170 83 150 82 60 60 167 92 134 81 176 155 104 145 167 160 132 166 108 201 213 195 216 104 89 170 84 51 83 169 88 110 196 148 174 174 149 192 209 109 184 100 85 134 178 170 172 121 64 131 44 152 71 71 146 100 96 145 165 80 95 61 66 56 96 90 195 101 177 91 175 130 84 141 77 68 61 60 141 107 167 73 137 119 50 138 140 76 172 78 98 172 177 144 87 56 137 99 59 48 62 112 141 183 130 154 89 98 149 49 52 70 83 127 202 198 111 138 193 131 109 119 61 72 92 109 77 64 52 70 132 128 164 89 101 116 209 100 198 99 77 161 128 167 76 172 204
119 132 147 149 139 135 131 125 125 132 138 152 157 172 172 143 146 137 138 154 170 182 189 194 190 188 165 165 171 178 186 185 188 194 187 182 182 177 180 176 187 198 179 194 191 209 190 187 198 193 175 192 170 155 134 179 154 140 156 132 118 154 139 113 149 153 117 148 184 145 111 117 164 121 134 180 91 77 108 164 109 105 125 38 120 76 105 157 88 129 133 88 94 148 98 72 83 79 112 82 66 97 113 89 78 75 108 91 73 95 70 130 126 148 94 130 131 135 45 98 45 112 103 155 93 99 60 59 60 74 170 184 109 160 220 157 101 120 180 142 56 150 142 141 147 69 157 139 174 136 53 72 92 139 90 187 127 137 169 89 142 120 176 184 165 203 181 106 169 134 162 113 127 122 67 84 111 148 145 217 168 181 191 148 182 113 204 101 167 180 130 147 81 141 150 99 135 140 159 64 143 122 115 157 229 212 225 215 168 88 142 138 110 191 62 90 41 139 97 78 131 146 161 93 69 168 167 181 123 147 108 80 80 175 171 108 183 159 97 52 115 140 131 149 150 66 79 132 84 81 163 139 150 100 148 209 99 150 93 104 177 177 88 176 147 166 82 185 95 112 127 155 170 78 179 177 73 150 63 87 71 72 127 105 78 59 69 119 189 89 171 86 100 100 94 85 115 81 62 84 130 90 149 80 108 204 204 120 102 84 121 94 84 94 166 105 44 135 84 159 112 91 101 170 184 70 68 164 163 82 101 97 93 95 121 86 183 182 129 104 144 170 120 111 183 115 215 211 185 68 161 120 67 120 182 218 205 137 113 122 47 107 67 140 112 181 165 77 132 151 153 152 77 169 180 82 83 112 69 146 140 185 84 192 160 194 209 213 188 117 113 122 86 88 84 109 119 229 169 144 105 104 189 197 186 157 142 73 183 131 99 91 97 162 85 114 118 157 84 133 181 137 76 72 113 109 159 153 112 168 78 191 91 172 172 91 83 193 137 186 142 116 73 94 171 143 145 138 118 32 118 74 122 58 69 95 99 70 63 135 160 93 143 62 38 121 126 74 159 95 85 109 115 85 121 77 101 183 92 167 104 102 194 103 107 74 103 92 134 125 141 69 150 81 139 47 27 61 74 183 157 94 101 87 101 89 65 147 89 123 105 143
120 131 144 148 144 136 131 124 118 124 141 137 157 161 160 153 147 127 139 139 174 178 186 194 197 188 173 159 165 167 177 192 197 199 195 185 183 181 176 198 202 208 186 179 181 198 187 160 194 178 193 181 179 150 187 166 167 186 146 101 148 180 163 158 170 165 152 147 110 155 189 188 123 105 167 122 125 105 73 113 90 94 47 24 67 51 138 86 102 80 82 88 74 116 81 77 76 93 81 102 90 56 62 56 106 56 92 90 75 82 90 149 133 110 93 72 100 53 70 105 74 43 255 52 101 75 101 37 108 51 144 81 93 106 189 255 92 165 96 79 167 41 123 128 125 174 107 121 83 60 155 148 93 148 255 135 141 160 160 128 40 94 167 188 202 123 157 178 168 194 115 203 151 100 92 190 133 209 130 215 183 166 189 182 190 159 172 163 178 129 134 192 179 74 158 130 124 138 58 49 43 38 159 75 110 135 152 172 177 85 105 201 191 138 68 146 154 135 40 117 55 87 170 137 108 162 82 187 173 172 113 121 191 87 182 82 157 172 176 67 155 49 123 159 77 107 124 73 112 140 153 144 181 124 201 191 151 175 91 140 93 124 149 178 184 116 163 127 105 115 161 124 102 118 140 63 64 50 139 64 72 160 72 69 79 135 122 182 86 87 140 192 109 166 141 100 110 99 67 73 82 140 73 148 170 194 110 188 255 104 146 102 198 167 92 147 91 86 84 138 177 208 120 183 80 85 158 144 125 77 74 105 182 186 74 125 56 129 175 161 57 130 136 93 119 204 205 186 146 94 164 55 117 159 165 179 196 164 122 149 149 82 157 155 174 113 163 58 75 153 147 64 176 155 76 68 79 127 82 64 134 106 65 159 109 204 208 205 197 185 177 76 120 111 74 184 111 198 202 111 130 198 189 160 73 162 147 172 89 126 162 165 90 189 192 115 57 46 116 153 160 188 121 106 172 255 161 98 58 136 171 78 186 133 83 159 110 185 192 185 172 88 175 180 159 106 74 63 139 108 130 52 84 48 161 163 181 173 160 146 87 178 100 154 126 134 99 149 77 167 195 92 184 95 102 161 176 104 135 113 188 96 127 132 73 89 75 76 93 128 154 170 121 72 112 72 70 111 151 194 130 149 80 80 78 155 63 111 77 84 99 198
119 125 133 141 141 140 139 126 129 134 149 152 155 163 179 154 142 140 132 133 157 175 189 196 197 190 172 157 157 153 166 183 194 199 195 186 182 181 182 197 208 202 198 192 187 187 189 173 183 173 184 173 210 203 186 195 185 188 114 158 166 133 161 119 89 151 102 101 134 124 118 139 134 106 96 153 161 74 94 165 92 58 113 35 53 117 114 85 89 125 79 67 75 85 81 73 87 61 74 77 47 52 56 46 41 49 47 90 147 113 101 160 164 170 77 103 71 79 68 92 62 49 112 101 34 120 63 41 24 48 53 147 199 91 87 167 193 142 173 159 173 103 55 48 127 98 185 140 151 159 102 137 102 125 52 131 147 106 91 40 43 135 54 102 154 139 90 132 179 196 197 125 210 187 199 168 222 167 134 135 118 189 188 129 181 155 157 105 132 114 87 146 179 178 87 177 159 69 111 139 59 53 140 141 169 103 88 190 140 182 90 200 140 186 158 168 147 126 103 55 71 157 76 152 92 163 131 170 86 97 184 144 102 190 103 173 162 125 114 86 148 122 171 67 167 133 96 184 167 135 138 166 131 176 177 128 113 199 189 187 110 167 166 66 118 159 124 117 214 187 130 167 156 71 141 70 63 166 147 68 71 114 151 161 53 81 170 163 191 182 110 97 111 127 123 111 184 174 77 118 110 184 112 132 74 186 150 160 134 91 188 195 94 121 131 86 140 105 174 171 172 114 103 146 91 109 123 106 93 109 104 91 97 143 155 130 140 119 52 135 45 154 110 118 177 196 146 87 98 152 129 109 98 88 119 154 92 181 141 138 78 134 158 100 125 100 161 121 61 69 82 125 71 148 112 96 158 164 81 166 172 140 127 149 105 180 97 133 190 115 77 154 167 90 64 92 148 128 215 211 102 138 117 170 99 171 158 113 117 202 182 201 138 194 108 162 167 50 112 141 111 193 110 146 104 153 129 67 160 109 93 170 117 181 178 135 145 146 163 134 140 148 78 110 158 135 58 71 65 133 144 119 52 129 55 89 177 71 124 121 193 190 107 68 40 40 55 156 85 177 181 107 177 95 101 83 150 99 139 138 164 77 178 184 76 172 150 136 76 111 71 79 69 66 58 95 105 19 65 161 163 174 132 109 89 167 150 128 137 100 153 140
130 128 125 128 130 135 131 130 138 138 138 151 155 166 175 176 156 135 124 119 148 161 174 180 196 197 185 173 160 159 169 182 191 194 193 188 179 171 182 183 197 198 166 185 179 186 176 183 179 140 144 157 187 201 160 144 157 182 178 147 154 130 136 170 91 74 107 173 149 127 173 159 101 151 131 127 157 96 183 94 86 125 145 122 76 143 106 145 105 80 84 109 64 74 130 90 95 66 65 67 105 65 67 42 34 42 69 90 143 161 127 135 147 98 95 143 70 54 58 143 50 49 48 106 35 123 50 119 22 26 153 165 91 88 186 77 191 140 120 132 74 162 156 84 129 111 194 97 73 148 86 59 102 141 101 166 95 130 179 48 79 32 114 128 114 175 96 152 165 126 203 169 158 218 217 138 184 147 221 151 124 193 130 174 146 158 103 52 66 108 73 70 149 131 92 150 154 182 86 101 62 63 124 19 138 157 133 130 175 170 190 91 180 78 167 111 96 146 116 101 132 82 113 152 128 175 165 174 95 145 143 178 180 191 102 107 81 106 195 99 111 198 138 131 181 193 188 76 163 74 150 155 93 134 90 166 118 101 146 166 162 76 155 148 40 54 99 129 129 146 124 151 87 123 169 142 177 169 90 138 154 129 148 156 52 108 121 255 138 101 84 152 133 128 98 98 107 180 175 170 86 149 69 67 78 174 93 165 115 85 109 141 135 107 104 167 73 121 83 195 142 136 109 115 67 145 104 79 95 159 124 125 196 117 55 41 104 46 130 84 117 60 112 100 159 133 177 191 159 151 164 56 255 182 154 146 191 101 154 148 162 174 141 146 138 58 55 59 145 133 160 110 151 163 77 82 76 105 150 142 116 84 152 142 108 169 110 193 185 140 135 150 126 46 130 166 137 197 203 146 176 204 102 158 191 116 96 178 118 108 191 149 138 165 138 95 153 161 123 171 84 108 87 180 183 88 80 179 170 68 77 98 168 189 189 114 90 136 142 173 169 122 91 183 154 83 106 127 107 71 136 147 124 69 53 53 167 138 77 111 194 162 185 170 151 137 125 128 188 203 98 123 155 140 159 157 157 95 144 98 72 92 177 95 163 92 113 101 66 100 171 145 60 72 36 21 71 133 122 131 118 201 182 66 123 167 156 62 161 136 107 118
131 122 110 105 115 124 132 134 132 132 129 154 165 187 183 176 149 125 125 113 135 157 168 186 186 197 190 174 166 162 167 188 198 198 188 182 184 175 176 181 180 184 185 190 192 173 187 159 181 167 159 154 183 187 204 165 183 137 127 127 180 169 166 120 140 70 144 110 107 126 133 190 98 177 124 149 131 203 127 106 81 85 117 86 128 148 105 92 66 63 50 60 121 75 110 80 107 96 74 78 81 78 91 41 94 53 81 85 102 130 140 125 117 158 101 63 62 61 135 58 47 70 121 74 106 87 34 131 22 47 131 171 165 107 119 72 85 88 111 189 174 156 162 69 189 204 179 89 147 166 136 71 77 109 117 125 131 125 149 140 68 142 138 114 134 103 179 111 193 211 159 139 192 130 177 109 121 149 115 190 81 101 77 161 48 113 42 151 153 126 155 117 72 88 84 200 187 133 108 62 90 61 74 53 126 74 86 115 158 129 81 102 141 173 117 158 138 101 96 62 83 150 205 194 160 184 132 107 60 74 103 196 155 120 152 154 168 114 199 205 165 204 193 97 192 130 143 161 69 165 74 58 133 177 193 192 150 132 68 93 46 57 120 102 97 38 172 127 119 163 145 179 82 116 147 180 111 149 123 68 114 154 100 77 72 153 141 174 182 83 176 112 97 141 106 99 94 197 143 92 107 125 90 69 73 132 111 121 193 133 108 126 101 86 141 141 43 255 136 94 192 141 179 153 72 54 48 116 144 185 135 132 123 197 67 91 82 67 68 136 64 157 81 198 201 120 86 89 174 127 94 150 171 161 156 177 116 140 97 193 191 98 102 73 164 53 143 64 69 111 48 149 69 111 156 89 99 131 59 99 82 133 60 142 97 150 89 89 180 111 144 92 143 51 125 81 77 141 177 199 99 94 149 81 189 197 203 199 81 75 168 87 157 152 185 183 104 184 183 175 200 105 140 89 161 165 85 186 85 64 88 171 80 168 184 131 121 144 159 78 161 154 108 184 160 119 171 149 139 145 138 153 56 52 57 50 127 135 77 84 144 80 160 152 126 152 157 181 187 197 110 173 111 155 76 70 170 181 126 119 101 111 163 74 78 152 160 65 147 74 171 79 148 96 148 95 144 139 118 188 206 153 73 99 84 69 48 128 53 107 77 163
132 119 105 100 106 112 135 136 139 123 126 135 159 174 190 155 137 117 110 113 136 159 170 170 165 183 182 174 161 174 185 196 205 200 193 193 187 177 168 171 165 175 181 172 185 206 172 200 186 136 160 177 170 170 163 137 116 187 154 146 180 176 126 104 107 62 136 84 126 128 138 102 91 176 119 163 169 128 112 156 71 104 146 178 114 108 89 65 54 40 37 63 64 111 105 82 100 60 73 122 118 73 103 82 91 97 75 103 255 142 125 110 118 168 132 151 62 78 152 49 38 47 39 47 100 52 99 127 134 134 131 57 85 158 76 116 173 177 83 182 116 107 133 94 106 127 181 108 149 67 50 119 22 116 101 148 157 172 160 188 176 70 179 129 142 102 185 107 199 192 175 184 138 189 141 75 108 108 90 166 151 99 96 165 153 154 127 115 158 144 94 63 61 158 93 196 190 113 116 173 122 74 67 85 26 85 80 79 171 71 87 84 65 78 77 78 153 136 147 135 149 178 175 194 148 186 142 126 49 111 105 87 190 182 90 97 74 167 200 190 209 142 187 164 88 80 172 68 156 94 161 169 76 181 135 165 84 157 137 88 138 72 45 137 25 137 59 121 205 200 184 179 91 169 71 170 93 181 156 130 99 142 48 140 85 116 158 255 104 178 185 84 78 121 146 160 124 202 112 206 96 122 121 129 114 118 102 108 115 101 83 106 68 124 104 49 58 37 75 63 144 94 191 151 136 131 42 64 81 123 209 225 198 125 180 142 97 140 86 76 144 99 197 175 148 193 109 124 96 104 87 102 106 143 173 179 125 131 186 190 200 196 133 177 75 70 17 18 126 117 64 44 150 93 168 126 72 51 66 103 172 112 100 148 65 118 103 184 172 207 192 102 173 69 154 151 171 180 174 158 121 75 72 107 166 145 194 186 104 160 158 76 155 184 184 136 168 162 165 105 193 180 110 127 119 184 185 191 141 173 63 157 119 132 162 156 185 74 67 93 94 199 120 103 190 157 167 118 106 100 62 176 181 174 57 73 34 39 152 64 164 160 70 97 128 98 172 93 206 186 178 109 129 127 152 118 80 185 162 167 67 142 139 161 70 172 65 153 172 69 94 102 99 85 79 94 133 192 147 196 131 169 87 62 83 87 85 28 97 146 100 49
116 108 102 96 107 118 133 142 137 111 105 120 142 173 173 155 144 127 126 124 134 143 148 162 156 167 175 176 173 183 189 200 202 202 195 200 202 193 186 175 160 177 181 160 183 176 195 191 146 172 125 130 156 145 170 180 149 122 180 172 186 167 98 75 87 92 57 83 89 60 137 95 171 92 101 115 131 176 125 85 85 72 87 156 175 103 82 71 58 36 42 103 255 99 49 43 52 82 91 108 133 86 74 101 68 79 79 86 151 156 80 138 125 83 90 103 86 75 61 144 133 57 134 68 85 93 125 39 138 119 40 53 67 75 86 92 138 85 65 99 100 72 154 66 170 96 194 114 145 164 123 135 91 106 99 61 85 102 184 118 149 157 162 186 123 185 134 149 129 125 175 155 104 91 97 61 34 108 134 63 135 101 94 161 144 93 91 173 85 152 61 94 144 160 92 175 177 105 119 146 195 77 124 149 117 156 171 112 88 114 72 63 145 156 88 109 70 156 151 138 98 127 94 119 255 255 163 168 144 57 71 128 141 154 124 157 170 176 193 93 198 212 180 208 85 170 174 100 99 110 194 157 94 80 184 88 75 109 33 70 82 145 110 119 38 41 157 101 182 178 182 110 101 103 145 173 203 199 85 176 151 87 83 82 114 122 187 112 115 102 92 83 140 143 161 128 108 102 111 121 115 112 118 188 138 125 110 141 122 91 107 68 164 122 51 110 123 118 75 71 127 173 137 77 60 46 45 66 169 77 93 96 197 186 174 202 111 158 126 158 189 112 171 148 206 116 202 255 105 133 168 134 112 121 198 130 166 173 107 190 203 180 97 159 80 86 91 23 119 35 146 133 107 132 130 139 85 128 59 166 179 151 51 117 147 142 142 142 110 133 173 136 188 185 127 157 108 170 75 139 98 164 172 175 185 131 108 107 64 55 165 159 87 155 152 144 131 195 126 179 128 208 209 184 126 117 189 93 195 139 164 110 100 158 137 152 99 106 94 163 172 129 110 91 153 175 128 190 171 114 176 182 88 169 165 129 68 132 36 49 55 149 126 186 95 135 116 186 191 181 162 101 115 153 69 111 130 170 110 68 73 57 106 78 120 74 112 143 161 139 149 178 195 135 196 110 104 128 154 207 121 66 127 66 60 44 102 57 85 111 29 62
109 109 111 113 122 128 141 138 115 95 103 109 134 154 157 132 136 131 129 128 149 147 165 171 175 167 170 157 170 184 195 199 202 193 201 197 203 198 189 172 178 178 176 173 149 179 178 164 180 143 138 175 132 161 148 147 176 150 185 255 210 122 170 143 111 79 67 61 69 62 127 153 87 90 118 188 200 112 101 68 109 93 80 146 102 144 69 82 95 47 73 70 102 55 71 54 92 90 64 98 84 100 97 74 102 78 129 75 99 106 126 114 119 67 92 67 94 77 82 60 72 57 70 157 84 150 127 38 74 42 68 57 165 174 81 178 69 160 119 181 108 114 166 113 157 120 180 170 151 168 91 141 134 137 47 130 51 69 145 139 192 210 126 206 133 114 117 137 180 96 153 128 160 72 156 143 128 69 67 42 140 129 99 170 135 185 100 192 108 151 102 160 69 68 136 165 152 103 193 178 179 198 125 148 129 88 72 184 88 148 134 119 110 76 84 115 78 106 165 68 126 146 82 135 112 98 167 167 158 147 56 54 33 134 139 64 78 159 131 171 119 208 210 207 196 80 78 96 255 206 179 193 182 187 189 92 170 114 139 133 115 161 155 135 68 143 86 143 150 94 72 85 73 71 142 150 152 115 154 119 132 71 75 86 136 116 148 102 108 144 91 115 107 80 76 132 69 180 116 186 119 113 208 122 123 77 100 106 80 69 61 98 79 74 170 81 165 116 163 69 84 103 77 75 78 112 57 124 56 66 61 121 72 94 151 186 218 157 148 98 133 169 213 196 219 208 193 201 187 96 110 158 191 191 156 104 178 166 159 181 208 198 146 84 66 95 101 123 57 100 44 89 163 130 156 152 83 163 114 163 88 158 150 115 163 180 138 193 191 198 192 183 164 122 84 155 117 99 73 115 108 162 121 189 196 111 136 162 56 61 109 165 101 171 84 161 92 161 151 189 119 140 154 119 102 201 154 148 186 189 110 140 66 156 50 92 127 162 141 101 135 152 154 188 145 167 107 115 169 78 111 108 191 170 81 53 115 44 148 161 70 180 108 172 105 115 182 112 177 166 158 130 71 84 143 109 91 180 159 142 111 168 98 68 64 120 101 187 171 89 102 97 182 120 207 120 137 209 141 143 76 123 42 34 70 78 79 25 37 90 120 82
99 109 121 133 141 149 150 140 119 96 90 111 124 145 143 139 151 152 149 137 141 151 152 179 181 179 171 168 175 177 188 197 193 189 191 195 203 195 188 177 166 162 175 171 148 162 150 139 174 179 139 184 188 178 173 168 140 152 147 137 201 156 126 142 69 95 148 139 113 89 142 164 103 94 87 78 147 88 90 108 116 148 106 137 120 80 116 71 57 57 56 66 67 71 52 55 71 77 71 87 118 78 82 107 76 89 105 111 85 113 54 94 60 111 126 52 93 82 80 175 147 150 114 97 137 60 50 141 118 133 54 54 147 80 70 182 87 113 131 179 159 158 162 142 151 139 74 170 137 75 97 84 167 142 35 108 55 135 173 187 177 201 208 145 204 127 173 152 72 109 177 80 182 91 99 107 96 66 93 109 55 54 82 84 192 127 194 196 148 137 177 125 109 63 78 157 162 83 171 179 149 143 208 187 134 94 156 93 98 133 103 86 119 151 90 95 116 145 95 72 60 152 54 105 131 144 66 183 174 98 82 77 120 110 109 153 98 62 156 172 148 98 206 182 179 162 181 188 150 102 195 93 185 173 111 110 176 95 116 67 98 59 103 82 164 153 139 148 89 141 144 101 149 81 71 138 92 78 172 73 163 150 92 170 143 171 96 136 153 147 194 118 82 141 78 61 130 69 87 120 191 109 101 85 69 169 128 166 54 42 140 140 57 162 92 95 142 145 81 83 38 94 93 89 149 159 91 53 60 133 123 96 116 49 126 87 111 118 209 103 183 156 182 213 167 109 202 172 159 181 182 206 221 181 214 160 175 171 112 255 159 188 116 150 122 148 126 80 109 117 135 57 138 157 179 79 133 92 176 170 78 88 123 78 204 101 157 82 183 188 86 164 100 160 156 86 158 64 69 87 132 109 203 123 204 199 169 169 58 124 89 191 163 90 109 73 90 148 165 169 124 194 147 171 176 93 92 147 163 85 135 171 59 107 99 119 66 74 145 179 155 159 161 83 104 195 132 197 144 173 82 84 185 156 155 133 68 149 94 135 179 200 207 199 150 119 109 167 165 81 70 58 120 118 194 165 110 84 91 78 158 105 79 58 153 76 93 92 187 188 161 146 139 107 180 157 95 114 92 188 164 86 44 42 39 120 133 34 136 74 104 37
106 118 137 152 165 173 169 150 124 110 101 112 117 131 138 156 160 160 158 154 147 161 168 185 181 190 184 175 179 188 189 192 186 180 182 187 194 185 176 170 176 157 161 156 151 163 149 162 156 160 163 194 191 206 202 197 131 176 161 152 184 161 150 110 112 105 129 145 157 68 90 95 190 153 136 71 95 158 136 85 119 91 131 119 102 98 70 64 71 61 63 103 66 85 119 255 96 75 74 65 83 79 82 83 69 106 74 105 142 75 96 27 17 90 93 54 69 87 106 86 107 85 92 97 64 51 133 44 43 156 46 57 146 50 55 133 170 97 92 177 182 64 143 158 78 78 158 163 136 173 74 155 98 82 78 136 136 108 136 89 110 119 180 174 128 165 155 60 124 82 179 193 175 188 109 164 160 133 154 122 110 97 132 83 168 86 186 158 177 157 156 155 93 63 111 97 69 118 153 84 97 110 193 193 109 92 80 136 156 151 130 82 100 123 176 160 144 136 79 149 75 105 142 129 138 60 64 169 111 174 165 158 129 142 120 108 64 60 109 173 184 106 99 141 206 120 137 109 136 98 145 182 157 96 116 184 151 114 62 93 114 92 142 172 155 167 125 110 160 82 141 119 81 44 123 110 97 92 122 76 131 199 126 202 202 154 183 82 170 206 103 182 88 164 92 113 73 80 172 157 89 94 146 108 69 58 152 79 70 79 40 79 118 84 93 123 115 106 105 34 86 92 56 101 147 62 149 90 133 65 139 134 69 143 167 119 203 114 155 169 109 172 200 105 188 87 118 96 69 178 152 177 205 132 172 202 130 181 200 112 132 201 89 101 138 162 97 112 66 157 62 102 138 156 156 97 145 111 185 96 147 134 74 174 116 121 198 80 124 170 154 75 152 77 70 62 129 70 152 175 171 212 120 222 216 106 79 152 157 114 107 78 150 164 180 137 130 122 94 171 157 182 121 198 135 98 100 129 163 191 157 114 99 162 152 152 58 101 115 174 106 99 88 117 176 187 181 118 77 101 74 176 94 74 171 165 139 169 138 190 170 209 150 192 101 172 102 83 160 175 166 139 69 175 124 132 180 162 170 179 158 97 75 122 154 54 130 162 136 124 178 197 94 155 104 129 184 143 78 182 79 69 144 143 107 19 129 36 73 127 72 151
115 128 143 160 175 187 176 161 138 126 111 122 126 127 156 156 179 182 171 141 149 157 175 188 200 203 199 190 186 194 200 196 188 177 169 174 178 164 167 163 166 147 170 159 152 186 186 172 179 184 179 193 182 195 194 186 147 174 170 142 151 163 183 129 121 122 161 98 119 151 127 146 112 168 111 119 130 151 80 155 189 104 125 97 166 138 134 147 83 80 95 64 81 89 76 69 84 96 132 70 70 79 133 107 62 64 76 115 103 102 83 44 87 87 43 51 98 74 100 83 141 93 86 112 108 48 119 96 69 159 108 39 138 45 122 84 63 151 151 138 153 152 50 145 99 168 61 150 154 166 62 152 164 113 153 51 139 148 131 66 153 89 133 176 170 107 120 127 93 84 153 128 188 218 195 134 145 126 97 63 66 93 58 141 57 78 154 133 169 109 148 110 190 153 150 98 72 123 161 88 157 180 171 190 155 112 186 169 171 175 95 77 162 117 103 145 68 141 148 123 144 76 140 79 48 90 153 96 108 109 111 171 153 121 69 67 101 92 157 126 192 109 200 202 96 199 180 169 89 161 155 159 84 186 113 142 143 115 154 91 90 117 112 88 180 105 148 56 74 133 132 155 136 61 58 148 122 112 165 103 124 200 165 176 96 85 63 90 183 97 173 135 142 141 169 168 125 83 168 115 177 173 79 146 98 70 79 76 43 76 120 93 46 153 116 136 87 74 80 54 129 40 146 88 74 87 71 107 167 130 139 65 54 144 128 122 228 160 184 98 149 152 111 210 139 179 121 125 168 85 175 174 160 119 168 200 136 179 97 202 190 124 154 182 174 180 173 179 82 67 85 115 44 89 107 101 135 105 190 104 65 108 173 102 178 197 170 118 105 102 62 64 74 91 59 101 56 154 178 194 107 148 115 171 107 121 80 177 96 167 170 78 130 181 134 171 172 177 75 82 75 75 184 155 209 192 103 124 188 117 169 169 175 90 63 172 147 178 95 102 90 139 109 160 113 160 171 142 186 72 85 130 105 187 78 177 174 178 162 196 154 169 195 90 188 163 63 82 170 104 176 107 108 156 255 109 90 139 152 97 132 111 80 62 115 146 50 40 123 63 88 84 81 144 90 91 105 125 78 98 99 162 122 166 147 57 85 33 44 121 109 61
136 143 150 158 172 179 175 162 144 133 131 131 130 142 164 172 184 189 182 154 156 157 179 184 209 211 208 198 195 199 202 201 181 175 167 161 167 159 156 136 153 156 163 172 179 195 194 189 211 180 166 192 171 185 159 170 111 156 116 179 189 163 153 162 192 157 112 93 153 159 118 192 195 143 136 117 81 81 84 181 101 167 155 83 101 99 81 120 88 121 96 73 64 65 76 90 90 109 91 109 82 106 80 92 73 113 91 140 128 131 104 47 21 14 112 133 77 87 135 80 72 255 129 111 132 78 145 117 68 68 149 53 109 136 29 117 156 175 175 119 95 63 133 50 160 136 103 58 158 146 48 70 48 94 46 143 151 157 97 170 140 177 160 118 147 84 110 150 58 151 169 190 227 153 141 204 111 127 155 114 62 58 86 157 56 153 66 95 164 119 163 98 77 102 43 127 170 112 114 51 136 149 136 159 208 199 87 110 144 55 99 68 115 108 48 94 136 135 135 55 155 72 76 166 138 130 84 61 160 121 131 159 68 87 112 70 164 172 177 190 103 148 192 83 104 190 174 114 44 153 57 126 137 177 88 67 114 153 66 183 199 186 156 110 144 140 166 70 118 74 71 149 156 64 118 177 148 156 137 188 89 196 126 189 73 162 136 110 124 134 127 210 177 146 151 115 90 159 89 129 87 164 73 103 95 73 82 66 89 58 78 151 77 69 146 80 134 77 104 41 100 57 171 153 155 81 109 147 183 135 154 196 87 93 175 177 206 162 118 79 180 127 129 125 201 78 115 92 157 177 87 177 73 184 161 133 187 170 129 198 117 167 102 139 183 103 192 135 150 75 89 126 132 159 80 162 178 195 202 81 112 167 77 170 159 206 138 168 147 64 142 151 128 130 92 103 138 160 73 90 109 114 99 93 84 184 182 181 142 69 63 161 62 64 175 74 81 73 163 72 130 159 95 211 221 218 208 215 143 150 192 157 162 183 165 147 151 94 131 156 175 125 193 100 195 164 210 151 86 172 105 84 163 168 110 191 85 93 96 179 90 155 77 169 76 167 112 94 76 144 166 109 169 97 109 158 184 65 79 152 93 86 87 141 99 99 45 88 47 59 115 56 148 184 107 93 112 175 119 255 116 145 107 96 155 49 70 142 54 81 158 87
141 144 147 145 150 153 161 159 151 133 132 127 132 151 154 176 186 199 192 168 173 172 165 195 201 225 220 210 200 190 202 201 186 175 166 160 157 149 153 138 151 134 159 156 180 189 180 183 206 159 187 183 157 185 160 160 160 122 155 212 155 130 194 182 186 167 139 86 168 109 141 169 119 117 88 78 89 78 139 102 84 93 89 83 75 102 47 51 51 62 44 61 66 107 85 78 102 94 97 80 81 109 78 97 85 81 103 177 177 119 97 52 45 59 96 65 132 81 87 71 54 58 48 96 66 52 98 67 163 65 78 106 47 46 146 42 154 64 182 141 84 156 108 62 99 68 170 115 88 150 31 130 111 142 156 117 72 77 131 175 91 184 156 109 170 126 104 131 150 137 82 160 125 215 127 105 115 153 169 76 150 139 69 80 158 152 145 64 179 194 103 187 158 86 125 161 95 173 144 151 163 88 133 168 108 112 119 82 117 76 58 74 104 119 46 36 128 30 60 78 59 69 114 92 74 92 125 162 77 159 101 164 175 65 150 67 174 167 101 112 181 95 183 72 108 83 122 67 120 144 94 128 189 188 184 65 80 131 81 116 117 160 200 190 81 105 157 119 61 68 151 127 183 98 80 177 177 151 110 126 149 123 124 70 170 134 54 135 160 157 135 214 116 206 227 215 209 191 167 67 129 65 80 143 94 92 90 88 124 167 89 87 76 150 181 164 78 89 58 52 66 102 181 82 82 108 161 132 103 162 178 124 150 104 201 127 201 144 146 99 204 210 224 218 178 87 186 190 188 100 191 100 155 191 191 193 199 186 107 88 185 181 182 121 80 79 173 93 120 117 167 97 97 84 135 146 204 110 99 173 141 98 108 178 130 158 88 180 142 50 152 58 120 82 109 103 56 84 180 175 82 145 129 149 163 169 100 126 88 66 74 79 96 103 74 69 96 148 156 88 83 175 105 118 218 216 227 172 202 142 255 82 76 92 179 104 172 84 158 158 165 107 123 124 199 225 215 95 88 167 102 90 212 165 213 112 84 155 154 129 66 70 177 110 144 168 86 155 65 193 210 207 209 161 92 110 185 96 156 145 180 184 90 98 155 47 30 132 56 118 146 54 159 135 106 104 128 147 142 75 162 116 132 98 187 180 169 163 100 157 79 154
131 130 130 132 136 139 147 147 135 128 123 131 140 142 161 182 184 185 194 195 185 172 182 188 203 215 218 210 190 195 198 198 190 169 164 154 155 151 152 155 161 165 158 153 158 163 147 186 170 166 172 135 149 166 164 136 153 147 176 143 170 205 133 196 121 169 107 66 73 122 166 138 162 148 151 104 102 104 60 81 46 125 104 94 39 91 35 70 45 47 255 64 116 82 98 93 105 91 84 135 125 101 81 117 128 89 119 115 122 173 84 122 61 68 52 163 94 105 86 83 121 69 69 54 147 55 168 182 86 184 143 78 77 164 156 160 70 152 112 185 91 87 85 79 186 178 168 143 106 128 96 118 122 142 165 180 82 187 137 105 173 103 183 172 163 158 137 118 123 165 157 156 207 162 193 146 163 84 102 181 67 108 75 124 255 171 72 191 196 199 196 76 133 129 87 160 177 193 164 76 112 123 178 106 184 125 133 79 91 131 174 107 119 95 132 130 126 57 147 141 143 123 65 140 121 168 164 67 116 156 163 170 85 149 76 75 183 112 208 176 194 163 172 157 160 64 64 65 57 139 118 182 118 185 80 74 179 84 204 196 199 170 177 168 89 131 91 106 169 177 138 108 124 137 169 255 107 123 184 97 168 99 172 119 144 65 175 145 79 196 100 212 207 219 138 146 113 90 161 49 116 155 81 169 173 169 97 102 204 98 109 163 120 193 186 92 72 61 141 99 153 102 185 146 87 116 154 159 144 185 244 226 183 205 204 146 112 173 98 127 191 175 178 215 114 139 93 115 174 121 81 171 201 145 141 153 187 111 171 96 137 159 162 97 119 89 169 189 88 180 83 175 140 92 173 78 128 166 173 137 167 194 118 76 184 147 172 138 116 119 255 68 189 109 147 129 133 83 168 164 129 78 58 65 102 78 143 110 69 149 168 88 155 152 152 144 125 102 127 109 68 133 164 198 104 140 136 162 172 192 117 81 73 115 175 82 72 109 133 145 158 181 131 210 215 169 122 180 146 144 85 119 116 225 165 188 112 73 153 160 130 155 104 194 89 161 59 147 139 133 226 203 185 187 134 197 148 187 75 152 185 144 186 92 164 112 95 62 103 63 100 50 64 183 153 123 121 159 164 74 162 103 177 120 182 90 121 189 177 99 103 153
100 100 105 112 123 131 140 142 128 127 113 121 128 157 152 170 174 175 197 199 196 190 178 178 176 196 199 199 182 179 188 192 188 172 156 149 149 155 148 163 173 181 191 187 165 166 162 156 167 175 168 157 151 113 131 114 94 128 185 212 137 158 183 104 148 146 156 86 103 150 117 156 147 180 92 148 145 126 103 79 37 25 52 34 38 44 48 47 69 53 60 69 106 95 129 88 82 84 82 93 87 92 100 110 82 95 142 149 107 118 128 81 90 86 160 106 127 175 112 159 83 86 135 145 83 76 178 139 127 182 181 97 118 80 89 173 164 80 166 135 113 102 168 172 163 183 77 170 92 82 46 89 133 132 157 120 180 182 144 132 145 170 124 98 135 139 161 153 127 186 167 198 197 154 126 93 175 127 170 93 160 100 131 59 164 73 174 189 220 200 119 71 124 39 45 118 127 191 199 128 204 149 181 96 114 177 93 162 169 138 120 114 171 192 183 172 92 145 160 61 63 159 172 172 68 125 163 147 148 140 108 90 85 102 184 193 140 164 133 226 143 125 107 50 151 66 136 157 158 137 124 179 190 185 142 171 201 207 145 145 149 170 72 163 166 69 76 120 80 87 136 193 93 98 101 165 184 88 175 192 168 172 100 70 78 188 178 131 98 135 105 98 205 196 215 185 209 76 73 75 91 103 80 155 82 91 195 116 138 109 168 105 93 196 127 150 74 66 113 167 85 112 212 198 140 95 94 83 114 138 244 148 190 95 102 107 110 171 94 80 122 144 189 101 193 190 128 70 96 145 173 84 203 119 117 126 175 154 50 161 125 178 172 65 161 69 188 144 178 148 150 178 146 164 168 133 132 75 139 179 152 191 177 153 173 161 99 174 171 74 151 83 90 98 189 80 66 155 67 88 140 157 69 138 49 68 84 66 80 152 175 77 83 108 77 130 125 70 128 124 64 139 140 82 192 190 174 90 182 87 88 159 173 142 123 87 149 63 93 145 169 176 207 131 203 142 128 171 160 128 187 115 197 146 115 176 178 172 72 109 175 96 199 102 90 94 149 105 146 206 127 122 158 180 189 134 218 146 152 121 100 184 140 157 69 122 175 193 196 140 131 103 113 164 133 160 116 196 88 106 175 196 140 107 109 149 185 137 95 104 115 81
72 78 93 108 120 126 139 141 134 123 120 113 132 132 147 154 153 171 172 192 189 178 174 177 183 190 202 196 186 176 182 187 183 169 152 149 154 164 172 177 178 198 194 205 185 180 157 155 158 145 175 175 132 102 124 103 137 141 137 127 178 151 156 107 103 96 90 78 66 104 171 136 181 175 106 126 119 112 117 108 106 26 54 45 104 63 77 74 64 79 103 146 84 87 101 91 71 88 92 101 103 141 87 84 82 89 103 109 115 85 111 123 153 151 106 177 101 131 109 99 96 79 99 161 104 84 90 150 138 108 182 90 183 187 143 88 77 56 164 72 139 210 145 197 177 176 147 158 175 140 146 49 38 57 82 194 157 185 182 145 139 103 101 68 146 132 152 173 193 112 188 168 168 121 209 191 176 83 161 61 102 110 165 72 156 67 188 199 218 119 185 115 52 142 42 133 93 104 105 123 113 201 112 118 168 94 108 102 166 105 143 139 209 115 82 154 191 81 128 75 178 173 155 79 63 158 156 77 134 139 40 159 124 193 191 115 98 99 106 179 129 103 160 149 102 46 163 177 185 159 85 183 167 94 179 197 214 186 226 168 206 147 100 74 159 86 184 88 91 89 96 130 183 119 93 178 113 156 169 136 148 150 80 86 88 113 147 112 120 208 109 139 93 130 176 192 130 105 68 82 60 80 133 68 94 102 203 180 169 161 144 110 170 134 183 182 104 172 102 120 117 139 167 206 200 145 103 81 255 174 233 203 123 182 69 161 62 125 89 93 97 103 183 179 172 111 108 128 136 80 158 182 109 109 210 165 120 73 111 143 175 74 105 154 58 160 181 147 114 151 187 102 186 139 156 171 180 147 72 119 107 108 109 107 70 185 160 174 166 164 91 181 195 179 163 156 97 171 134 71 131 95 160 100 49 112 122 123 117 179 137 179 168 100 76 136 119 159 73 102 109 75 89 177 102 141 79 98 95 73 76 117 177 127 172 79 174 62 132 69 172 201 218 212 201 166 100 164 171 151 202 122 214 143 179 106 191 141 83 75 107 175 100 194 97 111 67 137 158 119 225 226 147 186 95 131 145 204 165 131 119 171 141 183 175 90 87 140 214 106 85 57 74 124 158 187 118 120 119 79 84 178 144 175 110 183 97 128 89 76 173 169
56 69 90 106 118 115 126 129 134 133 127 130 124 138 132 146 165 169 180 189 186 178 185 184 255 191 197 183 184 175 181 183 179 167 157 159 170 178 190 179 187 203 210 187 202 164 156 158 136 128 164 174 154 125 104 107 106 87 131 173 117 168 131 85 124 99 95 119 92 63 90 119 110 153 92 145 121 109 83 89 30 105 61 108 122 111 79 80 145 78 108 88 110 102 101 107 106 89 121 124 120 135 142 129 80 81 145 101 146 140 87 99 95 128 173 143 126 167 108 181 149 157 181 127 117 112 121 200 159 183 194 80 183 176 172 95 150 96 170 73 149 103 106 141 83 66 166 61 151 73 69 109 159 150 72 183 213 127 167 181 189 179 148 152 82 102 141 167 151 160 126 165 135 119 145 115 150 91 57 138 115 137 107 72 155 101 85 171 220 208 142 153 120 58 117 169 94 90 107 172 171 114 127 70 80 187 202 153 191 179 153 190 168 156 151 157 201 98 89 84 119 141 149 61 55 106 137 58 46 77 149 146 96 190 198 113 124 111 135 156 179 176 104 139 67 80 154 168 158 134 83 96 162 66 122 182 107 214 163 216 111 185 163 52 52 154 165 95 156 155 187 143 164 167 152 112 111 113 94 143 166 93 73 97 129 205 175 189 181 175 177 150 86 161 72 155 156 109 66 56 74 114 79 144 172 185 151 128 116 177 184 129 84 151 108 161 108 89 69 182 101 125 222 196 130 107 107 93 197 152 203 103 157 165 59 152 59 92 117 91 145 188 165 168 167 158 255 39 41 133 145 169 140 188 184 167 169 120 89 108 141 159 139 130 87 191 108 126 204 217 112 201 204 135 177 168 181 180 177 124 168 132 128 117 169 88 115 117 163 123 104 131 96 77 74 176 98 82 140 165 133 167 67 157 144 166 181 181 148 141 154 93 133 69 55 47 158 77 164 112 53 86 169 102 185 133 109 68 79 99 163 82 189 99 166 150 114 168 62 127 115 197 156 180 115 142 71 172 83 182 197 122 177 165 193 174 102 131 94 76 79 84 132 155 175 136 180 125 192 208 194 163 97 169 178 91 108 119 116 140 91 135 182 91 76 81 157 209 147 150 149 103 134 167 185 180 141 178 179 102 120 143 89 65 76 78 143 144 156 168 148 147
62 79 101 113 116 114 106 119 137 147 145 146 139 143 147 147 164 157 177 175 181 177 171 178 188 191 196 193 192 188 177 180 181 171 158 169 179 194 201 197 190 198 201 204 180 201 183 142 147 172 180 154 112 138 111 103 95 98 98 151 133 90 88 147 109 106 156 150 96 89 141 95 113 84 62 70 114 78 129 35 122 52 70 142 142 157 111 88 166 100 165 101 128 106 92 91 90 151 120 187 130 147 101 88 79 119 94 75 71 82 144 103 110 115 169 118 102 107 126 86 72 70 110 191 164 112 195 121 132 186 132 71 64 60 163 59 105 168 171 173 119 193 87 77 76 86 93 49 164 176 100 153 168 157 69 184 170 168 141 187 121 103 156 51 144 255 166 154 114 86 169 156 174 215 163 186 130 130 122 52 156 163 77 81 150 135 172 136 209 206 156 69 124 61 63 74 188 167 120 152 149 176 88 177 164 128 189 143 182 96 157 123 160 77 160 100 104 149 181 89 184 71 138 51 104 151 69 93 113 109 124 147 177 97 179 184 149 84 185 86 142 136 159 136 34 134 126 148 123 181 77 162 163 79 94 178 152 144 206 193 96 106 144 78 141 90 165 142 127 103 80 111 161 103 79 182 137 140 161 100 60 111 134 128 199 112 121 144 147 180 178 97 73 64 165 126 75 163 79 87 79 57 73 109 165 98 105 192 169 88 132 117 76 173 186 158 112 177 142 105 96 118 139 169 129 99 187 165 255 98 89 190 169 141 86 107 33 50 98 80 186 197 133 99 141 153 55 48 90 43 86 160 148 86 121 179 147 86 171 134 148 89 130 138 107 194 121 174 146 213 167 199 159 117 193 171 166 182 153 108 123 119 95 125 86 72 125 117 153 93 91 159 133 178 69 162 178 116 130 80 163 195 93 72 83 94 86 190 174 106 189 200 202 152 172 55 54 61 175 166 173 120 70 117 152 73 170 129 133 70 102 87 163 197 195 192 83 166 84 124 157 140 70 157 255 150 84 94 148 179 196 102 117 75 85 142 151 67 182 165 164 169 177 148 184 83 150 93 194 195 150 208 149 175 172 150 81 83 186 85 182 102 176 159 122 127 127 86 148 91 111 85 72 152 186 169 171 100 88 119 177 85 184 71 67 255 89 148 79 173 94 61
81 97 116 125 122 109 102 104 131 146 155 165 146 153 159 157 167 170 162 170 160 166 167 178 185 182 191 199 204 199 187 186 177 167 157 167 187 203 200 184 189 184 167 181 200 208 203 174 141 143 157 173 164 138 78 122 130 106 138 91 80 133 81 150 172 188 119 94 255 88 143 103 76 80 64 139 124 66 102 81 44 58 99 129 85 159 141 96 151 167 130 126 114 103 75 100 83 98 118 137 149 125 87 88 92 90 123 124 96 119 97 174 174 115 118 98 139 182 96 71 92 68 83 152 154 127 220 127 155 114 93 69 94 140 124 156 134 121 80 180 133 158 96 163 112 112 70 115 65 142 106 197 103 79 177 181 168 190 149 158 138 122 90 136 159 145 136 166 63 71 80 168 139 191 117 109 194 119 177 112 161 156 102 109 88 157 151 178 197 117 168 75 66 146 70 136 85 171 155 198 106 163 92 180 158 180 151 133 170 171 213 153 173 190 85 84 164 125 175 150 85 172 92 164 157 114 172 135 98 156 163 103 108 170 158 177 91 85 117 187 172 168 127 39 117 23 121 116 98 186 166 182 65 97 170 179 84 83 135 176 90 196 81 78 54 142 158 102 119 149 86 177 70 129 117 130 163 191 89 80 116 54 171 100 130 133 206 130 117 90 255 93 87 179 150 80 170 176 79 73 74 51 141 146 95 97 116 181 90 74 98 122 162 126 85 102 94 77 101 86 80 111 131 115 155 105 99 139 152 118 107 181 123 79 64 153 141 40 110 159 129 101 70 51 106 79 164 124 164 157 136 55 108 136 96 86 105 182 150 142 144 154 74 80 185 209 120 184 202 110 187 193 208 180 164 106 146 177 142 72 147 69 134 111 73 60 128 119 59 68 164 167 168 107 160 172 74 165 98 169 145 101 197 181 148 192 94 175 192 152 187 140 206 201 89 147 72 66 97 189 171 81 162 77 111 81 158 65 159 175 188 178 197 107 100 92 161 69 69 149 161 170 87 153 52 82 101 184 192 160 152 165 154 70 129 37 134 71 86 75 102 111 142 176 89 123 103 183 92 208 210 104 167 151 133 57 97 83 160 161 112 166 116 164 130 172 99 112 110 164 152 79 180 165 80 82 190 98 184 85 190 115 87 152 145 167 83 132 184 80 109 136
114 125 134 139 129 113 95 94 115 147 176 181 165 170 162 144 158 174 174 170 159 168 167 176 176 176 188 196 205 201 184 176 172 157 157 162 185 190 188 180 183 173 164 174 192 188 199 193 170 152 163 171 161 167 103 141 146 141 169 96 93 140 149 158 97 173 157 177 145 83 107 61 73 140 46 47 72 94 73 105 130 63 153 81 124 85 124 122 125 154 135 136 172 104 114 76 73 96 111 132 114 135 93 121 112 81 143 100 89 88 96 110 111 154 111 103 130 90 89 105 83 141 101 98 204 117 125 132 169 109 74 95 43 107 110 130 95 162 169 146 124 61 127 147 153 136 66 107 145 179 204 203 100 188 166 180 133 181 169 160 150 81 135 62 126 88 165 125 140 117 139 70 91 94 175 192 92 104 113 81 147 155 75 157 72 158 104 86 82 131 142 55 60 164 67 73 182 102 92 153 139 93 192 121 136 186 86 72 179 133 147 166 169 208 96 189 147 128 174 72 87 163 102 74 145 137 111 180 95 85 144 142 161 151 69 178 190 145 102 158 192 141 74 57 46 33 140 141 83 134 195 165 165 174 187 89 77 179 135 170 102 189 155 76 161 143 157 155 181 119 180 187 78 122 148 66 82 117 146 80 66 65 180 174 113 136 125 80 109 73 91 91 93 170 84 180 128 174 71 98 55 57 98 73 114 123 125 147 164 106 97 101 167 75 85 113 97 111 83 67 98 170 138 169 178 170 131 165 65 62 72 128 120 83 123 86 72 154 134 80 185 75 156 152 52 141 153 79 88 145 73 147 147 164 170 83 193 176 119 185 190 96 190 185 197 203 211 105 158 121 136 226 190 187 91 75 169 167 171 81 83 69 74 145 89 50 78 86 148 56 172 170 175 94 96 53 90 137 63 181 147 148 97 197 173 157 112 169 142 106 121 118 221 171 129 120 160 80 122 196 81 103 84 133 63 112 75 157 154 141 137 100 108 210 203 99 177 79 72 84 171 91 52 147 65 85 137 96 102 195 193 124 101 168 138 146 46 156 79 146 184 108 176 147 132 176 68 86 185 175 184 157 161 117 88 163 137 95 83 172 155 90 163 136 175 87 89 52 145 85 59 64 80 80 168 111 148 158 123 94 184 113 142 79 179 185 85 91 94 101 109 193
148 151 152 158 149 130 107 101 119 154 178 187 173 159 152 151 150 154 168 168 162 172 178 176 178 178 178 193 195 191 176 165 156 156 153 163 174 188 194 176 176 165 163 174 157 169 179 164 150 174 203 205 193 178 141 96 125 177 180 177 179 154 91 109 179 158 156 181 189 191 124 141 86 94 52 133 76 97 87 81 141 144 101 103 87 83 86 122 102 163 149 146 192 104 138 128 92 109 89 88 125 63 90 114 98 142 116 98 153 87 124 123 136 129 107 141 144 106 103 110 154 101 102 138 199 175 202 121 184 74 116 150 78 42 39 112 103 102 147 178 118 76 97 133 95 110 171 165 191 174 125 102 179 190 178 189 110 181 115 122 151 98 136 43 56 164 162 163 150 82 145 144 175 150 142 141 90 151 102 76 106 161 80 107 127 152 67 114 76 107 154 127 77 123 73 172 157 99 172 189 84 104 193 156 97 170 91 109 159 169 223 195 136 128 107 180 165 185 81 100 189 159 143 127 60 98 123 76 99 148 76 106 121 177 82 128 200 208 207 166 131 143 151 157 57 82 160 156 155 152 181 109 164 103 181 132 156 107 124 89 182 191 89 173 98 53 145 155 124 116 101 176 130 153 146 65 69 130 99 82 162 163 112 141 191 148 175 82 162 170 78 149 165 111 180 178 149 75 113 88 90 49 83 63 109 167 189 149 86 114 76 123 73 94 170 87 151 80 179 101 77 115 190 130 102 140 97 121 131 72 174 90 108 197 167 113 178 96 135 185 103 95 98 53 124 108 164 186 86 164 53 113 57 76 128 159 197 136 183 118 191 195 199 163 168 159 111 103 139 159 117 191 167 96 88 135 160 160 155 203 151 112 77 84 139 138 52 36 98 148 135 120 92 58 77 38 142 138 110 68 176 195 197 198 202 208 208 193 127 107 186 206 221 186 187 132 93 144 180 179 123 171 106 83 67 84 81 164 99 164 190 205 189 130 114 168 139 131 154 179 69 161 83 159 181 193 161 138 210 126 138 111 185 154 154 60 137 50 92 173 193 217 154 148 91 152 73 66 170 155 90 92 59 87 55 164 174 83 121 184 178 76 176 90 57 117 58 55 47 71 56 149 91 147 159 82 155 164 173 110 105 108 96 81 93 255 162 119 153 136 182 116
175 171 165 166 164 149 129 125 130 156 177 184 180 157 140 139 153 159 255 158 173 180 182 179 180 172 181 180 175 172 155 156 151 156 159 166 172 182 188 185 179 159 179 152 156 175 180 187 189 202 154 165 149 177 164 131 158 181 179 161 201 183 179 168 157 255 135 183 207 115 123 127 108 75 65 131 61 74 98 47 115 103 101 106 127 120 106 137 93 106 132 120 160 154 76 53 49 69 116 70 64 81 49 56 93 89 96 100 118 98 131 161 111 107 158 111 99 98 123 119 162 114 109 187 95 112 188 158 67 149 56 132 77 70 63 63 118 128 156 178 144 49 137 91 33 122 168 163 197 164 110 101 188 183 145 183 101 134 173 119 148 156 78 138 57 59 169 129 170 130 68 104 165 186 157 141 134 152 175 117 96 142 118 111 138 54 162 153 108 255 81 113 180 196 149 157 162 88 180 96 145 84 187 199 136 96 97 82 186 178 125 135 206 142 176 167 90 89 141 190 94 118 168 75 53 52 103 162 140 182 135 102 138 164 120 100 197 204 164 100 197 102 172 142 145 153 86 78 78 182 186 197 100 200 174 165 118 170 162 175 158 150 166 182 113 113 124 87 100 176 135 147 68 59 33 85 96 99 92 155 174 84 193 100 199 130 121 152 86 102 146 129 127 99 201 95 166 185 171 127 72 58 99 105 140 170 109 94 108 153 90 140 93 86 146 190 115 130 90 180 192 107 121 195 87 86 59 151 54 81 79 168 107 112 189 145 125 184 193 76 79 49 64 139 88 78 151 126 110 169 155 80 116 101 143 188 191 192 133 212 182 162 145 189 151 112 136 163 200 137 121 204 124 143 175 85 96 158 208 220 113 122 144 163 98 158 154 48 141 96 144 165 140 82 45 145 138 113 146 61 168 88 112 156 132 155 139 139 212 174 106 144 117 205 85 88 105 139 106 181 84 102 92 98 77 99 133 72 163 170 107 118 136 232 154 207 142 88 179 184 176 109 151 86 76 142 149 167 182 169 92 107 111 95 167 119 112 57 147 118 207 199 224 218 102 168 86 89 76 87 178 153 167 65 79 92 153 196 149 189 75 62 60 85 118 126 95 81 91 169 172 94 159 116 134 137 65 143 147 150 152 108 75 84 172 163 146 191 130 94 90 135
176 171 165 169 168 161 145 138 137 156 177 177 167 146 136 128 154 158 172 174 175 179 196 188 182 172 171 156 162 147 135 140 136 158 164 173 180 181 187 182 186 179 192 185 177 147 173 181 187 201 185 174 157 162 157 127 146 169 209 210 161 196 202 138 214 188 197 199 127 154 105 92 123 151 94 161 102 83 123 109 60 167 175 182 108 135 92 83 144 92 157 108 78 117 70 46 56 63 65 103 78 87 45 81 83 85 111 95 124 116 147 146 95 99 96 96 96 91 131 166 167 117 195 136 98 88 81 116 64 87 70 113 154 82 170 57 50 153 61 180 70 61 102 114 81 150 174 171 175 174 207 153 165 166 159 83 146 147 105 183 92 175 145 143 95 141 80 170 102 134 82 95 184 200 191 148 91 103 77 127 180 131 156 49 87 75 166 74 100 185 175 167 104 207 115 169 75 155 143 142 107 76 175 166 118 171 201 117 152 144 139 182 193 152 204 118 141 178 150 188 186 167 181 120 106 77 92 82 186 186 183 88 130 185 163 104 193 90 98 125 101 177 71 65 141 130 176 85 133 110 129 140 124 208 173 114 67 176 176 98 199 108 173 139 169 162 153 149 117 160 172 138 139 108 46 68 70 138 157 94 72 83 124 195 203 199 166 73 175 164 96 125 182 89 165 110 180 108 95 116 82 132 174 93 118 130 157 86 96 132 129 129 184 131 98 121 185 120 94 101 101 111 82 88 78 117 54 49 158 89 167 118 220 201 193 108 198 96 98 142 57 48 147 55 116 140 107 153 162 158 161 78 124 126 215 125 119 177 224 127 152 154 205 209 202 186 199 175 181 200 145 195 177 156 125 70 72 184 100 218 166 193 199 81 142 93 106 145 164 174 153 148 136 107 139 54 130 43 53 80 166 82 172 171 121 108 184 114 216 169 102 200 119 107 179 159 175 175 118 132 110 151 148 159 77 165 149 177 81 149 163 188 114 148 152 214 178 171 104 182 139 166 98 83 142 107 157 119 112 192 128 142 178 84 148 89 159 78 152 160 132 139 209 195 96 77 44 159 162 157 188 102 183 69 68 162 129 204 126 202 150 164 49 95 46 108 99 127 80 134 95 114 118 125 93 179 109 104 95 92 96 134 173 188 113 141 160 182 144 62 65 74
158 158 158 170 167 162 143 144 146 154 166 166 149 134 133 133 155 179 174 182 173 179 193 197 190 186 154 155 147 138 131 132 143 163 178 191 192 192 192 184 195 202 188 172 178 169 185 205 205 206 185 167 97 142 121 193 200 192 220 183 219 165 192 180 142 201 167 153 188 171 89 93 149 146 193 181 80 53 121 89 64 86 181 114 181 177 95 82 80 127 68 68 48 48 58 46 56 57 69 74 101 54 75 98 99 107 130 104 117 86 114 134 102 133 88 139 79 157 140 130 100 93 115 88 89 82 72 64 49 96 82 154 127 102 187 168 148 56 155 179 74 78 57 150 62 168 91 88 105 153 153 154 155 70 145 76 136 187 100 172 192 144 96 77 84 114 166 153 188 115 178 140 194 167 170 109 96 127 180 176 189 143 106 115 58 121 131 181 171 199 131 92 185 102 97 188 98 160 122 203 191 168 119 102 141 116 200 91 95 95 154 101 197 166 91 148 172 115 166 98 180 195 179 178 143 61 69 73 163 87 184 104 182 163 87 130 83 96 76 112 178 178 122 174 158 168 121 192 105 170 173 88 98 210 190 77 118 169 85 113 106 161 86 190 193 176 175 129 185 115 178 117 87 131 66 113 34 123 50 128 144 114 140 102 197 205 126 142 186 84 104 127 152 102 75 110 103 166 166 117 159 98 97 149 89 113 118 176 126 192 99 186 126 126 173 84 96 167 168 163 85 84 90 136 69 146 140 45 108 88 173 163 227 181 182 187 163 133 91 80 69 153 68 115 156 69 66 135 164 73 182 193 173 215 143 212 124 110 158 124 190 204 177 152 193 158 132 173 166 112 175 181 158 68 125 59 50 138 163 100 199 199 95 99 146 180 170 108 124 179 101 146 91 87 82 175 96 144 145 154 60 112 78 169 191 106 134 125 128 93 94 181 164 180 175 92 180 190 190 183 81 72 40 153 163 173 89 88 60 162 65 173 192 134 184 207 101 204 159 122 105 158 87 48 162 80 169 175 101 79 128 81 88 178 105 166 56 67 111 114 99 188 105 96 141 98 122 89 147 101 131 95 79 90 155 76 88 211 149 116 93 150 94 154 69 122 126 182 176 201 204 99 100 96 135 153 169 108 139 106 126 100 142 110 186 141 189 92 142 146 62 61
133 141 154 171 170 156 142 136 144 147 155 151 139 138 136 147 161 180 168 180 164 174 189 204 183 165 140 137 132 141 131 140 151 170 187 197 204 196 195 189 198 193 206 178 191 191 200 208 213 196 131 155 90 114 153 145 136 197 190 175 160 160 164 234 216 183 190 108 109 104 99 87 185 172 119 191 140 78 59 93 74 98 173 181 130 99 92 85 136 75 58 111 32 35 65 60 88 99 110 129 115 84 62 111 85 86 120 86 136 113 158 138 85 86 78 118 89 134 68 132 95 88 81 163 72 126 59 132 115 170 90 154 183 168 120 176 160 163 143 133 160 61 88 123 70 177 175 91 203 203 182 136 169 49 123 97 127 186 152 226 225 188 179 141 74 76 117 88 173 154 104 194 189 183 106 108 99 150 184 104 88 161 131 97 99 133 82 108 189 88 117 129 101 92 138 83 188 184 174 169 196 95 120 178 187 102 181 146 138 89 133 80 111 124 105 76 73 171 139 144 172 152 93 182 93 58 154 182 88 183 183 179 170 182 129 176 137 144 150 94 67 82 183 81 170 110 93 179 139 95 77 153 198 133 175 84 114 162 73 92 178 105 196 184 156 96 137 158 156 173 105 171 184 135 171 127 144 151 140 108 163 151 156 156 190 154 123 179 185 101 182 74 86 78 91 68 102 92 255 201 163 133 135 137 98 75 67 171 77 90 95 144 84 70 78 67 130 189 80 88 99 67 62 54 70 37 41 137 103 161 117 187 181 185 153 150 162 67 80 84 127 157 108 124 127 72 98 108 109 117 167 114 113 192 96 98 178 185 198 130 197 118 102 89 80 73 87 146 197 200 202 178 120 85 255 120 49 91 147 141 94 99 166 75 60 164 98 134 167 167 134 174 146 141 82 110 68 157 130 150 114 79 56 133 153 187 97 188 85 144 167 105 162 184 183 148 187 173 94 143 145 76 99 120 86 92 76 87 125 159 104 131 150 206 136 181 103 106 129 133 156 128 133 147 148 178 193 189 176 153 150 127 70 162 63 113 103 169 154 176 107 75 88 148 83 155 77 120 117 59 125 171 155 118 156 159 88 218 132 222 211 170 104 104 84 84 180 191 97 119 151 107 204 146 113 147 140 105 158 149 160 193 141 125 156 121 90 172 130 161 81 136
122 136 158 183 184 164 144 133 136 153 165 154 147 139 135 158 166 180 171 180 176 194 187 201 188 157 142 136 142 162 166 165 175 189 203 210 208 213 213 206 200 202 204 188 203 192 200 196 182 187 157 111 115 118 129 162 156 158 133 160 198 220 161 233 218 204 164 146 117 71 85 86 106 104 167 165 158 103 78 65 114 91 167 175 92 139 93 91 153 81 77 54 56 55 76 82 99 97 96 116 105 90 63 65 66 76 123 108 97 105 161 104 133 112 59 140 61 135 62 76 76 56 57 109 82 101 54 104 77 141 125 190 127 204 169 77 71 67 102 163 53 97 144 147 185 105 187 144 202 128 173 77 71 159 44 155 120 172 182 159 219 201 93 141 154 85 158 191 131 152 141 188 182 128 182 127 154 117 175 106 96 134 137 119 71 161 112 187 93 141 56 163 67 183 158 145 160 157 168 88 94 176 112 94 206 199 161 105 85 101 171 82 155 142 165 153 99 175 55 50 161 173 130 157 81 166 130 185 199 196 193 170 167 164 88 157 150 106 176 116 172 149 114 193 142 84 183 122 197 199 191 165 203 122 184 189 162 86 66 83 186 127 125 203 106 203 158 100 193 115 174 126 143 155 130 153 51 53 156 88 94 89 153 101 152 157 176 117 118 112 104 72 155 65 100 131 98 192 123 155 195 85 70 73 131 87 56 64 119 199 106 115 75 82 110 155 97 173 97 59 129 154 97 145 59 48 142 152 161 167 122 188 188 122 158 101 160 126 160 160 66 64 144 172 127 105 78 76 114 145 105 108 150 92 92 183 164 188 163 208 132 159 184 137 133 165 133 177 177 94 185 128 153 72 121 127 85 148 166 168 184 192 126 104 66 73 202 175 120 128 172 108 104 97 173 151 61 137 120 85 34 123 111 146 129 97 158 74 123 156 61 92 118 194 88 150 187 95 154 142 177 121 141 134 75 170 109 162 150 82 82 191 128 160 158 183 90 151 157 100 71 67 81 73 167 172 194 115 83 85 255 34 73 77 148 154 67 102 153 76 159 157 54 114 62 104 165 75 132 146 93 66 155 149 83 168 138 145 153 222 192 84 91 118 96 91 97 187 150 163 122 115 112 200 159 145 169 139 81 86 173 188 90 88 74 82 76 131 77 170 114 127
126 140 161 183 188 169 149 133 144 150 166 156 155 155 158 165 171 181 183 191 194 191 193 184 166 154 147 151 169 190 193 186 192 202 210 221 226 223 213 197 173 189 183 207 214 204 178 185 171 178 159 124 142 133 124 101 144 159 166 188 194 188 149 207 178 164 166 137 69 87 112 96 147 109 78 108 112 130 75 61 109 255 83 118 154 83 136 96 94 104 74 64 70 70 62 124 101 113 129 153 87 106 87 51 59 51 73 81 172 160 115 161 90 77 114 83 132 153 143 134 134 67 59 56 148 46 158 154 67 168 100 94 92 122 86 125 187 176 110 158 69 82 89 176 134 196 118 214 177 166 193 114 86 136 103 72 86 206 109 187 186 171 88 173 168 137 156 139 154 137 180 152 160 115 146 146 130 89 111 108 89 133 139 61 52 167 122 85 98 118 51 153 124 185 110 187 104 84 82 92 105 126 134 190 194 144 176 130 97 71 94 64 135 122 75 83 96 174 64 50 128 130 74 99 74 175 167 190 177 195 110 156 106 90 95 209 202 157 192 89 113 97 164 191 195 90 93 201 200 127 158 196 170 210 202 89 175 144 164 78 85 141 138 137 186 112 177 97 182 139 192 99 145 166 94 95 64 57 155 140 130 185 189 79 88 100 103 138 182 218 171 88 172 139 184 176 98 113 194 86 119 103 140 126 114 35 144 116 91 198 121 142 127 90 67 182 90 87 89 59 106 58 99 96 144 160 59 61 77 188 134 212 126 204 255 91 127 98 166 59 69 94 181 194 134 182 207 95 172 196 129 212 212 184 100 108 197 113 105 200 118 140 110 65 106 115 65 175 155 141 172 179 192 152 97 102 130 65 156 107 163 108 185 69 58 96 169 110 119 111 163 83 153 168 59 149 75 157 54 113 60 117 22 68 161 190 138 107 59 60 67 73 183 97 196 147 97 96 153 111 192 88 168 87 85 255 71 172 181 105 163 174 164 203 139 114 102 95 138 154 121 63 97 163 92 101 200 82 151 129 137 36 44 94 153 170 101 88 179 119 164 153 52 75 101 171 153 159 138 64 154 55 55 59 75 129 146 177 114 144 174 160 171 164 98 184 192 179 165 89 167 83 116 95 172 110 93 127 101 180 88 94 92 126 76 157 86 80 90 167 199 149
141 151 166 182 182 175 150 139 146 150 162 171 174 159 178 178 184 186 191 193 189 170 159 144 135 145 138 158 191 208 206 209 196 202 214 222 225 212 206 183 159 177 200 214 193 204 190 182 156 161 130 152 153 122 141 153 105 140 174 174 141 179 141 128 180 129 88 91 136 136 158 107 118 76 73 153 91 146 64 59 86 101 144 75 141 86 95 101 130 115 92 82 103 72 68 81 141 163 119 102 117 65 69 38 32 84 67 78 160 119 109 88 61 89 97 124 79 72 133 137 66 108 57 111 81 109 137 61 168 165 158 96 185 75 84 96 203 157 111 168 81 165 133 186 177 110 143 163 118 193 169 159 168 71 71 91 180 216 211 96 138 97 184 104 136 86 156 134 148 196 186 82 140 156 169 83 89 165 159 144 204 196 132 63 155 145 158 86 134 92 134 61 59 163 171 137 184 150 133 103 95 137 140 118 209 181 121 147 79 164 132 136 160 92 157 83 83 117 145 137 52 53 145 65 68 179 90 182 199 192 175 178 191 99 146 212 215 194 124 171 205 116 203 220 153 192 176 201 204 167 94 186 158 199 153 138 157 112 67 85 107 110 198 177 167 165 121 110 137 204 119 114 65 132 66 41 142 52 94 161 94 116 94 110 155 103 143 132 183 142 178 89 81 104 194 107 175 101 172 112 84 169 146 45 70 84 161 122 122 207 207 164 164 103 74 141 115 87 171 63 156 155 157 162 105 106 142 97 89 95 210 114 226 221 108 145 151 101 152 78 114 177 188 123 158 219 162 125 200 89 168 157 163 221 118 143 202 176 175 109 149 111 59 91 146 144 171 137 89 63 168 87 99 183 178 73 155 169 97 154 200 139 174 181 152 145 114 198 108 118 188 86 79 165 142 148 80 91 148 62 139 65 66 133 140 135 151 167 142 46 151 167 148 209 110 147 173 83 152 184 200 99 120 97 88 124 132 181 180 181 108 128 137 206 207 187 172 89 103 152 141 135 117 97 144 124 184 78 166 133 147 50 154 150 61 170 157 125 186 155 78 150 147 62 76 132 124 140 64 116 120 81 172 78 85 142 148 104 179 94 180 71 177 188 129 100 87 95 68 59 85 70 79 105 178 132 111 159 123 160 93 188 187 178 184 86 146 99 171 105 178 171
153 160 167 175 176 167 150 150 142 153 167 163 169 170 187 255 195 200 189 186 195 174 135 116 118 129 154 176 185 205 206 198 192 191 198 207 212 208 184 167 164 174 195 211 212 176 187 155 169 149 178 146 173 169 165 155 109 124 164 171 113 180 162 178 115 144 119 129 91 76 144 110 156 87 90 131 92 79 90 92 108 83 94 116 87 92 134 106 125 118 98 110 110 95 83 133 96 93 126 110 104 74 51 49 57 34 79 114 106 135 159 142 58 62 142 131 158 87 110 91 168 71 54 57 60 132 124 82 158 158 105 137 123 85 68 158 156 103 127 74 174 180 183 134 201 215 141 210 184 219 103 188 104 168 167 182 173 186 184 135 166 133 116 118 129 116 83 162 154 94 141 158 125 158 71 164 152 162 130 137 114 213 204 170 170 162 164 198 163 163 44 138 78 109 132 163 95 93 192 200 89 100 107 202 121 86 180 113 170 83 180 184 115 114 79 71 71 149 142 149 139 111 103 159 159 119 92 167 99 120 145 125 90 119 219 130 111 117 133 189 106 204 136 195 170 86 121 181 190 89 83 114 145 146 108 169 164 112 67 174 151 174 178 123 160 150 116 96 145 152 106 97 106 72 84 115 128 85 53 110 146 155 144 158 162 69 132 87 143 108 155 194 81 111 141 190 163 149 81 70 109 145 84 108 63 83 134 169 108 159 144 78 135 79 170 108 115 133 68 93 163 96 90 177 199 200 197 108 118 111 106 114 226 127 139 131 179 147 81 151 91 189 96 164 203 144 126 152 206 185 142 206 223 233 228 135 135 182 175 117 71 135 85 152 123 160 158 84 170 136 46 152 147 79 89 139 150 143 120 131 104 207 183 113 181 178 166 121 169 159 133 76 104 62 87 87 65 54 144 98 122 153 82 155 95 166 132 145 159 94 156 109 96 101 179 85 172 184 152 107 191 99 183 202 143 167 122 175 110 84 90 93 191 160 104 154 186 178 78 59 147 145 76 85 129 136 164 80 169 59 166 86 87 86 85 146 80 178 182 155 98 70 99 77 155 80 126 181 72 106 113 97 133 140 188 102 191 164 166 198 121 159 88 200 172 187 82 153 64 59 49 103 158 115 173 85 55 105 124 159 100 147 118 201 197 79 72 69 110 67 112 88
161 168 174 174 171 164 149 143 147 149 157 173 178 175 179 191 210 213 205 204 194 172 145 122 104 112 135 163 183 193 192 186 180 176 175 184 194 191 184 173 174 183 189 211 196 192 184 172 175 211 207 198 170 164 117 152 137 117 127 138 104 105 102 141 98 149 139 104 114 103 123 108 142 157 171 125 158 89 123 87 116 128 93 92 120 157 124 98 98 97 107 98 101 99 98 92 88 85 153 120 134 103 97 77 58 83 95 105 117 94 118 108 136 65 59 150 82 121 137 91 85 84 255 75 65 58 154 51 56 138 93 85 57 143 79 150 185 199 188 180 143 156 95 187 193 129 167 188 110 148 94 134 113 73 154 159 114 106 154 113 61 158 160 121 168 93 99 68 103 148 89 180 87 165 74 76 118 170 149 196 118 158 198 188 188 89 157 101 131 64 109 138 130 68 145 116 182 194 109 151 164 72 168 174 197 107 122 75 165 86 150 100 143 194 179 87 122 107 157 146 132 162 101 172 133 171 97 157 189 133 94 89 102 181 220 113 108 138 168 195 200 203 162 141 95 94 198 156 199 170 191 189 191 110 142 156 108 162 168 175 181 171 97 130 94 154 75 193 114 151 176 120 62 19 97 66 113 63 66 81 154 80 144 193 98 153 152 115 66 102 194 88 146 111 86 136 129 88 88 100 161 80 90 89 194 166 104 111 139 130 92 175 109 151 199 120 128 101 63 71 173 108 105 128 116 131 118 147 103 199 123 215 136 126 116 175 89 117 149 178 189 163 177 79 100 197 159 175 98 188 93 196 200 127 212 148 207 131 156 102 79 128 161 64 135 94 101 155 61 127 110 80 164 190 178 189 124 227 216 172 148 206 135 201 180 78 95 152 174 122 76 129 169 66 159 78 55 145 68 157 95 175 67 111 184 196 193 179 167 116 76 183 178 165 182 181 142 92 125 163 122 182 183 81 94 141 80 86 62 123 84 186 128 187 182 142 183 76 87 151 152 109 172 111 178 189 191 77 173 140 163 171 133 147 156 163 76 174 186 184 179 141 89 120 193 178 105 91 93 152 154 100 196 197 106 96 191 154 107 180 197 102 113 206 105 189 175 162 79 114 73 44 145 64 61 155 74 72 73 156 174 79 150 122 128 97 121 42 125 137 111 113
152 163 173 176 169 163 160 146 152 151 165 164 159 172 175 187 216 221 221 207 195 173 144 128 116 125 144 160 167 171 180 168 166 156 153 156 172 180 180 186 190 199 214 214 213 203 196 191 220 227 195 198 185 193 146 167 139 98 129 146 112 102 112 80 122 62 137 145 83 80 98 157 147 196 178 123 99 98 84 85 138 103 141 102 178 163 106 94 89 117 92 119 100 105 102 100 105 107 102 116 106 113 75 92 52 58 104 79 88 136 84 85 94 96 85 152 111 100 96 94 108 183 82 73 54 49 128 52 153 69 164 100 168 177 169 96 200 82 74 107 87 208 203 210 185 106 186 105 195 199 182 165 148 123 106 141 81 93 144 147 135 126 77 134 92 101 94 95 106 150 181 94 148 172 172 127 104 91 99 206 219 173 165 221 105 182 131 145 143 61 44 147 87 109 112 178 119 187 166 185 129 161 150 102 136 158 160 76 94 171 183 197 97 194 87 164 77 78 77 64 62 121 72 70 160 134 83 180 93 179 83 105 115 178 126 97 134 153 112 130 87 98 86 147 126 127 199 218 146 165 103 192 195 106 91 77 161 60 76 65 170 82 84 156 128 105 158 103 118 102 190 160 70 74 115 74 50 80 160 150 71 109 182 113 131 166 77 162 56 63 140 82 158 95 105 126 137 175 89 160 159 187 104 202 139 105 124 127 137 139 169 162 147 175 184 131 141 75 71 87 171 195 215 170 108 101 90 164 114 95 164 105 196 199 106 161 79 58 89 76 183 168 111 145 87 90 170 119 198 194 98 101 192 195 105 182 115 113 73 142 83 154 82 124 65 170 78 171 67 56 81 144 161 158 115 146 136 220 192 204 157 128 195 201 199 141 169 122 163 91 170 59 161 117 70 110 137 62 153 103 107 185 74 106 123 200 128 119 94 93 74 186 146 81 73 84 176 175 114 137 81 162 125 146 76 124 171 71 166 94 90 84 133 186 80 179 100 79 65 166 56 167 113 126 208 214 170 90 101 124 123 184 172 73 165 92 168 148 156 105 172 154 196 142 127 167 198 122 170 183 139 102 190 181 80 95 91 157 106 138 202 155 111 142 127 74 87 93 69 84 159 81 41 43 126 116 137 180 171 173 65 159 152 171 76 109 150 32 67 81 160 165
137 152 167 171 170 160 156 162 160 160 163 156 159 172 177 196 208 220 222 224 211 209 181 142 121 121 147 150 168 169 170 171 163 153 147 147 163 171 194 202 201 201 209 227 195 183 213 213 214 208 216 220 204 192 169 129 110 143 177 172 134 127 166 125 149 71 89 104 135 124 133 193 106 158 172 192 147 108 136 92 119 180 147 149 98 102 167 164 93 138 134 106 99 153 128 85 84 97 112 136 161 97 72 83 49 52 63 80 122 97 133 77 69 104 62 69 123 166 123 101 110 107 152 95 170 160 128 68 69 139 73 71 164 191 206 203 143 173 62 176 106 149 114 108 206 97 111 90 89 84 155 96 67 149 121 78 185 188 177 144 168 179 177 178 161 142 159 68 56 124 130 90 173 164 96 170 174 122 134 92 140 175 231 120 197 179 140 168 74 62 126 153 160 113 85 136 170 84 156 75 121 180 99 105 99 161 171 65 106 47 55 105 139 159 122 117 157 80 121 69 128 160 153 60 153 136 85 118 90 73 179 194 143 217 206 190 79 156 158 78 125 181 81 187 184 105 222 223 149 204 211 210 213 222 101 133 76 119 142 171 177 102 155 179 164 85 95 96 93 118 86 74 90 128 98 54 148 67 94 94 178 102 180 167 195 105 169 143 87 52 62 75 88 116 156 99 145 115 159 124 163 140 128 117 211 111 145 141 93 66 61 150 151 103 107 186 109 181 179 119 125 170 112 174 165 180 133 96 90 119 87 185 93 98 100 142 62 65 154 93 182 182 192 178 158 189 146 110 108 93 186 135 80 92 154 168 92 165 95 96 93 124 122 181 174 175 99 155 125 61 110 151 179 115 213 153 140 118 122 174 121 202 149 175 170 97 119 169 139 75 121 65 105 135 45 126 56 74 181 86 184 108 79 94 176 119 201 96 186 84 89 96 118 175 177 73 100 164 173 159 170 165 163 104 69 77 78 172 112 133 174 198 145 153 179 113 154 118 165 124 89 131 185 185 201 209 161 182 171 177 90 95 128 137 172 62 126 149 157 131 170 159 184 160 102 173 187 125 122 182 82 67 143 87 144 102 177 123 175 135 165 139 151 156 162 82 109 150 73 136 143 101 56 155 126 170 137 103 154 81 76 66 160 70 158 156 50 34 50 44 153 148
117 133 152 157 156 158 155 164 158 170 163 152 160 150 160 191 184 208 207 219 216 222 209 173 144 138 142 157 166 166 168 162 161 151 138 143 148 175 196 204 218 234 237 223 198 214 223 204 228 211 204 204 176 188 140 139 149 168 157 197 194 187 103 156 144 90 66 81 153 87 96 182 107 88 133 129 91 166 154 109 123 160 121 133 113 88 90 114 90 116 136 98 79 138 101 102 111 97 111 117 104 88 93 60 53 57 71 81 85 95 90 131 70 73 49 74 65 83 81 93 98 157 119 102 140 163 72 85 101 83 80 113 103 200 164 154 109 135 154 62 112 104 126 137 179 173 79 152 126 169 140 66 72 125 174 173 186 182 93 129 189 169 159 126 112 116 160 156 125 79 143 86 86 70 66 152 143 79 98 161 125 199 194 165 162 83 173 157 52 140 139 85 138 177 74 64 138 94 150 141 100 192 120 97 140 92 127 161 60 34 137 138 76 155 174 140 89 151 74 72 142 69 156 137 65 109 145 151 170 145 123 163 184 128 99 183 95 67 161 187 200 122 163 181 148 205 217 120 107 207 154 206 216 233 205 160 96 123 184 117 148 160 168 160 98 102 200 113 156 63 162 114 85 147 83 70 176 124 183 126 103 112 154 155 185 181 168 255 120 72 154 161 80 68 64 136 66 96 156 97 67 97 91 118 184 109 152 188 171 63 149 58 83 136 106 205 108 169 169 90 98 203 201 154 124 121 57 144 134 97 72 103 186 157 73 138 107 159 149 126 156 186 113 133 110 169 77 88 91 182 139 102 129 64 65 70 114 61 166 155 104 134 103 89 100 117 126 181 184 176 128 73 123 183 93 111 103 197 120 200 100 126 98 196 91 164 196 188 181 138 157 126 120 69 78 96 146 70 171 193 102 107 166 186 95 197 195 86 88 146 189 102 82 87 163 151 104 97 83 182 154 102 112 135 91 98 119 104 170 138 134 217 109 197 127 152 60 163 144 144 112 107 181 165 185 145 158 194 91 176 178 80 104 172 77 135 152 63 78 149 186 255 183 122 96 175 175 187 170 142 101 84 139 57 121 43 161 155 171 194 109 87 178 117 87 84 177 180 91 113 83 108 170 126 93 146 127 96 90 160 87 57 149 59 124 46 107 64 129 103 73 136
116 130 142 151 150 152 157 160 168 179 167 162 155 145 162 170 182 173 185 186 209 220 202 182 165 137 139 153 153 153 156 162 154 153 141 145 159 173 207 214 227 233 234 228 226 210 206 197 233 190 214 178 144 162 134 152 152 142 182 188 169 116 99 182 157 108 152 90 72 94 154 126 82 163 76 78 105 89 98 106 169 134 105 99 91 147 139 155 140 100 134 69 61 51 53 81 76 92 105 125 98 116 113 89 87 95 62 108 98 97 73 86 68 74 63 76 54 84 125 75 113 105 123 124 184 115 80 136 96 138 98 187 115 113 119 90 91 145 145 75 143 89 91 85 170 140 55 134 155 169 97 75 154 145 157 174 100 106 190 176 183 133 188 96 82 139 134 77 108 79 92 84 108 82 130 146 104 140 69 79 172 188 103 114 195 185 163 62 140 115 34 50 99 171 79 157 100 187 114 136 98 203 191 180 154 182 171 55 77 50 39 54 70 171 86 134 186 156 162 103 140 87 132 57 135 90 66 59 132 153 95 177 176 209 169 143 187 193 106 184 135 159 85 178 98 197 198 90 108 155 173 132 130 183 164 224 125 153 114 98 138 79 64 66 171 89 156 180 58 45 154 139 138 172 189 157 156 154 92 154 94 150 182 150 162 76 180 74 176 93 162 171 160 149 152 193 125 145 106 158 119 67 68 170 164 131 181 82 63 155 131 106 100 103 111 206 103 161 101 110 197 99 176 133 63 142 79 44 129 118 71 101 161 178 84 179 155 93 134 174 169 179 92 93 178 172 56 122 162 90 120 176 164 111 154 109 160 163 120 104 150 118 134 202 179 108 151 139 115 189 199 172 112 125 117 73 156 126 123 144 90 128 184 95 95 112 97 184 154 156 69 172 60 90 103 103 98 147 96 145 175 124 112 124 162 137 187 126 175 170 124 157 79 156 156 168 97 116 166 189 128 91 158 162 134 179 108 178 188 103 158 116 167 149 198 160 174 67 168 160 73 182 141 171 115 198 110 154 201 148 134 111 85 177 124 159 143 167 103 139 184 136 197 167 87 69 173 134 158 68 148 115 126 81 55 77 148 164 179 111 112 61 117 68 130 112 178 84 89 170 111 98 112 98 106 150 124 89 97 92 93 71 127 61 62 89 101 104 83 107 203 216
128 135 140 144 144 143 150 167 181 177 186 163 144 141 153 173 175 159 172 187 203 219 214 194 159 150 146 148 148 146 161 158 155 151 147 148 162 181 201 207 226 207 218 216 222 228 231 226 201 207 191 127 107 148 126 143 103 141 133 126 142 105 174 163 112 88 88 139 94 91 107 86 75 148 147 97 132 126 149 90 103 89 95 169 153 87 82 81 120 108 92 129 47 69 108 63 65 82 106 111 87 71 92 106 87 108 106 108 90 107 81 122 82 65 118 75 121 67 109 106 255 145 182 182 132 166 184 192 105 92 99 110 156 168 114 47 80 129 93 79 169 91 92 79 167 155 43 84 63 88 71 136 92 140 80 87 175 136 138 147 137 109 128 105 131 79 146 64 146 155 69 133 131 127 72 127 171 79 91 80 85 152 100 137 195 123 107 125 98 42 108 77 108 124 170 88 195 201 163 170 211 162 134 118 87 108 100 168 95 46 109 75 79 193 188 84 108 179 155 149 114 136 161 78 152 143 95 136 158 172 183 194 104 151 192 141 102 104 199 224 192 196 92 87 200 109 190 173 82 51 74 167 215 201 159 163 216 211 205 122 156 74 86 151 99 98 174 145 56 125 95 144 86 79 122 178 115 150 96 139 108 173 73 126 94 67 72 138 76 67 121 84 166 89 106 140 107 137 139 70 57 83 106 83 90 163 68 93 117 56 57 135 69 181 125 167 138 161 114 159 183 172 157 102 72 102 50 68 146 81 84 62 72 181 164 126 195 90 93 171 96 134 87 158 61 83 143 123 59 154 111 100 94 160 157 81 97 114 172 145 89 206 117 181 89 156 104 128 180 121 182 172 117 192 78 79 61 89 101 80 172 122 76 155 105 201 212 177 184 95 83 190 116 172 149 136 82 94 169 91 143 112 199 138 187 88 168 74 100 140 85 70 181 85 182 73 152 158 177 188 167 139 152 68 70 155 100 81 189 161 211 205 111 113 197 198 184 80 143 183 81 86 104 206 201 204 207 110 101 145 127 70 80 83 163 147 50 81 77 136 208 210 138 157 191 70 157 135 69 82 101 83 141 130 49 133 60 115 74 121 160 66 147 44 60 139 75 86 94 152 158 181 117 179 192 139 75 93 179 129 91 145 147 144 161 80 68 104 113 202 141 179
156 154 150 142 142 150 155 172 185 194 191 167 155 152 157 161 160 150 168 167 181 205 202 182 162 160 150 142 141 149 161 165 171 162 163 164 172 172 193 207 209 199 197 186 184 191 204 208 192 186 129 150 100 121 94 157 103 104 166 125 159 137 128 154 169 95 152 64 77 144 73 75 155 125 118 107 150 145 88 94 93 103 150 96 97 126 80 83 108 129 79 63 50 52 62 62 67 105 101 129 85 74 66 103 113 91 113 83 86 87 111 106 88 116 70 125 152 92 149 64 91 127 86 91 178 132 86 172 90 146 68 69 61 107 160 140 135 130 49 48 165 174 184 121 159 144 53 51 66 152 78 123 101 171 126 132 178 127 105 111 98 120 124 160 125 139 143 168 105 178 142 128 73 140 71 159 75 114 177 76 135 178 203 157 154 97 188 161 69 149 50 141 157 169 162 139 144 142 178 194 142 100 105 106 59 166 158 104 174 171 172 104 163 118 159 80 186 116 71 133 135 126 156 173 163 46 144 83 108 64 131 193 121 161 187 131 163 172 163 207 148 196 198 138 176 151 95 166 132 66 155 177 194 103 218 198 207 126 147 171 190 140 168 95 172 92 158 121 90 113 105 141 168 79 153 109 65 98 96 101 114 141 77 73 110 69 64 90 175 77 76 74 124 98 201 192 199 112 121 72 67 121 149 40 37 153 86 60 88 70 108 179 89 175 143 86 130 214 125 220 214 145 141 103 165 135 121 120 111 48 52 93 165 172 153 148 146 111 198 85 118 172 69 92 154 65 57 148 92 155 139 114 130 174 174 162 170 77 126 164 161 154 98 182 196 203 176 191 197 204 218 236 152 208 92 130 73 84 75 88 153 62 134 101 135 156 189 131 163 166 89 198 134 183 157 132 115 170 73 149 133 171 109 114 98 121 133 160 117 114 158 65 80 97 187 79 187 128 182 145 139 126 59 79 50 66 78 190 91 126 120 119 195 180 114 201 145 115 90 147 183 186 95 210 122 183 134 107 195 142 168 77 146 104 142 156 154 89 146 204 210 202 170 115 117 179 70 141 165 51 102 123 81 76 184 82 174 80 63 88 141 58 106 118 167 70 177 75 144 208 207 203 168 125 169 84 144 88 69 148 117 140 89 82 70 81 155 128 92 155 134 232
178 166 157 146 151 160 166 174 185 193 190 186 173 159 164 162 170 175 167 188 188 191 195 183 181 162 156 151 141 153 164 177 173 161 168 171 175 181 182 186 194 185 192 185 183 185 188 182 144 140 113 151 138 138 153 111 165 152 145 114 155 118 136 98 153 140 146 64 92 113 113 92 69 62 91 120 95 139 92 157 77 74 142 86 91 113 76 125 87 84 96 113 65 85 89 67 57 66 84 93 149 96 128 83 100 100 120 96 123 145 255 101 114 125 121 94 101 89 82 67 73 131 152 159 78 140 101 191 148 155 104 90 166 151 141 91 140 55 152 57 80 149 113 69 155 36 41 100 126 150 192 86 92 65 151 138 156 102 147 90 145 80 155 59 87 107 119 128 128 134 166 139 126 150 106 167 193 173 118 196 107 140 155 146 113 165 195 114 131 68 45 133 113 82 191 213 175 215 155 97 98 152 168 65 50 63 136 160 79 161 173 198 137 164 163 96 181 79 172 171 61 159 183 181 65 147 130 150 50 71 172 167 139 76 162 150 80 185 99 93 185 160 191 187 174 216 206 174 55 72 47 112 151 159 119 135 172 93 180 166 71 176 178 129 151 73 72 163 144 41 63 68 110 110 157 115 105 73 174 105 109 198 129 89 70 160 95 125 153 73 114 112 83 108 170 152 157 120 95 86 102 120 91 63 58 46 64 63 109 68 126 99 76 114 94 195 150 203 191 228 134 143 207 112 96 72 134 126 57 49 162 137 144 79 135 133 181 203 97 187 105 118 184 160 113 97 126 55 45 99 77 138 92 120 189 139 190 125 164 140 61 179 103 185 184 213 126 100 150 195 159 226 127 176 195 88 108 134 155 179 84 166 122 75 101 109 96 148 91 188 155 146 140 101 145 83 157 115 72 122 171 161 184 203 207 184 144 121 74 167 67 83 160 125 197 125 201 103 133 103 187 115 143 156 146 175 188 154 146 169 142 176 90 110 184 191 207 185 148 192 106 144 92 112 135 203 107 193 184 185 129 162 188 180 166 61 153 62 89 192 158 209 211 172 121 87 172 176 173 110 108 144 101 194 187 133 181 120 83 93 130 134 61 55 126 136 162 111 85 153 105 211 106 149 91 95 64 67 67 129 166 143 99 188 141 87 83 107 108 103 167 141
184 172 159 153 158 166 165 169 182 191 194 192 187 169 160 171 172 189 193 196 205 191 187 190 169 168 164 157 160 164 176 183 172 162 164 168 177 179 174 182 178 176 182 173 162 138 153 153 124 145 158 138 130 133 150 175 146 125 176 143 158 136 130 126 146 172 85 133 124 127 82 137 74 47 79 115 115 138 137 127 70 144 122 153 157 155 121 87 86 113 139 76 100 74 75 63 68 99 116 119 113 106 85 125 103 105 99 137 134 126 108 97 93 141 126 118 127 95 152 161 76 77 77 79 148 145 168 156 183 124 169 81 180 186 162 120 57 162 109 86 90 56 55 65 141 128 69 180 180 215 173 196 148 164 112 76 132 71 41 111 48 84 142 127 151 156 188 110 191 194 167 105 104 161 147 191 204 149 139 154 157 148 156 115 125 114 181 168 128 146 73 56 172 151 132 111 171 209 107 105 198 90 171 151 106 79 139 73 177 76 113 106 167 105 167 60 171 180 183 176 164 123 180 145 161 123 71 158 69 54 155 125 168 68 166 136 74 173 87 120 103 144 68 79 108 110 157 143 154 148 59 173 80 172 130 175 134 69 154 97 124 157 169 175 126 91 100 70 173 122 160 65 125 69 102 95 134 114 161 182 156 121 107 77 80 115 110 167 83 143 70 110 72 84 121 145 95 88 73 96 93 130 119 119 78 145 60 61 87 79 92 88 177 99 91 204 197 161 198 208 120 141 202 191 112 78 162 52 112 112 116 158 58 161 126 84 124 191 152 108 184 126 96 87 68 111 43 110 68 148 174 82 88 203 101 94 96 173 160 136 66 101 196 115 219 188 189 119 110 152 115 151 213 165 212 178 101 184 136 119 83 132 80 118 75 177 179 134 172 120 86 142 152 154 102 150 177 165 156 63 170 160 136 188 85 118 190 89 112 170 192 206 191 197 168 132 105 100 213 113 144 199 153 100 162 158 96 156 99 89 92 95 166 73 76 120 176 181 125 161 178 188 116 197 112 153 167 97 66 176 184 132 95 75 74 71 76 142 110 181 197 187 130 152 120 112 117 125 74 113 88 184 136 181 160 152 170 100 33 139 56 77 89 157 183 171 81 97 76 130 91 87 187 114 86 82 132 78 130 57 93 206 200 187 127 104 174 198 158 201 93 187
168 162 156 156 160 164 167 167 180 183 185 197 200 193 187 169 178 192 188 203 204 198 206 192 170 181 166 169 175 179 188 183 164 150 147 158 174 185 183 180 182 188 188 176 159 139 96 132 127 155 168 152 139 181 140 156 120 165 160 108 135 82 97 129 155 126 97 126 89 50 64 41 51 89 44 55 92 143 103 129 113 47 100 58 107 146 127 138 95 118 127 136 88 90 66 62 86 117 102 111 112 111 105 131 131 82 95 127 119 148 100 138 85 90 174 110 121 112 168 131 92 121 174 156 59 54 57 70 174 88 187 117 197 99 196 136 170 69 165 162 155 49 144 38 29 132 157 188 216 214 189 196 130 167 154 150 44 94 129 115 97 102 138 93 153 132 88 189 187 169 134 135 79 171 120 123 209 132 136 115 207 110 189 186 182 100 66 123 75 136 142 72 119 191 186 207 196 162 112 99 114 181 111 122 128 132 67 168 149 93 145 90 180 179 120 50 61 140 185 105 89 90 198 147 103 73 166 174 122 158 54 127 107 76 177 182 179 110 156 81 96 150 153 89 158 189 166 88 119 179 82 75 79 157 55 66 108 163 160 57 115 116 70 118 125 165 198 164 164 165 75 170 89 47 29 32 24 37 68 83 114 189 189 91 108 100 132 160 153 93 151 52 149 150 118 97 145 145 75 82 108 186 183 76 81 61 79 137 161 65 171 152 71 82 149 189 127 133 192 214 154 90 109 88 87 126 73 66 175 128 162 72 108 59 78 162 95 120 196 155 178 216 120 158 93 151 83 111 48 48 106 119 189 205 122 189 95 135 92 84 74 147 194 205 202 140 88 154 183 77 143 107 169 210 205 201 117 112 98 167 172 157 154 153 152 86 166 166 82 103 118 151 185 98 109 172 87 159 137 144 139 81 86 79 104 127 85 161 195 132 110 136 169 175 160 173 174 218 126 220 235 116 176 157 94 197 146 207 199 175 145 75 58 58 163 134 144 126 105 196 153 185 183 99 197 199 186 70 81 67 84 192 98 157 132 121 66 77 75 151 181 151 120 92 88 102 129 171 160 98 164 77 171 229 222 163 85 111 126 136 90 129 68 146 108 97 110 108 87 153 168 115 84 110 113 139 146 40 28 89 105 117 169 75 79 117 117 92 116 138 96 84
144 144 146 151 160 161 158 160 167 178 193 193 188 178 182 180 181 171 192 209 220 221 206 197 176 170 163 174 172 189 192 185 168 145 140 141 159 176 173 172 172 170 185 177 130 133 114 113 118 157 179 188 157 173 179 187 145 146 159 91 102 101 150 107 177 91 149 79 81 66 84 47 93 18 69 30 28 68 94 36 60 64 49 83 98 108 104 104 134 128 147 146 118 82 64 68 113 106 113 112 107 136 97 114 83 79 66 99 138 117 115 135 72 84 100 112 128 98 110 96 106 134 135 65 44 128 56 63 117 146 98 98 101 127 116 90 76 66 62 64 56 98 117 72 131 34 119 83 106 158 204 173 184 172 127 167 128 105 53 128 151 157 160 71 122 83 117 175 172 195 197 182 180 151 179 184 140 204 207 179 110 115 135 100 75 90 155 122 107 137 59 67 84 106 87 93 102 209 207 173 88 83 126 144 163 158 153 178 85 72 88 84 188 158 71 75 81 77 180 89 155 179 87 95 75 164 96 83 75 148 80 130 184 160 131 141 179 142 156 79 144 97 84 136 82 75 88 191 172 118 134 148 83 159 143 94 48 98 113 122 65 142 156 62 185 146 125 125 187 88 172 175 121 84 77 61 30 131 133 186 93 104 80 70 129 106 71 161 60 53 153 59 170 86 111 98 163 60 143 138 115 124 172 116 164 105 255 124 72 176 125 56 91 176 139 98 160 104 187 209 173 92 173 113 111 84 129 100 139 79 154 82 176 151 96 156 194 187 204 143 230 233 130 161 85 68 86 48 89 50 147 164 159 207 169 107 166 53 104 69 106 96 86 89 181 80 141 179 170 109 159 169 102 153 118 94 106 146 124 92 103 168 170 111 61 162 108 144 61 99 132 141 177 102 172 75 75 129 118 101 171 87 151 172 121 134 184 144 206 115 171 116 229 143 160 194 164 230 237 205 199 206 137 122 92 115 146 200 91 82 63 138 51 46 158 89 95 189 209 153 110 181 104 173 107 126 182 133 127 86 181 149 97 84 164 98 107 134 92 88 78 77 75 106 144 100 102 149 74 170 63 100 87 213 139 128 77 50 40 39 57 69 155 106 92 136 163 103 146 72 166 168 164 112 161 93 93 44 65 118 92 103 134 134 77 61 125 83 87 120 119 164
122 128 137 146 150 149 151 148 155 164 175 185 184 176 163 153 168 164 195 190 205 215 212 195 170 172 170 175 182 180 192 195 185 167 147 142 152 159 172 172 178 191 192 180 162 135 111 132 120 179 172 175 161 188 172 159 163 160 149 139 139 66 103 92 153 167 117 131 38 70 126 68 104 111 61 32 87 116 104 90 31 121 52 94 163 140 194 193 110 106 135 156 85 71 97 95 94 130 115 146 141 86 86 76 65 85 62 66 75 84 144 122 109 93 180 119 102 88 126 198 117 202 92 153 93 143 148 65 85 114 127 154 131 105 108 196 103 72 142 169 60 136 112 45 62 102 135 157 188 176 80 73 158 109 174 146 110 148 176 134 135 103 149 85 148 158 132 152 96 172 144 154 119 164 127 164 191 88 119 192 124 178 169 169 153 150 84 121 51 87 169 142 255 142 96 94 107 121 114 187 89 76 169 73 163 89 186 124 80 136 86 100 111 165 164 124 142 105 118 101 79 82 181 140 152 173 103 128 166 89 66 112 111 199 129 126 129 98 173 88 153 41 101 148 168 78 80 145 190 161 122 71 145 62 49 99 136 57 140 136 144 116 124 111 168 183 119 207 97 161 95 102 153 153 41 125 54 128 170 173 109 151 155 137 73 77 107 103 67 153 149 85 130 125 95 115 166 90 71 81 133 177 153 85 183 123 91 112 255 107 122 68 148 118 95 83 79 108 140 195 160 187 116 120 96 89 98 146 195 84 79 164 190 143 196 209 218 118 210 113 120 117 117 170 178 75 158 158 153 143 71 99 88 91 154 166 137 154 53 52 162 101 161 119 68 163 176 112 132 94 135 77 167 142 200 181 110 86 80 109 178 179 141 146 166 106 94 51 155 91 135 90 122 147 89 119 62 76 174 101 188 132 176 168 129 79 132 189 92 112 111 220 139 221 231 223 175 148 218 237 217 168 199 138 132 195 135 125 92 181 68 85 99 82 141 162 194 151 222 217 199 182 108 148 127 196 183 140 155 95 171 174 103 102 182 149 36 115 77 156 116 119 161 134 139 136 162 99 158 74 159 58 115 108 111 171 184 114 149 53 162 63 255 166 77 109 141 167 153 172 137 66 51 123 72 86 52 40 45 84 59 53 79 93 83 66 67 166 167 63 59 144
109 117 127 135 142 140 140 133 142 156 162 163 176 162 155 156 168 174 182 193 185 203 189 184 166 157 167 175 169 187 191 206 204 190 166 146 144 147 157 173 187 180 180 167 172 148 104 142 170 188 197 153 171 140 148 153 123 150 124 126 88 77 147 92 137 94 113 48 121 147 72 62 63 62 118 67 106 123 108 39 119 50 78 83 128 123 122 141 166 114 106 107 101 72 73 71 93 125 123 154 151 93 88 129 71 121 64 61 113 61 101 100 100 169 173 113 94 90 120 135 119 138 191 173 58 40 116 99 92 134 108 143 160 164 213 186 133 190 182 82 105 91 162 95 157 141 144 121 68 72 141 128 144 79 76 83 90 133 156 157 112 121 157 156 82 71 73 156 86 144 174 122 73 108 131 129 166 191 183 87 187 159 83 122 91 151 93 43 152 137 97 172 156 85 49 121 92 107 197 182 157 151 66 69 167 180 124 191 83 77 124 91 176 116 108 172 174 90 129 147 90 172 164 168 178 80 135 83 81 173 177 85 209 218 221 213 200 161 82 58 153 150 125 157 161 172 69 173 84 82 79 61 154 49 146 65 115 72 160 190 186 180 67 175 109 114 162 131 190 177 73 99 171 81 119 104 117 128 177 94 94 75 98 93 104 77 151 104 112 81 163 76 163 133 125 102 98 99 67 66 175 73 142 128 129 153 98 139 97 97 92 132 58 111 158 65 87 150 185 114 255 105 71 162 77 160 157 112 187 80 142 189 203 118 190 124 186 128 109 206 151 197 181 69 77 116 176 88 132 175 104 146 111 123 84 68 86 63 64 120 83 75 74 66 165 144 147 134 158 102 131 154 118 183 108 150 136 94 87 101 160 79 131 146 92 60 73 80 95 92 156 129 143 163 147 126 124 128 91 109 133 145 106 157 118 165 107 76 174 192 111 99 133 212 118 185 123 222 183 122 117 187 192 195 128 202 174 122 136 177 176 71 56 153 94 153 86 153 188 205 137 136 148 93 125 107 196 110 199 112 170 98 211 139 155 165 63 158 54 61 130 72 177 180 70 120 74 148 152 136 69 147 164 96 197 137 144 162 115 121 65 169 164 65 65 163 145 123 84 87 84 175 80 70 137 158 65 158 64 63 64 47 159 168 76 178 71 126 171 85 151 51
105 113 120 131 138 141 140 141 146 152 157 169 176 162 166 164 171 171 191 178 189 185 173 172 171 180 183 178 187 179 200 210 213 201 179 156 149 146 154 165 176 183 174 162 174 149 121 141 153 168 200 185 178 140 149 140 131 166 143 125 131 88 139 124 108 165 154 103 136 65 156 143 125 95 101 106 123 144 61 66 146 141 143 81 92 136 118 112 170 163 133 106 148 75 125 115 90 103 163 128 102 101 92 98 133 111 75 105 61 97 62 119 148 116 117 176 88 94 89 103 118 108 93 160 138 56 49 69 198 203 175 100 184 154 211 180 193 115 75 179 74 77 175 78 169 126 54 67 160 172 99 129 143 168 127 82 168 178 173 122 169 166 90 129 153 158 108 158 97 158 162 168 135 139 105 72 192 164 131 122 179 177 106 132 128 101 89 43 53 168 175 81 89 81 96 113 133 88 111 84 105 140 140 54 131 182 114 100 188 168 174 144 145 102 90 149 92 92 142 174 106 180 78 90 180 155 133 182 79 178 184 192 103 211 130 218 102 140 76 94 45 143 103 177 168 83 74 115 85 171 69 120 66 62 141 144 94 149 92 136 145 177 179 132 165 81 129 123 130 136 84 118 124 106 68 147 98 89 121 132 80 70 147 179 119 91 138 118 87 109 184 171 107 89 106 121 79 153 118 67 67 155 91 114 110 102 110 159 130 106 96 143 67 89 137 42 43 163 142 90 137 193 124 78 81 180 154 206 141 108 94 92 151 130 129 197 172 202 167 153 91 103 114 84 135 99 98 111 194 97 129 99 60 158 116 68 71 64 80 160 171 94 175 166 160 120 101 93 185 185 158 158 83 132 176 161 204 101 149 145 159 165 120 174 135 70 166 66 174 87 162 170 109 85 101 115 150 116 149 89 163 166 66 55 157 151 153 154 124 128 128 104 171 108 112 193 133 163 107 109 126 70 137 97 187 119 190 101 179 171 163 68 167 94 160 108 179 158 101 194 175 69 110 74 115 172 189 196 219 205 173 165 155 194 158 139 163 97 146 95 166 77 183 80 81 175 121 167 85 115 79 76 148 105 152 199 169 122 101 172 165 122 117 117 47 82 106 158 161 201 202 133 67 86 64 82 70 84 107 59 156 49 82 152 191 199 122 192 75 68 106 59
110 115 118 131 135 151 158 158 153 156 169 178 177 182 182 176 184 189 188 174 157 163 170 171 174 192 190 191 189 191 199 201 211 194 181 163 139 136 133 144 153 166 182 153 148 148 115 149 148 192 155 188 140 157 148 168 169 143 159 131 88 115 145 137 173 169 100 119 90 91 89 93 186 200 146 133 180 97 115 85 88 85 118 164 83 119 123 163 126 109 107 118 107 69 83 91 78 117 101 103 97 133 137 85 83 79 90 77 76 80 54 98 109 113 160 91 179 90 107 96 106 110 181 170 123 80 94 78 110 154 104 105 165 193 105 205 163 91 70 100 84 201 110 113 191 76 166 116 85 91 178 162 83 147 172 179 156 149 159 157 99 125 93 155 79 123 107 94 173 105 132 88 98 157 120 171 110 126 98 173 167 172 82 124 111 152 57 100 139 65 75 139 125 38 128 145 182 181 172 161 134 88 148 122 162 75 88 119 93 100 117 118 116 167 106 79 86 98 195 138 185 80 163 172 135 111 115 180 177 129 174 172 92 185 171 206 184 66 98 68 76 148 75 161 176 114 99 96 170 182 150 34 111 89 89 68 67 191 154 114 93 169 146 164 126 92 153 126 70 76 146 143 145 145 82 62 94 113 118 115 157 88 177 161 149 106 188 78 187 133 120 159 55 172 82 122 200 183 99 102 78 136 84 189 171 118 109 104 95 100 128 99 176 100 40 139 53 58 154 136 89 108 86 189 155 95 112 125 159 70 74 149 158 214 139 89 112 98 173 170 189 156 135 165 101 137 196 117 103 196 164 171 58 119 57 159 175 116 67 66 161 74 154 179 140 164 174 131 137 89 137 123 164 170 183 100 201 187 166 64 153 58 89 73 168 110 147 166 113 131 119 162 58 125 52 60 85 188 198 191 168 125 113 130 54 88 145 141 141 75 157 68 78 92 117 92 88 105 74 123 151 117 142 197 113 160 130 162 120 96 70 132 101 100 147 98 187 162 192 129 77 163 106 88 93 178 97 162 179 149 144 152 155 206 175 165 169 169 146 145 130 77 137 103 82 181 105 162 172 151 81 169 83 161 184 135 187 171 136 102 167 175 76 58 44 148 84 102 110 182 131 127 118 94 101 97 117 89 80 119 100 80 128 181 105 111 113 134 195 76 156 98
123 123 122 128 140 159 168 171 165 174 174 180 176 184 193 203 185 183 168 160 139 143 157 184 192 189 201 190 194 186 197 198 200 193 178 167 150 144 147 156 156 156 163 159 142 144 121 136 173 191 186 154 147 148 105 158 156 152 108 124 152 161 151 125 116 167 97 76 55 85 66 92 177 121 160 182 143 148 135 98 137 152 93 85 85 135 132 145 119 117 169 136 77 79 84 104 93 84 104 88 130 121 88 137 127 128 114 78 66 51 49 76 158 86 83 77 95 102 113 95 162 144 181 95 112 101 151 56 152 126 119 90 77 158 177 143 76 136 158 98 175 167 215 146 195 185 193 144 107 187 68 166 79 174 121 170 142 149 125 152 97 174 103 150 54 105 151 137 120 85 152 153 102 96 166 112 81 169 105 122 79 157 66 103 151 70 121 144 144 80 164 84 93 35 53 82 136 78 128 72 159 70 146 110 62 102 165 120 133 75 156 60 161 159 68 147 96 174 85 189 117 91 146 59 79 172 92 187 181 156 78 146 177 81 91 81 166 151 77 117 37 79 40 70 97 176 96 200 123 154 156 137 52 107 48 94 150 147 151 170 197 140 172 152 136 102 62 154 129 130 79 108 39 48 44 137 47 56 131 158 180 118 148 108 184 91 151 160 153 186 181 118 94 88 134 123 172 98 89 114 81 96 76 99 112 255 110 105 160 113 181 113 166 70 39 34 139 67 178 144 114 199 168 181 132 164 95 96 154 73 88 166 143 180 190 169 169 137 106 164 169 146 161 166 133 214 169 112 119 119 188 172 103 141 145 63 147 112 63 159 157 137 105 156 92 78 75 89 156 92 170 145 73 68 83 174 196 195 116 57 57 112 136 109 112 154 169 106 163 99 66 69 155 56 78 166 79 89 172 173 164 104 111 79 101 62 58 95 131 107 161 155 126 78 146 150 78 117 48 100 47 160 176 140 110 152 201 167 178 127 175 175 84 96 120 89 164 171 161 158 66 72 55 58 59 70 172 132 101 139 143 165 228 219 143 182 130 190 78 97 79 174 186 191 188 158 114 179 98 72 172 131 190 96 119 87 158 105 185 83 91 145 143 117 157 149 101 71 80 187 130 166 76 183 94 121 97 88 86 82 106 133 76 190 166 201 209 183 132 131 68 255
131 126 120 121 138 159 170 173 176 183 187 185 188 191 187 195 194 184 152 124 106 131 145 187 202 206 187 185 196 193 180 187 191 193 186 173 162 155 156 146 162 162 139 152 148 148 151 144 165 150 178 156 141 139 137 114 129 138 142 144 148 141 135 163 127 157 62 78 120 122 120 91 141 189 105 127 148 114 152 117 132 180 104 157 93 116 93 107 128 121 113 157 70 72 109 117 69 85 93 81 95 123 110 103 81 88 98 103 86 109 136 84 161 85 102 86 111 81 149 100 111 115 210 112 154 169 59 152 151 151 155 69 88 65 104 66 76 74 155 135 128 216 218 150 207 205 104 211 97 85 96 255 146 153 114 131 105 148 149 114 148 157 173 156 72 96 173 143 176 143 130 137 182 91 120 174 122 104 117 91 79 78 150 71 60 83 152 93 58 62 159 115 132 90 118 70 75 133 76 146 179 166 81 120 162 183 113 121 119 74 111 159 77 132 115 77 135 129 110 116 154 161 135 77 92 159 175 178 153 124 168 169 106 133 173 130 142 49 55 79 137 132 65 151 127 189 201 197 88 74 72 116 35 59 133 136 158 85 105 164 133 111 176 176 171 58 121 163 90 156 45 36 49 131 64 113 35 130 57 127 165 196 198 171 87 79 105 56 94 109 173 196 95 176 105 153 112 99 90 155 82 185 96 82 66 145 157 121 205 114 174 131 135 107 107 146 101 155 96 118 203 127 97 79 149 139 133 191 191 75 174 168 182 100 84 71 177 195 192 97 188 140 66 84 158 109 185 107 172 178 175 85 154 134 104 165 173 99 66 129 155 111 189 189 102 89 181 164 170 123 149 108 125 97 59 172 172 100 69 121 145 53 46 131 160 164 151 73 170 117 141 125 61 67 61 96 81 194 95 139 147 164 55 77 60 160 150 41 44 115 52 108 65 72 161 150 127 118 62 93 81 67 163 107 204 114 183 173 99 154 131 133 130 182 156 108 121 187 164 98 87 106 123 142 81 63 104 105 164 186 186 151 144 212 197 102 103 125 94 146 139 69 180 105 118 90 179 75 56 138 117 184 87 153 170 111 147 124 147 143 146 191 136 172 70 164 144 189 184 176 104 59 157 176 128 159 193 135 121 154 67 161 124 87 197 141 94 123 84 186 129 79
129 120 113 119 132 147 155 160 171 179 190 186 182 184 181 196 184 169 159 115 118 114 157 174 198 188 189 187 189 180 179 181 185 190 191 176 166 163 165 168 167 165 147 140 151 130 126 140 175 176 163 142 118 72 136 104 145 132 80 153 170 172 117 88 88 135 122 65 113 127 115 79 93 142 100 86 169 101 120 159 110 125 117 122 114 157 140 100 111 128 172 139 110 66 81 105 66 70 69 106 104 126 94 137 91 93 107 113 112 118 97 116 101 133 76 78 73 85 168 107 170 115 128 132 168 85 151 154 136 143 118 64 141 148 135 59 159 101 85 160 107 133 166 135 113 204 117 219 117 97 157 101 126 142 73 143 138 65 86 166 181 187 128 163 83 100 146 152 138 102 109 196 180 111 150 174 184 163 136 91 170 146 50 105 36 141 121 175 69 171 55 106 40 110 51 135 173 79 180 187 165 199 190 138 93 99 83 62 64 174 107 173 177 80 181 147 101 154 178 159 135 70 61 77 54 142 167 169 148 187 175 66 150 80 159 130 108 157 52 104 133 147 101 104 116 159 195 189 171 125 103 59 127 109 113 122 96 168 104 158 88 169 188 112 85 137 94 109 84 61 49 114 123 66 36 19 112 31 42 58 79 127 80 159 114 167 130 70 146 82 132 106 186 107 177 99 179 101 136 80 173 96 72 134 69 114 114 124 182 180 197 206 149 104 92 113 53 72 92 202 100 170 111 139 83 86 108 157 128 126 88 165 103 177 93 79 80 185 87 176 149 82 175 85 188 144 152 83 145 61 175 114 131 108 151 119 144 152 98 148 159 114 152 209 196 87 89 87 156 101 86 110 118 129 57 85 103 141 152 55 158 52 54 159 110 130 135 106 143 86 161 163 56 87 66 124 163 79 172 121 90 74 69 168 153 168 71 43 86 62 86 65 167 156 110 140 140 34 42 62 86 150 89 117 141 193 153 77 164 139 171 173 164 203 98 148 163 157 119 125 129 160 61 159 119 179 72 180 107 167 156 137 165 172 191 89 179 185 135 82 152 172 165 125 81 97 184 165 116 144 70 64 128 151 137 90 140 106 169 136 183 170 86 128 161 187 113 115 175 68 130 64 78 59 101 147 77 148 89 81 125 136 120 147 90 94 179 162 135 115 182 127
127 121 116 116 129 139 143 155 167 172 188 190 169 170 176 182 189 167 161 143 125 146 162 167 183 164 156 167 175 181 176 181 187 196 195 184 170 162 153 150 162 136 146 145 130 158 157 147 163 148 150 137 74 120 101 94 150 140 142 101 118 177 138 255 74 115 149 158 150 140 80 150 133 115 126 71 137 95 153 138 162 112 110 105 169 156 135 85 96 100 115 121 74 69 78 54 55 47 50 81 106 89 124 101 127 146 108 129 145 114 124 160 149 84 123 87 78 115 93 113 195 167 126 123 158 163 105 90 52 89 140 149 177 70 166 58 92 162 77 72 99 132 109 204 212 130 205 205 160 154 137 114 157 78 172 83 181 129 164 132 175 135 163 77 147 137 132 185 184 188 177 133 161 106 194 182 186 140 118 178 180 167 138 134 52 43 167 121 102 145 154 95 97 51 168 74 150 109 183 157 136 196 92 187 172 107 72 166 86 86 154 86 88 90 138 150 165 72 88 75 146 177 177 125 164 154 161 88 182 155 92 113 155 75 156 55 72 159 53 158 140 92 53 116 153 179 103 121 111 92 164 70 69 136 141 151 132 167 118 123 89 177 184 100 116 182 110 123 175 84 165 64 97 152 105 49 57 99 74 90 126 156 70 173 138 62 68 132 118 84 170 107 179 126 76 180 151 85 149 102 81 103 114 101 85 84 87 84 129 180 92 140 119 74 100 66 60 83 83 180 174 181 145 80 143 77 121 142 211 182 168 127 151 208 151 179 170 67 85 108 127 70 74 123 88 103 87 73 55 84 121 166 59 49 59 160 108 78 166 156 57 191 131 228 181 156 106 165 160 113 112 94 126 126 144 147 126 81 139 140 180 83 107 61 130 61 62 66 113 163 137 154 127 109 47 128 54 155 131 189 168 184 182 180 174 172 87 58 67 87 159 75 58 86 75 135 138 133 131 132 98 96 116 190 88 179 159 123 80 130 162 121 198 191 94 181 152 147 176 172 84 155 112 89 175 163 179 84 100 211 187 221 117 125 188 126 119 93 125 94 175 165 140 106 98 100 67 136 124 45 142 119 103 157 50 89 178 196 117 124 157 95 114 169 131 184 92 110 71 126 118 82 113 150 85 56 138 167 72 62 164 70 83 173 130 70 87 49 154 160 185 104
136 133 132 130 137 134 137 139 157 164 181 171 174 169 161 166 178 182 178 150 154 160 152 163 163 154 133 133 154 170 180 184 189 197 198 187 172 161 154 151 146 138 139 130 153 151 152 127 162 155 151 138 117 128 113 126 163 156 141 150 106 166 128 157 170 179 155 176 134 162 112 62 125 144 111 145 96 90 104 134 145 130 107 178 95 128 74 74 147 92 104 87 87 95 87 118 68 51 87 61 79 87 134 109 70 90 123 102 115 144 80 89 121 156 99 89 95 177 174 154 102 130 156 116 106 177 169 146 54 151 95 73 108 74 68 86 63 73 90 69 66 132 95 91 188 151 151 135 174 192 71 79 157 109 189 126 209 182 166 172 130 189 139 92 141 192 174 111 102 192 166 198 129 186 160 130 124 189 196 210 178 143 42 105 131 110 72 200 195 111 149 101 45 163 77 190 86 193 116 211 184 96 188 161 95 87 97 158 65 89 105 139 193 148 192 160 74 170 161 105 157 120 123 163 153 135 91 68 114 195 138 189 169 158 66 150 117 55 158 78 171 173 147 84 175 82 180 93 120 129 90 134 128 149 140 66 100 78 105 166 146 164 187 179 172 198 190 185 169 148 169 188 167 255 146 90 114 61 117 122 145 136 104 126 154 142 172 121 81 117 102 108 102 111 101 79 137 88 123 92 183 122 103 204 115 119 119 178 160 81 111 97 56 51 153 160 97 122 175 97 77 141 54 56 102 171 90 154 136 113 194 119 108 169 178 73 161 100 168 112 142 146 76 158 145 64 124 30 69 100 110 149 170 56 73 169 172 184 157 100 146 104 126 175 212 178 69 74 155 151 74 57 70 39 145 107 120 92 96 98 200 174 150 169 64 141 166 92 63 137 179 95 84 107 46 47 45 62 107 121 125 178 108 191 139 163 110 136 93 126 79 89 158 78 113 77 59 46 57 148 111 79 88 194 115 146 70 49 36 155 76 123 125 156 181 130 255 62 177 168 171 132 113 49 61 87 73 157 95 195 118 145 227 206 193 87 168 180 102 170 103 154 98 136 156 131 92 78 35 112 135 50 42 65 130 129 70 186 179 159 148 168 159 82 60 167 105 73 142 144 66 74 121 63 155 93 124 56 150 43 48 102 87 88 124 152 46 144 144 57 129 113
158 153 151 148 152 147 143 139 149 162 168 163 172 171 167 176 181 186 177 173 160 151 155 150 151 145 123 131 143 155 175 187 187 202 201 196 183 155 147 136 132 122 128 132 158 167 156 163 162 149 165 171 155 141 134 126 107 150 100 159 109 153 76 80 137 116 135 132 161 167 150 107 55 94 78 131 106 93 184 113 114 158 105 176 161 81 127 63 70 119 86 97 84 75 113 73 67 76 64 71 71 75 122 108 103 97 79 79 87 255 129 114 116 187 150 159 113 127 188 145 181 164 105 79 82 174 97 152 61 127 61 165 129 103 75 159 64 59 148 119 46 59 143 118 182 187 188 95 183 176 132 169 106 185 108 134 212 213 101 171 178 102 85 185 138 211 209 156 196 192 140 211 223 127 176 90 58 140 98 196 156 91 140 97 139 125 145 197 107 117 168 147 139 79 93 105 103 184 186 137 158 85 70 72 74 173 151 68 137 90 118 117 150 94 120 119 172 63 63 64 177 145 186 88 179 103 68 91 88 96 115 84 127 179 113 158 173 164 138 156 168 174 176 175 159 89 170 137 192 181 193 180 86 138 138 74 185 178 171 108 126 69 159 119 195 180 174 144 168 180 118 99 111 130 89 128 173 109 159 140 137 162 138 130 85 155 195 191 142 159 168 82 114 63 141 81 83 76 85 198 108 127 125 225 125 165 171 140 71 148 136 92 68 51 146 73 175 97 138 93 101 63 113 47 151 83 91 101 190 94 76 141 85 85 183 83 147 62 168 89 201 176 120 153 61 73 58 46 111 167 155 117 157 99 160 174 105 75 95 126 59 128 161 197 144 128 110 150 141 148 92 70 71 104 103 79 137 182 111 207 209 101 185 68 116 76 156 147 154 150 100 137 96 175 141 64 50 116 74 118 159 129 199 109 151 94 136 196 157 110 105 134 124 147 85 124 159 163 77 131 151 182 119 88 143 88 136 78 101 84 183 189 98 117 114 39 89 63 140 159 110 96 96 135 39 58 65 73 195 210 164 135 220 119 93 169 91 112 149 136 174 123 192 76 156 113 87 70 89 71 94 44 33 27 33 124 77 132 184 115 108 89 61 144 56 141 72 165 94 58 154 142 138 59 149 110 115 138 47 115 77 108 112 143 60 94 38 137 51 60 73 97
171 161 153 149 159 157 152 149 152 151 156 151 155 175 179 191 180 194 193 178 170 151 147 147 145 129 122 122 141 153 171 181 189 193 199 200 187 176 151 147 139 136 142 153 177 176 168 132 157 152 198 167 182 142 119 107 155 157 168 160 87 79 141 160 136 139 114 196 123 153 127 156 139 103 90 170 134 101 189 121 147 152 117 102 83 127 141 66 67 80 119 82 128 114 106 126 82 77 70 89 60 67 58 66 53 78 41 52 71 126 89 112 138 125 138 215 160 118 188 127 102 84 74 100 94 167 180 88 135 163 62 55 108 94 163 131 171 70 42 100 141 151 153 167 142 77 184 88 196 167 104 187 190 189 162 170 160 194 112 174 132 162 163 180 127 112 120 193 123 160 147 173 179 114 183 63 110 103 187 136 108 91 85 90 83 130 121 187 81 112 69 80 89 131 107 168 104 144 186 163 84 84 159 79 158 123 61 143 132 48 61 181 171 87 120 119 178 90 167 163 173 176 84 186 170 95 165 88 171 147 101 111 90 157 93 109 127 135 78 159 111 116 103 125 172 169 175 69 73 154 183 143 139 118 158 183 168 89 116 175 172 157 178 162 192 224 182 107 90 124 180 123 155 107 128 92 111 183 105 124 163 101 133 188 193 188 102 133 126 143 98 72 131 176 100 122 94 165 207 124 235 233 156 169 149 103 159 85 87 102 132 155 92 71 136 92 184 131 105 127 85 80 137 118 59 62 69 166 143 176 118 157 75 97 82 52 145 165 199 189 191 219 99 183 75 123 131 66 153 64 56 166 112 61 165 91 145 180 145 63 123 121 51 91 88 157 174 182 94 58 111 127 106 163 146 89 114 80 148 120 201 183 113 95 101 124 50 136 152 190 170 209 208 94 106 90 166 161 121 148 177 180 200 168 96 201 204 113 201 89 97 159 87 174 64 105 163 119 179 93 131 174 81 191 140 112 76 142 146 119 122 97 109 81 157 109 51 150 164 167 115 160 142 45 46 64 133 153 195 210 175 170 118 200 133 168 131 175 79 167 197 105 164 157 93 88 81 52 76 56 10 103 61 24 102 71 176 195 180 148 166 143 119 165 113 109 141 178 117 63 66 161 152 107 155 171 182 68 147 110 147 147 158 160 151 147 91 32 88 109 84 90
164 148 132 134 148 159 159 153 151 146 158 167 165 175 187 192 184 191 178 177 173 163 142 152 148 151 144 151 155 163 171 171 178 185 189 196 197 176 166 165 148 155 136 161 161 175 175 159 146 172 188 193 180 162 137 162 168 168 152 109 137 135 93 150 155 138 111 189 91 168 123 152 128 167 131 117 168 113 105 185 117 164 115 126 91 92 83 79 87 93 92 97 87 80 114 96 91 95 80 52 69 75 60 73 69 53 35 45 49 87 76 112 110 125 156 166 189 166 102 91 147 139 72 79 67 77 83 97 113 73 73 119 140 157 143 64 142 56 138 138 49 70 115 154 89 176 165 174 87 189 161 106 180 118 131 174 200 109 139 172 145 57 135 169 151 93 180 184 184 83 171 94 104 113 120 142 120 66 116 91 98 94 70 75 72 144 109 121 176 174 70 156 165 192 107 196 102 110 138 133 141 127 148 164 174 146 124 125 76 52 136 95 161 188 144 183 117 128 141 167 141 147 90 168 94 188 156 80 81 85 100 156 115 148 193 118 99 198 174 88 182 118 112 144 171 78 63 156 147 167 156 162 151 134 115 167 158 104 141 115 163 70 83 104 159 186 153 114 102 144 165 152 111 162 153 116 112 116 200 101 165 80 90 90 189 88 119 167 109 82 102 156 91 101 95 139 158 99 221 134 135 234 224 177 148 101 184 122 200 88 109 149 101 118 171 97 103 204 144 192 149 131 171 62 138 145 87 170 171 173 108 109 92 75 54 146 145 149 144 215 163 146 144 193 97 169 94 173 77 78 84 110 55 88 123 102 145 164 102 71 46 93 53 143 115 113 107 171 124 69 144 149 104 156 111 148 110 184 133 159 117 111 160 124 169 60 151 113 97 81 205 189 110 124 187 140 163 150 110 136 183 147 201 204 169 202 156 206 162 169 174 81 70 162 69 92 168 133 76 81 89 89 87 188 176 172 80 142 45 155 186 196 125 109 105 69 146 140 78 85 77 174 95 143 101 147 154 65 170 105 117 172 150 176 53 49 159 79 98 169 93 164 193 175 79 130 138 169 112 76 110 98 115 132 68 151 107 120 125 163 83 161 131 169 76 92 167 118 97 77 67 49 107 44 121 77 84 157 64 90 162 116 149 113 121 110 129 68 147 160 131 101
137 120 105 107 129 153 162 155 156 161 172 177 181 181 197 194 201 191 177 176 170 170 154 167 171 173 173 175 173 179 172 161 159 167 179 191 194 200 192 188 166 170 169 159 161 180 171 134 170 155 176 155 187 126 142 148 160 165 182 142 175 138 86 107 175 112 148 170 82 153 149 174 108 211 211 193 156 152 189 189 111 107 113 95 100 88 152 92 161 95 127 66 106 117 125 86 129 68 94 65 76 96 69 46 33 72 43 89 49 81 62 84 107 106 126 193 141 134 90 96 158 68 63 109 146 89 98 203 123 194 87 87 72 63 120 69 166 87 111 79 144 75 149 155 150 178 166 99 109 87 132 190 178 105 174 187 198 172 194 165 119 137 174 123 170 106 71 95 155 81 93 130 151 96 92 124 79 99 170 88 179 92 134 167 146 110 139 175 121 165 171 57 67 165 187 195 180 168 105 65 169 168 75 101 176 94 120 67 110 64 161 94 156 186 174 129 149 151 154 188 172 160 67 172 76 149 177 107 50 103 59 162 171 113 164 111 128 180 206 190 129 161 170 177 161 69 157 146 141 62 81 113 72 85 173 196 216 150 154 179 89 165 83 106 142 220 92 106 95 54 84 139 123 146 125 195 204 136 93 100 77 150 88 165 124 165 76 114 77 151 117 142 207 115 111 211 105 139 171 164 131 209 108 184 163 166 86 93 110 121 128 111 106 67 143 116 95 86 79 82 162 110 81 136 79 73 97 135 102 126 177 95 129 158 54 122 157 162 89 118 129 114 107 139 99 91 187 102 196 153 74 140 112 127 179 163 137 85 183 73 98 87 128 106 88 141 58 169 153 145 71 86 87 142 94 181 87 133 184 121 184 135 104 138 138 152 152 73 150 153 101 177 157 212 111 212 155 155 202 140 127 92 103 206 201 209 159 93 151 103 69 86 146 103 102 82 166 163 161 142 65 130 119 134 73 64 152 116 128 156 151 77 86 167 162 67 169 179 193 192 127 154 120 80 151 141 147 149 158 80 182 170 68 66 125 115 84 88 57 178 199 113 205 136 178 136 192 117 154 132 131 91 89 43 59 128 181 125 80 130 80 161 143 148 78 192 136 113 170 95 125 65 117 119 155 85 162 178 162 100 95 75 85 147 142 53 23 89 142 198 109 113
102 90 79 86 113 138 157 163 171 168 186 193 193 184 190 193 197 184 169 169 182 192 198 196 187 200 201 213 213 200 172 156 149 159 169 186 201 208 197 199 183 176 170 166 160 162 130 148 132 157 163 168 176 115 163 162 180 153 149 130 120 179 121 160 89 84 116 125 110 120 94 160 180 126 177 186 148 96 116 132 112 140 99 102 105 102 99 102 103 98 74 66 53 54 51 54 121 82 109 74 103 114 123 70 64 82 80 60 64 85 63 109 148 111 88 97 165 139 90 90 63 83 80 96 182 203 137 138 155 147 200 197 170 88 54 87 55 48 41 43 51 71 58 158 64 178 174 90 156 139 138 116 186 171 204 105 194 137 114 140 106 196 110 101 96 163 91 136 172 79 173 130 184 180 178 88 79 119 107 180 189 116 148 88 167 63 161 74 84 147 126 48 88 143 131 102 186 111 75 167 154 88 165 84 132 99 193 170 145 140 165 122 169 98 181 149 147 145 162 182 121 156 86 76 189 127 68 146 64 97 125 135 115 165 156 201 177 176 211 119 187 116 131 168 94 151 73 96 44 39 108 73 157 165 188 203 200 125 125 96 90 128 184 110 124 143 158 124 111 73 71 98 168 189 186 183 128 211 93 130 97 117 172 82 102 74 135 145 171 109 181 114 151 141 150 139 172 113 167 203 202 100 99 75 157 121 112 121 170 116 211 90 82 62 105 146 126 93 56 59 171 162 171 173 114 90 161 107 64 157 184 179 97 89 109 157 93 152 125 65 183 180 204 162 153 119 113 108 98 126 163 166 163 181 175 193 195 194 172 162 152 40 81 136 128 46 78 109 96 152 170 115 153 104 182 191 94 150 179 153 82 118 96 92 157 106 126 66 52 132 89 158 102 106 108 144 181 128 197 116 93 85 103 167 122 220 119 171 147 180 166 136 99 127 169 68 82 107 143 67 131 129 64 162 157 72 255 70 46 161 162 126 85 58 82 48 129 93 147 176 199 107 183 72 126 108 109 129 82 68 98 157 150 48 150 78 40 111 161 121 185 206 205 135 85 171 179 141 168 165 102 122 50 62 111 112 66 76 170 162 156 84 98 74 68 142 107 155 162 187 91 131 53 89 56 110 131 157 124 79 164 78 70 53 130 27 31 57 159 99 110 207
76 70 65 73 97 127 145 162 174 179 180 173 175 177 185 188 185 161 163 171 185 209 203 209 210 200 225 233 234 215 175 164 153 161 173 185 202 206 195 185 184 159 171 143 159 146 147 152 151 161 168 122 122 169 136 153 137 187 148 134 186 154 161 96 125 106 75 137 126 79 146 166 192 156 158 187 111 176 169 198 159 105 163 170 108 107 118 104 108 94 142 123 64 36 60 77 97 77 75 83 84 86 125 107 73 72 92 95 72 59 110 92 79 120 86 101 95 126 59 137 72 79 134 94 189 166 115 217 212 107 140 195 193 109 134 97 132 103 118 46 158 122 57 95 152 75 191 85 118 162 54 88 185 106 134 148 165 182 121 137 190 126 150 128 88 121 154 99 153 162 126 180 93 152 84 147 123 113 169 96 171 167 165 69 96 166 90 88 100 73 141 98 109 60 82 135 189 172 171 133 76 63 168 110 85 73 174 150 104 92 198 167 194 193 150 94 123 181 197 75 153 121 136 171 124 179 157 53 13 103 16 26 137 69 156 141 130 206 109 117 89 159 119 165 125 94 135 35 130 93 141 123 160 79 160 186 175 176 169 100 61 90 101 187 145 172 138 121 146 78 142 122 103 171 117 115 108 187 109 90 53 42 51 67 138 94 164 147 73 186 127 219 208 121 108 131 206 106 149 123 148 92 141 156 171 79 136 104 153 120 110 100 103 128 171 72 62 146 57 132 168 112 133 197 192 88 158 176 116 145 127 171 156 165 81 110 74 160 119 43 142 138 143 117 101 148 152 212 194 171 87 123 162 181 199 94 198 162 164 61 48 149 54 144 153 88 147 61 87 89 71 59 103 125 113 148 151 159 128 112 81 176 168 151 130 166 168 68 152 137 119 198 179 202 107 185 172 93 96 80 172 76 76 199 218 191 101 156 118 174 79 184 172 149 119 167 145 163 61 54 112 144 67 60 69 154 105 107 68 160 175 73 65 157 85 137 38 93 156 156 122 193 122 69 159 38 52 110 147 56 74 56 56 53 147 86 103 62 182 98 217 107 166 187 131 71 132 168 171 115 70 113 54 40 40 60 110 166 78 59 141 142 161 166 66 104 114 106 159 108 182 132 86 58 89 117 150 113 106 107 183 127 154 46 137 82 119 63 172 144 107 121
61 58 58 67 86 113 131 159 169 174 162 152 144 154 156 162 171 158 149 165 196 221 229 215 209 213 226 228 224 207 180 171 165 173 184 193 189 183 181 177 175 170 177 174 172 153 154 148 173 141 153 118 159 140 177 192 178 111 165 171 157 172 136 155 163 92 153 96 146 147 117 109 141 146 118 188 108 113 109 192 137 99 138 159 185 111 105 124 108 110 145 66 65 82 30 30 46 65 90 80 79 98 127 83 82 123 146 105 110 95 80 150 86 116 88 82 103 62 109 121 95 93 93 102 105 210 146 107 113 96 194 187 87 103 68 154 59 60 118 148 88 69 131 122 134 108 188 95 76 65 152 165 179 185 181 180 171 118 188 188 186 213 220 143 173 163 133 171 171 129 167 110 181 174 126 81 149 156 125 95 103 211 121 145 76 142 160 178 149 81 80 54 152 102 159 181 80 255 113 57 148 69 66 137 64 73 156 146 196 119 198 132 161 91 194 185 100 163 182 129 84 130 163 141 204 177 100 143 122 19 22 131 139 46 73 186 196 91 183 89 163 134 92 139 111 42 87 107 142 42 129 146 72 110 71 146 130 163 78 117 168 99 185 147 152 93 65 150 92 103 149 176 154 90 88 110 156 177 128 131 54 33 52 89 74 72 58 149 65 86 192 115 156 129 114 100 101 165 94 78 89 65 69 168 85 141 105 97 103 97 92 163 65 154 155 124 68 57 101 94 68 165 196 157 182 129 134 128 174 179 167 111 111 89 196 104 138 160 133 68 152 88 75 88 183 177 191 100 160 189 81 87 96 183 140 179 169 92 180 132 150 161 167 71 171 150 132 112 153 137 55 54 82 80 114 175 171 116 100 142 199 143 122 137 169 161 102 175 87 140 119 169 114 188 152 92 114 169 72 71 141 118 162 140 146 93 87 110 88 175 125 178 172 162 73 175 161 91 89 75 97 61 88 90 82 136 71 129 179 165 177 127 158 89 139 120 102 80 115 177 190 157 182 181 89 133 45 37 141 159 79 78 68 117 140 91 145 156 92 210 205 203 185 79 178 82 162 65 131 94 86 154 63 55 89 139 115 155 56 116 130 70 154 94 64 178 91 130 132 173 166 129 63 44 60 82 64 88 115 129 86 120 100 41 50 27 114 71 83 114 129 124
62 61 63 66 80 95 127 149 169 175 156 133 130 122 140 155 137 144 144 165 204 229 220 206 178 197 201 226 224 213 193 183 179 186 184 188 178 159 155 155 175 183 183 193 187 164 187 185 149 151 149 155 141 125 147 184 175 143 115 161 156 143 134 156 92 116 155 139 150 131 146 122 152 150 160 94 116 105 120 126 97 148 160 92 104 99 101 163 177 100 129 96 100 57 88 52 114 61 103 84 92 139 128 121 101 107 134 113 74 90 79 119 125 95 158 127 66 89 38 119 159 85 91 104 132 121 124 127 105 86 83 170 161 102 97 126 178 172 66 148 124 94 57 159 66 113 172 171 127 151 106 138 69 176 184 184 157 208 237 146 159 233 236 202 98 134 140 159 103 157 196 120 202 181 159 87 80 187 164 201 221 162 215 207 136 136 107 149 156 71 123 153 170 76 104 152 156 64 89 56 61 72 182 161 68 172 194 158 150 209 139 144 175 78 94 182 196 101 178 141 189 194 135 114 119 164 179 59 124 75 65 126 46 164 71 91 134 96 94 74 122 172 122 154 137 120 126 125 146 97 138 120 138 63 132 64 121 62 106 153 169 99 208 160 197 183 68 163 141 86 88 174 87 122 178 190 200 186 198 80 63 107 37 78 64 132 67 53 134 112 187 179 155 124 111 162 154 123 102 110 73 75 117 120 95 89 83 174 104 188 98 68 71 62 128 170 83 163 164 71 160 89 132 117 154 153 182 177 135 102 103 98 104 185 119 96 188 74 61 163 68 67 171 89 83 85 136 100 199 193 140 164 126 206 206 195 207 198 116 92 134 143 168 129 171 85 109 101 55 58 162 130 146 182 92 176 166 186 168 142 200 162 196 188 118 167 115 198 186 139 197 211 198 208 205 187 166 54 59 58 69 129 164 81 162 72 75 58 162 108 178 183 185 76 138 111 165 165 97 150 177 81 89 65 81 69 68 160 91 97 91 90 90 152 120 71 35 106 156 149 192 176 99 89 137 74 144 123 140 88 91 143 147 40 98 61 136 165 151 115 109 178 157 182 83 164 156 120 172 98 183 83 117 167 100 101 102 130 148 147 166 170 151 94 151 100 107 196 86 109 119 62 39 47 47 110 127 120 143 149 89 178 61 56 49 33 102 63 89 80 145 85
69 71 75 80 88 102 123 143 159 168 145 137 124 124 127 138 121 129 139 171 206 224 201 186 255 173 188 205 200 207 195 195 196 200 198 187 173 148 157 164 178 182 181 188 197 200 198 184 181 167 138 106 153 131 146 122 165 173 165 158 129 114 147 154 77 85 160 174 94 97 143 118 97 114 87 111 104 153 145 145 157 152 118 124 76 156 141 94 91 97 112 157 79 87 72 85 89 123 115 79 87 107 106 141 134 145 144 110 117 70 72 89 121 147 108 104 77 50 88 134 150 149 164 111 155 195 112 105 90 182 93 92 82 174 183 89 173 179 135 162 63 144 144 130 69 176 108 187 157 117 129 108 117 138 71 182 184 213 201 234 239 169 236 192 131 85 101 157 157 105 201 110 101 85 154 162 175 120 99 141 179 121 138 164 112 171 102 162 169 161 76 75 76 124 150 90 126 152 161 109 174 168 77 80 100 97 84 100 206 130 156 126 154 180 174 80 160 181 106 100 202 204 208 123 117 84 112 160 157 118 101 68 175 95 147 186 183 134 171 69 91 166 172 130 162 112 132 110 96 83 145 157 151 65 142 138 55 71 99 146 92 130 106 198 195 145 106 168 100 151 154 159 99 177 130 135 100 93 204 168 109 123 163 147 63 57 137 82 44 164 95 146 115 213 120 180 105 89 147 156 91 179 173 139 173 91 173 177 75 72 106 73 82 136 176 81 110 139 123 143 131 177 136 74 75 129 180 163 161 66 156 130 94 101 88 101 114 165 112 189 188 139 93 76 179 81 151 182 179 80 179 86 189 91 199 151 174 97 193 108 103 140 189 150 75 118 155 142 51 69 78 127 83 165 118 151 137 131 137 95 193 163 111 191 92 147 159 112 168 128 180 99 190 227 167 145 62 140 124 52 54 113 171 108 87 161 52 129 138 108 66 82 182 102 184 133 155 115 84 195 133 209 198 167 164 148 159 88 118 170 179 106 180 64 89 95 129 144 167 90 98 182 118 102 197 156 75 162 63 75 123 112 143 40 98 141 49 158 186 160 176 100 99 170 126 70 144 145 190 210 208 152 120 109 91 105 101 102 126 129 132 163 82 176 113 148 168 152 78 112 141 58 53 134 43 74 158 193 122 179 189 139 141 90 39 66 45 114 74 96 92 95
84 90 99 102 108 115 126 142 167 168 157 128 125 126 127 139 145 141 165 191 205 204 179 177 172 172 179 185 193 210 207 208 208 212 209 194 180 167 157 169 183 181 186 187 178 174 172 186 183 133 129 155 142 153 116 167 127 170 150 163 179 165 148 145 152 151 173 164 160 123 89 117 107 108 154 104 143 157 98 160 154 143 47 99 49 116 62 75 107 113 95 142 90 118 109 126 80 89 94 140 115 101 112 155 151 100 130 89 74 75 70 88 96 125 125 86 97 105 36 91 158 188 103 127 94 88 157 85 105 98 84 82 193 94 119 134 99 197 196 188 122 164 70 168 180 180 151 89 96 126 103 40 50 150 168 79 159 195 202 199 218 165 193 204 175 110 146 116 161 174 155 151 158 98 99 86 162 82 172 104 102 163 184 150 150 157 51 92 163 189 89 141 193 129 102 97 156 78 110 118 124 163 182 129 117 131 173 93 206 205 135 157 149 90 147 130 140 186 90 106 116 194 182 164 163 82 72 86 107 94 67 183 188 186 168 186 160 196 126 131 115 113 132 184 170 168 64 56 98 120 92 168 176 71 132 135 143 158 169 153 116 91 106 178 86 90 160 79 70 118 92 56 116 92 49 94 72 189 183 208 203 94 167 99 79 64 55 155 149 72 171 193 106 125 162 189 93 193 132 255 168 93 92 102 130 70 102 67 176 74 76 123 123 51 142 100 157 83 135 80 91 92 147 104 109 90 82 166 84 100 63 64 156 165 132 188 171 205 210 102 133 186 118 183 70 170 85 87 110 159 145 85 194 121 137 143 96 93 90 135 177 169 104 158 145 166 150 40 133 52 77 177 179 126 153 133 187 89 174 148 100 182 168 154 165 148 172 195 197 114 117 178 179 200 111 120 78 67 156 48 56 155 74 173 83 57 59 39 147 63 74 88 88 163 186 174 170 78 151 86 121 125 178 86 156 47 96 112 122 177 156 185 147 66 108 63 137 113 145 212 201 213 181 157 184 175 167 167 181 184 118 159 152 152 144 60 75 174 111 131 125 89 109 129 92 132 106 120 148 175 121 190 160 174 148 79 163 98 79 65 169 131 121 132 143 107 167 107 177 110 64 140 145 119 66 113 174 188 165 127 90 100 160 77 50 139 45 106 120 127 71 139
101 111 121 126 126 128 134 150 158 163 152 141 133 123 145 150 156 168 187 193 196 191 174 163 177 167 179 181 205 214 216 215 215 214 213 202 180 165 169 160 179 166 183 187 182 185 179 174 191 187 188 183 165 111 128 120 146 167 133 160 173 108 114 145 99 161 106 141 161 91 102 155 144 124 196 93 63 63 82 99 255 142 77 32 35 89 50 60 80 113 91 124 84 67 110 104 120 143 97 145 96 124 134 107 109 133 125 97 84 104 146 74 78 98 93 92 95 75 43 58 87 162 144 90 88 151 83 82 68 144 120 88 169 101 168 109 95 97 95 96 192 100 155 147 80 196 98 118 99 109 59 102 140 138 177 130 171 144 193 138 205 212 215 143 176 82 148 88 167 137 189 99 124 96 153 136 157 157 149 146 158 78 182 78 68 60 154 79 144 136 97 195 108 133 92 150 184 182 203 96 189 145 129 171 79 151 117 147 172 201 119 178 172 94 69 74 72 83 173 84 84 85 140 159 140 127 53 46 145 54 183 128 193 110 198 195 211 209 92 69 156 147 170 188 78 174 155 117 83 189 199 168 84 105 114 135 34 112 134 112 175 82 91 109 73 185 171 169 175 113 165 156 91 124 80 148 60 74 95 153 121 207 126 110 117 102 127 148 70 76 70 136 193 109 106 162 192 164 159 130 108 187 107 79 157 106 90 82 112 78 170 81 75 137 66 83 124 107 146 141 90 192 113 81 158 87 160 90 98 92 71 68 63 60 74 126 115 201 128 100 94 196 148 84 168 141 171 95 67 159 170 96 97 122 166 82 173 83 151 181 132 161 79 81 174 138 44 106 51 36 100 124 177 164 96 77 68 173 76 74 114 74 67 104 80 99 102 178 197 122 75 99 94 113 123 183 149 62 56 54 162 106 146 185 125 53 131 136 135 152 158 137 116 93 163 151 107 110 135 194 184 176 205 148 156 41 46 143 125 53 82 133 150 66 56 89 88 178 210 128 220 156 167 166 181 161 163 125 193 117 179 89 73 71 166 75 165 166 173 157 158 133 189 174 197 182 171 155 185 206 116 164 80 75 129 97 106 150 118 62 115 170 84 185 96 146 118 126 128 94 136 137 67 110 69 61 145 73 182 90 158 63 89 62 152 47 66 114 81 126 72 48
119 127 138 144 150 147 146 155 160 166 150 151 145 140 147 152 161 162 185 192 184 181 162 155 178 181 191 187 213 223 218 203 203 211 208 204 185 172 162 168 174 170 174 171 170 153 150 172 186 181 167 192 143 136 171 163 152 161 164 134 151 125 107 68 151 158 167 112 171 121 128 148 135 158 195 89 66 82 67 111 123 141 123 29 25 113 52 58 86 61 81 153 82 62 87 59 110 92 97 124 125 102 108 95 148 115 96 157 90 108 81 99 98 86 91 180 122 93 123 128 76 101 119 173 110 62 97 76 53 174 121 188 255 123 99 158 156 90 87 196 170 108 87 175 106 163 184 151 73 98 144 106 59 97 143 187 192 138 162 94 185 103 195 198 106 85 140 165 86 151 184 150 101 83 163 67 61 71 160 113 115 117 149 76 160 123 104 153 87 142 182 166 138 104 196 104 208 212 172 159 194 139 169 153 107 87 187 192 170 185 154 127 80 145 126 67 170 86 111 153 79 103 201 198 145 167 160 43 141 69 179 166 187 158 97 169 148 144 151 82 89 54 68 118 102 68 149 163 131 163 107 212 93 101 151 131 57 99 111 155 88 78 70 106 156 180 97 96 188 147 158 152 60 55 69 144 98 101 170 148 118 158 225 220 182 115 84 140 177 83 72 185 157 170 190 165 95 101 121 193 159 77 114 76 170 86 171 171 168 73 134 155 143 68 78 154 100 152 94 199 105 122 179 98 99 132 133 127 102 176 175 85 171 173 173 168 94 101 92 81 159 121 79 112 171 60 150 161 103 121 101 97 195 72 150 92 76 115 133 78 106 169 82 181 167 99 144 80 116 160 174 167 133 111 90 93 63 127 174 169 177 79 170 142 182 100 151 113 176 159 190 119 91 86 185 108 130 100 102 161 137 184 140 150 176 78 58 111 55 72 74 78 187 118 112 153 195 158 139 195 118 186 110 91 54 130 59 107 111 255 139 141 156 147 94 169 84 116 153 129 222 145 166 165 107 165 171 165 133 165 147 82 180 155 120 189 167 169 160 142 74 168 156 184 118 129 207 202 196 188 147 170 54 52 59 121 187 90 105 92 112 83 88 88 112 173 173 85 146 41 37 40 137 62 159 113 169 176 154 99 85 72 73 96 94 151 50 134 148 71 72 91
130 133 141 147 154 152 153 164 160 167 155 154 146 160 162 151 154 166 177 186 180 162 164 160 168 186 194 205 215 218 205 198 193 201 208 205 186 165 147 159 159 157 160 154 154 162 188 172 203 197 169 173 146 181 167 153 157 148 136 170 133 133 89 101 131 130 100 87 99 113 70 93 108 114 184 134 87 91 84 92 118 84 64 95 36 36 47 101 56 66 127 81 87 67 68 98 86 113 89 135 88 125 87 115 95 120 130 110 87 83 118 82 109 112 89 94 117 73 83 128 96 203 118 91 67 100 47 49 66 99 147 121 103 104 184 116 106 174 73 170 146 79 168 166 166 138 121 97 178 134 83 150 158 68 155 161 170 185 202 197 148 199 164 125 115 124 81 93 123 186 109 165 148 160 182 130 73 164 104 144 72 105 164 133 106 83 103 147 80 198 203 202 170 111 110 216 116 132 102 92 188 186 94 167 183 156 129 117 116 143 96 137 127 185 174 80 181 75 148 106 179 89 139 155 123 174 157 155 156 74 177 152 192 208 96 171 193 185 160 153 79 152 145 83 82 84 78 109 68 189 131 124 125 153 166 62 70 57 92 146 150 116 255 97 183 188 187 172 183 114 76 150 175 93 96 101 54 127 86 108 140 200 191 113 104 147 151 161 157 103 139 77 148 101 141 150 196 209 137 124 94 170 173 108 178 172 72 98 89 85 171 71 160 67 75 125 139 180 100 108 118 192 196 200 183 205 185 140 126 137 86 95 89 191 82 88 122 157 62 72 54 172 76 179 97 148 165 137 85 178 159 104 85 143 137 110 137 150 84 158 130 185 166 175 113 156 85 69 72 85 181 121 155 118 164 79 67 173 170 92 174 80 162 171 178 107 118 119 138 115 159 95 122 186 163 72 109 154 122 165 179 82 140 163 137 69 144 164 158 168 114 77 155 89 180 112 196 103 121 134 107 100 92 107 160 136 59 154 78 133 136 123 138 90 129 174 170 114 202 164 107 184 99 173 177 122 176 201 148 218 206 88 190 156 88 170 93 163 145 130 148 52 90 186 128 162 140 206 169 195 117 72 95 150 77 98 207 146 90 168 160 152 176 123 123 162 184 159 103 37 57 103 89 144 81 91 120 151 69 72 68 77 87 92 92 184 147 138 148 83 49 43
131 132 136 140 148 153 161 167 169 175 164 177 170 163 172 159 151 147 169 167 175 160 168 168 182 193 200 194 208 209 197 186 179 189 208 211 191 171 159 160 152 149 152 139 144 148 186 204 218 209 192 142 123 189 155 168 120 150 130 160 156 113 111 66 116 88 119 101 110 92 127 77 139 190 176 150 173 146 136 167 137 113 131 101 88 44 107 107 133 75 144 89 95 121 79 90 89 116 94 111 94 74 99 85 101 109 146 85 99 102 117 96 159 106 127 130 101 92 156 62 102 143 209 110 71 80 148 76 61 72 194 165 168 204 119 201 139 148 124 151 63 171 155 154 69 170 172 118 188 172 136 140 150 162 180 191 94 128 200 188 196 177 114 165 175 133 192 150 123 145 186 190 194 119 109 93 109 161 43 136 52 92 96 60 102 77 84 141 187 99 194 210 115 207 209 206 99 155 95 163 149 103 172 92 122 157 93 105 208 189 201 91 189 157 170 129 167 90 173 191 92 142 166 190 179 199 171 173 69 97 160 191 208 127 200 185 128 170 166 68 97 169 97 127 105 160 255 155 147 98 218 211 197 99 139 134 70 151 105 147 119 155 166 151 192 110 79 68 169 69 135 184 95 78 89 168 63 157 178 94 202 179 178 179 180 186 186 87 125 101 164 85 110 107 112 97 139 125 203 150 99 78 112 185 103 166 139 127 112 105 192 76 72 131 150 133 83 122 99 192 162 125 143 140 88 99 115 194 185 93 114 200 209 100 91 99 109 106 88 115 105 157 66 74 69 125 125 77 98 124 100 151 70 141 58 146 107 62 106 146 150 137 128 78 165 49 161 112 107 212 255 204 182 164 135 140 72 179 90 160 175 154 138 175 154 183 184 161 205 178 169 200 136 98 121 134 124 182 124 177 134 134 107 146 177 60 95 134 82 146 164 82 86 151 99 213 112 176 108 136 182 161 171 71 149 148 161 80 110 79 75 108 152 94 174 72 165 87 153 144 91 83 197 109 152 158 170 183 129 173 108 95 99 124 112 58 137 97 139 128 96 151 62 109 166 121 99 98 92 104 157 98 152 122 99 81 172 135 104 172 106 161 159 122 171 108 190 183 74 43 115 39 112 101 154 167 136 171 75 176 149 171 95 175 125 194 122 98 115 79 72 124
125 127 133 134 142 150 161 162 168 170 162 167 175 167 169 157 139 149 155 166 169 168 178 175 186 189 191 198 191 208 202 191 182 186 201 213 195 181 169 171 153 168 156 135 136 169 161 175 176 179 150 171 130 156 142 125 157 158 122 183 113 155 101 83 71 63 67 130 129 69 106 107 174 102 107 88 150 140 156 108 111 107 114 108 120 140 83 68 72 94 141 85 95 92 139 137 114 114 82 115 79 113 79 89 135 87 79 113 107 112 78 89 107 87 49 122 59 91 67 68 126 99 120 97 69 74 139 96 167 177 106 189 124 185 221 213 189 179 137 160 153 167 82 67 101 137 91 194 195 112 166 155 123 135 172 163 191 187 165 196 191 150 78 141 139 141 169 166 145 150 193 112 137 194 160 160 165 156 64 145 83 59 111 130 141 67 155 167 85 183 205 155 100 162 141 82 135 127 255 93 186 177 88 57 164 70 134 180 139 215 161 133 181 187 94 87 136 71 80 147 120 90 142 107 163 255 199 151 166 161 179 163 113 114 196 182 91 143 109 255 165 181 185 141 78 124 115 164 75 200 211 149 229 145 201 154 175 183 158 177 138 209 196 198 140 88 114 126 109 70 155 114 121 165 189 138 153 85 94 127 159 98 74 64 61 56 123 168 150 158 101 131 167 73 67 86 146 199 118 112 101 201 167 164 79 99 99 130 137 125 104 93 93 97 71 126 84 86 99 101 98 177 164 121 73 103 141 120 131 178 85 199 129 183 187 82 173 63 128 85 52 58 66 76 95 186 94 164 178 151 118 163 144 79 108 58 141 145 127 81 68 145 143 175 162 67 154 123 123 191 220 111 153 84 69 145 110 102 142 137 159 100 139 176 177 95 143 115 162 96 109 183 162 131 130 61 160 161 204 104 134 133 124 106 135 170 56 132 156 79 80 68 80 160 127 115 182 207 179 137 167 88 115 154 150 81 188 131 177 119 53 132 159 164 123 76 170 140 71 153 91 69 120 202 120 74 108 176 203 151 147 185 157 157 99 134 121 30 145 137 102 55 139 155 183 96 181 202 200 191 184 105 121 85 80 80 100 106 187 72 97 51 137 88 67 162 85 192 117 119 40 114 125 80 96 103 87 117 74 138 93 136 192 143 199 150 93 89 109 80 100 110
121 127 136 138 138 149 159 168 166 165 151 166 161 153 154 143 143 143 142 145 165 172 170 171 173 184 185 183 186 197 191 185 183 191 208 214 201 190 185 190 189 167 164 143 152 157 187 199 203 205 193 196 191 203 184 166 169 128 100 174 122 155 69 76 91 149 111 139 126 83 128 135 118 116 127 155 87 97 172 99 99 139 100 124 95 70 147 75 84 82 143 100 111 127 94 92 79 98 133 105 110 109 137 130 133 88 98 63 103 114 107 79 91 79 45 39 82 69 82 73 144 80 181 75 78 157 50 168 172 218 161 136 141 234 118 106 82 132 96 144 164 109 176 132 130 192 184 170 135 157 149 163 155 63 104 151 99 169 189 183 182 179 102 67 181 153 176 188 129 166 186 126 92 177 90 131 103 94 160 158 105 32 100 121 127 142 49 69 197 166 211 95 90 255 180 172 162 137 88 181 193 168 148 125 46 154 83 162 121 207 175 98 75 66 63 74 64 141 93 100 162 120 129 128 103 209 129 152 103 74 144 197 204 190 149 191 177 171 106 140 187 106 194 121 152 140 67 110 191 130 184 163 232 224 109 188 118 159 111 205 193 222 178 211 200 149 55 93 118 99 170 106 182 174 177 159 157 83 92 104 94 78 70 149 32 50 52 70 104 175 105 119 88 51 145 68 175 135 165 99 116 116 153 200 148 85 177 142 219 219 116 99 167 74 65 124 170 171 109 97 145 96 87 155 105 80 76 133 74 108 171 183 105 158 168 143 126 49 48 83 65 68 132 138 152 104 101 151 118 186 100 103 128 175 103 76 70 158 151 175 87 181 190 107 163 101 81 178 216 198 121 199 142 175 111 60 68 84 86 124 122 128 106 77 181 171 108 64 79 101 105 114 94 54 105 54 104 191 163 196 204 218 160 227 201 167 61 159 128 116 142 92 70 82 189 127 114 200 114 205 100 139 94 186 134 201 109 199 168 134 159 80 103 76 90 77 82 162 110 137 149 255 183 182 94 83 107 72 90 112 110 182 112 107 48 129 17 55 46 46 126 139 95 118 132 151 114 170 190 196 178 86 115 179 146 104 190 144 179 130 86 54 126 62 94 174 96 164 198 88 158 55 133 48 95 77 99 163 138 87 117 153 132 185 155 181 187 180 172 165 103 170
117 127 138 144 140 144 153 162 164 154 146 141 138 140 135 140 137 141 145 152 156 148 167 160 178 175 169 168 176 184 192 184 190 199 207 217 210 199 198 209 210 196 180 153 159 176 186 203 209 217 184 217 196 188 176 182 158 119 136 146 147 85 78 64 72 154 153 91 159 70 133 143 144 142 61 86 75 137 84 107 122 172 154 154 151 96 107 128 83 79 87 86 107 86 79 68 63 84 111 96 91 89 114 112 96 91 78 80 89 72 96 112 68 130 38 68 109 57 81 75 106 79 76 117 64 62 73 132 137 126 138 220 141 122 104 121 158 88 114 178 172 120 180 191 188 170 193 188 138 122 179 131 51 141 68 165 185 152 195 161 161 147 154 117 145 173 209 149 175 168 194 159 174 166 94 64 147 70 79 94 87 131 19 20 126 126 159 160 108 208 104 120 73 130 142 65 169 175 106 100 196 86 88 113 71 63 91 170 160 100 168 84 128 161 157 57 127 131 159 158 154 195 125 177 179 203 122 188 86 135 104 166 94 105 94 92 185 97 182 148 144 172 109 132 137 172 86 117 183 205 203 188 214 127 181 131 82 124 190 140 140 126 183 171 196 105 161 43 71 85 93 91 199 181 79 77 129 85 157 132 60 153 51 44 95 70 76 168 155 142 138 121 55 48 141 71 103 105 175 168 118 135 192 124 88 129 179 210 122 112 192 180 170 119 83 82 115 171 176 124 120 171 189 94 175 180 184 159 169 63 90 88 105 152 122 175 66 133 55 143 108 71 166 181 123 193 207 105 162 148 163 87 118 176 166 164 166 105 143 176 192 169 182 100 151 109 106 114 145 179 219 187 105 186 179 135 182 172 79 156 50 131 67 134 108 162 110 132 131 184 157 176 67 84 43 161 81 168 186 137 189 140 234 235 215 107 164 134 152 111 75 80 98 92 88 181 169 98 112 189 108 105 83 153 183 145 107 139 90 168 91 89 186 80 125 129 66 72 122 133 107 114 189 106 207 88 178 148 195 112 222 146 151 174 135 85 53 79 105 54 65 87 109 144 168 187 206 205 133 135 182 112 94 192 139 100 176 124 75 105 69 63 100 102 121 170 167 203 181 133 125 138 81 153 147 153 118 111 214 165 188 162 74 76 74 167 73 158 154 109 87 125
121 133 146 152 142 143 150 170 172 157 147 150 138 148 139 151 153 140 153 146 141 151 160 174 160 173 167 167 172 172 189 194 198 207 218 219 217 214 218 216 213 200 156 147 168 180 205 180 216 206 210 183 202 169 149 192 141 163 154 152 101 119 116 127 67 108 168 162 98 121 96 129 119 57 111 114 111 126 139 142 162 138 255 83 80 92 83 85 70 73 68 77 98 105 73 54 93 79 97 126 99 99 92 105 97 105 86 77 76 93 144 92 99 52 49 42 73 156 109 111 87 96 73 165 155 54 96 76 131 206 230 227 227 147 75 143 139 161 165 89 160 124 98 159 176 191 173 121 210 153 178 163 125 93 145 90 154 94 189 142 167 151 121 101 103 146 133 129 218 191 189 88 78 152 55 128 90 167 166 127 120 116 129 74 102 120 109 138 117 122 85 147 165 166 169 77 117 182 88 194 157 157 156 112 164 124 166 149 76 78 183 83 71 147 54 124 102 119 86 100 84 116 79 176 124 170 118 172 187 189 204 113 86 135 186 196 162 217 183 139 178 180 137 209 101 154 86 91 190 97 99 191 165 195 115 162 132 155 115 182 133 228 223 208 211 168 156 130 113 108 81 89 134 88 90 158 73 77 103 59 44 160 111 147 32 56 35 104 131 125 188 161 137 139 41 84 67 167 134 114 99 102 95 99 82 101 115 105 135 112 89 90 158 91 60 163 72 91 181 143 177 129 122 92 83 168 87 113 122 135 156 92 187 132 135 135 135 48 140 97 177 97 183 98 180 190 202 106 195 108 204 99 194 86 163 146 117 95 122 168 122 209 117 199 185 179 116 129 106 130 130 118 124 159 98 101 176 160 85 66 128 150 63 70 184 133 129 255 176 92 85 135 159 145 143 158 156 161 164 189 99 128 186 141 206 120 176 107 70 127 134 187 76 89 124 161 150 106 212 210 189 179 135 139 183 182 119 124 167 145 189 108 171 90 170 154 57 158 60 52 75 167 95 132 103 189 198 200 114 224 220 171 204 170 172 69 131 129 128 94 177 175 171 178 81 100 196 117 191 179 100 142 182 153 120 95 173 59 153 189 156 104 99 135 76 172 114 111 181 201 186 206 120 157 113 113 149 125 227 165 148 178 152 68 79 128 88 122 49 63 43 39
119 134 148 154 145 135 144 156 168 167 149 148 149 163 159 148 154 157 144 151 149 155 164 176 177 171 159 174 178 188 196 197 205 212 225 229 225 224 220 217 194 195 151 144 158 194 218 225 210 169 194 177 195 208 173 175 126 136 110 111 136 160 110 122 112 155 124 161 84 100 82 152 134 108 41 107 104 85 48 58 80 111 118 141 75 63 57 56 51 51 92 68 91 101 255 69 65 107 119 106 126 131 127 122 86 118 88 101 86 104 132 95 94 66 77 143 158 101 94 99 111 146 77 160 72 120 255 95 74 118 213 222 194 138 104 146 46 119 60 138 54 160 152 197 105 114 186 130 204 204 198 106 117 43 100 71 178 191 195 164 103 106 65 160 129 186 198 198 126 143 125 96 168 110 161 70 110 192 133 170 172 85 52 35 101 61 69 111 148 171 160 144 147 98 129 174 88 174 120 160 101 167 58 82 98 99 176 83 66 111 79 94 133 112 72 67 163 59 65 110 168 141 98 176 131 162 122 134 88 197 93 167 163 158 169 129 140 120 138 120 110 120 193 206 170 133 174 195 198 111 185 121 97 108 153 127 170 171 90 183 201 110 137 155 204 207 172 154 168 63 80 123 100 70 162 121 173 159 62 50 68 59 68 163 45 132 68 100 131 170 115 161 79 170 63 82 91 129 166 134 156 140 154 79 69 141 193 107 131 186 127 177 99 71 140 87 129 78 176 171 123 195 142 105 118 111 147 85 85 92 147 180 91 174 126 98 89 106 172 97 195 126 156 186 107 100 156 208 177 216 207 210 129 77 133 152 165 164 134 195 200 214 196 133 102 183 74 143 142 161 121 182 162 67 155 84 113 167 147 133 77 90 105 174 185 189 177 80 182 122 115 169 158 83 121 64 126 108 109 90 192 165 213 218 112 189 146 179 163 170 156 119 98 131 183 92 104 198 190 207 156 173 177 172 118 132 196 82 158 114 91 140 180 161 66 83 153 59 107 107 86 75 116 171 207 109 205 208 122 139 196 204 185 183 255 130 49 128 83 91 129 184 113 106 172 98 185 144 115 125 174 179 181 127 130 108 119 63 105 141 163 89 134 160 152 108 90 118 99 204 179 163 149 217 228 211 124 159 195 208 171 120 138 149 102 86 150 47 44 39 97 121
121 136 150 155 142 131 139 154 171 175 167 160 160 156 165 147 150 149 141 141 141 143 165 174 173 182 172 175 186 195 198 213 220 221 220 224 219 216 206 203 198 170 166 141 165 186 210 214 213 191 184 199 172 170 166 155 162 171 175 138 169 104 159 141 140 164 109 149 144 81 118 63 50 115 64 125 77 119 255 114 87 73 62 48 95 109 52 48 56 91 101 112 64 70 120 67 100 100 135 104 111 86 79 68 72 82 99 137 137 95 97 91 71 61 85 159 151 112 137 201 119 111 82 100 109 93 156 97 148 99 109 176 205 190 65 40 67 134 73 148 55 153 147 96 202 208 215 101 195 104 129 152 161 146 68 156 137 182 80 137 57 109 69 162 163 111 93 150 211 205 179 171 106 154 93 175 182 180 145 125 104 164 154 59 141 82 143 128 188 183 170 88 145 76 182 69 165 106 146 87 156 98 168 170 141 190 77 173 159 90 107 107 171 126 130 147 58 146 152 158 115 168 183 81 183 70 175 149 106 162 181 176 142 171 101 178 82 202 187 170 175 188 151 146 205 197 192 194 115 124 187 109 75 64 120 171 79 67 48 131 175 170 86 96 193 180 211 115 185 120 69 179 181 173 160 66 105 66 76 73 98 71 140 79 157 98 160 188 104 154 213 171 95 86 88 109 81 112 122 158 119 91 91 107 127 128 206 216 227 127 111 63 118 136 108 82 120 85 141 209 181 200 156 109 160 180 86 159 104 191 109 187 97 177 71 68 45 54 67 190 119 103 93 144 134 184 93 118 211 215 113 157 156 70 99 57 136 85 90 154 143 148 200 195 185 181 74 101 131 167 160 139 94 156 169 120 84 95 174 134 61 66 133 70 172 195 176 175 94 81 169 164 144 108 60 79 195 211 202 165 89 102 155 168 108 212 99 156 97 148 185 97 192 111 94 188 192 203 118 208 111 110 85 116 199 148 189 155 168 99 140 90 89 130 145 182 166 156 167 100 133 107 176 161 117 163 124 175 221 219 131 176 150 169 166 83 133 117 115 168 94 184 139 114 109 170 94 143 73 75 102 144 79 93 100 162 76 99 168 192 154 109 136 161 119 177 92 197 160 93 177 191 189 206 202 227 207 109 98 197 157 193 188 162 151 85 130 120 48 149 101 74
115 128 142 150 135 128 134 145 170 165 171 172 177 158 161 144 140 142 142 134 130 156 167 181 175 180 167 173 189 202 212 219 220 218 217 214 209 201 193 177 179 183 155 162 158 158 194 177 199 173 193 200 204 205 212 178 191 160 190 173 173 120 137 156 120 95 121 152 149 123 82 75 49 115 51 84 127 63 93 79 79 90 130 76 44 126 84 54 101 57 59 118 113 80 78 119 76 87 130 143 130 96 74 82 63 94 118 81 84 121 96 92 135 64 113 109 107 178 101 110 90 85 159 77 177 112 180 81 188 176 200 107 142 191 77 98 35 129 32 138 48 82 157 128 135 130 220 127 112 79 163 143 71 170 75 97 166 139 123 73 149 141 138 153 132 178 115 117 199 213 147 143 177 197 85 123 151 119 137 105 107 148 171 150 170 150 151 182 118 203 187 80 113 143 68 58 132 128 55 162 175 115 165 91 103 133 120 85 184 155 127 140 147 63 58 90 61 126 129 142 59 173 187 186 180 115 101 114 183 103 162 141 84 126 165 93 115 97 194 197 124 158 88 157 144 135 83 156 187 111 167 80 153 135 69 140 142 136 42 108 130 144 163 173 88 141 212 142 99 188 113 193 99 107 89 158 82 61 43 39 46 94 170 142 92 161 90 140 115 119 198 82 128 136 84 127 88 148 105 122 120 74 162 62 75 188 159 167 164 144 180 147 93 117 65 150 115 163 165 115 160 131 177 97 183 81 95 112 142 104 115 99 136 128 65 169 59 146 74 164 95 193 195 168 150 158 156 190 196 213 178 200 190 148 88 159 115 84 135 98 191 93 135 160 163 84 83 107 170 181 128 156 53 56 101 164 146 103 117 71 55 56 124 78 88 100 99 151 178 162 147 131 95 176 168 92 180 118 169 196 86 155 174 101 196 193 193 94 173 74 88 168 162 196 138 169 182 179 192 194 138 69 176 99 79 113 118 123 127 136 178 117 204 161 177 201 197 107 84 94 68 156 70 102 155 179 165 96 179 201 189 71 125 78 170 122 86 112 159 125 85 170 73 167 165 191 130 80 79 92 102 159 153 111 123 103 118 185 187 118 174 93 162 125 82 122 145 98 104 194 163 176 184 114 137 120 198 94 179 118 195 126 176 129 143 61 139 113 69 142 58 151
120 129 141 141 132 125 124 145 159 158 172 163 164 151 134 130 131 139 140 128 140 160 163 163 164 160 168 172 182 195 206 211 208 206 195 194 188 186 179 167 172 184 174 168 167 171 183 187 152 144 191 173 186 185 192 194 126 135 208 147 203 109 158 94 109 146 130 128 58 65 52 93 135 77 128 54 75 97 115 80 133 77 61 126 124 79 109 121 55 111 84 119 60 61 127 68 108 79 123 84 86 124 58 90 80 114 88 66 97 110 91 95 81 94 150 148 112 145 157 97 74 164 68 88 114 92 162 85 163 196 118 109 145 82 78 102 156 50 140 41 58 64 161 120 212 175 214 166 162 144 60 59 117 162 116 195 88 141 61 136 138 119 82 153 140 117 111 196 217 216 215 126 149 191 95 129 163 71 83 115 197 186 100 86 69 59 102 108 152 178 98 103 155 118 149 162 62 152 70 73 183 125 189 204 138 142 121 189 169 200 99 194 95 97 94 96 171 86 101 136 97 137 107 179 195 98 113 91 171 144 141 155 160 181 174 176 158 81 185 116 183 191 193 204 158 168 123 182 111 144 124 130 179 180 101 127 147 144 118 143 85 157 79 58 65 112 194 105 186 178 138 148 132 117 190 69 57 76 88 60 86 187 117 194 105 139 144 129 211 137 98 68 86 97 74 89 112 134 221 132 185 174 80 79 76 107 138 145 147 188 71 106 93 50 146 87 76 84 82 110 82 192 117 185 90 81 176 200 141 104 100 87 123 124 179 114 71 80 95 73 192 153 122 161 57 63 110 96 140 176 146 91 105 107 71 87 171 72 186 187 100 123 148 157 84 187 164 133 182 198 172 112 140 122 54 122 147 143 129 91 116 147 53 131 72 73 129 105 105 191 101 157 196 92 138 146 214 188 137 82 106 61 167 164 141 132 183 75 110 148 73 83 96 154 203 113 158 122 162 123 89 74 136 89 94 154 129 107 205 116 159 97 201 113 209 193 216 127 180 80 106 132 110 169 76 109 186 168 92 172 179 99 50 161 72 190 111 196 182 91 159 162 156 157 188 183 77 99 102 112 88 147 139 68 88 118 184 130 151 95 91 156 127 113 87 109 90 108 142 100 145 121 200 177 105 138 169 119 138 172 186 128 176 181 87 80 92 89 70 150 140 180
130 137 145 146 134 122 116 131 137 159 162 178 165 149 125 125 123 128 124 124 146 163 149 140 142 145 150 169 176 183 188 200 198 198 190 179 178 174 175 174 176 175 176 167 177 185 179 178 171 185 161 205 190 219 203 141 128 146 174 195 144 113 130 86 101 155 110 83 103 82 143 139 134 123 149 71 80 152 120 134 162 163 70 70 69 91 74 65 57 81 79 89 85 61 70 81 80 79 87 88 112 75 67 66 71 56 96 77 67 120 98 70 72 128 122 104 133 74 80 98 55 77 80 96 165 99 173 182 110 95 154 75 66 73 72 136 65 55 148 47 71 156 104 205 215 126 217 195 161 95 136 150 62 134 192 189 186 76 163 146 74 47 131 58 77 157 166 116 112 131 203 210 205 173 161 124 46 55 132 168 133 164 198 182 116 45 40 160 91 182 118 204 124 96 169 159 150 55 75 184 199 115 197 201 112 144 147 202 144 194 157 138 136 106 177 142 69 160 131 86 175 151 185 129 203 208 107 168 155 145 130 41 157 176 76 134 158 166 157 169 81 173 198 111 159 187 77 84 103 116 195 146 114 129 123 89 161 150 51 61 146 163 90 42 151 160 78 191 131 209 139 147 163 130 86 72 102 132 117 70 166 170 174 194 168 166 101 211 206 184 88 53 42 88 63 78 119 137 206 153 165 138 105 55 98 134 123 141 105 86 68 54 122 89 170 180 163 108 90 112 104 172 121 180 118 156 183 127 108 172 170 114 169 189 100 110 175 143 59 71 82 174 132 158 102 135 172 73 70 110 115 157 182 129 71 151 64 170 90 166 178 74 113 145 142 116 121 98 100 160 150 134 79 168 81 172 171 83 125 52 88 49 42 134 156 70 92 155 82 172 113 177 174 188 201 121 146 102 86 72 168 101 81 162 94 143 86 155 68 70 99 168 166 203 111 217 143 183 131 137 180 186 79 75 82 152 76 202 124 107 180 192 188 116 119 216 219 149 169 62 54 156 80 165 72 123 186 156 167 148 114 170 83 125 162 195 211 169 185 118 111 169 123 120 147 68 167 164 130 137 164 68 167 157 163 123 113 147 140 203 153 90 172 149 182 152 172 188 88 188 185 169 124 116 104 186 85 65 155 72 107 211 179 112 171 86 74 119 105 104 78 113
150 156 159 155 139 123 112 115 128 141 160 174 182 164 136 106 112 113 121 132 140 159 150 137 128 134 146 161 166 173 172 179 177 188 182 174 171 170 152 160 155 164 166 175 187 189 206 194 191 165 197 156 194 180 191 114 113 167 185 125 128 153 126 152 118 114 99 165 83 137 74 92 108 152 69 107 157 140 94 144 170 82 122 124 154 135 59 57 54 109 85 128 102 135 106 93 81 95 84 93 71 68 102 71 90 72 58 97 63 70 80 69 150 161 102 82 75 71 53 141 47 52 58 73 87 119 169 68 91 118 65 48 72 73 119 108 145 63 53 44 47 73 255 194 102 206 125 196 82 155 114 135 148 176 124 105 182 131 174 107 103 168 115 161 163 117 84 130 162 202 166 188 176 174 124 147 150 146 79 192 195 195 192 177 53 67 141 99 178 181 113 184 172 190 70 59 60 155 142 146 190 144 117 222 111 155 160 127 194 149 86 95 178 108 145 75 73 127 146 124 189 168 145 186 120 117 199 186 108 74 136 112 91 85 99 167 95 58 145 141 86 101 168 104 178 88 136 151 161 157 195 121 93 95 85 148 126 116 64 75 80 148 161 156 47 106 80 184 93 206 203 210 127 88 108 178 84 185 101 90 171 120 112 101 124 177 137 103 144 112 62 129 115 35 54 177 128 127 112 191 124 134 65 165 61 167 139 169 65 63 124 99 129 61 165 188 105 182 170 93 171 160 158 89 164 189 143 111 76 168 49 108 85 125 202 115 139 72 97 132 185 175 89 153 61 63 100 83 69 90 70 161 67 77 154 98 60 50 95 120 91 161 102 68 159 69 64 70 131 193 187 175 160 186 185 115 74 128 163 59 56 101 127 153 157 125 65 100 76 97 148 166 87 108 96 196 99 122 178 136 102 163 116 116 106 153 186 173 151 64 130 141 160 107 153 105 112 190 171 141 159 114 192 127 77 58 112 109 185 99 95 105 171 187 122 208 179 138 154 78 126 171 129 155 134 84 171 184 129 163 177 100 99 152 196 107 212 104 87 172 161 62 113 155 163 122 130 149 49 144 64 78 179 108 97 114 132 113 178 129 199 168 146 180 85 73 173 146 119 109 118 196 127 143 107 128 178 161 154 119 183 156 198 161 112 68 50 47 93 58 164 161
163 169 174 162 147 123 109 107 117 127 148 179 175 165 140 107 99 103 110 132 158 155 148 143 136 142 144 156 161 156 159 255 162 176 181 178 169 165 156 139 123 143 140 165 176 216 221 213 198 169 174 196 206 193 129 116 90 102 111 159 144 96 139 160 105 151 163 183 112 152 167 91 133 150 79 77 90 114 173 185 91 108 74 79 103 145 86 82 59 127 68 75 124 95 103 133 97 93 86 79 95 77 59 60 89 90 81 58 116 78 129 255 107 146 104 117 111 66 68 108 50 66 65 74 92 167 142 150 95 143 49 134 23 131 164 78 176 93 66 146 150 155 125 143 183 96 100 79 165 147 127 88 108 61 185 165 202 114 183 180 190 86 150 122 144 162 157 107 167 106 196 183 172 188 160 72 59 169 182 154 165 192 156 106 158 95 75 125 83 208 215 144 182 171 62 60 87 142 79 93 205 181 200 220 145 145 88 196 100 166 108 175 64 70 164 129 123 141 113 187 169 87 117 80 165 103 100 187 99 44 137 92 155 152 163 137 159 153 108 149 121 85 200 191 165 147 187 255 210 174 187 158 115 99 190 97 123 59 132 180 167 125 123 95 108 97 120 121 177 88 129 197 147 76 174 84 182 184 137 197 90 111 65 50 117 91 164 109 155 180 135 60 64 68 67 86 101 183 151 86 167 141 100 176 72 167 70 148 51 135 130 80 149 115 82 93 97 154 105 75 166 80 103 150 171 180 139 80 71 88 143 132 113 141 94 101 108 192 133 185 183 172 130 64 163 85 160 66 91 113 54 170 147 173 87 167 161 76 37 151 133 154 73 87 50 138 38 85 66 180 157 195 108 198 124 101 145 121 83 85 164 73 128 63 115 114 171 103 166 144 153 151 179 89 95 117 199 127 76 168 79 105 140 135 112 212 199 85 49 64 138 150 117 88 95 111 109 110 195 186 203 114 97 183 59 130 153 117 204 160 136 104 181 95 95 190 127 185 180 138 184 153 103 88 89 192 151 92 187 188 177 79 180 144 117 200 105 93 112 174 117 51 147 117 132 125 104 147 142 91 62 139 194 155 201 197 123 150 132 101 165 94 111 135 113 79 99 43 50 80 79 87 100 191 134 174 123 153 62 98 182 186 116 87 75 50 86 47 113 81 60 83
166 170 175 165 142 116 103 105 108 121 142 160 169 172 145 118 105 103 122 140 157 158 147 156 152 155 150 150 147 162 146 144 152 162 165 176 167 161 140 135 127 118 144 166 174 215 225 177 200 159 179 195 147 135 174 106 146 110 132 131 134 134 119 108 137 117 163 172 93 124 119 98 69 133 68 81 138 134 122 117 102 155 110 130 146 120 117 72 50 45 116 60 76 154 116 100 113 91 105 91 52 56 111 71 64 86 106 66 81 78 79 74 85 124 160 100 137 149 148 90 165 136 94 95 148 82 64 69 178 72 52 128 118 118 100 74 76 70 70 51 136 109 176 139 195 173 146 151 164 57 45 96 88 148 255 104 115 201 190 176 162 105 131 171 164 120 92 176 156 169 198 173 163 103 148 173 174 145 191 108 198 197 183 172 167 60 121 174 101 188 127 175 136 183 85 90 55 61 104 95 124 153 139 164 202 141 115 102 106 106 197 133 65 130 170 173 92 123 176 155 117 196 83 122 131 119 156 186 140 167 86 172 166 101 134 74 145 161 126 85 144 65 184 103 209 101 132 208 213 102 95 92 94 183 106 165 57 83 70 148 89 167 165 91 121 74 97 92 149 115 134 85 172 135 150 190 95 90 194 185 186 107 150 91 65 165 93 203 185 81 171 158 111 99 129 92 91 255 107 72 178 125 191 94 80 113 57 43 39 47 66 69 117 75 138 149 128 111 88 177 72 166 177 201 159 188 93 104 75 158 90 144 124 160 128 90 156 87 158 186 176 75 70 60 255 75 177 67 161 52 59 138 180 138 171 181 78 127 44 72 155 166 164 158 125 25 22 141 152 132 187 187 89 178 210 192 187 174 72 159 140 181 148 80 179 140 149 67 98 105 96 92 179 84 129 197 172 178 174 85 97 113 204 125 113 214 148 151 65 147 79 99 117 130 114 182 104 129 131 90 81 191 183 116 170 72 116 198 100 191 175 105 109 90 88 188 178 152 109 194 127 103 199 198 193 162 164 132 85 140 111 177 117 185 91 197 155 96 141 150 127 62 94 91 148 117 47 148 48 82 91 168 88 96 115 159 205 110 206 117 118 73 78 100 93 165 51 38 138 74 169 86 113 85 71 81 146 171 115 169 140 183 146 169 85 37 87 58 83 79 110 67
158 162 165 153 141 117 105 91 95 104 130 153 163 171 164 139 127 112 132 125 150 157 171 172 178 159 146 151 157 156 161 153 150 153 164 173 172 162 151 139 118 115 145 168 167 211 184 206 167 172 184 187 191 187 168 133 101 93 75 113 51 64 134 164 131 168 100 177 98 125 155 139 94 150 150 105 154 136 135 182 192 100 86 95 96 149 153 82 73 32 76 54 76 100 110 140 151 103 101 53 49 62 66 77 71 85 75 93 90 64 59 135 114 85 114 132 92 106 93 98 84 176 82 107 152 166 175 130 117 82 135 75 67 91 175 141 190 74 89 170 76 165 77 157 205 189 81 172 74 156 59 144 131 54 138 175 188 109 179 130 191 186 143 183 174 117 97 118 164 186 187 101 184 151 188 100 149 131 209 195 132 190 101 98 164 149 140 204 201 121 178 182 161 100 52 22 126 49 167 86 152 108 130 133 144 110 108 180 96 111 107 100 119 167 141 96 117 201 202 185 104 137 165 148 174 124 182 177 177 187 158 84 120 146 107 111 87 64 159 73 146 157 185 197 208 104 160 180 174 107 183 118 184 77 177 163 159 160 123 160 144 155 178 196 170 78 177 183 181 176 116 170 169 82 87 96 181 130 87 81 170 73 116 121 41 67 93 103 189 103 140 69 112 166 87 176 89 82 136 120 89 91 92 162 147 185 95 53 45 81 66 143 140 99 181 139 110 200 106 144 150 104 197 113 147 169 102 139 90 172 165 60 161 86 147 169 93 173 200 163 176 142 114 169 180 104 186 255 96 109 151 181 101 167 197 139 113 168 154 103 118 161 162 53 137 57 86 139 80 168 82 146 129 190 167 177 124 170 177 149 77 177 171 100 135 74 152 98 173 104 146 137 129 153 172 103 196 169 186 113 95 181 107 202 111 188 107 84 77 87 78 144 89 116 174 95 82 94 157 71 174 176 76 70 175 145 184 182 217 211 108 113 169 96 146 174 129 186 195 148 99 189 191 126 138 199 118 112 172 179 157 187 111 82 182 149 106 132 86 87 169 176 170 105 163 140 134 80 60 49 79 127 85 136 200 160 129 203 198 169 81 63 165 132 152 77 62 131 138 156 151 186 98 64 60 79 149 82 105 182 139 90 92 111 170 66 82 64 91 147 142 88
147 150 151 150 139 123 105 100 95 103 114 141 168 174 176 153 158 133 142 145 149 149 181 177 183 185 171 156 157 173 167 169 160 159 167 174 171 164 156 151 151 153 159 162 174 186 207 203 159 192 183 193 142 195 189 184 152 139 126 109 80 92 126 98 184 185 167 167 156 135 143 77 130 102 128 136 101 108 186 121 108 166 85 151 99 105 91 102 58 69 32 59 127 126 106 89 92 97 68 52 77 74 106 85 112 106 139 86 125 78 72 106 132 105 77 75 81 122 87 90 88 121 123 96 109 90 89 92 181 165 117 113 36 62 159 165 180 81 182 104 129 77 175 176 204 189 141 184 168 90 113 53 70 157 124 82 161 187 83 171 158 255 87 186 139 172 215 213 123 137 196 158 119 168 133 108 95 136 206 120 116 207 153 181 86 187 93 113 205 187 96 152 189 158 116 149 74 58 166 94 181 158 143 190 134 101 194 126 185 191 194 212 105 117 66 149 180 108 200 206 84 133 156 140 214 217 100 109 83 196 191 103 106 51 151 171 183 145 155 85 108 128 122 178 144 118 171 115 128 198 99 176 94 189 95 61 62 78 152 150 122 86 187 163 195 153 183 87 98 191 186 79 100 71 155 167 185 165 116 69 131 161 135 40 120 157 176 161 122 183 176 103 88 85 197 147 197 81 75 85 139 177 123 109 132 153 76 66 136 160 65 115 73 152 81 107 156 189 154 102 70 160 88 174 141 119 190 140 157 178 171 63 55 53 123 62 83 146 96 201 181 96 78 167 114 187 148 152 119 124 143 103 111 191 197 186 191 120 147 164 132 141 159 60 126 76 72 157 144 176 107 73 115 97 79 179 174 119 123 169 176 84 153 148 156 143 156 166 175 96 111 82 120 89 171 192 127 175 178 152 191 108 132 176 80 169 114 136 99 76 55 172 76 172 75 161 77 128 92 144 82 125 137 70 84 135 185 132 133 217 255 118 89 78 162 140 142 190 177 178 110 109 82 93 194 192 94 114 193 196 137 186 185 139 171 77 133 142 84 201 105 176 158 83 114 103 152 92 105 91 133 59 80 155 126 146 84 94 108 163 78 168 130 203 209 176 173 114 143 109 94 200 120 117 136 108 81 126 196 185 154 125 129 142 126 175 136 103 203 205 102 174
139 146 154 158 151 131 114 112 100 109 120 132 152 165 165 157 153 160 155 156 163 163 184 191 202 194 175 172 171 178 184 174 179 181 188 192 184 180 170 168 168 167 175 179 174 196 204 202 184 187 182 147 192 172 178 145 152 119 165 141 102 68 160 175 200 152 96 96 101 94 146 96 76 66 131 119 160 175 161 150 143 118 109 140 104 105 115 63 52 48 69 70 82 89 98 90 130 76 86 60 84 71 81 131 84 115 95 105 113 142 73 71 72 73 70 52 58 135 107 97 102 85 79 86 166 124 90 171 193 85 141 51 55 176 150 102 91 192 87 195 193 110 92 202 157 187 201 112 199 145 153 169 81 158 171 176 106 100 126 153 100 115 184 183 187 214 150 115 176 103 186 144 107 161 145 114 188 196 114 203 140 179 205 184 87 78 180 176 92 82 76 177 171 126 81 77 65 170 119 111 186 181 80 117 170 152 186 138 185 208 111 151 91 72 78 100 98 187 173 179 62 131 123 208 123 166 105 146 173 195 123 179 165 49 59 180 191 136 100 93 104 109 153 174 190 203 132 178 136 205 130 146 200 109 109 108 73 191 184 183 152 93 139 136 191 190 115 149 98 168 72 66 148 101 177 92 141 179 168 153 151 75 60 139 130 117 73 102 139 108 99 85 128 182 97 94 95 96 184 83 74 118 97 175 117 195 114 180 106 155 66 95 163 179 187 90 99 82 132 66 141 156 89 110 101 173 86 83 170 165 167 111 117 61 81 163 177 199 184 101 85 168 91 50 162 151 171 92 101 168 128 191 173 217 166 203 196 169 192 104 80 177 176 164 141 118 64 77 144 81 168 150 111 156 166 187 139 88 139 135 157 161 111 126 156 52 129 159 107 170 181 73 183 132 148 162 91 78 86 150 107 160 104 141 162 118 111 79 64 154 108 179 151 193 186 173 162 69 138 142 207 181 123 159 89 123 118 183 132 222 185 218 187 176 161 169 95 84 169 85 101 80 112 181 184 161 193 144 170 156 190 150 167 78 182 168 121 95 181 218 176 147 135 98 175 162 61 99 49 97 51 133 62 87 84 167 162 153 66 76 148 91 174 130 168 119 82 151 104 138 198 116 75 137 157 139 130 106 185 115 134 114 123 141 108 174 164 195 207 122 121 90
130 142 156 163 164 152 130 119 113 121 125 143 161 170 167 176 167 167 179 167 159 164 179 199 205 196 178 169 161 169 184 189 191 203 215 212 202 192 191 189 188 164 185 193 199 193 177 195 208 193 168 147 169 179 182 145 173 164 148 127 132 155 175 158 154 115 107 128 181 149 134 79 146 129 72 54 154 152 82 85 77 152 157 87 122 101 81 67 48 104 78 72 72 96 102 144 118 87 117 87 82 87 88 93 117 100 99 142 131 155 84 88 87 56 45 99 99 52 87 79 151 80 104 135 134 82 190 101 87 63 54 67 173 79 88 170 123 94 201 166 213 105 205 173 100 172 139 104 194 136 94 184 82 185 194 192 175 117 145 160 166 91 189 103 176 181 203 150 150 168 116 86 88 88 125 163 83 127 99 149 143 173 159 121 81 178 94 71 149 91 97 65 187 126 197 90 169 189 183 91 80 135 99 156 87 97 109 143 186 192 178 152 127 161 163 148 102 195 110 165 158 148 191 210 220 174 98 83 129 156 118 167 52 50 76 179 120 105 189 168 91 57 145 129 180 146 192 142 179 112 218 217 208 199 148 187 189 198 114 137 118 71 178 191 99 95 101 113 153 133 168 70 149 88 145 103 174 170 73 160 96 129 144 162 71 68 117 108 140 121 207 120 76 80 122 107 159 89 118 80 125 91 135 170 97 126 179 94 155 100 142 134 181 183 115 135 70 70 134 147 93 119 158 188 166 186 180 68 83 142 146 81 90 166 155 177 123 109 210 107 182 58 76 105 46 171 91 95 210 192 212 130 138 121 184 138 189 113 102 172 160 112 84 162 172 109 134 180 110 180 121 103 170 145 187 183 155 174 130 71 78 45 145 156 108 119 94 89 65 66 162 170 142 164 183 188 167 117 164 179 200 101 150 109 100 125 120 85 164 67 112 190 104 199 136 163 171 169 95 124 218 214 196 194 84 89 150 160 218 227 144 130 114 94 172 135 132 88 154 79 83 78 88 181 89 124 81 173 185 85 128 187 104 114 124 73 172 187 107 182 231 132 218 132 80 90 86 148 109 99 54 83 153 89 66 71 154 98 165 115 153 79 136 201 178 148 88 185 178 164 170 187 94 89 164 177 182 119 219 105 97 109 126 167 129 161 132 85 149 200 187 187
117 135 154 166 160 156 143 133 124 123 126 145 155 174 182 179 161 174 171 166 174 174 180 193 193 195 174 160 139 157 166 185 201 217 234 229 216 196 197 201 184 186 186 184 207 204 220 198 171 165 159 142 138 122 172 166 161 169 165 132 165 177 122 176 145 184 123 141 109 185 89 99 84 69 100 146 101 78 99 95 55 126 95 142 92 150 76 92 76 90 106 78 85 92 106 143 112 103 99 111 97 89 136 137 104 131 154 108 171 95 74 103 68 116 38 55 28 69 127 58 95 71 84 64 165 81 169 79 109 119 99 119 184 133 195 84 89 158 117 183 222 116 172 98 185 169 185 178 205 116 179 195 186 197 145 201 178 91 80 96 69 178 136 176 95 86 176 154 82 127 68 137 78 79 121 152 173 134 165 86 117 179 111 149 84 176 78 155 151 56 91 135 172 180 169 189 98 125 184 134 77 165 118 164 92 86 80 160 169 183 87 179 104 78 173 120 96 92 78 76 57 152 83 159 122 190 118 72 104 160 149 160 157 155 108 100 104 162 79 65 154 94 155 160 154 100 164 85 85 202 188 125 169 160 144 199 142 199 151 194 91 99 172 168 161 160 177 116 117 87 94 139 151 158 181 134 192 184 91 106 96 108 190 126 166 93 138 222 182 180 106 101 93 122 78 98 187 104 106 83 104 133 102 107 154 88 86 165 125 122 130 109 152 90 116 67 135 141 167 151 162 180 147 117 98 95 137 146 91 152 88 117 105 102 154 155 121 177 216 192 188 165 119 38 132 139 159 188 180 205 131 118 127 136 111 102 193 175 171 197 97 198 169 188 84 115 84 84 159 157 164 151 88 122 176 182 139 138 91 145 99 103 110 147 136 84 151 88 123 143 56 144 73 103 129 165 95 77 168 199 104 89 64 60 148 145 73 175 165 141 182 132 166 97 195 160 164 158 111 96 116 107 195 104 170 94 92 102 141 123 208 230 190 172 186 99 180 72 171 175 189 189 119 180 155 69 166 124 63 89 182 96 170 65 175 105 78 193 156 121 229 211 216 121 88 156 106 119 104 131 83 46 82 163 161 143 164 162 145 74 171 81 89 135 203 200 97 194 120 99 197 126 136 111 157 172 188 102 151 161 205 79 108 104 129 113 125 120 109 90 185 83
101 121 143 156 154 157 143 143 136 135 133 129 142 160 164 170 169 164 167 157 173 159 170 179 187 172 170 143 135 139 151 176 199 216 232 236 224 206 197 208 193 183 190 171 212 223 203 210 172 143 138 106 108 147 134 193 198 197 167 184 150 158 164 189 161 182 123 211 126 188 139 77 70 108 115 60 113 159 131 67 67 84 79 94 141 90 79 74 148 97 95 98 84 126 108 131 124 142 136 95 123 92 107 112 153 138 140 117 144 99 124 64 72 40 54 126 41 39 39 75 135 102 70 98 85 165 90 91 148 65 152 120 186 211 179 188 183 187 182 219 134 114 212 194 152 114 85 120 202 141 202 106 199 180 146 189 188 176 163 166 168 172 84 156 143 153 175 143 98 127 82 98 99 85 86 96 123 145 69 74 113 133 165 102 160 68 75 49 40 44 53 160 167 105 195 96 101 176 176 178 73 93 169 173 72 73 154 163 174 78 150 161 71 136 116 194 110 130 154 176 139 169 78 100 198 153 149 77 102 71 69 53 152 62 164 190 117 168 177 146 144 138 147 164 113 163 164 166 176 169 194 193 87 173 92 138 173 152 90 155 86 105 146 90 197 207 166 125 190 81 100 71 145 96 94 120 172 147 141 143 144 143 93 90 184 166 197 216 195 157 169 92 115 76 117 127 180 126 162 118 188 90 199 93 87 186 91 184 106 126 147 122 168 131 56 63 48 148 63 152 161 152 175 78 154 100 67 40 34 129 159 163 184 204 228 185 152 111 196 115 133 172 90 93 66 125 80 184 170 167 107 110 175 207 175 100 161 125 110 118 200 91 166 105 154 170 91 153 108 154 80 92 120 190 212 158 103 114 67 70 66 130 67 149 159 167 68 151 181 74 61 146 59 104 165 161 69 148 119 184 201 99 114 60 164 80 183 75 65 103 130 126 152 118 179 90 86 79 75 99 179 86 79 77 160 150 61 164 186 114 193 118 212 185 98 159 191 141 174 79 109 170 179 72 168 156 61 142 145 144 91 99 101 79 140 177 189 200 115 112 109 183 193 182 76 146 67 96 152 77 157 68 155 123 146 91 142 148 83 147 174 143 136 178 102 97 198 91 163 142 157 127 163 94 167 82 104 102 169 130 187 139 153 53 52 47 76 80 171 87 121 124
95 112 132 147 149 147 149 143 139 132 126 120 143 159 156 161 176 174 169 255 174 154 162 174 181 180 160 143 127 137 149 164 190 213 225 227 217 208 204 207 189 200 186 198 203 189 213 208 189 168 106 143 104 140 178 139 198 185 147 179 153 173 156 129 204 138 219 229 146 176 95 153 112 147 109 134 116 64 87 59 101 108 90 129 147 105 146 90 105 152 100 96 116 104 117 133 109 121 89 137 91 129 107 165 134 158 161 160 152 95 87 103 96 39 47 53 116 113 126 129 52 155 70 135 78 151 164 110 185 77 79 95 187 209 128 189 162 89 86 159 140 195 100 188 136 194 200 190 212 194 180 198 181 91 176 203 126 142 174 173 122 112 76 117 108 77 145 103 157 146 159 102 118 165 154 129 133 66 144 168 198 145 212 201 173 123 154 150 115 134 117 171 170 98 114 185 181 143 151 95 168 134 117 143 61 98 134 62 80 168 184 104 176 129 137 153 114 130 122 162 133 71 105 180 175 76 104 48 145 111 90 137 111 179 177 112 163 102 58 163 131 87 62 104 103 118 169 79 74 86 177 162 170 168 115 156 205 106 126 104 146 132 158 110 91 169 150 181 204 91 86 102 150 197 149 172 160 177 94 101 106 198 144 170 190 197 130 102 153 178 130 121 77 177 89 109 109 147 87 109 125 189 111 179 161 194 161 114 134 161 164 123 103 152 61 38 43 93 116 75 101 80 71 75 171 109 106 109 39 111 174 114 111 193 124 119 128 198 174 85 90 116 93 169 71 168 255 113 157 181 200 93 188 194 155 138 141 143 167 121 186 181 110 81 107 87 129 130 145 136 59 114 137 150 124 110 104 105 170 61 79 136 137 95 94 145 166 138 138 166 172 131 130 136 122 173 166 141 180 196 122 125 106 83 73 87 149 90 103 138 153 175 151 111 184 140 103 101 60 162 78 106 67 95 75 96 149 53 74 102 145 125 200 213 192 155 165 100 80 160 191 181 168 117 89 119 108 123 134 150 62 130 115 69 159 159 202 142 224 149 165 142 137 150 160 87 124 100 75 107 118 87 153 197 117 173 176 132 140 93 157 202 203 124 187 154 88 172 106 194 162 103 198 92 72 67 157 102 115 206 169 139 123 125 67 51 83 85 68 113 77 145
102 115 132 140 148 152 147 137 128 114 117 121 135 150 174 174 180 174 181 175 166 160 165 176 181 176 156 159 145 143 147 166 180 196 204 208 203 203 203 207 211 209 206 188 199 207 184 206 166 168 158 118 162 134 179 136 165 168 127 167 118 168 174 117 142 224 172 157 136 138 79 148 85 81 114 114 96 136 115 67 103 86 116 128 101 92 157 91 91 135 151 98 165 136 112 127 115 93 103 103 110 111 118 139 192 162 167 160 141 143 89 98 62 72 71 65 99 43 55 45 115 138 80 186 168 96 209 110 98 98 100 104 227 208 216 123 62 154 78 159 142 104 90 193 99 93 197 202 103 176 211 94 194 151 96 149 165 99 146 175 190 104 68 104 142 130 96 72 94 90 98 118 121 142 61 111 128 18 68 72 188 134 135 121 122 113 94 105 165 75 79 164 161 194 158 189 185 75 76 164 162 89 72 118 37 116 124 156 177 175 114 131 168 178 155 93 178 174 215 99 173 98 78 123 147 162 162 146 108 78 62 81 142 74 180 128 135 76 164 56 159 102 169 115 171 191 186 174 115 153 90 152 151 89 182 108 207 217 155 120 145 116 92 98 156 157 173 103 133 117 193 106 133 101 86 131 155 126 96 204 174 93 125 90 187 130 173 123 179 85 102 95 165 83 100 192 187 88 185 144 177 182 98 177 93 187 110 179 185 116 109 128 173 67 47 86 48 66 147 159 124 115 107 64 71 74 35 35 54 78 130 115 114 115 108 109 116 156 133 168 104 183 96 69 162 169 165 78 171 168 110 79 86 83 82 108 181 185 85 100 167 179 173 118 139 89 124 106 131 45 107 158 147 103 209 108 162 87 124 124 91 60 108 149 78 101 172 110 187 88 129 171 173 116 117 132 94 89 190 178 92 96 168 176 91 112 141 196 188 171 89 93 112 219 124 182 179 79 166 123 142 129 85 56 90 76 44 100 169 190 203 194 205 154 214 116 168 80 176 113 108 195 190 85 155 36 19 45 106 92 162 85 132 69 160 185 195 158 222 185 134 152 89 121 93 115 114 94 95 111 109 130 145 150 235 224 200 156 99 111 91 186 194 127 131 156 180 142 74 76 110 115 138 172 166 125 106 136 121 176 91 89 54 45 55 72 141 165 126 107 60 77
114 124 135 143 146 150 144 132 124 119 119 140 147 159 172 174 179 174 191 185 180 178 170 171 187 186 170 173 158 147 151 158 169 180 186 193 194 198 194 204 206 216 186 189 190 201 198 196 188 172 145 163 174 179 157 156 151 166 91 113 104 149 156 181 131 129 182 141 203 147 153 120 72 56 99 144 62 91 97 97 175 136 169 134 108 83 133 86 83 138 126 91 116 112 110 114 100 149 128 103 138 150 164 130 158 126 120 130 117 136 103 102 109 154 130 68 79 115 67 47 138 138 88 159 91 104 95 107 90 193 91 192 149 221 120 168 140 96 132 52 168 169 176 164 181 175 85 193 179 193 199 186 183 89 188 131 163 201 167 151 170 158 117 66 51 69 157 152 143 123 168 201 90 170 153 81 59 56 124 99 158 96 113 176 159 158 112 86 83 110 178 180 186 192 189 91 104 147 52 69 136 141 146 85 40 17 84 150 65 175 64 65 100 152 177 188 193 132 193 201 184 117 147 163 115 182 123 59 155 111 172 163 145 190 141 165 158 150 88 89 75 62 86 139 98 196 80 150 74 105 140 166 91 75 112 145 210 175 144 196 130 54 124 115 165 125 179 193 116 110 178 134 193 75 81 131 134 90 134 161 206 136 178 90 73 79 125 140 59 48 47 152 133 76 185 126 165 143 98 92 188 106 99 56 99 151 158 217 125 145 101 120 119 86 75 72 166 112 76 51 97 46 152 65 148 59 78 54 158 83 179 109 104 192 91 86 148 96 75 109 177 126 135 119 77 180 137 65 164 168 103 182 154 136 129 149 105 114 189 149 180 170 112 117 186 161 181 162 91 138 139 177 94 203 174 95 104 177 183 149 77 122 42 79 73 99 141 110 199 196 113 187 192 123 206 205 92 168 90 170 79 151 85 127 189 136 121 213 169 197 90 184 199 225 243 157 194 89 122 136 166 188 142 74 109 151 64 69 140 153 187 124 100 133 123 208 136 155 161 102 155 126 165 190 90 46 103 118 126 91 59 149 140 255 156 171 180 123 148 139 126 56 151 63 97 205 174 132 202 196 112 121 189 230 174 175 128 120 148 95 166 154 79 85 59 146 169 65 61 166 177 141 167 88 137 203 150 191 198 109 81 67 61 97 124 59 53 130 155 59 74 157
119 127 136 146 153 151 146 137 122 117 134 145 169 168 187 180 179 181 186 173 176 172 165 183 173 188 184 182 174 162 141 152 156 163 166 180 195 203 191 208 203 217 205 203 194 199 184 204 189 138 128 150 155 194 144 164 156 160 122 154 100 146 161 140 191 124 173 157 164 171 135 111 135 131 78 93 57 131 76 148 95 139 118 163 125 95 83 127 81 88 63 83 85 116 103 104 123 137 104 101 114 137 146 151 164 104 101 137 122 144 195 135 172 121 135 122 43 53 40 76 53 109 168 150 83 86 104 98 145 179 151 117 189 203 193 68 42 98 136 42 52 101 55 73 62 176 77 166 114 103 171 147 125 126 126 190 133 114 178 230 212 149 102 121 105 135 149 87 177 192 101 190 169 76 80 151 145 83 143 54 182 124 184 91 118 104 116 171 144 111 108 150 183 94 152 136 82 142 138 157 136 98 110 95 94 23 40 48 162 66 152 130 76 110 143 128 178 178 171 161 195 88 118 160 153 144 99 170 111 125 166 177 86 137 148 147 67 114 158 177 161 186 106 139 211 105 71 147 66 141 164 164 140 101 186 193 211 146 175 92 86 69 135 148 139 86 95 154 112 79 180 105 141 171 72 145 79 85 144 161 142 97 147 167 92 129 174 161 58 141 106 113 87 74 70 150 102 39 83 79 80 94 164 78 156 68 189 194 154 123 99 158 141 167 86 169 65 63 65 146 61 153 70 172 95 120 74 153 71 135 112 160 149 97 132 62 47 154 155 100 154 87 155 169 87 125 80 72 109 62 75 185 185 184 189 191 110 96 105 186 91 146 155 129 141 204 160 183 91 171 105 158 192 119 211 191 114 155 133 127 159 120 72 63 108 126 194 188 209 159 194 200 118 214 151 207 199 160 101 78 182 76 73 126 75 189 185 119 168 153 156 182 112 120 236 171 194 185 182 193 103 103 177 159 145 122 187 135 172 101 103 176 102 110 176 92 101 60 130 152 172 131 129 117 175 81 95 33 97 41 65 108 44 46 161 78 97 206 136 168 164 74 158 173 85 172 109 110 209 169 179 130 194 238 130 166 152 103 131 52 76 76 54 146 91 79 53 63 155 80 65 79 118 142 178 213 153 190 173 152 169 153 124 108 67 83 66 67 82 154 94 105
110 118 129 141 154 159 151 134 122 128 134 162 169 172 183 160 168 173 182 165 156 160 159 175 180 182 255 176 173 156 144 148 147 150 157 164 188 198 202 202 204 201 187 203 171 211 219 221 170 167 138 136 178 198 191 137 141 144 104 128 122 137 125 105 144 165 169 96 156 120 83 63 54 81 150 96 66 144 77 155 168 127 109 102 108 117 117 110 77 131 51 54 115 85 139 100 112 119 160 120 98 121 120 133 128 127 146 157 130 166 121 126 121 169 85 99 98 36 114 64 112 51 148 112 76 159 177 93 140 169 132 154 182 105 138 110 46 138 45 112 140 56 143 84 163 130 134 126 163 158 91 163 171 113 158 166 165 119 216 181 201 206 141 156 124 121 146 107 188 155 100 188 138 167 123 90 82 160 74 149 150 148 125 78 143 98 150 125 144 152 82 195 198 88 173 167 61 135 82 147 104 46 61 33 107 39 102 106 131 109 160 71 183 84 141 78 147 103 105 114 172 106 85 153 168 87 124 67 56 108 156 78 72 95 177 96 86 78 174 124 163 201 215 213 216 176 63 76 145 157 154 168 173 122 194 188 132 136 202 187 157 91 102 159 94 138 83 110 65 99 79 99 114 126 109 150 77 138 171 181 155 112 89 74 68 72 138 112 158 61 82 154 142 119 55 45 88 22 76 51 83 93 94 108 137 69 135 96 156 94 106 93 126 85 91 133 90 66 77 53 128 67 112 88 157 159 94 91 159 115 197 95 145 157 158 57 153 103 163 155 91 65 67 87 202 196 82 76 163 72 188 107 142 133 130 195 126 214 174 194 202 135 168 114 177 107 166 149 89 176 130 163 224 183 143 149 173 181 126 180 139 97 76 168 121 75 135 198 180 140 177 170 199 128 214 205 182 128 73 180 113 164 75 91 73 170 102 167 119 219 114 154 117 132 135 125 112 187 119 186 175 226 137 211 226 125 184 151 150 154 150 118 150 82 142 105 79 145 63 109 139 198 205 156 191 180 96 106 101 50 107 46 149 47 85 97 92 142 113 85 147 150 160 180 184 102 184 157 107 162 129 173 208 187 216 112 103 141 108 117 87 135 136 38 43 54 123 150 66 89 148 81 187 187 151 167 230 193 143 204 255 110 59 82 150 124 93 156 157 73 63 84
95 103 114 128 139 151 153 139 134 129 141 173 182 182 163 166 160 172 167 166 165 147 148 143 167 172 176 174 168 147 142 143 147 148 144 154 167 180 186 191 176 183 197 197 200 215 204 210 221 194 185 151 149 198 206 192 168 146 164 144 157 120 161 172 185 175 141 99 160 168 121 138 127 158 82 83 72 149 115 94 85 109 112 102 171 80 79 153 137 64 53 34 86 84 82 99 147 116 114 100 96 100 116 146 84 74 95 96 121 141 134 105 125 137 110 79 77 41 38 69 56 91 39 133 60 146 117 171 207 157 78 176 170 74 73 72 135 91 142 158 132 145 44 140 159 111 79 176 199 117 116 131 73 163 149 200 179 225 199 158 219 169 190 169 155 143 118 197 176 100 120 184 149 169 115 89 77 94 77 142 95 70 68 82 162 171 155 178 169 183 81 173 124 186 105 175 172 139 124 123 81 112 111 90 114 56 108 50 130 105 54 109 132 108 77 178 144 163 198 139 164 199 92 152 155 176 155 171 67 155 139 164 61 166 67 70 175 105 166 84 94 203 219 166 214 86 167 140 123 63 111 76 83 108 90 144 125 130 110 120 90 47 66 166 110 86 182 132 78 150 190 150 186 80 77 79 160 167 113 171 193 182 80 75 73 150 102 185 155 155 164 73 72 61 75 75 127 36 38 100 67 173 113 99 117 89 93 93 91 99 155 151 132 178 118 84 184 110 57 97 61 43 77 76 156 182 107 109 174 90 95 131 137 154 86 100 152 154 81 76 67 161 144 166 127 187 172 168 164 175 158 189 121 126 178 133 114 113 177 133 110 98 160 194 200 198 200 154 182 185 179 106 123 218 180 175 115 145 167 169 170 177 188 132 99 149 167 165 147 171 96 182 75 129 111 165 170 163 80 128 82 76 168 76 91 128 106 153 150 124 123 152 91 135 108 170 178 144 115 109 194 121 169 229 227 230 220 93 144 164 62 117 127 95 96 178 61 61 130 163 146 189 103 93 109 195 194 170 55 153 48 67 149 49 154 72 89 157 178 170 161 76 121 118 107 91 90 143 200 186 185 190 209 128 127 166 187 74 131 146 131 137 122 72 57 60 148 68 103 158 134 112 86 109 148 157 153 216 114 97 84 75 81 82 157 147 101 181 114 125 65 75
81 88 98 112 133 153 159 149 143 149 158 166 181 162 159 161 172 167 181 160 163 157 141 153 165 165 171 166 161 148 143 143 142 144 133 133 152 160 175 166 172 174 157 182 197 213 215 228 211 185 183 168 166 206 206 198 124 169 140 109 102 180 193 137 194 134 107 114 110 152 88 136 144 133 175 181 123 87 77 147 73 138 102 143 164 89 85 90 78 86 50 27 36 56 97 96 158 111 129 100 115 128 121 106 79 78 93 89 108 75 102 90 170 122 138 79 61 112 133 101 54 48 108 140 137 88 100 112 131 199 83 90 75 168 98 120 83 74 71 68 158 152 155 153 90 156 103 95 165 208 203 145 81 176 182 198 210 178 140 191 178 163 139 103 99 173 128 156 111 93 187 178 141 159 168 82 185 101 176 176 150 95 161 141 52 112 176 101 180 133 91 98 106 109 87 178 140 87 81 138 92 107 151 66 157 122 162 163 158 43 48 116 77 179 67 166 70 186 180 193 222 224 125 130 143 114 177 188 181 130 150 68 156 137 123 95 145 180 162 158 174 177 194 216 200 176 146 66 143 106 145 137 131 160 190 185 85 157 146 158 163 155 145 79 165 120 98 89 154 143 172 132 96 147 168 143 165 133 185 190 174 126 97 63 67 81 140 114 187 79 175 65 99 125 42 85 114 37 140 52 68 124 116 164 83 98 104 99 93 207 201 114 177 115 170 151 184 125 84 67 102 35 108 172 97 99 193 120 86 87 143 134 180 132 126 56 159 160 166 77 160 161 92 90 211 171 80 177 161 134 199 202 157 188 219 153 135 125 123 153 193 145 173 120 138 94 96 143 118 104 115 189 188 146 211 210 101 173 162 144 164 95 165 144 158 104 97 85 155 180 169 104 99 130 76 92 91 194 202 134 205 98 174 77 74 134 171 119 194 153 133 98 80 75 88 187 96 190 98 211 125 115 136 137 128 127 173 125 176 172 172 183 182 151 87 151 154 156 146 76 69 131 173 193 110 144 200 183 121 125 81 150 110 95 68 144 182 104 107 131 103 99 98 98 202 150 134 188 92 120 143 119 111 111 198 101 99 106 140 56 76 47 94 144 133 141 156 144 107 163 155 113 104 147 203 201 115 96 114 142 66 163 155 97 184 182 158 191 141 63 72 65
81 85 91 104 126 142 154 157 154 157 173 164 166 155 164 150 151 168 161 172 165 153 164 164 160 174 177 160 157 144 139 141 147 150 141 134 141 155 154 145 152 157 144 172 190 194 202 199 184 158 196 147 171 168 207 192 132 144 113 139 87 105 174 173 206 164 137 165 179 157 116 126 93 97 165 168 151 82 125 112 108 74 111 80 147 93 94 115 94 71 39 23 58 57 84 98 114 127 135 255 102 103 127 131 102 79 81 81 103 96 57 139 87 84 145 93 83 148 60 152 75 65 93 129 144 80 185 99 99 201 189 143 170 81 86 160 99 94 89 119 148 100 152 55 148 160 82 154 198 102 160 85 126 127 185 121 202 156 194 192 170 104 187 114 104 171 168 166 156 95 141 156 102 109 111 182 181 186 110 172 163 137 152 65 131 149 102 84 184 142 74 155 79 79 146 131 175 170 125 123 64 79 81 153 114 72 76 123 158 108 151 60 62 102 76 170 109 87 105 212 146 126 166 182 90 83 86 103 146 199 196 184 112 137 75 82 92 69 166 83 105 107 92 187 98 200 92 179 174 74 144 150 100 182 193 153 134 79 77 135 179 70 146 159 68 76 79 172 136 95 173 142 104 170 169 171 158 180 98 117 184 149 99 145 153 142 109 123 161 181 77 97 110 69 47 46 63 49 62 106 160 134 181 108 78 125 102 174 105 145 104 93 83 105 91 151 123 69 132 81 82 53 62 163 141 104 201 98 91 184 108 255 190 138 66 159 49 132 123 129 70 130 126 146 128 186 193 171 110 122 145 150 105 200 125 198 191 207 167 101 83 71 161 110 82 91 180 108 183 182 173 189 145 132 172 186 135 114 155 83 76 131 87 81 80 81 60 176 83 102 144 125 90 165 119 77 179 177 162 110 153 208 99 88 93 112 152 177 145 128 145 181 55 154 135 123 108 180 134 194 183 197 212 141 122 175 201 84 178 172 188 83 91 165 106 165 97 175 130 164 91 111 111 174 172 161 195 105 56 156 69 67 68 69 138 78 121 146 201 117 202 211 160 194 199 161 167 109 135 161 125 94 192 106 78 95 99 161 158 85 88 78 72 100 69 94 166 190 92 101 156 106 62 186 192 204 147 82 157 136 66 162 133 114 73 153 91 86 85 77 121 101
93 91 92 102 126 148 162 167 160 168 153 159 157 148 153 163 144 151 166 158 173 170 172 179 173 185 171 163 161 144 137 150 159 159 154 150 138 141 150 149 138 147 156 149 176 195 193 150 172 174 175 170 195 175 179 190 134 178 166 106 145 143 106 191 185 123 86 94 173 159 163 101 89 139 144 187 172 92 62 72 134 110 76 71 98 128 146 128 83 51 29 56 39 128 114 154 178 137 124 159 114 122 106 128 100 103 82 137 94 56 51 118 101 75 158 151 79 61 92 79 168 78 121 95 88 168 72 103 162 105 186 80 176 173 161 127 101 145 160 117 146 152 58 59 161 165 152 85 106 255 180 172 65 69 182 93 190 141 87 120 118 109 181 95 179 67 100 155 65 82 187 203 156 170 115 99 113 145 110 130 135 153 47 151 108 176 181 192 164 171 172 169 162 175 137 93 158 66 77 62 167 78 184 106 86 132 104 105 170 141 60 123 76 61 64 170 141 112 172 193 169 202 203 186 181 83 163 195 118 220 199 156 179 96 188 129 128 167 59 100 119 60 120 87 192 196 119 85 177 166 152 112 121 170 140 96 177 99 118 78 164 139 67 124 133 59 118 74 165 206 207 95 159 175 127 137 154 102 117 167 169 100 142 104 172 122 191 102 194 85 78 79 134 101 115 88 61 79 132 133 127 126 65 169 105 124 104 169 86 142 109 109 76 103 94 99 91 136 123 71 129 89 80 191 187 142 209 179 101 183 83 140 193 96 126 161 160 69 83 119 143 151 150 166 81 85 195 152 211 179 205 107 173 106 115 100 120 216 169 203 140 171 95 171 152 85 102 144 93 189 196 98 184 162 166 91 48 63 81 131 142 133 83 35 103 57 100 166 169 70 61 138 123 93 132 179 89 125 209 166 109 180 95 148 73 90 70 178 96 151 193 77 50 68 40 138 168 171 112 103 117 191 194 116 138 168 185 175 123 98 79 81 152 102 114 110 87 168 79 151 147 175 145 148 182 85 180 99 56 165 171 177 66 54 55 179 195 196 215 179 221 118 120 161 152 158 203 107 139 190 123 188 136 80 125 65 52 159 126 59 149 154 165 68 160 153 75 150 126 164 148 40 141 176 109 121 114 174 123 71 55 76 158 78 164 82 81 163 64 73 30 124
123 114 104 107 126 148 160 167 164 163 147 141 144 147 162 156 157 133 139 144 156 163 172 192 198 205 196 166 147 142 154 168 172 183 175 164 160 156 144 145 141 145 159 176 161 182 175 154 150 151 140 131 188 139 183 162 179 185 185 136 118 129 131 138 115 161 137 82 164 136 147 153 138 105 125 163 123 90 152 66 101 90 87 80 68 100 81 75 68 38 28 31 76 94 122 127 120 172 120 120 90 117 92 81 97 107 125 75 103 86 48 66 59 105 98 73 57 143 65 85 169 86 90 164 102 85 145 176 188 110 178 178 77 78 84 113 211 200 181 112 138 86 93 92 165 104 165 66 181 161 85 149 145 170 156 142 134 186 183 182 143 184 111 176 117 148 107 103 139 160 141 138 200 183 129 204 176 164 170 144 139 139 140 90 175 160 128 198 187 121 75 117 187 113 191 86 61 132 56 157 98 172 180 90 110 175 255 160 97 190 81 69 75 161 57 148 179 188 185 115 202 143 127 184 175 100 103 197 120 167 111 122 96 98 101 181 152 88 163 77 66 63 131 125 172 117 190 142 174 68 61 100 142 157 81 176 69 169 146 115 192 119 157 103 148 67 137 116 162 139 144 85 87 76 161 148 134 181 93 111 174 109 90 69 85 84 163 82 111 82 125 109 80 89 91 95 151 86 109 93 176 84 51 55 132 79 104 108 113 69 136 60 83 122 98 99 117 103 55 148 59 64 74 92 101 200 131 191 109 196 91 196 193 143 87 86 100 72 143 84 175 162 114 161 85 184 115 189 138 197 128 171 83 125 161 93 206 154 186 210 205 100 86 179 145 153 94 192 160 152 207 108 193 109 158 163 54 126 141 85 149 168 91 70 52 62 70 185 92 172 173 169 168 97 133 175 187 138 91 103 148 86 186 78 170 163 80 166 174 177 88 176 49 90 39 123 76 123 74 91 117 85 151 110 154 105 165 171 114 177 152 124 134 123 159 101 106 187 168 142 172 154 65 121 101 165 72 64 58 64 175 71 114 165 125 109 188 157 117 208 149 174 183 165 155 145 218 95 162 82 173 138 123 88 119 92 99 41 97 83 145 177 118 141 90 68 108 177 167 58 59 131 83 77 138 96 87 102 71 167 64 149 150 92 85 109 81 82 89 53 45 65
157 143 128 121 128 144 153 161 156 148 142 129 140 168 180 168 154 140 145 150 152 152 154 183 203 216 202 166 158 158 168 187 186 192 186 179 176 170 160 135 142 132 151 162 153 163 158 151 154 151 126 183 182 161 119 160 170 187 135 144 156 114 166 125 121 88 172 177 107 148 142 155 91 148 95 107 182 83 71 155 77 151 123 72 76 80 73 73 88 114 88 54 63 138 166 132 112 116 101 69 61 47 55 72 129 124 86 78 122 61 56 89 55 63 78 128 70 50 57 141 86 82 93 91 63 71 154 73 150 142 97 139 65 95 170 178 91 118 85 131 132 162 132 170 142 63 150 173 82 192 117 144 178 176 186 104 109 187 173 180 175 178 146 148 180 156 83 80 122 95 145 195 193 196 144 156 180 184 84 146 132 95 124 163 186 114 108 202 85 137 75 125 102 131 97 150 87 84 99 96 103 118 164 145 95 185 150 161 122 158 152 112 82 171 167 136 135 120 116 116 173 221 201 198 87 106 117 107 197 135 209 187 101 192 188 192 101 188 136 133 138 69 58 108 91 150 185 90 156 72 170 139 58 38 112 163 162 75 158 164 85 141 129 131 65 160 127 126 113 145 137 135 92 175 172 110 172 110 135 185 120 123 91 125 60 79 97 104 109 114 76 95 154 109 64 75 157 163 186 93 80 56 89 71 107 91 87 63 138 59 69 90 166 145 102 105 91 169 62 129 92 65 147 90 149 116 216 117 109 95 180 99 117 175 70 80 143 171 73 165 164 161 117 64 116 172 185 191 183 114 152 70 152 148 149 169 90 106 118 227 172 200 175 77 128 119 98 186 129 175 165 133 196 111 121 170 59 56 148 136 174 131 71 117 169 179 82 128 105 75 134 96 188 175 115 118 179 81 182 148 163 158 74 69 162 162 165 99 191 140 188 184 96 68 140 48 111 156 103 88 90 187 106 111 185 83 185 78 94 78 67 61 131 144 51 158 145 158 171 201 104 109 77 128 103 96 165 110 107 137 132 80 90 163 104 71 192 140 122 222 204 222 208 216 142 179 150 124 171 103 172 174 189 185 73 83 110 138 118 116 133 122 139 76 124 49 117 108 155 55 143 111 65 136 137 180 91 70 159 92 76 69 89 170 126 158 91 168 86 101 133 60
183 167 146 132 130 133 146 154 158 153 144 139 153 175 183 171 169 163 140 150 145 152 164 192 204 219 202 172 161 169 172 194 191 188 183 188 185 186 161 158 152 138 158 159 162 171 171 169 153 150 169 154 204 142 165 130 148 161 201 181 124 157 156 119 95 174 120 166 144 107 128 134 88 119 141 147 108 177 81 164 82 87 84 133 76 58 85 79 121 59 65 109 67 96 105 115 111 138 78 74 63 27 47 76 82 123 133 113 96 80 51 48 32 54 69 122 48 139 57 52 148 78 107 139 144 140 126 140 137 167 173 64 57 176 190 90 79 157 53 55 172 110 81 152 59 159 73 156 88 199 197 157 121 164 154 120 156 180 170 93 169 158 100 88 140 111 140 133 172 162 135 138 124 98 163 121 183 151 157 43 99 134 80 75 205 126 197 183 100 136 154 98 193 94 84 143 145 39 97 74 46 58 140 166 116 90 187 149 160 155 133 203 179 171 135 96 73 192 193 115 218 221 106 138 115 91 199 149 145 154 122 194 86 83 174 136 201 161 90 79 182 166 130 151 147 72 99 166 182 161 154 93 145 114 148 145 153 143 68 133 178 163 171 203 136 86 125 71 78 72 55 126 154 91 65 127 101 60 129 126 94 167 176 68 157 143 89 114 164 72 95 141 83 124 81 87 124 197 200 93 141 160 152 83 75 70 134 157 89 88 161 93 181 150 113 84 110 104 80 56 70 32 39 64 181 208 122 145 108 149 104 104 105 127 169 169 165 171 70 146 73 81 159 169 163 76 75 135 122 166 64 52 130 149 150 97 88 165 121 182 170 194 140 86 133 123 190 177 114 195 162 218 191 201 107 119 173 131 135 160 105 167 196 102 174 186 190 170 78 76 158 197 255 193 150 83 130 68 87 169 145 156 159 128 67 151 76 78 98 103 94 177 60 45 46 80 160 178 183 188 139 182 177 202 102 118 181 120 179 153 102 139 165 62 96 54 156 88 87 104 162 86 177 98 167 177 75 183 185 108 197 255 122 170 167 170 173 193 105 204 143 202 190 214 198 174 153 92 109 171 196 181 146 194 188 88 148 121 73 152 165 80 106 160 159 153 145 63 104 63 149 66 138 95 206 104 87 83 83 85 140 118 173 145 137 145 114 72 81 68 56 137
188 174 156 143 135 145 152 158 147 147 143 156 184 188 185 190 181 167 162 149 127 144 145 171 186 206 200 177 179 172 190 188 185 176 173 185 184 191 176 172 162 151 145 125 149 172 151 182 163 185 180 185 204 178 163 153 113 117 191 158 196 172 126 117 117 107 177 159 141 105 140 107 134 108 91 79 100 178 132 153 174 148 129 87 77 138 65 89 107 88 96 67 133 79 112 110 132 62 86 52 30 20 60 53 78 99 129 84 101 64 50 35 39 86 49 59 55 82 69 122 143 73 76 70 54 37 128 176 95 202 114 82 64 82 197 190 174 143 93 67 174 93 175 65 97 130 161 181 170 205 100 93 186 98 139 176 152 134 135 116 63 152 107 167 113 153 74 150 139 119 172 155 162 86 142 214 198 186 133 77 54 50 76 74 171 194 223 207 183 80 104 189 90 188 172 79 150 39 124 126 53 154 172 95 121 169 177 75 160 90 104 178 110 122 146 149 125 121 94 107 168 203 115 185 98 189 175 211 156 202 96 182 121 120 186 96 102 148 186 115 145 179 141 118 140 38 132 63 142 167 166 90 119 107 73 162 170 164 131 52 111 95 92 194 123 99 152 188 72 108 82 83 157 159 130 68 71 70 78 179 80 87 165 90 97 153 71 125 137 149 150 124 98 101 98 97 178 91 88 126 139 82 156 115 68 74 82 73 152 106 160 137 116 185 161 190 121 189 181 72 46 98 60 62 73 195 170 129 146 192 89 177 113 175 79 113 173 76 75 87 127 90 110 103 161 102 125 91 160 114 156 131 168 147 118 81 162 134 135 145 131 168 153 81 162 69 175 195 210 161 147 151 136 152 167 93 125 161 99 170 111 120 118 194 163 188 101 93 116 176 73 170 126 153 80 60 56 144 72 148 79 154 130 128 54 149 119 101 153 151 177 89 70 122 166 137 174 102 93 192 190 104 182 158 211 174 105 177 153 172 75 164 87 83 139 149 125 79 169 89 108 185 190 175 189 113 184 138 146 124 217 139 202 108 164 150 156 102 157 171 96 140 175 99 168 198 202 98 111 186 96 200 163 139 125 174 138 160 61 93 59 182 116 135 179 86 144 140 145 255 67 113 165 128 179 146 155 183 106 184 98 171 123 147 129 137 190 183 149 92 113 188
175 164 148 140 140 151 153 153 150 152 160 174 190 204 200 202 180 190 168 159 145 149 157 162 177 195 190 187 198 199 195 186 165 154 156 173 188 193 182 180 170 156 116 126 153 172 173 188 157 185 213 223 180 202 131 130 173 184 161 182 148 176 148 191 160 187 195 120 179 130 105 149 61 47 131 107 93 167 174 109 146 115 123 88 134 99 85 137 133 101 95 68 95 74 136 74 67 76 93 45 63 70 54 71 92 133 84 94 81 75 77 47 104 42 64 74 75 125 93 81 118 134 62 57 132 34 120 80 127 112 109 76 158 159 93 182 169 141 94 176 188 127 188 172 153 130 73 122 113 113 106 76 62 63 53 162 181 147 162 117 49 111 128 72 84 191 128 81 176 159 173 255 90 171 166 205 218 168 130 179 90 50 148 94 156 144 109 168 146 67 166 121 102 170 165 66 66 55 124 141 78 166 183 168 188 133 166 126 155 116 148 128 197 169 168 169 126 70 146 156 192 95 187 79 158 150 202 189 200 189 182 158 123 61 68 112 177 162 91 107 165 128 179 72 116 135 66 123 157 160 149 85 169 167 174 98 112 102 152 144 155 145 71 122 179 166 196 94 125 179 255 96 93 108 86 121 104 162 115 101 135 162 70 118 90 117 83 85 189 101 128 126 125 204 99 195 116 76 77 152 175 71 101 101 166 143 116 136 195 135 204 195 195 110 157 94 161 107 149 170 70 62 52 73 124 75 94 156 123 93 166 150 157 174 155 153 171 73 181 84 181 74 126 139 158 186 183 180 152 117 71 171 138 113 156 167 161 161 70 69 90 143 122 129 159 156 110 82 109 128 214 102 207 172 157 97 88 172 94 94 188 104 97 95 117 156 108 177 157 74 163 173 107 189 148 172 164 163 127 73 122 135 120 154 99 135 67 150 126 165 192 99 152 160 186 164 174 154 191 166 184 162 122 154 135 188 131 79 89 99 170 176 70 49 52 61 159 134 122 117 162 107 88 175 196 90 188 116 208 213 225 116 178 110 147 148 79 182 155 82 59 55 139 104 100 86 85 124 184 158 89 107 179 108 199 139 186 118 108 59 91 72 89 208 98 147 90 80 146 127 73 166 207 167 157 114 208 188 124 126 169 184 74 76 94 125 117 161 82 87 92 188
157 148 138 136 142 151 158 150 144 141 163 182 199 204 198 186 198 190 170 163 133 146 140 167 171 170 189 192 208 207 204 182 164 146 147 160 175 188 191 180 166 164 141 132 129 170 178 147 187 188 188 221 165 189 139 173 169 142 145 176 181 183 158 150 195 129 185 158 119 125 99 130 93 48 95 66 120 172 117 126 80 75 141 119 114 129 104 93 155 82 90 54 70 130 84 85 83 71 96 71 77 69 70 124 132 85 91 101 73 74 83 79 100 43 53 70 104 112 111 99 82 167 141 42 38 46 152 86 206 214 104 93 84 169 196 93 144 173 168 102 196 98 99 176 60 146 76 182 111 153 125 133 145 145 97 129 179 167 80 135 155 140 81 165 172 127 184 196 123 96 100 138 109 90 171 202 172 188 183 76 61 68 82 151 133 190 117 148 154 82 160 159 104 181 179 154 172 66 93 122 135 169 168 134 206 162 112 104 78 132 104 128 126 183 80 149 124 140 145 131 98 139 172 179 102 152 180 199 109 126 128 142 160 63 79 188 125 109 188 99 204 207 184 128 157 97 134 126 143 60 163 68 67 125 113 165 123 145 156 54 85 48 50 144 109 88 120 167 126 155 113 126 155 78 76 66 110 96 81 136 108 75 161 72 107 71 76 169 160 155 171 158 214 119 147 178 72 139 76 168 90 170 83 134 84 83 83 131 149 126 204 196 93 134 185 126 105 184 80 88 178 79 171 76 86 117 108 82 140 76 61 134 108 67 139 152 59 107 114 76 74 178 74 117 185 82 159 126 172 160 183 129 84 100 92 181 66 102 61 63 86 126 138 124 130 129 44 59 102 184 115 189 109 195 159 113 121 115 113 117 142 88 168 154 96 183 73 100 143 106 52 58 177 121 161 106 175 153 162 106 126 60 53 161 70 104 129 135 203 122 128 192 189 184 186 183 96 170 102 153 89 75 146 91 86 189 85 158 100 148 110 117 144 90 101 31 151 114 71 59 98 151 153 187 146 119 201 186 185 136 114 109 157 154 182 203 160 93 189 170 140 77 155 145 108 120 173 175 115 173 129 139 128 139 206 120 138 168 171 121 94 167 187 154 215 204 74 129 56 107 159 255 129 139 184 201 167 145 147 104 184 135 123 60 151 82 62 173 74 82 126 128
139 136 131 131 141 153 153 151 144 147 157 173 183 192 187 179 190 194 181 181 160 148 151 160 163 166 184 199 202 221 211 196 172 153 150 155 171 177 190 206 193 175 151 142 141 153 151 167 144 183 184 179 200 193 138 169 169 154 152 147 183 173 150 172 188 105 134 175 172 132 150 105 91 58 133 99 99 143 149 64 64 58 93 86 167 172 168 161 85 80 103 64 110 85 119 106 136 77 77 128 70 102 73 120 93 131 74 110 76 90 140 103 62 62 108 112 120 177 119 163 189 115 57 52 140 105 105 87 122 208 107 122 80 88 198 102 79 131 153 158 115 123 177 168 75 185 134 186 155 180 180 145 148 124 59 116 139 179 191 177 68 108 101 113 101 137 145 137 183 127 87 80 138 166 137 125 140 146 129 177 149 126 58 63 102 144 69 94 179 70 133 71 105 106 150 166 150 176 149 155 85 156 84 86 130 189 86 173 118 146 123 184 114 82 74 180 171 139 71 115 133 167 176 99 130 124 202 169 213 117 255 127 160 63 104 78 168 173 83 161 171 139 204 169 83 101 53 77 135 135 81 70 174 180 197 157 158 164 165 152 125 137 137 43 74 117 190 151 109 160 106 88 152 123 112 169 97 128 170 84 178 76 80 124 90 155 180 202 122 138 118 201 228 124 152 82 74 43 119 67 97 81 194 123 94 158 82 149 119 165 97 90 122 134 209 142 117 125 107 138 179 129 192 131 135 72 113 97 127 141 164 51 117 122 88 135 70 142 98 74 74 174 112 107 199 157 89 143 96 111 90 180 177 140 197 84 179 78 157 167 172 150 78 113 102 123 132 99 149 58 163 147 255 85 152 178 168 90 150 106 172 106 181 190 95 183 160 144 141 132 134 94 72 86 197 197 98 89 91 181 65 78 129 102 136 184 120 191 172 167 167 190 77 72 82 129 121 168 157 172 163 78 166 150 91 179 79 152 109 157 117 197 119 108 80 130 80 165 67 82 149 57 125 130 98 204 137 196 206 115 177 189 146 121 156 176 213 114 209 117 174 102 100 76 141 157 120 111 131 74 95 171 102 206 126 153 200 255 117 158 141 112 111 213 177 208 192 129 143 100 176 120 87 160 112 69 117 162 85 91 176 159 164 154 42 40 72 125 70 162 135 138
128 131 130 133 133 148 152 155 143 142 135 146 149 167 163 160 167 189 197 191 171 150 142 144 155 168 178 188 199 219 215 201 187 170 160 159 170 182 200 219 201 189 166 156 150 123 154 129 164 169 173 182 159 165 168 152 158 99 166 139 100 132 129 196 180 198 177 195 193 200 188 147 149 56 101 122 65 97 100 134 110 113 82 81 84 126 105 78 67 67 54 82 81 99 141 121 121 81 116 92 85 110 116 91 120 95 84 58 56 124 95 108 111 67 80 86 94 131 122 118 125 96 149 59 42 53 81 139 124 97 129 75 175 81 201 97 185 179 156 109 193 141 182 139 196 111 141 208 183 123 146 77 71 54 163 111 88 166 154 155 95 75 85 155 156 113 148 194 118 171 135 165 149 161 137 135 109 154 134 152 122 43 136 86 21 107 100 150 177 70 144 59 122 68 148 133 161 80 178 66 116 181 144 75 118 178 180 179 92 201 113 99 177 85 79 170 195 182 107 197 202 112 157 217 231 180 138 232 212 157 173 125 161 157 181 138 135 78 180 92 106 212 197 128 175 100 57 86 50 109 62 171 81 142 194 155 196 178 74 116 55 148 143 74 157 139 162 103 135 201 112 73 66 75 72 163 142 180 95 188 158 99 166 105 166 180 99 102 127 144 222 132 153 131 217 90 69 64 53 89 91 132 110 105 188 103 181 101 107 123 104 129 98 188 184 157 211 148 107 110 164 90 91 101 93 87 164 190 192 127 160 61 87 46 50 48 140 116 49 138 49 165 114 192 195 170 100 146 180 182 97 153 104 82 91 193 133 179 177 113 140 139 132 153 91 169 88 156 49 125 79 104 161 186 93 98 124 190 185 97 70 168 171 100 204 172 158 170 59 63 160 108 124 90 93 203 166 98 93 111 118 135 143 155 163 112 230 218 203 153 216 190 87 73 67 77 178 80 133 127 140 52 109 61 171 89 186 122 97 166 215 119 198 156 72 61 120 115 97 74 56 115 77 85 154 96 151 138 195 92 178 173 162 178 100 219 127 183 155 149 160 71 62 87 173 85 106 186 80 150 100 159 79 167 120 196 125 182 255 153 80 133 164 107 115 149 125 162 150 166 65 179 72 73 75 53 76 151 125 153 73 110 63 103 83 58 166 159 170 97 90 112
126 132 139 139 140 142 154 160 150 137 131 127 124 150 162 164 176 180 185 170 172 165 149 148 158 162 158 177 186 210 214 205 194 176 162 160 169 179 207 223 213 202 179 133 147 145 149 141 124 160 132 153 117 163 160 153 106 128 136 135 167 118 126 140 186 201 192 180 137 126 149 115 78 94 105 74 53 56 56 68 122 82 100 108 94 120 100 136 103 76 72 65 88 117 117 122 93 75 72 115 73 77 92 131 92 124 142 70 103 53 63 83 138 98 77 106 179 97 104 116 138 179 183 137 54 135 108 75 75 154 59 52 79 76 201 195 89 149 180 76 117 176 70 112 194 215 218 191 171 106 178 159 159 157 169 178 192 139 171 93 152 47 151 159 138 101 156 200 106 107 152 162 155 69 162 134 127 110 100 109 118 162 163 40 42 49 145 84 101 181 174 112 67 116 70 84 186 80 171 63 152 71 77 165 89 161 81 107 165 104 187 89 128 142 183 202 210 199 100 137 204 201 150 126 139 242 195 130 196 155 77 169 80 175 76 180 85 79 173 176 109 216 156 227 192 109 67 58 167 166 171 180 184 151 190 153 100 160 95 152 175 123 69 156 255 93 201 195 106 98 151 123 99 47 53 113 121 96 189 78 180 122 83 96 182 88 138 121 203 204 197 218 132 138 235 182 113 80 69 117 171 92 212 112 204 200 175 125 210 129 117 83 71 74 191 194 102 130 129 118 80 80 83 96 174 155 149 133 164 175 64 67 89 51 101 154 73 46 35 97 69 123 117 105 110 205 110 165 195 189 76 109 153 66 181 127 79 175 167 119 75 154 114 107 185 176 147 70 109 53 114 165 173 106 76 178 83 132 109 103 97 175 83 163 255 197 145 182 177 148 137 147 93 186 115 157 199 100 116 88 153 80 77 62 109 165 125 129 220 118 102 183 149 131 115 147 86 60 147 136 124 92 111 81 123 135 176 125 125 171 149 227 104 137 52 50 149 169 88 174 117 78 165 86 190 80 141 156 95 165 120 163 60 171 129 202 115 200 200 112 161 114 175 105 98 205 137 100 94 145 146 122 144 81 178 187 121 141 84 183 143 195 113 155 188 188 89 90 60 61 160 70 176 122 147 52 146 49 94 128 142 79 85 59 65 108 124 80 95 130 134 102
135 139 145 143 149 157 158 157 162 145 130 126 116 129 156 169 166 161 170 163 165 144 160 167 159 154 151 166 176 196 202 192 188 172 157 149 156 169 199 203 214 194 160 144 122 144 148 157 130 160 146 116 120 151 159 167 156 131 159 120 131 140 155 163 215 220 154 177 178 107 144 144 138 112 60 134 79 93 98 99 163 148 104 138 152 104 152 109 127 124 59 73 106 93 115 82 133 85 54 68 86 69 84 131 118 154 88 74 106 74 73 63 61 118 114 84 104 163 93 172 105 95 100 82 66 61 58 72 147 62 151 150 72 178 100 137 148 166 112 178 70 129 107 157 198 208 118 107 88 145 163 154 163 142 149 133 76 116 122 74 68 115 87 89 76 123 190 181 201 124 156 109 67 154 100 123 111 145 128 158 192 108 155 69 119 94 148 161 107 133 162 120 82 159 84 120 109 176 73 144 152 100 121 65 123 44 51 153 140 188 190 80 71 175 141 135 213 148 197 194 171 191 168 168 219 144 232 209 104 176 169 90 162 109 191 82 141 174 172 175 104 165 224 227 146 146 177 185 185 187 135 195 199 187 171 146 51 89 52 66 160 113 114 184 145 195 159 220 171 123 115 133 76 111 57 164 152 83 95 169 107 166 146 87 169 76 130 81 144 202 135 116 152 125 178 198 93 132 103 152 255 85 171 108 114 112 124 191 165 131 205 90 95 81 111 94 99 85 79 76 177 90 113 192 113 168 139 130 193 142 66 63 98 90 105 164 84 121 138 152 138 71 160 185 123 121 204 130 84 92 67 114 74 133 164 141 171 123 162 114 73 139 68 149 195 178 136 89 60 148 117 191 111 123 173 76 75 137 134 164 133 179 163 119 171 146 118 94 186 96 147 184 206 100 86 139 107 113 204 88 171 79 156 138 90 156 163 131 100 111 192 91 71 128 133 154 116 121 61 23 116 115 34 52 66 145 119 179 210 204 216 211 188 57 137 78 154 76 167 111 147 157 119 85 167 76 61 163 80 188 93 135 174 84 190 153 142 106 197 187 208 106 255 190 103 163 102 178 173 92 73 37 63 154 119 169 79 184 99 124 192 198 118 197 115 200 76 63 44 70 59 104 128 97 63 101 94 60 150 78 112 121 175 132 97 108 124 104 71 123 89 155
149 149 152 150 163 168 174 171 164 153 134 125 126 142 158 168 172 164 153 163 144 147 161 157 166 176 171 167 180 189 195 190 184 166 151 140 149 163 186 201 187 200 183 165 151 149 157 122 122 165 166 132 130 136 122 177 177 155 154 98 110 156 123 206 209 166 205 142 148 90 141 153 126 148 132 114 90 102 65 102 104 127 69 71 61 102 111 100 82 136 62 124 79 104 86 86 115 87 43 76 61 48 103 127 95 114 114 136 70 89 57 61 114 61 65 146 75 154 136 149 105 93 94 96 70 123 57 166 85 119 66 61 170 132 105 178 97 180 170 87 69 119 71 72 181 96 140 95 166 100 121 71 163 92 112 190 127 112 121 136 65 117 98 138 132 97 203 205 140 182 144 153 140 65 144 113 154 111 181 172 206 110 213 187 63 144 154 83 107 188 156 105 192 140 178 91 179 94 58 136 110 91 81 167 129 110 72 144 94 121 137 125 155 103 160 125 201 183 84 87 63 142 158 92 147 126 159 196 142 94 168 102 185 194 188 132 94 174 120 142 91 146 122 233 223 103 93 190 101 135 100 178 193 181 82 138 135 119 106 176 147 192 103 201 136 205 128 136 126 183 135 147 71 95 172 172 123 116 66 128 103 117 106 140 158 75 58 159 89 103 131 144 111 111 111 105 193 143 158 72 105 120 178 151 125 93 84 77 90 118 111 177 134 95 191 101 82 117 80 168 169 84 90 106 173 132 205 220 210 86 72 81 96 65 95 114 72 149 151 75 126 155 170 204 122 202 185 182 83 56 130 87 137 134 95 165 158 107 114 151 131 41 95 179 201 171 85 93 71 133 162 171 101 186 164 58 135 175 185 175 112 205 216 233 209 172 127 118 118 216 122 227 117 196 154 190 123 106 99 194 173 58 128 89 172 94 86 150 80 137 173 97 136 67 101 114 144 147 37 27 123 32 61 43 80 121 157 112 215 171 122 89 159 81 167 181 91 109 185 114 95 112 182 165 70 147 149 156 181 172 162 189 85 118 132 179 177 113 111 208 104 162 175 118 178 202 179 140 129 100 145 34 137 83 82 68 162 95 133 187 157 203 120 156 200 180 115 129 90 109 119 102 142 80 83 105 90 154 100 83 197 107 105 163 255 128 122 88 58 62 92 144
163 158 159 156 163 164 172 172 170 158 144 132 133 142 157 179 177 168 164 144 149 159 165 166 178 176 165 175 174 180 182 184 179 162 145 135 138 155 176 191 199 189 169 178 156 149 164 163 164 170 176 140 178 187 177 187 119 162 163 185 172 131 168 214 234 192 145 183 132 144 158 80 141 164 185 177 165 143 102 114 94 102 99 101 58 67 133 129 125 72 66 83 132 76 66 89 118 79 56 56 37 59 76 136 94 144 107 130 85 89 53 39 56 255 51 69 73 176 190 107 193 184 103 79 82 120 71 178 81 142 100 92 186 204 113 171 178 88 166 158 71 58 156 63 161 184 92 66 158 153 131 147 76 195 100 187 89 82 157 101 102 119 126 160 147 111 131 209 151 181 131 121 93 73 165 84 140 89 132 153 135 111 178 119 72 82 140 125 128 99 200 97 181 135 164 94 123 62 162 75 255 104 197 127 152 120 108 168 183 86 135 80 75 73 81 108 165 132 167 88 71 99 61 163 162 211 103 127 87 165 108 84 89 164 202 98 165 112 77 154 173 163 193 214 118 95 180 170 197 168 207 196 185 94 134 38 26 94 110 137 134 189 135 187 187 115 153 131 213 208 146 176 99 92 94 136 137 44 84 66 145 180 128 109 108 106 109 169 84 89 87 163 167 88 95 131 86 71 70 111 77 92 123 100 75 125 105 165 88 181 117 207 140 135 147 187 80 159 141 76 169 107 207 106 159 185 220 207 188 111 159 175 102 184 126 140 76 67 95 67 67 70 160 193 176 197 152 121 137 99 128 72 154 87 130 120 64 134 75 66 61 49 142 95 189 208 156 149 148 62 123 165 144 72 63 113 141 143 117 147 87 97 173 166 190 155 128 128 151 153 180 126 197 167 134 103 146 192 137 106 92 171 66 127 96 140 169 94 117 107 122 95 80 103 142 161 74 133 54 56 141 35 108 124 151 102 104 121 114 170 191 169 130 140 129 114 197 151 166 194 137 170 117 166 150 43 57 64 177 114 199 92 180 142 93 87 104 104 206 130 174 169 86 103 129 82 196 96 179 83 78 37 77 137 147 169 116 170 153 173 187 164 95 197 86 81 158 59 136 14 57 98 158 67 115 110 110 172 185 191 105 200 169 211 182 115 71 81 147 113 118 97
171 166 162 162 169 168 171 171 168 166 154 141 132 143 164 177 184 182 165 155 154 152 154 162 174 171 176 178 181 169 184 187 189 166 153 139 140 147 173 179 181 197 198 189 176 161 169 157 172 173 159 189 167 140 112 142 174 180 189 201 193 123 135 219 174 196 181 96 68 103 60 131 179 133 163 145 156 110 114 90 149 71 47 24 39 33 104 131 64 83 62 71 62 57 54 58 65 62 51 54 50 87 101 133 126 90 125 67 55 57 32 41 38 118 64 55 75 101 198 144 113 109 84 162 119 96 85 111 195 137 138 195 179 107 219 171 198 179 150 188 148 168 82 88 174 152 83 163 58 135 66 145 85 106 216 205 219 208 87 174 156 111 144 185 152 198 184 122 189 165 95 181 87 129 79 84 169 120 171 91 177 201 184 187 140 74 186 128 184 122 91 194 105 138 172 87 161 134 121 176 100 161 167 191 77 104 168 189 103 133 175 114 138 188 183 94 92 169 103 58 136 148 163 161 177 192 93 95 171 99 139 181 186 100 97 189 121 82 82 123 135 107 229 207 210 132 117 193 199 140 100 197 173 159 112 44 76 123 137 164 181 200 101 139 135 164 122 145 187 187 167 94 176 96 83 64 104 37 44 123 71 161 79 60 79 42 50 63 144 101 84 110 104 175 89 118 135 69 67 114 71 84 186 168 105 51 51 104 190 120 128 158 200 208 148 161 150 121 84 117 193 212 114 109 139 187 148 149 103 91 175 179 83 172 124 120 106 49 131 68 122 83 104 104 128 179 93 151 120 160 157 114 91 164 156 165 92 93 167 137 138 155 173 196 210 191 173 165 119 151 105 107 196 175 143 141 114 127 121 127 74 88 92 203 204 135 210 168 127 98 184 117 163 205 204 115 175 184 119 188 187 145 93 160 204 154 189 80 165 108 88 195 196 183 159 154 148 187 107 125 51 43 137 130 54 132 104 132 141 126 187 87 101 180 175 112 191 87 82 171 155 185 97 162 50 50 151 69 85 102 192 137 192 92 192 95 255 206 108 164 92 127 186 179 103 174 184 165 126 116 94 97 120 149 75 169 189 99 150 125 181 196 148 89 189 188 125 167 138 91 14 78 62 166 173 76 138 88 192 180 113 162 123 118 83 142 63 34 38 59 60 72
175 170 167 163 172 171 166 162 166 164 165 150 145 136 147 171 165 175 181 161 166 143 141 145 157 153 158 165 169 170 174 182 186 176 159 145 152 158 169 178 190 190 187 195 180 168 140 149 153 169 156 175 160 118 135 161 176 178 176 177 199 193 130 154 182 178 151 138 126 123 143 255 137 95 98 96 153 124 82 92 88 68 50 53 22 22 34 78 68 66 88 89 47 77 111 57 78 70 76 97 127 88 128 151 102 83 110 65 53 85 36 104 47 43 81 91 143 161 167 128 113 176 102 102 100 176 88 181 101 186 94 163 118 216 215 115 135 93 92 200 197 86 81 75 168 119 151 133 133 176 92 188 185 187 188 204 197 181 184 169 88 147 151 165 130 152 133 196 143 131 106 114 156 101 161 113 172 161 87 95 185 134 86 183 180 141 194 113 197 193 172 103 187 78 132 171 121 112 105 164 112 136 180 186 100 192 124 165 148 111 194 156 148 95 198 90 172 60 142 60 98 158 175 172 86 176 75 114 135 152 165 142 149 91 185 139 152 118 38 70 108 180 148 221 116 165 201 176 200 197 167 98 160 154 104 117 43 71 43 163 121 87 152 136 168 55 156 131 76 179 186 92 120 152 174 61 94 44 47 72 48 68 65 129 153 144 140 72 74 146 136 149 74 87 132 95 97 135 142 124 93 106 201 103 145 148 85 103 140 210 120 211 108 211 133 124 80 168 75 152 100 149 115 141 255 193 107 173 199 143 162 168 129 187 91 146 73 78 38 47 96 87 178 97 170 77 84 74 170 160 125 132 149 77 124 123 178 172 119 176 158 58 157 188 183 190 99 180 83 108 138 206 113 186 140 126 140 79 132 106 75 176 173 91 122 201 207 146 166 102 102 93 125 143 115 147 214 107 129 88 82 84 105 101 210 167 95 125 131 92 165 130 152 140 179 181 158 84 173 92 122 61 72 76 64 104 100 255 189 189 202 185 96 182 108 143 182 185 143 127 111 163 161 71 153 158 105 139 184 96 117 87 85 90 192 145 178 206 149 135 185 178 106 90 144 71 79 96 187 95 160 110 144 52 67 82 194 106 186 192 104 105 166 88 195 161 204 74 51 103 95 37 134 80 100 131 142 176 147 117 137 125 115 141 172 125 60 128 51 108 84 73
183 176 168 166 169 165 156 159 154 161 159 157 148 141 138 153 155 167 167 171 162 136 136 134 147 135 153 150 167 173 178 193 190 180 168 156 158 162 168 174 180 194 206 169 148 141 159 170 139 186 188 149 144 162 122 158 135 141 185 187 158 130 129 208 175 164 124 56 47 89 116 100 124 109 107 134 74 114 122 90 153 86 115 61 59 41 82 87 64 98 134 96 50 51 98 82 87 73 78 118 108 143 116 116 135 83 84 63 124 112 68 75 42 85 108 83 176 193 120 140 126 111 160 182 107 168 150 107 163 96 177 101 103 212 205 105 179 181 185 199 172 108 199 185 126 50 152 102 96 107 94 111 255 145 108 178 139 142 161 105 71 74 103 84 104 199 181 189 125 185 126 175 219 144 194 81 175 125 75 109 155 84 128 76 157 88 197 115 179 96 112 170 186 132 133 77 113 159 95 91 198 204 84 120 181 149 109 105 165 212 212 147 141 105 157 171 88 80 147 44 73 66 80 107 176 99 115 96 86 121 102 190 133 77 118 171 70 147 95 65 176 134 182 183 109 144 118 200 178 145 112 88 87 148 48 80 131 38 41 150 170 178 138 83 70 126 118 78 177 95 156 98 122 120 91 59 84 90 145 54 126 75 159 160 145 90 130 131 79 110 131 122 192 189 153 141 95 151 160 90 100 117 152 210 83 127 61 177 145 207 206 119 127 129 186 111 113 81 66 79 99 146 98 198 84 81 156 97 187 82 115 84 173 142 182 178 131 109 44 149 151 99 178 140 173 68 172 137 186 109 84 118 191 182 122 148 183 81 182 132 162 163 84 181 135 106 190 112 175 115 179 190 129 129 82 67 87 164 132 188 185 120 170 59 82 143 180 213 137 108 172 146 182 175 199 151 177 167 159 159 166 133 79 192 197 205 183 106 201 168 184 195 92 188 172 90 151 181 122 104 131 76 98 67 159 161 92 205 211 190 159 196 190 132 184 184 84 135 143 146 194 157 91 80 132 132 116 70 75 89 183 163 182 186 101 171 163 190 152 139 146 99 149 189 139 153 140 190 94 141 62 128 120 71 86 188 135 125 154 71 117 65 66 75 198 216 211 155 72 133 129 115 68 78 180 186 111 119 174 105 95 155 193 96 108 119 131 143 49 58 136 58
198 188 170 160 153 150 145 139 144 151 146 159 148 126 135 130 145 166 180 173 169 143 144 141 145 145 149 143 163 175 176 187 187 176 169 167 172 175 172 178 180 197 202 188 170 159 163 156 182 177 190 167 141 106 139 118 123 148 175 177 118 159 205 182 103 155 102 74 64 52 63 113 148 140 120 113 90 138 77 136 127 160 162 107 144 77 104 75 86 77 70 69 67 57 66 70 78 87 104 95 101 111 158 115 111 85 109 81 66 97 57 78 54 59 120 143 138 110 119 185 175 99 194 208 125 140 176 181 81 126 109 206 197 134 121 81 73 68 140 96 195 99 169 195 184 84 160 120 94 179 86 167 113 168 159 179 222 219 193 122 127 97 165 172 137 127 133 103 129 110 124 140 159 135 194 118 95 190 171 169 182 184 146 110 161 78 80 119 119 185 145 184 162 118 178 163 68 180 187 173 209 152 136 138 168 105 120 180 203 116 214 130 120 149 107 162 155 69 83 109 173 181 136 97 140 115 140 83 96 75 185 103 87 80 70 103 98 97 54 79 129 212 206 159 87 255 93 160 122 155 65 150 146 55 143 139 135 122 127 68 66 134 106 87 166 107 118 71 94 158 154 139 192 171 84 58 110 157 71 128 69 168 178 109 73 58 131 159 188 181 119 133 108 104 182 111 116 116 201 115 147 132 177 147 147 188 77 86 107 116 106 94 89 182 209 215 135 175 68 107 69 174 88 198 85 99 87 162 85 89 71 146 154 168 133 78 174 93 81 136 184 108 141 172 171 67 127 104 102 149 116 130 212 158 186 164 181 161 72 155 148 168 84 77 175 197 120 93 105 116 126 190 201 176 89 131 182 155 166 172 176 118 105 87 132 146 146 201 167 88 149 192 109 179 107 72 173 95 154 100 87 118 65 167 88 180 169 159 158 132 168 189 137 158 136 146 64 118 75 159 160 109 123 84 168 169 179 189 197 145 111 106 160 84 82 123 183 105 115 152 204 87 115 143 72 61 60 121 119 165 130 176 76 102 119 199 194 177 163 155 54 165 116 102 131 109 128 98 87 106 151 75 165 109 116 144 191 165 84 61 136 65 153 125 183 188 177 181 183 100 94 166 87 131 194 178 69 78 165 111 86 162 123 124 74 160 173 79 78 87 66 41
216 203 178 149 131 126 123 133 130 129 140 154 144 123 125 138 144 175 188 175 166 170 163 173 168 149 149 153 169 171 178 177 174 177 173 170 174 179 176 176 187 182 173 184 177 180 164 157 189 158 164 161 175 161 140 149 161 104 127 124 144 157 155 195 183 124 142 122 76 104 147 82 145 130 163 159 73 50 65 111 134 103 99 97 255 105 131 124 89 86 86 66 118 80 81 133 122 109 110 104 98 107 129 131 114 147 82 82 80 99 73 63 63 112 79 88 122 104 105 87 98 93 116 218 149 150 96 161 177 88 105 168 223 160 151 101 62 114 165 187 141 190 159 190 173 176 152 122 189 173 100 126 98 157 127 177 165 78 172 149 76 111 85 115 181 185 183 94 100 150 192 133 136 216 189 131 173 196 204 194 104 191 84 172 167 56 89 119 157 73 175 122 81 177 182 87 83 92 191 122 193 101 186 176 173 97 80 153 169 132 217 185 178 190 92 117 185 157 145 162 147 85 165 177 159 135 44 140 131 144 173 190 127 112 139 46 56 36 126 91 196 123 149 184 122 65 111 166 91 141 160 146 76 153 59 128 50 59 106 139 95 143 142 183 81 88 77 112 186 118 108 88 174 146 118 133 104 128 134 166 162 77 116 87 92 59 64 115 120 208 165 183 119 221 199 214 182 193 174 132 122 148 133 165 227 207 195 110 146 180 87 130 81 119 152 166 93 143 160 58 86 105 103 131 178 190 104 177 160 175 71 75 69 135 112 129 60 46 130 161 113 158 90 77 61 120 59 121 80 93 178 123 142 193 97 176 134 169 86 105 99 176 138 83 185 102 82 106 159 196 181 219 209 128 165 201 145 114 122 116 144 105 161 100 79 194 153 200 147 169 118 92 89 176 141 147 61 165 58 129 116 46 102 108 154 159 65 69 84 100 98 106 152 134 178 111 150 152 76 90 152 112 99 177 87 166 64 105 175 135 156 155 71 154 129 73 186 207 116 131 198 122 168 157 66 65 64 140 70 70 86 118 72 173 123 178 152 56 111 150 115 91 122 160 199 143 190 126 88 170 184 172 106 81 155 208 159 96 104 55 69 105 132 134 194 101 102 96 106 150 178 110 172 187 90 131 65 159 58 92 148 129 154 111 174 107 99 121 80 59 114 29
222 209 180 146 123 113 120 127 125 131 138 151 148 132 133 129 148 162 255 176 179 183 199 193 174 156 137 148 171 163 163 153 160 164 173 170 174 181 177 194 198 197 186 178 178 180 195 197 158 154 178 185 135 156 169 141 158 113 146 142 130 179 208 204 100 153 160 126 90 151 114 171 89 156 121 70 117 77 83 120 79 131 86 168 154 150 165 115 131 145 95 77 124 68 74 82 96 102 102 133 135 98 95 133 130 104 88 85 105 112 97 105 77 56 80 105 133 128 100 94 177 93 111 216 151 130 78 141 89 84 140 210 173 128 198 191 175 173 180 87 200 186 191 117 194 189 185 90 134 194 102 63 147 116 164 129 147 108 112 140 130 124 122 107 126 134 194 158 161 148 172 196 132 200 211 195 172 123 176 195 106 190 185 162 86 79 96 112 146 157 91 62 176 165 78 166 180 106 118 126 172 110 129 102 81 73 87 90 99 150 204 140 189 166 101 193 182 146 170 156 183 165 94 122 56 152 35 123 47 154 124 111 73 161 162 147 135 95 117 129 186 205 152 153 166 164 159 57 145 46 153 147 117 122 71 80 98 161 57 60 115 118 128 160 90 65 151 162 108 201 102 140 123 129 133 66 65 176 146 180 196 203 200 113 73 58 156 156 103 216 142 132 107 110 136 161 191 228 113 119 109 118 198 118 120 142 142 120 115 174 85 70 70 151 162 153 108 147 61 78 151 107 107 94 150 96 199 94 95 91 124 79 92 82 176 79 61 123 39 84 75 190 104 168 58 134 72 62 83 158 155 206 188 147 122 115 171 119 146 188 176 167 163 182 193 95 107 134 178 201 136 161 161 191 203 113 175 107 117 111 202 196 85 138 144 176 173 182 99 188 132 140 182 76 158 122 75 67 58 143 130 129 52 68 140 155 94 106 91 166 147 182 104 156 77 161 134 56 126 118 149 174 172 106 98 106 88 84 164 72 75 153 56 81 156 163 183 212 219 113 92 164 106 59 49 150 84 90 99 84 174 86 68 142 100 105 64 129 43 131 92 174 117 154 202 110 133 113 90 132 89 170 131 153 172 171 82 140 70 159 139 72 124 161 163 189 162 147 141 159 188 124 201 128 163 95 147 56 58 154 140 124 139 115 193 196 116 132 132 80 169 164
210 200 178 150 120 108 118 127 131 150 163 173 163 158 147 150 144 161 161 184 190 202 213 206 185 155 156 168 172 170 153 149 156 167 170 172 172 180 178 198 186 178 186 172 167 185 165 169 163 186 184 186 177 179 169 132 157 127 133 80 162 162 159 181 143 137 106 95 129 179 129 118 125 98 104 118 52 111 55 135 54 60 76 93 130 190 168 172 150 111 92 90 83 98 70 92 102 85 99 95 120 102 96 105 116 106 128 94 100 115 147 76 83 134 65 77 129 189 102 91 85 100 188 211 121 132 180 99 96 183 122 207 131 219 193 86 184 185 109 201 172 158 193 187 197 183 186 107 217 117 158 80 160 73 170 140 129 84 88 101 137 150 133 92 160 152 193 193 110 145 118 187 104 168 123 162 219 190 230 152 199 87 171 127 147 28 89 64 146 126 149 86 153 155 166 88 174 187 213 201 194 133 185 116 90 83 140 155 135 169 217 199 186 101 104 133 184 101 84 83 144 99 167 144 50 76 114 155 153 86 67 63 156 160 125 53 150 41 60 146 116 200 181 187 132 115 149 125 35 99 49 63 129 171 157 85 102 160 94 47 132 101 77 150 107 83 115 128 108 185 198 150 135 170 169 129 133 130 189 214 158 104 141 189 185 89 153 200 181 165 103 93 140 201 212 202 144 132 129 108 95 104 97 144 196 157 158 116 140 110 95 86 105 126 172 87 184 159 88 72 118 145 117 146 95 104 159 176 112 135 172 111 181 102 168 158 52 63 38 63 66 87 92 155 39 58 93 155 148 106 81 112 144 75 116 67 130 135 110 189 166 122 82 133 138 149 98 101 156 149 195 167 106 137 152 172 163 124 198 126 163 111 189 93 172 104 61 164 161 125 170 191 141 118 147 161 166 136 103 118 37 114 26 71 123 152 75 152 77 165 95 97 188 159 178 142 114 155 142 81 158 140 188 87 97 144 64 81 154 60 105 87 147 73 146 130 190 136 144 121 122 162 54 143 117 97 114 69 178 179 161 145 85 123 87 134 49 141 117 79 72 181 165 224 213 93 168 92 70 146 74 73 148 63 61 155 172 132 90 173 78 110 40 96 140 82 179 89 153 206 226 155 171 106 90 82 119 53 163 114 141 112 210 212 217 120 158 218 117 175 169 194
185 177 166 148 127 121 128 133 138 145 156 177 176 175 163 150 161 153 164 181 185 199 200 215 187 172 155 173 173 168 146 147 153 162 168 175 179 188 203 205 197 184 174 165 170 164 157 186 151 140 179 167 138 162 174 117 255 152 97 121 157 132 185 159 173 141 156 141 143 156 123 199 154 117 97 91 50 35 44 120 39 46 94 85 110 148 136 186 116 110 119 99 116 85 136 110 93 77 120 73 131 82 102 91 255 152 112 113 88 96 117 139 96 76 84 74 88 124 160 98 85 184 107 206 127 103 130 151 154 64 88 183 121 202 128 115 159 150 112 205 99 185 83 192 161 206 114 220 191 218 120 131 103 190 76 175 163 141 187 167 143 170 95 160 120 176 137 123 146 132 164 124 113 101 96 206 189 162 228 142 166 179 96 134 97 84 139 42 98 146 161 178 157 98 187 196 181 118 100 200 143 90 113 168 172 79 197 106 139 147 192 121 110 196 133 210 157 159 100 171 99 180 98 152 146 66 159 141 156 164 143 145 118 109 113 167 76 147 152 161 71 188 202 110 193 170 146 114 103 37 138 152 152 144 174 186 91 72 168 69 86 113 127 50 117 142 122 83 136 84 87 136 77 149 195 133 132 143 212 158 135 105 161 193 172 88 100 146 137 117 189 185 77 195 113 221 132 191 95 89 121 80 120 105 82 86 133 197 213 179 98 90 54 99 67 115 104 99 154 166 167 174 130 166 160 84 137 181 117 112 204 90 144 120 129 103 160 146 137 67 169 64 79 146 115 35 54 146 161 111 122 70 150 151 121 165 75 161 184 169 125 65 162 92 160 91 98 84 74 110 195 140 92 153 154 171 165 217 173 102 111 204 113 131 173 147 63 137 112 140 105 168 82 56 135 164 71 81 97 73 80 95 74 67 131 161 74 73 114 90 159 158 75 121 143 102 171 62 131 136 137 154 127 106 124 159 75 77 114 111 153 158 98 116 168 135 170 106 104 185 128 98 78 146 54 99 149 103 194 208 116 141 124 163 61 141 160 48 137 98 130 94 100 186 102 187 104 158 55 62 166 157 164 61 70 106 163 135 161 185 57 104 22 106 58 80 103 178 171 200 94 169 97 76 88 69 98 48 153 74 147 110 109 125 200 132 214 226 224 162 215 177
155 150 143 142 142 138 137 137 137 141 147 158 158 162 163 163 146 155 171 175 180 192 209 207 191 182 184 184 181 170 161 149 153 159 170 174 187 201 215 216 208 184 171 163 145 150 146 147 169 162 158 182 181 148 159 136 125 108 140 118 183 137 196 174 92 152 150 151 171 195 168 174 146 96 107 114 68 76 38 110 25 63 75 76 95 112 195 145 114 92 129 77 76 139 89 77 76 93 70 255 110 101 124 81 102 84 143 89 99 99 105 92 121 113 76 74 126 104 138 106 104 172 173 111 108 157 154 53 38 72 79 130 177 85 163 119 177 191 201 137 200 186 88 178 107 205 202 213 187 148 207 105 208 119 185 121 192 171 192 216 148 165 88 82 146 98 107 119 168 161 119 63 128 150 193 184 226 143 120 207 155 127 84 158 66 59 156 117 105 98 99 155 185 136 143 199 108 176 200 96 99 182 187 77 173 147 173 186 197 148 189 146 161 116 208 118 145 140 194 112 188 166 106 158 98 157 64 131 151 151 132 155 139 74 105 163 137 107 95 111 171 180 197 155 180 136 38 117 23 111 73 116 66 162 98 98 135 183 76 85 120 77 31 80 145 126 147 155 111 97 68 94 119 90 191 203 110 203 104 87 146 69 72 72 139 120 126 173 131 123 119 85 135 95 138 169 99 137 107 101 161 63 111 94 69 170 103 87 113 200 167 65 131 40 76 66 59 91 136 169 93 110 61 118 95 117 88 157 118 148 190 135 117 81 52 90 53 79 73 66 166 84 50 47 146 45 77 153 114 133 147 53 118 141 144 167 127 160 136 83 145 56 77 151 142 72 156 129 92 179 172 165 185 142 100 157 155 190 212 152 181 205 107 107 100 156 110 126 56 78 148 55 115 141 44 60 78 73 153 119 145 111 127 87 107 137 199 203 100 183 154 134 176 116 166 158 87 164 96 148 86 157 139 145 86 76 94 59 164 124 117 78 83 122 168 194 194 123 105 182 154 155 139 147 74 56 80 177 184 145 104 187 163 105 129 172 75 112 48 50 142 68 179 102 191 77 60 104 112 158 78 160 114 113 79 188 105 168 206 179 163 97 110 124 53 69 62 125 166 75 89 67 154 164 78 118 106 53 62 61 106 100 143 121 107 134 123 186 219 206 133 95
135 129 126 134 145 155 143 133 115 119 124 123 132 151 155 159 166 159 154 164 173 187 202 217 206 189 192 190 181 163 163 159 161 158 170 176 199 204 226 223 210 190 172 161 150 159 148 129 161 175 160 181 154 169 147 133 146 123 154 151 128 187 195 118 106 83 142 143 173 179 145 188 111 129 107 102 82 70 34 46 58 47 114 105 106 99 138 107 97 134 97 70 71 84 70 42 31 39 83 72 122 110 105 123 85 115 112 113 93 141 92 136 98 125 163 79 141 85 122 143 108 123 113 116 193 87 166 114 60 143 147 174 90 140 184 77 70 97 132 106 119 87 139 115 189 190 98 168 137 164 147 192 107 185 203 217 126 228 172 118 198 184 182 186 150 108 150 142 97 143 75 78 117 158 191 190 133 228 181 89 125 164 104 84 172 121 137 73 156 68 68 174 170 160 172 206 108 192 108 156 112 135 75 74 113 79 89 202 98 101 91 187 171 167 193 138 144 119 92 174 172 151 143 100 57 142 157 181 102 111 150 75 57 106 55 171 156 76 159 78 168 116 94 83 83 166 98 26 143 54 122 175 179 177 178 82 112 140 175 103 77 164 51 100 122 149 127 105 142 124 118 60 121 187 124 189 199 147 99 175 59 49 68 144 158 105 105 115 201 189 202 190 115 168 154 165 81 129 122 128 132 66 65 80 130 48 51 74 115 107 129 135 121 69 146 64 77 113 70 87 95 128 157 59 64 171 82 92 194 183 175 178 166 59 131 110 86 100 78 74 117 133 147 149 118 157 50 120 65 149 108 38 129 76 148 255 130 175 149 79 157 134 136 110 158 104 161 82 89 110 141 172 141 179 199 171 193 185 186 163 182 139 207 210 137 110 99 92 66 29 143 137 81 143 62 79 171 175 91 144 101 76 121 191 152 146 116 190 189 166 143 184 185 170 104 208 103 99 88 83 76 162 156 183 138 104 172 109 81 173 177 90 93 93 185 104 145 173 190 104 163 130 125 132 62 169 121 196 221 170 105 168 66 113 164 161 171 148 63 67 63 78 118 161 158 118 114 80 134 134 126 65 174 153 203 128 217 184 178 120 195 121 105 82 79 81 154 153 155 158 71 131 136 121 67 162 72 160 84 70 64 127 190 93 255 204 195 147 152 164 99 101
120 114 113 128 149 167 152 138 112 92 94 107 108 132 150 157 160 145 152 166 162 171 198 207 207 206 194 187 177 168 163 162 164 163 169 182 197 223 229 224 197 165 164 150 150 151 120 163 168 178 173 174 142 156 161 144 149 114 130 115 146 189 139 172 81 134 135 132 98 162 118 123 182 139 134 150 121 65 127 87 119 76 145 74 107 96 145 109 165 115 75 108 103 110 57 42 27 53 81 81 129 139 89 129 96 102 101 111 115 128 88 115 100 167 100 119 72 96 152 94 100 138 109 102 121 98 157 60 68 71 98 123 158 93 190 76 90 185 196 127 106 102 192 186 127 160 169 156 154 150 82 177 168 175 144 201 133 226 158 210 157 181 120 181 168 186 114 183 154 115 56 90 156 79 135 170 206 190 178 111 172 175 82 103 99 176 178 89 145 171 172 69 119 71 95 147 158 206 211 145 255 96 141 66 69 101 190 185 74 141 123 60 145 91 181 107 98 111 175 109 186 73 162 69 135 100 140 118 124 165 93 67 42 83 131 96 72 169 84 165 142 114 162 132 168 57 61 142 151 80 165 122 169 90 143 175 89 167 183 194 145 82 154 157 135 142 114 150 175 165 153 174 128 135 121 175 104 179 83 68 144 103 98 150 176 182 108 197 199 188 89 154 131 116 96 125 72 139 91 58 154 66 101 71 79 36 72 63 100 102 86 44 89 39 53 92 64 157 157 71 69 114 113 147 153 83 100 75 173 114 183 118 166 101 141 50 87 174 188 175 169 46 53 63 48 86 66 144 140 136 44 40 131 102 93 182 89 178 114 119 63 103 148 151 50 121 152 172 99 74 173 117 77 99 100 200 173 167 178 77 78 171 210 106 101 80 134 42 83 31 91 130 118 55 59 169 75 139 134 165 158 148 95 174 162 206 183 122 126 121 204 185 96 166 142 113 162 192 133 67 110 151 60 85 168 127 132 169 160 141 192 168 89 131 195 101 208 196 81 65 155 119 156 63 80 92 195 127 209 204 180 146 162 168 163 119 187 75 168 148 126 87 168 57 159 150 77 149 59 153 109 134 77 195 136 160 124 187 126 139 205 103 78 55 109 61 132 62 118 51 138 84 117 148 111 159 108 110 82 91 138 135 139 150 131 150 161 126 163 55 47 32
107 105 108 132 155 173 162 146 119 91 91 89 107 125 143 148 152 148 143 153 165 168 188 198 186 193 190 177 168 169 162 153 156 153 161 180 193 219 217 199 190 165 153 132 146 152 159 168 169 152 188 197 187 122 117 107 177 147 185 190 187 190 119 132 132 97 95 83 109 80 117 123 114 128 83 84 74 48 70 80 161 151 115 100 114 163 158 95 125 72 64 118 95 59 106 61 63 50 80 77 98 94 104 140 98 106 108 104 101 83 97 83 168 143 170 96 135 83 83 167 162 103 102 126 93 172 60 132 37 118 63 86 183 194 86 82 128 79 167 198 114 217 105 127 183 170 164 167 82 122 97 164 92 95 113 106 162 125 188 166 118 158 148 184 157 146 144 95 136 150 87 158 160 183 198 201 198 180 165 78 172 71 103 196 198 86 142 195 201 105 88 88 105 155 81 164 213 116 211 197 118 136 138 173 173 94 183 183 96 146 142 129 69 117 119 115 124 79 172 93 100 65 106 167 172 181 174 186 135 170 165 153 118 53 103 71 154 62 71 129 155 110 49 157 79 150 149 99 127 159 199 104 180 81 76 181 154 191 140 191 164 158 163 114 166 87 125 172 85 199 150 200 135 106 150 175 104 124 112 182 74 101 106 127 181 184 103 92 66 73 166 134 114 156 193 123 76 47 43 147 57 120 68 71 66 142 59 173 127 184 168 150 67 42 111 80 60 125 70 73 156 136 76 143 172 107 161 73 68 124 144 135 157 182 109 92 91 92 141 138 67 154 100 135 82 156 110 79 91 148 135 50 120 145 88 124 184 167 150 62 112 116 155 47 127 165 106 96 178 126 182 175 104 178 149 200 191 176 160 105 104 142 104 108 130 157 144 85 142 106 61 74 138 154 168 186 90 139 112 98 108 132 145 166 136 193 164 127 136 124 123 199 127 111 112 104 146 93 79 80 146 155 157 63 59 104 50 164 81 190 165 195 179 135 94 193 177 81 92 100 124 68 159 72 189 198 194 194 189 203 100 162 51 91 166 172 89 144 149 72 100 141 171 72 124 101 135 113 88 53 142 150 77 104 96 106 131 138 140 110 153 109 189 98 79 150 138 53 93 151 92 84 198 137 77 112 79 149 70 108 113 135 61 78 83 93 97 178 62 74 71 18
97 99 108 129 155 169 165 148 123 107 94 95 109 120 134 139 139 145 155 160 178 189 183 179 180 182 184 186 184 164 161 159 161 156 168 184 200 204 208 198 178 157 144 135 141 154 163 160 186 176 167 161 161 154 169 157 179 184 153 154 167 132 139 148 130 91 127 87 50 146 74 142 182 86 136 81 131 114 166 159 116 138 83 143 67 74 78 76 92 69 87 57 53 106 60 57 50 86 99 80 97 88 114 139 120 125 123 134 82 79 75 132 92 135 108 107 87 129 176 92 183 109 110 104 181 160 64 110 54 135 138 48 71 86 168 83 177 77 139 101 113 211 209 132 163 144 180 160 81 129 57 115 138 164 81 158 79 133 150 173 100 141 175 115 114 152 213 111 86 163 146 162 161 142 148 194 221 188 200 125 145 166 164 78 95 71 150 76 181 119 116 185 130 166 96 133 215 213 98 184 86 181 76 74 178 150 164 81 172 155 72 53 144 106 79 111 70 103 132 188 150 172 93 163 118 82 159 127 119 164 143 83 50 78 147 112 59 137 87 148 143 69 145 82 157 51 37 63 49 158 181 187 166 102 170 157 160 186 131 77 166 121 61 149 153 167 134 159 147 116 199 155 174 129 142 76 124 73 165 100 104 125 118 108 156 162 138 66 53 71 190 168 192 210 180 173 100 50 132 117 107 88 187 115 112 61 169 133 187 100 100 118 77 48 145 69 55 108 147 157 132 167 173 189 135 139 83 138 126 85 130 107 174 151 92 173 61 94 85 79 73 71 78 65 117 83 112 177 77 86 167 150 53 151 114 167 133 171 117 102 118 127 138 71 149 74 94 118 126 119 81 85 97 184 201 201 141 131 87 155 128 190 113 146 84 59 82 161 66 78 151 144 113 182 100 103 104 136 166 101 192 156 131 195 175 154 94 96 123 143 126 127 131 99 107 103 175 82 159 77 139 134 138 40 91 106 128 163 143 94 131 121 124 255 144 148 193 74 106 69 145 132 166 73 176 183 108 100 140 102 84 68 63 110 119 80 95 182 180 106 112 170 88 135 152 120 79 128 168 92 143 65 74 84 131 175 97 100 165 131 178 150 96 100 155 76 150 57 153 103 158 138 120 200 92 146 140 156 127 49 119 102 125 163 115 183 114 133 155 139 116 53
93 98 108 131 150 170 166 154 127 107 100 100 125 131 152 143 137 140 159 174 179 185 190 180 170 169 180 185 188 176 179 173 167 167 175 178 192 195 186 185 170 143 161 149 166 157 173 183 176 157 193 207 166 145 155 171 176 142 185 193 167 142 164 106 135 92 58 50 68 82 70 115 78 158 79 99 77 161 137 161 137 106 110 130 52 102 79 60 82 61 114 59 52 66 120 63 72 121 74 75 89 96 131 121 150 115 107 97 83 60 67 49 118 100 118 115 157 81 169 106 175 131 106 120 116 57 126 40 95 56 91 31 42 55 81 169 176 153 87 145 179 193 108 206 202 187 195 185 168 107 71 55 148 90 104 65 64 102 133 138 133 183 187 178 193 199 199 189 91 109 100 124 155 182 172 186 184 192 144 202 174 171 162 121 123 136 154 167 103 120 190 204 83 124 115 196 107 165 81 86 85 183 146 124 163 65 158 134 125 165 131 149 70 176 180 86 144 177 123 90 186 73 104 68 167 83 170 63 56 63 132 87 72 37 139 155 98 77 154 126 128 76 73 62 140 58 136 135 142 158 145 96 151 181 185 111 155 190 187 179 142 56 65 135 141 164 149 167 134 125 180 189 208 197 151 152 146 71 104 169 138 79 137 191 204 93 78 55 108 83 168 175 164 170 159 86 116 135 83 170 173 127 88 88 149 82 96 108 109 189 190 66 124 89 118 72 57 66 129 51 145 160 189 204 186 95 137 75 80 135 185 171 174 185 128 137 134 148 140 98 92 105 55 99 101 150 65 138 114 126 173 160 84 129 182 156 184 96 61 102 125 141 71 45 120 131 49 62 145 80 96 114 120 167 143 96 133 146 158 107 87 161 188 130 63 151 129 149 96 184 112 101 105 167 156 136 123 196 197 101 184 167 104 79 162 64 148 87 197 112 171 184 109 74 73 91 68 76 143 68 146 117 67 93 122 68 105 130 94 111 190 145 188 203 215 165 125 171 150 70 161 139 87 181 89 194 131 127 204 203 198 93 181 157 88 84 192 123 186 158 157 164 59 165 168 145 180 76 152 121 91 96 126 88 94 83 85 82 90 148 123 171 137 97 149 102 134 178 124 176 183 94 109 141 95 96 121 131 44 125 27 90 145 131 73 170 169 122 164 144 23 18
101 104 112 124 144 154 162 144 128 116 126 129 132 154 164 171 157 156 146 167 170 179 194 177 174 172 177 182 191 183 193 186 186 186 190 187 190 191 185 167 171 167 175 174 174 197 199 198 186 192 187 205 210 189 201 178 190 168 200 175 153 154 170 144 163 120 101 88 132 138 114 163 67 75 69 146 98 83 104 173 112 112 86 53 48 57 70 100 120 58 53 72 46 75 57 69 82 91 86 64 88 125 86 96 96 123 166 104 113 68 105 84 96 90 92 86 159 71 173 104 127 152 134 99 87 149 139 60 42 144 125 135 124 138 147 145 69 85 78 172 95 90 203 191 126 176 194 192 87 72 169 136 117 142 45 103 141 140 85 115 136 121 160 159 179 130 116 118 160 112 73 155 148 87 189 185 152 223 214 123 147 187 113 165 47 123 72 95 162 188 108 154 175 158 104 146 107 88 115 161 128 180 186 190 167 145 111 116 152 109 70 164 164 193 169 158 99 83 183 116 84 76 170 154 146 121 114 163 75 97 71 141 57 100 115 146 159 63 167 106 156 95 171 140 176 88 156 56 150 141 132 180 160 177 161 192 98 86 78 174 154 62 149 93 163 129 174 207 173 121 199 193 155 146 180 178 165 65 119 142 136 127 75 156 112 186 100 118 76 92 156 175 181 109 87 78 138 89 175 112 174 81 95 194 190 115 165 107 103 152 114 69 80 77 62 56 142 168 75 48 58 101 81 99 141 90 115 61 137 137 97 189 186 76 175 113 155 146 74 54 166 70 136 51 154 96 62 180 180 97 161 54 158 56 88 162 164 159 148 98 108 181 135 43 20 23 57 55 107 177 74 182 90 191 104 190 89 136 115 185 170 188 102 159 97 114 155 119 80 123 104 187 92 84 155 85 82 73 117 145 206 162 106 64 52 105 86 73 125 187 116 193 167 80 147 86 145 85 164 163 159 114 122 154 48 78 55 153 98 108 92 173 93 199 165 200 174 181 141 168 151 200 187 112 157 186 151 139 191 179 120 187 95 90 72 153 197 172 90 126 130 56 147 149 70 77 78 148 107 163 115 72 75 88 146 132 54 123 103 92 53 85 118 125 179 120 187 150 81 100 182 156 110 154 121 121 132 118 84 51 60 90 116 56 125 187 136 122 60 47 89 70
107 108 113 122 134 151 144 137 128 119 128 135 135 160 170 172 180 161 168 161 172 177 186 183 164 156 159 173 183 184 194 189 196 192 197 193 185 181 170 175 168 186 181 189 196 205 170 174 185 155 154 209 211 193 192 175 200 156 145 112 132 186 112 124 160 89 71 115 82 91 162 153 131 123 147 139 132 116 104 130 83 128 68 60 131 71 105 106 108 53 60 46 48 46 57 92 118 117 121 88 93 123 138 108 90 134 127 117 94 89 88 85 136 93 150 59 85 111 90 185 123 128 203 127 144 115 60 57 162 53 62 73 121 61 167 109 143 171 130 181 84 144 101 134 197 203 201 137 85 121 150 163 148 61 132 32 70 152 62 119 89 167 168 73 151 171 100 153 63 150 135 62 105 88 177 189 189 181 128 115 159 136 156 100 50 34 77 117 112 181 106 154 198 173 170 148 161 75 81 170 126 175 94 99 152 61 91 76 126 68 137 152 156 137 94 195 191 94 180 110 97 147 76 88 109 49 149 68 159 120 142 73 101 90 41 94 164 112 69 102 124 161 101 77 99 129 165 65 161 185 132 182 178 180 89 119 175 152 163 101 153 138 178 160 93 114 104 208 103 133 165 225 128 109 196 135 121 64 68 126 122 125 124 67 177 156 139 131 122 100 108 110 167 94 129 134 159 193 101 78 80 139 81 95 106 115 108 193 138 84 167 65 96 121 28 51 85 74 74 63 70 89 136 157 92 81 74 129 65 150 126 151 78 113 76 118 140 59 75 92 76 101 75 59 151 58 94 75 178 174 97 255 122 115 130 53 114 149 130 158 117 118 102 73 120 49 100 69 153 117 69 177 81 151 88 147 90 196 154 104 193 154 134 64 145 41 87 105 158 169 180 190 85 117 59 163 58 75 164 98 149 156 188 109 50 142 51 165 90 184 140 88 73 47 61 99 153 170 180 255 69 173 121 127 66 97 139 159 66 85 130 164 162 73 183 113 91 140 187 152 161 202 125 115 138 148 150 89 178 180 176 92 92 69 138 106 98 139 126 148 72 35 112 118 151 146 181 67 57 62 106 145 157 135 63 69 132 140 65 143 53 148 192 127 92 107 136 162 138 127 93 98 104 92 160 157 49 35 90 64 48 48 47 63 64 124 73 97 114 125 126 117
111 113 116 122 132 133 135 125 109 114 119 133 147 147 155 170 179 189 188 183 178 184 185 178 174 167 168 166 172 170 188 190 195 192 195 189 183 168 173 182 193 205 208 214 209 198 193 160 149 156 165 191 189 207 173 142 185 186 155 129 182 169 117 176 150 100 122 136 124 68 113 89 57 95 138 134 113 68 131 76 75 113 121 75 150 95 72 73 124 106 55 93 54 47 57 61 75 115 77 103 95 92 94 112 92 131 140 126 99 93 72 71 105 80 134 146 159 122 108 144 124 124 168 110 86 113 159 129 82 157 163 149 79 75 84 136 172 141 176 139 148 190 199 184 129 195 133 184 152 84 170 160 144 131 129 39 134 154 86 91 129 194 93 165 159 84 157 116 155 50 126 146 120 156 133 147 197 205 182 195 212 202 79 56 46 58 98 58 154 172 110 108 137 124 140 100 132 176 169 81 60 57 129 128 159 68 187 183 181 145 174 87 178 119 143 92 148 119 86 169 120 79 187 167 166 155 162 123 120 146 111 89 62 155 132 153 52 65 132 67 176 155 89 163 120 158 134 133 184 188 108 164 183 115 166 134 118 103 60 92 165 112 154 163 136 97 113 161 107 121 157 143 108 147 74 68 87 145 118 99 122 133 42 156 99 255 230 123 141 118 99 208 127 200 116 143 94 91 175 125 139 82 148 133 146 119 99 194 128 80 78 149 78 59 129 67 154 168 162 55 55 76 68 73 100 77 71 67 70 107 190 82 116 55 145 75 137 100 177 102 88 180 77 77 174 92 173 178 189 79 114 91 49 121 77 139 81 136 88 106 183 101 176 77 21 35 102 75 117 173 172 162 178 96 140 166 179 168 93 184 180 127 138 165 54 33 142 148 129 177 168 180 76 154 70 97 57 158 105 173 163 199 134 162 60 141 121 169 77 143 166 95 142 85 157 136 161 111 186 124 77 135 153 158 178 157 144 152 163 175 142 148 72 46 96 62 167 180 171 94 122 97 200 183 61 148 139 125 119 146 116 157 108 172 101 78 120 159 86 161 108 53 92 149 157 161 116 127 130 151 94 87 145 160 99 140 146 106 72 65 85 116 163 162 151 179 179 149 88 180 138 163 124 100 145 59 145 68 63 156 81 99 92 52 68 86 63 85 157 161 126 61
109 115 122 132 130 132 119 113 102 101 100 119 117 129 155 171 178 197 185 178 174 179 182 169 184 178 167 164 164 165 172 175 183 186 184 176 168 165 156 173 191 203 204 200 188 195 182 164 137 149 131 185 201 199 136 147 170 164 170 144 113 195 186 189 129 124 98 137 69 148 116 78 73 79 92 94 74 127 110 147 147 65 127 130 103 94 112 84 102 123 70 65 68 97 61 106 85 82 121 78 105 110 102 121 84 97 125 121 148 115 86 66 66 116 103 153 169 168 125 160 214 189 206 191 77 71 64 97 85 66 108 164 161 96 73 66 67 146 73 97 102 83 87 194 135 163 90 187 178 74 163 52 76 97 137 139 163 80 85 196 181 107 94 118 161 128 177 154 152 59 81 85 179 185 104 123 164 156 205 137 199 199 90 110 113 56 53 115 60 157 144 114 220 155 170 104 145 76 82 138 53 142 89 112 169 94 106 130 190 155 190 177 91 81 116 140 139 142 162 69 162 160 125 171 185 102 173 81 144 156 145 133 182 98 255 143 146 79 86 111 73 110 117 176 62 136 60 72 80 110 182 85 180 83 158 113 106 133 144 50 158 84 154 128 126 94 184 177 86 180 88 163 95 120 162 160 61 155 51 43 108 127 109 128 139 222 139 209 126 95 164 118 105 110 97 97 132 97 76 63 115 81 61 153 108 86 149 141 98 159 102 135 122 19 20 105 142 82 70 94 74 161 138 69 172 172 132 66 118 153 71 98 170 55 89 143 47 136 172 106 116 132 87 122 106 156 193 154 154 195 82 182 73 149 114 29 78 47 150 113 185 100 116 155 141 86 86 136 90 83 170 76 174 92 101 115 110 178 137 162 182 185 170 116 150 94 131 72 102 133 79 113 70 56 97 55 113 154 105 100 192 152 178 102 71 140 104 152 72 151 98 88 197 194 133 180 110 98 96 175 139 156 172 92 82 113 165 77 95 152 154 139 102 64 141 129 59 154 169 68 172 90 191 76 56 29 52 89 144 142 73 82 153 178 74 103 116 93 93 113 70 107 149 159 188 99 90 157 138 119 134 66 145 155 96 121 47 60 128 105 104 99 112 98 81 162 167 166 121 88 107 157 178 158 126 58 73 162 120 120 96 150 64 89 91 80 156 139 103 82 104 107
119 124 132 136 136 121 111 112 104 92 103 100 112 119 146 156 181 201 181 187 168 168 172 190 185 187 179 166 163 158 160 165 175 179 177 171 160 163 154 166 166 195 193 198 187 160 177 148 149 161 160 125 178 167 173 165 152 134 128 122 185 121 195 192 128 91 99 87 99 134 65 103 89 162 157 61 105 113 123 80 83 148 73 116 107 171 151 104 65 63 84 142 131 55 61 66 53 87 68 84 144 90 81 91 54 79 130 111 122 96 68 64 57 78 91 102 117 113 113 170 189 120 118 112 66 63 162 75 151 81 128 159 84 174 60 154 68 162 72 59 137 65 68 89 191 192 87 101 157 100 149 103 118 66 150 59 161 88 185 148 192 140 183 96 89 189 179 178 130 135 128 78 132 179 104 188 105 184 183 199 164 109 124 154 125 78 152 131 57 119 189 208 204 163 203 197 93 97 153 118 103 89 55 61 112 90 191 116 214 137 188 130 162 83 175 164 156 155 112 160 107 129 150 185 122 99 184 171 167 155 167 184 117 187 175 134 152 64 124 151 179 122 165 160 122 141 134 165 168 75 124 69 148 179 81 99 178 165 157 69 168 187 135 95 188 152 182 108 136 199 168 148 60 117 115 159 140 59 162 126 126 152 137 195 192 111 109 93 123 69 65 95 81 103 158 90 126 79 85 94 58 71 102 77 125 86 88 191 179 113 149 131 47 20 56 29 122 61 145 71 118 67 169 73 138 70 125 69 165 83 88 67 176 157 75 55 70 255 131 99 190 162 174 75 82 173 146 204 112 118 140 179 119 91 77 31 96 52 144 163 187 167 107 132 67 71 141 175 151 86 107 102 192 167 120 140 91 94 104 120 165 98 112 81 69 138 130 69 78 77 119 91 120 53 104 58 149 151 79 177 120 195 203 89 185 160 165 137 149 121 117 83 112 110 109 194 123 185 183 158 159 87 72 58 88 60 66 104 141 153 141 138 51 30 95 123 59 117 152 64 146 164 151 178 148 131 76 28 84 141 174 80 188 175 175 190 100 164 131 109 61 150 143 162 203 125 73 152 37 41 139 143 77 123 139 139 80 93 176 105 127 195 108 181 160 54 122 102 128 125 131 93 137 58 57 92 96 141 170 218 182 102 168 100 134 56 68 125 151 91 78 71
135 141 149 147 143 133 126 125 115 108 105 108 100 112 125 149 166 171 181 173 155 178 189 182 196 184 181 175 160 156 158 165 176 180 173 171 165 159 155 162 167 180 161 184 179 188 156 165 173 163 143 111 164 130 158 140 161 133 160 171 169 190 143 166 162 155 177 155 142 165 165 83 109 116 86 144 114 62 108 110 84 114 63 69 140 92 98 140 137 74 99 89 85 64 94 51 63 64 106 121 81 75 72 90 96 107 144 131 173 113 134 56 125 72 65 97 99 104 162 181 182 170 78 156 160 137 75 101 87 101 162 186 93 86 71 155 162 58 57 128 153 55 70 157 185 136 88 163 60 98 129 33 135 86 155 173 167 163 165 93 124 184 189 146 197 195 166 170 150 135 67 134 157 149 93 144 159 168 112 141 163 135 103 74 111 142 154 75 100 73 183 151 219 214 101 115 80 136 45 132 124 77 167 173 113 158 211 137 121 134 197 80 163 166 135 116 75 156 144 149 132 207 186 125 191 194 87 176 153 156 156 125 184 109 194 185 70 50 153 117 172 86 165 144 155 180 175 117 64 144 156 129 119 59 150 168 120 70 171 145 189 193 209 201 165 88 123 199 161 135 197 78 83 45 95 99 110 142 91 96 142 208 136 115 183 167 189 133 143 130 58 134 73 104 81 128 151 167 84 107 70 93 88 168 102 137 187 196 84 134 172 78 113 75 31 44 72 114 80 166 80 98 154 102 107 69 101 144 74 167 142 111 81 96 141 72 152 72 113 87 105 155 65 93 171 97 142 126 179 103 207 111 199 80 93 120 155 85 78 134 171 185 114 79 95 182 174 199 97 165 89 88 194 167 97 121 162 85 166 175 103 154 75 138 141 45 94 121 74 158 77 131 161 90 53 146 138 150 147 114 201 164 123 157 103 69 101 113 113 165 122 107 158 115 188 163 127 255 95 160 140 155 63 125 98 129 170 153 96 177 63 147 134 145 53 141 81 103 128 46 117 167 198 175 125 97 128 68 55 66 83 191 101 94 105 147 127 151 164 167 90 142 102 106 101 165 162 123 29 114 106 58 41 40 33 91 31 55 122 175 192 197 106 177 87 53 141 131 117 116 212 183 117 57 128 93 108 162 161 145 115 173 54 93 72 77 89 178 194 94 61 109
149 152 152 151 144 144 143 138 144 143 129 115 121 132 138 152 163 173 166 166 154 173 199 189 194 175 173 177 168 167 157 167 180 176 174 172 174 178 174 167 161 164 168 168 171 184 189 160 185 171 161 145 159 158 148 120 172 175 145 191 122 170 171 122 146 179 115 166 172 120 126 111 150 123 116 96 69 95 153 156 93 135 93 65 130 131 155 85 87 85 86 88 93 72 57 98 77 104 97 90 126 66 56 43 58 76 136 121 185 109 90 83 80 45 113 66 87 167 139 162 154 82 163 75 163 158 128 125 102 98 112 102 120 184 175 114 56 63 57 74 111 144 50 132 74 178 173 163 75 108 117 89 121 138 112 165 196 130 121 122 166 174 136 111 191 124 200 201 87 109 142 83 145 169 69 149 99 156 168 64 110 45 80 132 70 41 78 63 127 94 88 177 208 106 201 181 59 155 143 100 153 157 94 83 147 161 207 119 168 206 174 72 146 101 169 72 168 96 151 95 186 208 131 155 83 82 189 173 105 169 157 157 204 215 186 103 182 156 137 90 164 145 175 86 88 85 183 120 175 90 161 158 111 60 85 93 110 183 110 141 228 229 174 198 127 145 117 111 181 168 135 159 54 113 39 53 162 85 125 111 197 205 142 191 150 126 176 166 83 92 149 130 74 157 74 111 97 159 68 71 155 119 74 129 90 165 155 188 80 188 86 99 71 85 141 81 65 48 76 160 105 158 104 76 66 110 108 117 96 160 118 158 98 122 128 95 74 182 132 187 90 148 59 51 118 171 178 79 162 173 210 217 219 197 167 172 126 175 109 189 191 185 180 184 91 143 97 166 150 122 174 106 163 94 93 85 120 92 165 174 173 159 64 86 151 115 157 70 90 168 184 76 69 163 147 153 153 162 162 97 143 203 90 94 67 64 136 79 118 132 168 137 186 175 182 153 160 121 146 162 98 255 123 127 146 165 110 185 166 120 165 143 121 139 179 99 113 52 82 66 137 95 202 198 106 129 138 149 91 185 180 138 197 170 94 194 157 89 115 149 167 166 94 66 172 71 155 139 81 67 102 118 132 48 141 127 42 70 75 140 137 135 200 81 162 69 54 107 197 123 206 235 106 88 133 116 160 115 94 92 73 48 150 63 164 91 82 115 171 90 61 61
146 146 145 145 146 149 156 162 171 167 162 146 131 139 138 133 152 156 152 162 173 187 197 202 184 168 175 174 178 177 175 179 180 174 170 176 184 192 196 188 175 161 164 178 174 203 188 180 151 135 164 121 122 169 135 180 182 198 194 122 182 130 153 139 102 160 156 160 130 167 96 119 104 146 122 144 143 68 106 84 155 150 123 88 105 77 101 89 94 94 99 104 97 96 68 69 113 97 125 91 97 80 77 69 94 123 123 147 154 110 101 78 65 33 54 88 128 71 68 92 162 86 131 53 58 81 159 205 152 211 192 156 147 125 149 151 59 52 54 59 59 127 129 147 153 106 114 156 115 144 28 43 40 146 171 172 193 167 100 143 160 137 141 216 220 140 155 184 134 142 95 139 40 86 90 120 170 103 152 150 148 39 74 93 133 90 93 82 152 71 189 105 150 115 119 147 70 169 124 255 59 77 168 183 86 173 176 165 183 83 166 125 63 56 84 137 71 164 72 184 176 158 175 114 176 178 105 185 102 87 95 188 164 180 226 182 191 78 128 118 167 173 151 163 141 187 91 85 80 74 105 155 111 114 149 73 78 137 144 223 229 211 225 200 83 141 166 162 157 96 77 96 64 128 106 63 136 166 204 116 207 147 187 141 62 156 94 61 62 63 80 78 118 175 110 135 61 160 62 78 93 189 162 92 138 190 92 91 85 163 89 129 93 186 165 114 81 85 74 110 89 119 118 144 71 70 97 96 100 155 185 206 157 195 180 69 171 73 140 113 126 64 156 124 107 159 171 80 89 185 160 180 126 214 149 178 127 109 187 103 170 153 181 171 95 131 155 112 191 112 186 118 186 173 123 178 167 62 152 163 163 96 150 156 112 65 176 129 132 95 123 85 160 150 51 127 111 122 80 179 110 186 182 114 109 68 78 133 195 183 205 183 125 155 83 61 150 65 150 154 111 131 157 183 153 174 120 175 168 207 172 180 107 87 161 116 103 164 63 115 65 184 93 101 95 152 76 86 140 128 131 146 206 200 106 173 177 154 141 99 159 147 163 145 123 141 52 41 45 109 95 107 131 109 135 153 49 78 74 88 85 191 185 153 74 84 52 103 115 208 243 170 139 109 178 96 102 138 89 168 90 50 42 52 149 145 101 130 128 89 77 113
134 130 131 135 142 150 163 170 176 185 178 164 161 144 154 146 154 150 164 157 177 177 200 176 181 157 178 181 180 178 177 177 175 164 165 178 197 201 219 213 196 183 172 183 180 194 188 192 189 150 146 161 150 120 158 122 164 139 179 153 141 137 90 109 116 180 138 140 148 110 83 168 112 142 90 152 113 99 89 162 80 98 52 53 104 86 145 148 111 127 106 95 133 83 72 83 85 91 91 95 93 73 77 82 85 127 118 127 150 144 109 59 71 28 36 83 53 57 76 121 163 144 128 58 149 85 190 187 147 206 188 98 100 81 149 108 166 148 144 83 74 99 59 120 80 183 181 81 145 52 116 35 143 138 135 167 79 73 126 176 160 199 142 206 154 208 169 165 181 174 140 96 103 120 61 141 64 163 116 155 151 136 137 107 33 146 48 138 90 105 179 103 116 95 135 82 87 178 119 96 63 60 105 137 107 101 174 165 81 179 148 103 117 117 149 129 112 64 69 194 113 134 203 178 142 82 119 213 219 208 184 100 170 218 226 109 161 65 123 55 151 160 75 153 87 138 196 195 177 68 68 102 162 255 94 146 147 176 132 120 190 211 130 200 130 153 145 151 85 62 72 60 78 74 66 158 154 186 180 114 110 183 80 89 105 96 80 81 60 75 133 128 95 90 81 183 117 136 73 177 179 119 201 109 210 165 112 78 71 148 116 97 158 121 156 165 82 119 93 116 169 86 71 146 103 146 95 91 96 134 139 207 171 108 142 81 166 81 122 142 87 168 98 145 62 116 177 150 91 180 181 142 229 113 192 130 149 180 200 189 201 87 85 152 121 158 179 172 135 101 111 179 182 78 146 76 89 127 78 155 164 155 113 125 156 185 196 95 193 91 122 155 86 159 144 104 58 122 146 63 75 181 76 102 70 63 110 147 191 108 103 125 86 63 52 97 126 124 142 171 183 181 175 187 79 103 63 92 196 103 199 172 85 182 95 192 116 187 124 111 79 145 185 169 177 89 170 178 185 196 169 219 214 209 161 209 129 137 105 205 97 173 159 56 48 40 135 126 149 118 91 108 90 64 93 79 177 72 147 146 104 137 95 86 129 105 114 130 63 151 132 188 178 147 149 96 204 159 88 50 24 113 32 55 80 126 120 138 166 197 84 139
131 125 121 131 144 156 165 172 188 189 192 178 172 165 152 141 151 140 165 166 172 175 184 182 164 172 183 183 181 165 166 169 165 161 165 184 206 222 230 225 216 201 173 191 190 192 197 189 176 255 127 137 137 151 159 148 171 199 153 175 165 99 160 113 181 112 182 114 139 62 162 171 98 114 82 117 113 145 96 160 152 74 52 50 53 55 82 85 110 125 109 98 94 140 79 82 67 93 82 91 107 105 96 97 97 134 177 182 139 111 104 81 127 45 58 55 60 82 79 122 150 59 41 116 112 122 74 149 184 179 150 188 117 176 72 144 170 67 168 155 109 174 179 93 104 108 115 184 139 79 125 103 98 113 106 171 131 169 134 140 147 182 145 205 165 225 211 204 107 165 129 107 35 100 117 142 73 146 56 107 79 116 140 116 107 71 126 55 159 138 144 83 90 182 86 105 95 85 171 141 59 69 111 118 128 103 97 178 145 113 152 122 86 86 29 147 101 171 151 118 162 151 214 150 95 195 198 116 190 144 197 170 208 223 177 104 183 131 144 146 133 50 82 162 171 202 122 127 141 164 92 164 160 67 57 157 157 182 141 167 117 166 160 182 171 135 139 136 58 143 125 128 80 89 153 182 142 156 105 121 205 93 150 64 70 102 52 98 82 153 124 106 85 166 84 143 155 84 182 192 106 217 199 192 218 194 87 167 109 74 70 87 90 180 170 112 60 78 70 129 125 138 160 75 52 147 73 80 116 89 98 189 99 96 89 109 136 149 167 96 179 84 91 89 148 88 95 98 201 188 189 173 123 161 185 163 193 111 125 147 127 74 86 103 39 72 80 136 91 106 182 109 195 174 160 112 157 53 130 76 161 161 163 152 170 156 98 162 87 91 104 132 182 88 70 168 152 111 61 81 153 142 83 148 154 71 157 114 210 181 210 186 78 91 127 45 54 82 175 94 187 187 176 190 180 81 157 100 172 180 170 178 119 182 171 204 135 177 164 142 54 53 172 165 85 89 186 87 94 122 182 219 196 210 106 207 175 90 162 191 193 144 67 145 37 35 57 115 156 125 145 65 144 150 72 153 134 143 86 169 188 126 174 191 83 91 148 149 139 85 153 123 218 196 201 197 137 120 78 143 128 27 126 45 156 74 110 97 193 129 103 106
144 135 128 133 140 152 155 163 188 189 200 190 172 165 146 148 134 144 141 144 157 156 171 154 152 158 175 167 169 150 154 153 155 155 171 184 205 213 232 228 220 212 201 193 167 186 195 189 163 163 158 100 119 145 142 120 144 191 170 174 167 90 123 133 171 131 179 77 155 147 136 172 95 115 170 94 170 173 137 142 162 73 63 77 46 42 44 63 94 146 109 137 97 89 95 81 98 74 79 133 134 106 107 113 99 130 113 125 121 144 121 70 63 93 115 69 66 69 156 115 173 88 52 37 46 86 144 126 67 72 67 88 67 173 75 91 93 85 72 153 135 190 93 208 175 113 193 134 83 155 151 113 149 151 132 160 159 127 80 156 164 127 129 106 194 162 184 147 138 109 104 99 60 137 47 142 76 147 127 110 84 83 109 157 132 111 135 58 115 156 176 140 126 137 90 184 117 132 77 57 68 100 153 157 166 79 108 146 73 148 148 77 129 119 51 107 48 110 127 125 158 210 107 187 170 128 193 194 93 142 128 178 191 104 158 191 79 169 154 147 141 141 146 68 127 99 183 200 91 177 156 116 100 149 156 79 161 121 145 96 98 107 143 181 118 96 70 38 113 89 142 164 106 149 92 183 173 97 96 135 136 104 168 138 86 110 105 128 148 136 68 73 94 146 116 152 84 170 174 108 127 127 119 147 116 123 184 174 164 55 131 71 74 70 80 130 55 73 112 85 162 135 100 112 61 50 157 124 75 73 138 83 179 81 70 127 65 145 188 177 197 136 177 105 109 156 208 132 181 193 198 201 104 151 185 86 149 116 85 191 150 159 69 100 44 54 63 175 155 164 142 202 94 193 95 159 69 166 98 151 99 170 133 137 196 93 167 188 108 149 186 122 117 95 156 160 86 58 130 59 52 163 128 64 95 80 178 143 103 109 156 130 92 139 114 153 91 79 165 158 178 181 173 105 139 149 65 59 151 112 84 90 90 169 255 195 110 151 183 117 124 61 97 177 184 147 162 174 153 219 167 214 213 105 211 113 83 77 70 150 138 81 168 80 116 138 138 110 74 124 163 75 140 101 159 95 160 85 181 93 193 188 198 169 192 77 93 141 87 134 178 96 93 112 192 122 196 84 97 145 40 56 145 43 76 145 96 81 184 114 170 138
157 146 135 136 147 154 158 167 180 193 204 198 179 165 149 133 139 136 121 112 126 140 140 149 139 149 157 157 151 134 135 137 150 154 173 186 202 219 216 224 212 218 201 187 193 195 205 181 183 182 132 153 141 115 98 105 178 175 169 155 100 144 160 95 163 107 169 88 92 129 94 108 166 176 80 140 137 154 173 111 121 124 151 68 116 71 38 58 100 107 117 111 145 76 82 77 77 80 99 99 137 150 122 111 108 98 136 130 123 131 103 140 82 120 114 157 164 112 160 169 115 124 54 87 129 111 67 158 59 70 82 72 76 143 129 179 77 185 85 170 136 197 206 201 117 172 206 183 170 196 169 155 82 165 87 173 78 126 130 128 172 173 186 131 153 157 164 109 104 141 104 73 126 142 53 100 136 162 124 160 167 86 189 182 115 98 77 92 117 82 145 93 191 176 98 139 113 90 80 111 72 104 43 67 155 97 97 54 120 153 40 112 27 22 62 98 65 127 154 200 99 89 184 175 108 188 181 115 179 118 61 52 140 126 193 116 157 76 117 57 56 135 51 175 198 105 203 108 196 204 208 208 183 87 80 158 160 128 183 83 129 97 176 178 106 105 52 94 83 91 163 82 180 189 142 164 189 153 150 152 207 156 179 196 80 126 106 87 125 63 160 63 85 88 134 77 94 149 100 123 101 107 209 180 133 141 76 63 133 52 119 82 123 152 75 118 73 68 105 130 136 87 58 36 74 44 155 66 158 58 67 154 82 180 80 119 168 177 137 99 204 193 163 178 171 190 104 210 167 115 193 187 178 72 72 131 167 72 175 100 177 91 146 54 128 75 141 100 80 73 127 163 126 109 92 191 85 105 163 91 73 126 106 199 161 141 81 154 179 131 107 104 165 81 75 156 74 57 50 82 154 96 135 86 87 117 164 189 93 179 205 171 168 83 107 149 134 138 101 166 158 150 90 136 173 63 90 162 152 117 154 123 139 109 100 193 201 183 180 151 122 122 79 179 157 155 158 91 143 193 139 167 188 131 111 102 126 71 68 168 72 148 119 164 59 49 40 76 172 157 112 158 176 148 74 158 161 99 108 109 122 146 207 183 178 151 168 69 122 86 64 64 98 164 180 168 88 180 93 120 154 51 146 75 138 158 167 82 80 139 149 231
158 146 136 132 142 151 154 165 179 187 187 191 173 163 145 139 124 124 122 106 116 129 128 126 125 128 137 128 142 140 143 149 159 164 177 188 197 211 213 212 211 211 196 193 186 180 208 204 223 162 181 149 124 147 96 168 144 114 113 126 89 114 164 122 130 97 143 93 134 126 193 170 96 143 74 114 142 163 126 164 122 176 119 85 84 108 53 106 82 140 178 164 93 114 125 85 72 133 94 142 126 109 127 113 117 104 160 160 120 163 91 102 160 135 100 94 128 107 133 96 157 98 77 145 59 82 124 89 90 173 127 183 178 201 90 85 166 81 85 119 198 124 205 206 207 199 188 188 171 111 191 128 140 119 146 179 170 104 201 174 224 172 147 96 105 81 183 187 182 111 169 155 133 86 49 118 65 101 168 183 122 150 146 160 181 182 161 154 70 176 201 213 176 174 112 111 164 150 81 161 96 52 141 81 122 162 49 100 105 76 148 95 72 43 135 100 77 186 174 188 184 141 146 91 104 106 93 79 110 87 114 62 48 79 86 141 100 191 155 99 157 155 60 144 255 91 165 187 96 200 160 177 106 127 129 99 141 88 173 127 71 112 156 85 177 122 87 147 94 127 127 122 132 97 93 156 163 86 162 102 107 213 121 129 125 74 70 146 88 56 120 162 72 84 154 103 170 188 89 137 103 167 88 194 88 88 122 52 131 58 43 48 128 97 134 40 29 123 64 106 114 164 103 45 56 80 99 79 91 87 155 176 164 93 75 173 170 171 142 94 130 91 104 160 119 185 157 216 206 101 186 71 80 145 65 112 145 126 163 171 80 125 98 153 106 154 102 74 140 152 89 203 173 165 91 176 142 157 181 118 79 184 109 133 157 147 160 137 117 109 178 194 164 146 93 143 172 125 148 60 64 141 167 198 117 114 148 189 94 109 173 178 162 90 93 173 81 76 140 149 70 161 182 73 63 163 107 169 168 74 158 167 116 146 176 114 189 181 169 166 81 181 160 85 127 159 167 178 154 147 87 178 160 92 107 104 113 112 159 168 62 81 94 137 149 70 158 157 171 180 116 178 169 163 57 104 160 121 102 160 203 132 142 129 131 203 136 89 152 51 74 151 140 49 169 143 185 110 91 81 67 145 106 144 78 160 64 61 174 185 129 175
138 127 121 119 128 141 161 164 176 175 179 186 180 147 138 127 136 139 116 111 127 132 139 138 123 114 117 132 153 154 162 171 176 179 181 184 191 203 197 184 190 190 192 198 208 210 217 213 185 160 179 162 108 155 102 137 141 179 159 130 138 159 98 96 141 147 146 182 144 122 133 137 97 132 158 163 105 179 191 131 102 113 112 138 101 127 68 111 155 99 110 108 118 165 150 106 94 95 149 126 128 116 95 104 121 93 103 105 115 99 98 99 101 102 102 105 133 110 164 160 82 125 91 76 69 141 54 150 102 132 80 129 144 127 205 174 82 177 180 90 87 99 94 165 192 87 85 133 157 124 177 155 170 63 165 76 88 201 207 126 146 190 188 95 157 96 127 168 158 104 189 84 151 139 103 114 144 183 104 124 196 114 143 133 111 151 106 138 177 82 191 112 189 223 216 233 213 110 172 74 85 53 87 65 71 61 59 120 110 61 139 37 60 124 53 60 136 109 167 97 81 129 142 153 68 142 138 175 74 130 66 51 64 81 119 130 193 165 187 184 162 134 77 103 94 112 97 81 121 110 149 200 104 200 148 171 146 164 182 176 171 164 78 95 172 111 89 188 88 92 116 177 119 173 185 103 164 138 121 119 113 204 149 198 172 149 140 114 162 60 140 79 105 129 107 142 80 79 95 74 69 106 66 73 84 70 85 30 51 40 137 164 135 97 152 69 24 44 147 128 160 122 180 48 63 49 148 62 172 102 184 91 178 115 98 108 76 170 138 149 193 76 61 41 158 160 100 109 204 190 184 153 151 71 255 116 78 61 168 125 91 88 157 108 179 107 127 97 146 160 141 106 122 150 85 130 180 199 199 195 159 90 192 91 137 161 101 93 118 202 132 155 121 110 88 123 68 92 51 156 119 79 149 146 224 187 119 87 82 87 136 92 125 178 151 82 82 132 107 81 86 74 102 173 131 169 161 176 117 162 169 158 94 185 204 97 179 166 85 140 123 187 117 158 68 146 120 172 80 142 125 77 74 137 99 93 100 116 167 161 134 63 153 58 107 163 65 151 193 152 123 149 75 59 97 53 124 152 150 158 128 97 105 201 188 153 191 83 93 65 151 96 58 63 161 87 140 92 106 152 124 142 154 84 114 166 124 76 168 183 115 188
116 113 115 116 128 133 149 161 170 171 164 175 166 140 132 143 131 137 142 129 128 132 147 127 117 114 111 139 164 179 183 190 189 188 178 185 187 189 181 173 166 168 194 202 208 190 177 194 199 178 178 162 114 138 170 172 158 186 144 96 97 87 141 106 98 156 106 124 132 142 203 92 70 52 69 80 154 182 91 86 126 97 96 163 100 117 152 156 96 99 102 97 141 114 148 125 108 138 134 143 128 134 85 90 80 89 103 113 90 106 96 101 103 101 166 94 122 149 144 176 102 138 87 125 97 82 113 71 102 115 146 198 196 113 208 89 169 57 160 98 79 91 84 178 139 171 177 175 66 80 165 146 60 159 162 172 186 164 224 152 222 124 182 176 69 82 136 140 89 143 134 126 162 154 162 75 173 124 123 185 195 190 212 210 192 179 115 81 77 168 136 93 191 178 167 203 135 191 173 179 132 63 50 156 62 139 174 59 137 37 95 53 119 160 90 177 82 91 142 156 169 152 121 124 60 116 95 76 160 166 71 114 148 86 177 195 184 187 177 104 96 166 120 208 174 98 174 69 86 88 167 182 93 196 106 162 106 148 176 154 65 65 70 159 127 153 183 98 169 189 147 175 167 84 148 184 142 135 158 213 221 227 190 139 169 89 84 183 152 149 62 66 82 88 82 85 164 133 139 113 154 62 255 129 153 46 37 113 52 52 85 73 81 90 88 151 117 150 139 151 144 201 168 120 33 37 91 68 87 118 217 200 136 188 125 81 86 88 88 114 165 127 67 115 70 178 207 137 149 158 181 185 81 64 153 90 122 132 138 127 123 156 140 97 120 125 145 91 114 194 199 102 185 86 102 85 124 139 143 192 159 199 157 192 84 97 56 104 184 156 177 110 168 176 116 162 169 163 171 136 113 85 162 209 221 221 127 193 166 179 164 179 192 89 184 98 129 142 108 120 102 76 181 87 93 98 137 100 119 142 165 135 88 97 124 189 117 101 75 120 201 135 168 137 129 91 50 127 75 149 99 95 129 113 87 111 169 104 141 104 157 54 121 79 149 171 175 191 134 86 174 175 124 90 59 138 161 163 96 128 126 191 137 95 102 146 169 141 99 168 73 52 150 155 141 71 169 93 118 200 179 82 176 87 155 153 108 182 107 105 126 222
100 106 117 124 131 133 147 151 164 162 160 150 143 137 143 135 141 141 139 148 152 164 167 141 132 119 132 139 160 183 187 191 189 185 175 166 167 172 173 155 155 156 184 194 202 181 189 185 176 185 183 166 151 132 115 191 169 186 152 96 92 126 97 151 171 172 151 129 144 159 133 132 120 58 129 95 146 89 155 99 138 151 84 97 105 126 132 130 102 111 83 91 137 103 110 171 171 116 136 136 100 142 120 87 108 102 137 80 81 84 109 97 80 77 74 75 102 76 80 90 172 108 103 104 74 125 54 149 95 110 198 97 208 112 129 88 170 148 147 67 89 189 189 186 88 147 170 169 69 128 81 146 124 127 172 177 169 212 125 125 139 156 182 140 137 85 64 164 137 175 102 116 99 144 70 136 106 170 170 148 101 191 144 171 154 101 148 139 167 55 160 66 193 113 194 234 218 206 169 189 161 141 137 128 156 77 126 89 106 88 70 102 58 158 124 174 95 128 137 84 162 165 154 123 161 130 98 178 128 99 178 162 161 124 90 117 188 115 116 134 112 108 164 218 134 179 119 122 149 150 161 170 98 157 168 174 126 108 120 125 161 86 139 164 109 149 130 188 156 183 138 88 151 150 179 108 89 188 121 209 177 158 178 184 118 100 158 208 176 163 71 156 99 172 81 173 143 67 97 81 64 78 116 133 147 149 66 141 101 173 187 140 104 95 112 123 112 144 185 175 132 104 167 151 100 52 105 69 103 159 148 155 130 104 186 115 99 86 130 101 147 70 135 42 153 79 197 96 102 83 78 141 169 157 107 172 115 195 99 123 88 84 138 201 122 177 88 193 148 190 165 88 122 115 176 102 163 139 105 192 175 159 207 112 166 105 154 73 160 177 76 70 63 137 116 143 179 143 185 201 94 197 96 103 193 157 183 193 82 151 92 171 187 202 89 98 96 174 159 171 190 185 148 106 139 154 187 176 98 146 136 152 112 196 94 108 154 72 122 100 196 123 214 182 166 62 155 144 81 165 66 142 159 68 113 195 93 96 77 166 136 166 131 158 170 93 82 104 86 146 129 89 61 109 49 142 57 141 176 183 150 196 189 199 199 135 145 165 122 168 127 63 146 120 174 175 165 101 118 179 189 190 117 130 95 100 184 148 197 203 206 199
100 112 131 139 143 134 143 145 155 152 158 143 140 127 127 139 145 137 148 164 178 184 170 160 151 143 131 155 161 173 176 185 182 170 160 148 150 162 171 171 158 164 174 194 194 164 169 146 149 186 161 176 159 159 170 190 196 200 179 144 94 116 135 184 125 112 168 191 155 194 112 87 88 126 86 164 155 91 168 141 88 110 86 95 110 150 180 184 142 133 123 75 109 127 124 117 139 109 138 116 123 151 92 87 75 109 73 66 118 94 124 86 131 67 95 71 78 79 93 92 165 190 104 166 165 73 153 80 147 102 129 110 197 181 162 198 80 76 149 152 159 163 90 195 132 88 178 67 165 136 142 53 58 132 138 182 106 170 141 183 124 171 136 184 181 166 124 113 122 102 142 91 85 163 90 76 158 118 64 178 168 108 135 63 126 161 164 158 112 162 118 134 98 111 108 210 208 196 155 80 102 58 55 55 105 162 74 59 153 73 93 86 119 123 114 134 185 181 73 78 109 82 166 84 151 71 171 177 112 97 172 180 175 151 92 190 91 73 103 132 189 132 209 201 99 162 168 56 154 70 65 169 187 178 180 182 174 90 189 187 170 112 150 72 175 129 206 196 103 175 195 191 86 86 165 141 175 189 88 96 190 125 185 115 170 192 122 198 182 142 85 118 77 105 79 73 102 150 67 161 56 61 160 74 106 93 156 60 73 147 188 139 195 113 103 63 89 118 182 132 130 87 66 106 44 20 39 94 80 119 199 197 221 145 134 176 131 123 78 141 109 33 122 53 152 98 148 189 131 145 121 182 141 158 142 132 137 126 183 101 154 137 170 105 148 148 197 115 132 91 159 112 127 176 172 121 116 104 208 191 105 111 183 87 164 74 91 179 155 177 176 94 124 71 83 117 102 136 173 168 118 204 169 157 167 101 146 125 173 112 129 150 122 89 138 101 143 172 203 178 193 125 106 98 168 144 182 185 130 116 159 111 82 166 101 123 176 112 100 119 215 155 190 181 164 152 141 55 65 75 167 162 163 169 164 184 78 123 171 173 172 162 109 134 134 100 83 115 156 148 113 124 54 130 107 80 66 96 146 178 207 181 118 111 120 85 110 193 93 186 112 67 97 94 89 162 55 153 63 135 92 92 191 140 95 103 105 168 181 134 106 92
103 118 139 147 144 134 139 146 157 165 155 142 129 131 142 132 144 153 157 167 192 201 186 176 173 167 165 166 157 167 169 177 174 157 140 138 144 165 174 184 176 168 173 185 175 186 177 152 179 181 175 156 155 136 161 194 158 199 182 97 132 172 128 129 121 194 115 169 101 173 137 87 90 148 74 91 160 125 134 88 90 167 95 110 118 126 123 109 109 92 113 75 139 144 136 141 143 135 146 112 114 107 102 79 71 104 80 62 99 105 100 155 119 156 72 140 120 98 109 168 112 142 111 77 82 128 161 167 74 168 95 210 212 221 134 178 172 108 106 145 181 87 161 177 163 174 187 92 170 165 136 169 107 164 78 140 77 121 148 213 158 136 157 178 175 155 148 182 180 170 69 150 135 90 126 125 49 80 140 152 181 89 60 155 144 106 145 127 67 115 173 166 158 140 165 87 83 104 156 99 88 140 118 42 157 160 114 53 119 130 144 63 150 171 91 185 187 84 175 75 158 82 85 184 186 155 123 70 174 185 126 89 84 179 183 145 113 185 153 126 178 211 121 168 183 149 137 147 94 155 180 180 184 189 162 84 105 103 130 121 179 144 149 91 101 141 126 168 191 199 157 122 100 185 182 106 162 85 176 195 128 193 154 215 172 195 193 171 148 108 148 155 74 92 78 177 149 123 55 134 255 145 87 99 130 84 104 66 98 97 157 141 116 77 63 102 155 143 95 191 142 93 133 152 81 39 96 47 108 136 182 140 196 157 155 175 111 115 66 52 31 125 137 61 180 174 159 152 99 76 120 99 162 102 93 159 97 198 129 129 177 143 129 142 110 185 134 112 104 102 178 188 115 190 151 122 149 166 112 109 126 201 169 78 91 138 76 106 89 191 143 67 126 167 190 195 111 210 220 184 140 185 103 135 119 70 175 67 93 91 158 67 83 148 171 77 116 173 139 131 160 92 181 98 86 146 127 193 116 155 86 165 82 190 94 90 173 115 125 206 114 189 97 78 144 137 131 74 51 64 77 75 74 177 77 80 165 171 169 143 181 128 139 180 77 87 89 175 168 121 126 61 138 55 85 49 75 105 148 108 176 135 187 170 174 121 116 108 186 185 170 90 176 184 185 156 95 57 70 87 172 102 148 77 176 166 106 119 176 104 145 173
110 125 142 148 144 137 142 154 161 164 155 145 156 153 139 152 161 147 167 178 196 204 198 183 180 188 172 165 166 153 169 170 170 157 147 144 154 176 191 186 172 169 171 170 167 164 157 167 164 180 163 190 176 132 130 195 208 177 178 144 117 142 160 155 205 175 101 152 170 115 111 161 98 99 163 151 114 103 91 148 168 136 137 115 148 183 196 110 98 81 74 127 118 102 92 111 136 184 143 137 136 142 120 96 83 65 55 83 72 100 165 128 106 80 166 80 86 94 106 181 103 88 84 74 59 159 58 157 140 77 121 206 179 191 139 116 176 184 175 174 176 187 190 181 197 196 187 74 165 88 113 184 84 103 177 94 165 132 122 194 144 203 186 191 189 181 167 160 119 114 77 57 52 82 104 79 84 164 149 195 87 123 96 167 110 74 145 123 170 89 180 91 179 171 122 165 156 163 167 64 135 124 41 102 52 164 170 114 161 71 61 114 60 108 131 113 168 162 174 163 160 183 84 94 181 121 83 67 100 170 203 154 159 86 191 127 188 129 182 96 114 177 113 135 113 170 90 167 166 165 186 180 138 168 115 68 133 43 64 162 109 87 150 159 68 142 137 209 185 154 139 145 115 159 200 90 96 146 168 96 117 172 148 208 95 134 153 213 215 97 86 126 80 129 108 161 112 64 78 106 67 71 74 80 79 84 64 116 84 98 164 107 127 137 88 90 103 111 169 177 182 187 98 141 157 51 66 41 50 164 93 127 130 194 88 178 74 77 132 156 137 33 48 66 124 129 90 114 46 46 64 71 100 67 78 72 124 140 113 173 197 117 159 114 192 178 184 101 117 167 177 120 109 160 124 102 110 188 94 85 172 174 172 97 65 143 141 153 175 159 169 170 176 180 148 96 151 147 165 126 105 176 103 141 57 158 94 157 151 115 143 142 96 151 176 92 89 130 92 93 162 56 117 147 182 91 164 165 160 69 129 147 115 167 178 144 79 185 128 93 173 143 61 144 43 119 101 41 109 167 170 99 78 80 122 67 71 141 104 188 167 114 85 93 60 155 138 153 120 129 51 103 87 100 109 54 71 111 83 137 204 128 114 198 168 118 141 168 104 105 161 113 205 203 178 75 139 84 26 105 119 72 84 55 69 91 88 189 125 83 105 176
122 135 150 151 141 136 136 161 167 165 154 162 160 155 145 137 137 160 151 168 184 182 201 185 199 194 196 180 162 166 158 171 169 163 152 160 173 191 198 199 190 189 177 195 195 189 147 171 175 170 165 195 184 187 156 188 190 208 155 157 121 170 128 159 166 102 115 106 165 105 192 111 100 148 84 170 108 109 86 96 136 118 99 159 102 115 134 88 74 67 76 139 82 144 87 143 120 124 183 137 131 131 136 101 130 104 58 63 68 86 107 88 104 109 83 131 91 116 114 95 89 76 126 72 161 159 134 65 126 96 182 82 132 169 113 120 110 101 197 92 185 151 120 90 124 204 92 98 136 174 188 191 140 184 95 64 166 151 178 92 104 167 181 111 111 108 112 191 172 171 167 149 158 140 111 153 141 78 164 134 97 192 194 189 131 147 151 167 57 165 76 159 166 95 87 115 160 160 85 57 129 161 81 59 62 102 65 74 124 160 87 117 148 150 80 76 77 136 57 64 77 167 120 139 165 166 66 70 183 182 193 202 203 98 98 119 111 133 98 201 95 200 115 193 93 172 81 135 75 175 169 148 137 186 174 77 69 102 52 169 174 147 90 126 115 144 105 200 153 152 208 147 179 166 94 184 86 172 94 139 208 151 204 95 107 167 146 151 209 132 154 150 75 111 79 62 54 45 60 82 100 100 83 68 65 98 162 138 176 111 128 111 89 194 187 126 192 148 84 132 85 85 178 124 170 116 163 167 92 160 143 151 149 209 146 192 190 85 74 143 116 44 164 152 202 189 90 169 95 154 100 170 118 151 158 67 75 119 173 170 192 186 99 189 85 124 121 209 167 122 116 85 93 178 190 188 190 188 95 127 110 149 120 61 84 139 112 78 115 170 170 169 98 120 122 108 153 155 115 141 171 104 59 135 129 127 81 154 143 143 112 81 157 138 82 124 108 105 81 152 79 130 51 160 125 139 153 136 51 49 57 126 91 173 81 175 75 162 183 147 137 64 136 138 117 139 98 122 111 135 79 186 103 156 169 110 105 71 187 116 114 103 64 79 66 114 174 153 155 128 130 79 62 136 93 138 113 163 105 109 193 111 107 132 174 167 134 105 102 148 112 201 101 140 199 82 64 43 50 128 46 153 116 141 47 104 59 152 137 173 118 92
144 153 160 157 144 142 143 155 167 152 155 164 172 166 151 140 140 151 151 157 174 172 179 194 181 193 187 179 167 162 163 167 164 167 166 173 187 201 199 200 186 202 203 215 214 196 196 170 178 142 155 183 161 159 215 194 157 216 156 183 163 173 100 143 129 164 93 100 159 184 102 105 102 150 117 91 77 81 135 151 91 133 148 126 95 163 85 153 100 90 255 75 73 111 79 129 122 134 136 137 132 122 115 140 123 77 76 63 64 67 68 71 73 70 83 98 179 155 108 103 135 66 66 114 159 54 152 64 93 106 75 169 123 176 180 147 212 161 123 212 204 145 115 198 191 125 203 157 192 178 167 95 165 188 136 166 73 145 92 189 109 139 151 172 189 120 122 118 149 89 93 106 148 161 85 77 129 131 203 178 205 196 187 219 115 209 143 176 133 167 166 78 93 119 185 90 86 119 53 122 109 68 158 115 98 117 119 137 186 107 181 167 82 89 167 90 159 138 91 164 95 100 188 183 121 107 157 65 83 141 186 221 121 196 184 116 110 166 206 103 120 105 178 96 88 94 184 158 113 57 107 159 111 108 179 185 145 113 84 61 124 68 73 67 161 102 106 98 119 173 127 149 211 155 109 159 107 86 127 86 188 131 90 113 89 125 110 173 148 98 141 125 80 65 103 91 45 135 51 51 59 164 149 171 67 106 61 118 67 174 169 105 88 88 107 88 114 153 92 139 73 87 92 105 154 152 91 155 137 182 199 107 168 125 153 107 97 159 188 172 94 120 108 182 164 136 109 156 163 174 102 190 121 96 66 137 180 106 157 117 214 203 92 167 133 186 127 133 98 98 172 70 118 165 131 78 188 121 147 96 114 146 71 119 134 124 164 83 129 169 146 159 105 175 144 202 201 216 111 151 162 153 157 164 116 88 78 94 88 144 52 41 150 135 162 190 178 169 171 143 101 64 112 95 47 102 102 255 153 154 116 57 62 119 165 161 125 158 126 105 74 68 167 162 157 50 93 162 167 93 177 184 178 102 95 85 146 123 136 198 91 172 75 101 105 62 161 159 109 151 115 66 123 81 91 70 75 87 158 85 181 205 182 169 138 52 147 68 110 177 202 155 105 88 84 84 118 143 62 59 56 55 120 88 67 42 52 144 127 78 202 131
155 162 166 166 149 140 139 149 155 163 164 173 180 155 138 130 137 135 158 159 155 165 168 179 185 191 188 179 170 158 165 166 161 163 164 179 199 209 213 198 206 197 226 234 229 196 222 192 189 151 138 153 175 213 177 165 222 154 217 129 148 116 130 67 96 126 96 108 147 97 137 113 93 181 130 120 84 87 91 112 87 74 138 86 64 129 76 74 148 129 82 119 94 109 79 74 109 104 109 127 122 137 155 143 148 108 75 99 130 63 72 77 86 139 60 131 77 89 91 80 106 67 68 79 142 110 99 81 89 188 77 77 112 150 108 99 141 111 113 133 202 108 209 192 199 96 95 204 194 118 124 110 171 170 198 195 195 185 137 189 136 164 197 193 155 165 88 167 180 173 80 118 170 109 169 176 178 162 168 216 213 145 197 132 230 118 184 138 70 164 116 79 102 102 187 138 148 170 159 133 106 145 77 145 167 75 156 154 79 147 190 97 186 194 108 97 154 49 154 99 118 138 130 94 141 53 86 99 105 151 166 133 223 130 201 176 183 100 207 200 151 171 172 165 147 192 182 170 110 157 70 86 109 199 214 180 111 101 138 66 159 104 121 116 168 132 184 186 188 175 105 186 171 160 95 154 182 139 183 161 82 111 90 178 147 74 75 120 88 139 192 176 154 65 62 73 115 119 93 126 136 150 111 115 70 69 62 149 157 88 164 77 86 108 179 93 105 131 180 158 164 98 174 109 176 92 137 105 163 200 198 207 99 156 168 95 203 92 148 175 151 143 131 172 123 133 94 99 174 136 201 110 173 148 75 66 97 98 211 160 214 158 149 179 117 76 179 171 191 115 114 90 154 128 168 128 113 83 122 84 72 103 121 79 141 57 68 161 134 76 83 64 108 87 126 111 169 130 113 203 174 168 104 180 174 99 123 174 150 156 72 58 157 124 84 99 161 175 70 147 73 96 62 117 55 90 54 160 70 108 90 90 60 154 109 77 100 152 158 161 184 81 79 89 103 145 120 170 110 193 128 86 73 65 99 151 123 131 88 131 108 133 136 67 53 54 68 163 148 169 83 158 76 86 120 59 73 76 76 176 142 93 125 71 112 142 105 147 166 78 158 76 135 168 116 89 128 112 150 108 84 89 73 57 36 66 55 41 76 140 141 173
152 155 156 157 155 144 139 131 140 150 158 166 176 163 134 140 146 149 159 158 167 159 161 172 172 182 178 163 167 170 177 172 160 151 159 176 206 219 219 220 199 224 226 242 233 211 229 181 167 169 176 181 168 204 204 202 178 196 209 170 120 82 107 58 75 140 73 81 167 127 148 114 93 143 93 128 167 178 255 150 110 129 69 67 113 108 146 94 86 100 123 101 66 110 86 84 86 92 157 121 117 134 147 132 93 95 73 74 65 64 255 67 88 125 45 49 78 73 77 164 148 83 163 126 164 113 172 92 203 195 124 72 143 132 74 135 89 199 135 112 121 198 102 205 198 195 175 96 208 196 196 152 98 166 184 104 131 176 181 175 146 126 199 101 167 85 105 66 149 172 147 100 188 178 115 188 184 133 150 192 220 212 210 102 212 216 105 187 139 145 170 194 94 198 92 134 149 85 131 75 92 93 192 134 114 115 107 83 179 91 190 100 174 146 200 96 152 173 153 182 86 170 182 165 165 160 77 170 142 166 149 141 159 139 124 121 199 149 94 181 182 113 110 83 191 186 116 192 71 116 47 160 85 127 174 220 127 157 142 187 185 73 127 82 153 134 128 160 89 152 164 166 111 86 94 179 91 82 153 98 154 52 59 61 66 84 64 108 80 148 148 139 79 78 57 136 147 65 78 117 80 80 105 84 77 159 72 69 76 177 185 94 118 133 62 101 164 85 140 140 63 71 73 112 98 171 196 212 221 122 153 96 155 77 173 172 143 93 87 152 159 190 101 152 135 191 114 181 133 199 106 202 128 158 74 101 96 194 210 216 188 144 177 129 170 176 81 97 184 155 166 137 99 102 71 165 166 91 104 149 78 50 119 53 141 154 178 146 141 177 98 169 110 146 186 133 189 220 202 200 101 155 86 120 134 146 173 182 113 97 73 47 65 72 152 159 170 174 156 178 98 100 112 58 106 143 131 165 184 135 126 79 173 59 48 72 95 157 108 120 188 90 106 114 89 178 85 78 196 197 116 82 74 118 155 37 40 116 130 152 112 122 158 131 115 79 145 85 101 76 120 132 73 61 57 91 85 92 96 84 180 148 91 158 84 70 47 122 167 177 124 68 82 151 72 132 89 195 162 125 159 106 80 47 66 47 129 121 155 180 146 218
126 128 133 141 150 138 127 116 130 144 160 168 168 156 155 146 157 167 165 172 178 177 161 175 186 187 169 172 167 171 180 178 166 149 155 181 207 230 225 221 218 225 232 242 248 248 231 196 195 174 137 157 134 181 178 202 191 191 200 169 130 130 89 84 74 69 166 97 108 99 182 165 170 93 180 122 172 153 117 135 93 122 131 157 97 79 81 156 135 91 134 78 80 55 49 64 93 139 105 123 131 147 131 118 134 78 113 82 81 133 88 86 109 42 109 127 51 75 93 70 69 139 123 113 74 140 86 95 131 104 81 70 41 47 70 83 84 86 166 195 140 97 96 174 173 191 178 122 165 203 167 99 169 168 198 118 104 105 102 169 159 169 135 180 79 86 139 103 103 107 151 112 178 130 193 176 103 194 222 231 135 168 99 90 203 205 153 112 149 186 110 193 201 171 116 90 87 89 75 67 107 93 193 89 87 170 156 88 165 116 146 142 113 203 113 148 143 90 115 106 87 98 187 78 79 116 111 192 202 117 194 241 247 154 222 202 152 165 149 99 94 172 161 75 175 133 200 192 76 98 159 155 96 176 146 135 159 111 182 207 155 168 158 124 105 122 59 56 105 69 177 168 84 81 183 84 177 67 131 46 60 56 93 154 103 70 86 65 139 130 89 255 80 71 78 161 73 56 145 41 143 144 47 74 89 174 76 131 91 179 112 92 85 72 135 150 143 83 133 98 138 177 105 109 143 119 154 161 119 187 177 104 85 89 160 156 179 182 68 169 70 88 202 165 210 145 126 168 171 201 111 205 160 84 146 74 191 155 158 200 166 182 202 107 182 182 100 75 148 109 83 181 115 150 119 117 109 152 163 111 140 131 111 60 46 77 76 159 99 189 113 169 104 168 144 227 120 214 100 187 118 147 203 132 212 183 105 163 192 162 75 56 154 157 62 108 72 98 128 99 199 130 177 54 117 44 81 99 196 127 106 133 131 110 98 106 153 66 101 206 97 118 179 178 146 167 80 180 90 172 88 132 163 78 78 79 38 83 121 102 59 56 73 82 107 84 148 79 141 61 62 60 164 137 47 154 142 137 185 82 69 161 138 74 136 106 82 68 158 163 72 156 118 114 122 105 135 156 135 225 115 196 66 48 129 47 114 152 149 119 121 123
108 111 117 133 140 138 126 115 126 136 155 160 155 166 170 160 176 191 185 191 183 180 164 171 187 190 172 158 151 162 177 170 172 162 158 180 203 221 224 218 214 226 233 239 216 225 215 204 158 140 127 166 123 146 185 188 144 133 178 147 160 159 117 65 90 122 122 113 120 126 105 131 142 120 133 133 183 180 137 159 85 147 101 92 169 166 161 85 91 151 82 73 116 46 73 40 56 82 98 153 142 122 106 79 83 94 74 131 96 102 93 88 131 56 39 47 132 70 74 145 75 107 72 176 167 150 195 100 108 181 183 104 135 48 171 91 144 85 190 182 120 163 127 166 202 90 104 89 180 101 155 175 152 187 180 163 190 132 175 115 73 121 187 142 187 160 68 109 127 50 88 130 180 113 104 186 154 172 168 131 185 106 194 120 188 136 131 136 193 184 189 184 110 160 184 184 167 136 76 175 82 75 113 146 152 120 148 90 174 123 178 139 100 181 185 191 96 181 106 144 173 176 92 160 120 83 167 188 200 99 115 130 231 159 206 194 170 184 162 82 161 172 174 182 187 152 92 190 187 173 157 61 152 85 189 198 163 114 142 119 194 212 185 130 110 129 59 151 114 177 187 144 196 164 167 94 69 125 75 110 78 86 121 63 61 145 119 120 123 180 80 123 92 146 89 108 89 137 104 125 69 80 36 44 62 69 145 153 94 78 190 150 198 85 75 163 160 129 132 172 178 83 147 122 128 192 132 147 119 201 183 197 121 170 162 106 119 93 144 173 159 184 100 160 87 78 108 69 185 203 113 178 199 183 181 131 181 185 121 198 181 121 128 130 175 119 92 101 80 179 84 110 140 194 160 80 119 78 119 138 85 123 73 126 57 116 84 127 162 131 117 97 196 201 142 147 204 183 160 69 176 86 191 182 150 135 191 206 90 107 129 147 43 45 91 109 166 126 153 154 115 131 140 169 145 90 182 153 138 104 150 111 92 168 157 161 109 182 199 143 106 191 169 97 105 144 142 140 180 101 115 167 164 159 74 130 138 156 145 62 103 168 67 96 121 129 65 166 114 152 75 148 148 107 138 66 117 98 105 139 135 121 77 70 122 46 112 101 112 57 124 150 115 76 151 59 92 184 165 204 121 86 64 141 55 63 81 83 98 159 200 120
96 103 115 131 138 136 127 122 128 139 155 149 154 173 184 175 185 181 194 192 203 182 188 175 174 178 177 159 137 148 160 171 175 174 174 181 188 196 198 194 200 207 211 226 230 192 191 193 182 167 140 126 151 166 156 177 171 162 146 194 179 166 117 113 139 164 101 138 151 211 183 143 123 182 97 98 106 122 116 81 72 84 94 153 151 100 100 89 84 117 71 67 96 33 24 33 47 103 116 111 115 96 84 100 63 88 108 124 125 121 173 133 77 59 62 57 62 94 88 83 83 79 76 157 124 94 119 83 82 146 163 117 38 50 85 116 182 190 173 164 172 185 173 192 103 103 186 73 108 164 149 155 92 186 158 255 209 196 89 70 86 132 152 159 195 164 175 136 82 139 97 96 121 150 97 187 123 185 154 126 152 80 123 80 115 122 123 172 167 127 136 76 133 73 78 162 85 87 79 164 77 68 164 105 74 81 101 96 103 180 160 128 134 175 128 155 116 66 76 154 99 137 100 171 86 160 128 129 151 78 105 197 111 202 144 108 68 169 180 84 144 151 166 185 187 95 152 183 116 139 100 47 154 160 75 189 141 190 123 109 152 190 212 147 87 79 104 117 55 70 166 135 201 95 200 116 109 158 101 130 146 100 84 49 77 118 78 102 116 161 189 76 124 130 66 75 80 158 93 126 109 129 36 66 109 67 139 145 70 78 142 146 162 90 77 64 119 175 175 78 91 105 147 192 132 239 221 255 155 107 181 207 195 191 91 134 178 117 98 72 185 100 82 161 159 58 112 150 79 208 188 115 184 186 122 204 197 123 127 149 84 87 178 138 98 200 163 162 173 74 185 198 183 172 155 152 102 90 87 176 72 121 56 148 163 114 183 137 126 171 177 148 106 207 204 152 137 89 55 50 67 78 175 86 86 143 186 102 159 162 152 61 62 59 45 166 175 92 128 149 133 190 154 166 172 85 192 193 153 181 174 76 163 99 105 120 121 181 198 203 100 193 153 163 78 101 91 145 178 79 133 69 146 139 158 108 151 103 118 63 80 142 90 169 79 83 63 178 103 202 173 160 96 138 143 98 120 72 161 177 151 113 94 146 112 148 102 50 50 67 62 141 180 172 150 128 125 160 152 148 105 163 67 95 65 73 78 181 143 203 110 108
101 110 127 137 140 131 119 130 138 145 144 146 153 180 192 183 183 201 211 214 211 208 191 175 169 176 162 144 133 126 142 159 170 176 183 182 177 165 166 186 201 211 217 210 211 202 184 171 165 169 166 151 169 157 123 164 178 175 189 171 123 108 143 111 182 113 147 207 194 148 117 173 97 158 135 79 87 106 152 96 137 144 134 93 93 85 91 124 131 66 125 82 56 52 36 35 47 59 125 109 74 82 94 110 80 78 68 77 123 100 113 102 115 148 55 58 63 76 146 81 150 152 153 179 174 105 158 159 151 131 90 96 141 40 142 120 90 112 98 131 180 95 104 89 188 157 191 172 162 77 62 160 134 85 198 119 221 156 171 118 109 181 158 147 106 166 116 151 116 116 144 154 86 93 175 102 111 126 101 63 169 70 160 185 158 127 180 127 188 177 84 100 170 153 160 178 186 91 183 155 135 156 71 68 103 146 120 103 179 140 136 178 186 166 97 185 149 64 51 78 152 131 129 94 132 83 99 82 111 68 107 161 106 100 118 86 138 71 67 156 179 104 177 84 188 153 110 108 88 80 49 147 137 115 157 139 91 203 144 197 133 116 186 195 135 197 160 123 162 97 123 157 194 144 120 186 137 106 155 84 76 57 75 129 158 140 113 179 178 183 153 176 60 84 76 78 81 164 62 91 43 137 141 77 154 143 90 69 107 167 125 175 126 88 111 62 97 162 137 84 172 195 144 167 148 161 142 200 138 109 107 100 102 202 96 94 93 76 176 78 131 82 71 63 33 130 48 54 180 203 226 224 115 145 125 214 173 179 124 86 148 80 171 178 195 139 133 178 63 133 159 123 210 114 117 166 185 158 176 140 134 80 61 95 177 123 109 177 194 109 190 153 92 192 96 108 86 167 48 101 137 99 67 78 177 193 176 137 197 133 168 154 135 126 142 166 108 173 142 69 98 82 88 83 79 139 119 173 106 127 81 72 80 174 77 124 177 141 167 202 205 108 98 157 161 74 174 120 89 144 128 174 92 161 135 160 66 105 157 165 168 179 156 103 64 155 147 122 172 114 205 130 105 156 141 29 62 148 180 95 169 85 115 107 108 83 123 103 51 44 88 154 164 81 102 143 50 67 85 195 149 87 115 95 169 76 72 104 92 187 138 195
103 113 132 145 147 135 129 124 136 144 133 140 166 188 183 191 196 185 201 206 223 195 185 165 163 170 162 142 128 137 145 152 170 173 182 172 167 151 158 155 177 196 207 199 209 188 161 127 119 164 147 144 124 171 170 171 177 190 144 130 132 142 165 119 150 145 197 164 145 135 174 111 167 141 169 71 78 151 125 115 78 125 103 172 97 104 97 119 83 54 85 77 90 69 58 54 52 74 75 81 76 77 93 57 55 67 71 91 135 92 97 147 107 107 83 86 97 99 76 71 131 72 101 86 87 154 171 117 155 50 65 50 144 150 160 137 181 105 199 102 144 141 170 134 93 189 158 203 139 104 164 122 152 204 114 155 144 202 210 113 95 111 176 162 93 179 168 103 166 70 142 173 117 119 169 204 201 95 139 161 121 172 90 190 154 91 98 138 146 125 134 170 173 112 103 97 159 197 109 94 122 152 72 159 184 149 111 152 202 152 113 106 176 165 168 115 100 70 125 60 165 162 175 117 68 154 80 66 87 160 66 65 125 185 72 118 68 53 164 170 94 98 72 158 187 180 103 138 77 61 63 86 63 55 161 89 197 146 204 173 108 90 169 178 155 189 133 179 68 110 160 136 167 179 139 78 103 86 64 59 136 108 91 47 123 175 122 179 78 87 133 86 65 58 70 75 162 179 118 113 53 168 160 108 155 68 108 168 100 180 121 126 154 85 76 73 130 78 66 97 112 91 112 166 144 190 120 108 77 101 164 183 96 147 86 188 77 89 160 122 145 129 157 141 117 127 118 45 138 198 205 171 203 199 168 173 197 111 192 165 75 150 168 115 93 116 136 65 93 159 102 121 176 209 140 158 197 194 154 69 137 120 97 184 87 82 149 127 147 168 150 83 96 183 183 189 81 138 116 97 123 167 162 145 196 161 189 140 104 113 154 71 117 130 157 77 76 148 168 163 162 181 88 153 77 98 112 166 111 105 148 171 74 174 83 175 160 89 81 186 179 161 129 179 89 156 169 163 85 105 86 158 95 80 165 172 125 97 104 77 105 88 93 167 82 159 110 140 98 204 130 155 96 171 112 117 97 65 65 129 176 133 102 112 149 156 134 123 66 69 36 146 54 58 155 125 64 173 157 189 160 178 82 143 64 162 104 76 165 124 146 70
102 109 125 144 153 144 135 131 128 127 138 143 156 175 178 175 188 200 199 218 205 186 175 154 158 159 163 149 153 147 153 158 164 168 171 175 165 157 157 161 174 198 213 217 186 184 153 132 138 154 141 159 149 176 164 145 189 147 178 192 184 255 128 193 175 126 163 122 100 97 150 90 129 151 91 84 99 156 166 116 128 165 153 177 108 110 74 130 52 67 79 95 88 107 88 57 70 71 114 123 104 64 97 76 86 87 104 64 61 70 101 139 92 65 89 95 155 103 62 153 66 86 133 150 94 166 148 128 89 59 57 60 168 147 173 69 70 143 86 201 91 107 152 34 42 77 191 207 176 97 187 188 151 174 123 196 163 152 140 169 135 181 105 146 135 193 150 149 169 166 140 123 128 101 186 172 110 145 95 119 179 189 189 146 123 202 160 214 204 146 143 115 83 83 159 183 163 109 186 83 103 106 115 162 122 202 161 132 192 96 179 138 84 103 96 167 133 100 112 88 187 173 167 162 102 164 157 118 81 94 142 136 136 105 87 159 77 68 65 167 62 71 139 193 165 92 105 170 73 157 158 152 147 59 179 199 130 137 136 93 87 91 163 171 90 161 192 84 129 120 122 155 99 85 153 152 128 67 111 174 164 53 102 117 75 255 175 72 65 175 128 185 71 126 69 120 174 89 69 112 71 76 75 82 162 164 69 88 68 113 87 193 108 94 83 78 145 80 131 138 143 103 70 166 163 186 124 170 98 117 103 64 57 79 171 157 144 64 167 132 166 132 71 141 48 51 46 101 113 184 158 84 190 186 105 96 166 93 189 71 168 98 144 178 79 110 70 149 75 172 125 188 122 163 132 173 131 152 79 118 157 134 150 136 108 69 115 172 77 83 176 104 172 64 180 187 197 142 78 137 167 74 86 167 119 177 115 121 99 204 100 121 133 163 129 143 112 162 129 99 74 186 93 174 167 179 88 189 195 183 152 93 78 82 178 84 107 90 116 119 201 171 91 115 100 79 112 81 120 149 157 151 192 200 99 137 131 174 138 171 174 198 105 185 162 166 172 169 180 206 114 165 109 185 131 94 58 148 101 100 84 178 120 158 55 55 131 58 80 128 109 135 106 161 96 78 73 81 85 174 91 137 139 105 79 146 82 62 115 131 139 66
97 101 113 136 148 154 147 138 131 131 132 134 148 159 159 166 178 194 194 200 199 186 166 167 150 168 171 171 169 160 168 165 167 168 171 167 168 166 160 170 184 189 212 233 191 162 152 141 139 114 151 189 197 187 207 160 177 181 174 143 113 105 89 123 146 122 171 113 101 160 108 135 125 166 149 107 82 79 84 118 162 157 151 168 178 106 132 138 136 116 99 133 91 83 73 64 53 84 98 91 85 76 93 58 84 55 61 69 89 61 60 139 124 103 118 78 164 62 52 47 109 101 133 92 157 115 87 146 142 101 119 170 186 153 92 104 106 103 101 184 201 175 150 37 41 137 135 187 176 185 84 174 122 143 224 211 172 215 165 137 196 111 139 194 172 196 158 200 102 127 112 164 88 170 136 202 107 173 152 160 140 199 210 206 102 138 109 117 218 114 99 171 152 167 99 181 191 112 82 91 67 119 42 110 166 122 214 115 104 98 152 165 158 86 145 167 191 172 85 139 142 189 202 110 171 83 163 68 152 123 145 167 104 178 122 75 180 155 84 182 174 145 125 103 211 206 195 185 100 68 155 125 151 132 76 140 171 110 112 126 187 141 131 129 95 102 187 73 64 160 151 70 109 57 87 117 134 122 77 172 84 72 89 89 131 140 101 160 163 139 104 90 104 176 132 69 96 84 167 110 179 187 80 99 79 100 176 62 73 69 114 109 100 131 122 105 140 70 88 255 89 87 74 130 142 141 121 145 105 95 69 50 98 111 78 113 71 90 94 141 60 97 156 137 142 74 118 145 71 68 81 66 67 147 115 180 74 86 123 79 173 75 78 83 155 135 111 110 99 195 100 108 132 104 178 87 77 69 164 111 152 162 171 150 75 143 134 73 126 83 168 192 143 149 183 84 182 111 102 151 96 84 200 106 128 178 158 122 168 194 168 165 120 191 194 165 136 71 65 137 125 125 154 180 132 108 147 88 158 109 155 189 182 153 152 104 185 162 101 142 119 91 168 89 150 163 103 70 72 175 194 130 110 111 174 219 212 198 180 106 182 185 210 118 161 176 176 99 184 195 169 191 162 113 171 81 65 157 136 170 122 86 141 137 51 101 54 147 84 73 64 99 164 75 171 114 77 81 114 148 87 101 82 81 160 71 112 145 86 53 139 133
101 100 104 122 138 152 153 146 127 140 141 144 145 132 142 169 183 181 183 174 179 177 176 167 160 172 175 178 183 185 181 168 170 168 170 174 174 172 180 178 196 198 229 230 219 183 169 159 131 148 167 186 176 207 197 164 200 204 123 109 255 130 106 102 112 133 146 131 145 132 141 72 62 133 101 154 155 149 132 109 130 73 82 146 108 161 165 86 120 87 130 151 114 69 67 48 71 65 104 124 99 89 67 84 52 40 33 43 46 66 59 84 140 69 115 146 102 143 107 101 50 87 58 152 100 100 131 146 111 65 170 179 192 122 83 178 136 73 85 99 167 158 75 32 136 161 160 157 102 108 176 169 216 134 134 197 116 126 216 153 148 119 214 144 188 165 100 132 178 127 160 73 101 173 158 141 115 153 165 174 166 102 125 183 190 140 118 115 186 197 185 142 73 76 120 137 123 151 177 121 92 111 91 155 106 174 174 105 151 107 103 63 69 107 186 188 83 178 171 138 123 205 182 194 150 177 153 172 76 134 166 76 88 94 192 119 128 107 146 94 195 126 194 115 220 139 162 191 190 157 139 157 142 53 163 86 181 197 208 157 94 159 152 88 162 80 104 149 70 63 97 137 55 94 137 89 86 61 94 162 108 164 165 161 183 156 163 105 68 76 78 79 98 75 165 109 83 104 181 121 112 83 185 178 110 138 83 104 65 83 175 114 84 122 112 93 91 148 160 173 110 74 162 39 44 55 73 140 197 190 106 67 130 68 88 97 189 119 120 68 58 101 82 66 255 139 191 94 89 79 166 62 166 154 149 144 160 67 155 162 119 87 200 90 102 131 127 162 194 97 198 193 196 200 99 123 111 68 53 68 68 66 168 119 120 106 63 97 74 128 202 218 145 129 84 160 191 187 103 115 175 107 100 155 182 184 81 164 94 201 189 163 106 172 85 95 94 48 145 172 182 117 185 150 181 189 183 117 131 188 137 136 190 174 76 93 153 194 141 165 126 203 202 137 132 90 89 162 146 171 193 183 104 175 171 187 208 106 189 168 171 188 191 86 90 85 136 134 133 98 104 182 121 182 191 100 97 75 82 72 139 52 49 35 113 140 103 106 97 130 154 156 80 89 179 81 109 87 168 177 119 62 58 135 52 130 165 90 157 160 81 164
117 113 111 122 134 148 143 140 133 146 147 157 144 135 147 162 176 175 162 167 166 192 179 177 168 181 180 185 199 203 192 185 176 167 172 176 171 184 188 190 189 201 219 217 192 199 176 177 176 133 153 171 200 180 184 203 218 141 148 151 108 64 143 160 140 91 74 79 127 61 122 85 74 140 106 170 153 95 155 138 45 56 44 121 100 163 91 81 82 156 88 80 111 49 51 53 33 85 118 132 114 82 78 73 60 47 37 95 68 92 94 75 125 74 84 63 88 108 103 54 52 118 140 92 67 73 65 129 70 59 58 86 77 187 75 177 168 178 125 113 213 126 132 161 60 167 198 125 179 199 165 199 193 225 186 121 198 203 170 175 175 233 233 228 170 133 144 113 144 125 84 105 137 171 192 180 177 98 153 107 85 130 146 191 164 201 140 175 187 122 132 73 141 162 165 102 100 172 120 152 150 56 61 165 78 151 166 161 77 70 60 139 170 84 110 161 137 135 106 124 127 184 206 172 171 169 182 154 177 176 108 150 90 172 188 182 132 156 215 184 126 218 137 196 243 227 227 126 200 155 147 152 149 55 128 149 163 144 190 192 162 150 133 157 180 181 108 69 61 93 56 150 132 130 71 71 72 88 86 162 110 65 85 108 200 204 92 127 99 67 171 128 71 163 65 66 102 165 103 74 106 121 186 116 195 143 186 93 105 162 89 115 172 84 87 93 95 137 126 119 167 114 114 98 120 141 166 179 208 162 165 46 49 120 154 107 92 99 85 70 56 91 171 85 91 192 94 90 188 173 158 73 57 137 87 56 113 94 101 151 169 190 206 199 84 73 170 160 170 92 186 184 130 143 133 129 113 90 127 106 139 255 71 170 157 58 99 146 171 185 215 133 123 108 158 186 84 85 120 181 154 135 93 130 82 115 97 85 179 94 111 137 120 116 121 167 50 77 146 87 150 127 147 181 191 178 117 169 186 113 147 176 113 145 182 160 89 97 138 127 211 105 200 162 170 162 129 51 100 163 178 158 195 191 118 188 194 91 98 134 111 114 173 157 172 137 94 157 185 186 154 86 143 99 114 176 87 154 172 156 52 60 31 71 139 88 136 178 120 187 190 184 106 174 146 133 81 154 159 157 67 108 47 40 74 160 182 133 196 188 94 116
141 137 127 128 129 131 129 133 139 141 157 157 150 137 141 154 165 167 160 174 175 192 179 178 175 174 195 197 217 220 213 205 194 188 182 181 189 193 198 185 200 198 184 209 202 193 198 168 194 187 186 175 167 160 162 162 150 201 190 143 65 130 134 116 135 120 143 103 34 59 96 97 60 154 124 165 181 125 69 122 36 16 59 27 124 91 98 66 108 125 150 78 52 37 41 23 52 62 87 87 77 82 124 99 102 121 81 90 66 97 116 73 94 132 71 38 47 37 64 97 159 147 55 74 56 65 73 51 49 96 61 109 70 79 166 174 73 131 255 204 117 150 96 185 180 180 182 194 208 204 127 99 198 181 199 185 85 114 142 165 214 201 167 190 183 101 152 121 165 153 147 161 85 181 174 146 147 130 127 120 172 122 176 98 143 87 120 153 62 157 56 144 172 152 155 215 209 106 81 158 131 66 98 120 166 108 151 123 107 97 152 73 150 137 181 172 111 135 193 204 159 113 200 141 106 91 195 103 125 82 169 180 199 95 162 186 190 125 201 127 134 147 181 243 146 166 217 138 97 141 164 80 52 78 135 97 150 133 100 201 95 185 94 124 155 123 70 61 78 58 112 123 82 153 157 255 90 202 181 100 119 65 150 96 113 103 178 185 124 163 175 62 146 60 58 156 63 53 64 64 172 131 153 173 165 210 214 216 117 190 114 81 74 73 77 128 80 134 127 151 121 168 79 96 48 41 255 112 163 139 80 51 54 158 89 197 161 104 174 92 51 57 142 108 96 163 191 188 188 116 180 86 102 64 112 79 73 67 114 145 103 188 183 169 148 125 121 126 103 146 72 172 78 187 155 153 61 110 154 61 111 158 67 171 95 87 60 89 160 190 105 225 178 168 183 78 102 150 173 174 138 134 71 133 84 176 161 133 110 190 160 140 178 110 170 97 44 52 62 103 81 144 167 133 193 111 173 156 190 165 179 120 90 83 143 71 103 129 192 144 100 189 192 192 190 135 69 161 129 73 135 69 111 168 157 153 168 103 191 160 170 166 135 116 168 138 128 127 184 184 189 139 179 90 104 134 119 83 151 59 96 119 81 144 155 58 170 151 170 95 112 161 177 88 140 85 92 149 44 141 45 71 135 41 53 177 126 199 188 140 136 170
155 153 145 136 123 122 125 138 136 149 144 155 155 161 148 150 148 164 176 168 186 197 194 208 200 202 203 211 225 232 226 214 202 194 197 199 255 203 201 203 197 193 181 194 193 161 194 177 213 183 166 161 191 146 182 162 183 174 149 125 134 87 69 158 100 137 63 107 102 59 100 126 132 175 137 140 124 100 75 73 39 18 96 100 109 96 52 69 78 90 107 87 39 27 25 43 27 47 58 88 88 103 89 100 101 133 78 79 131 84 88 72 68 55 61 67 42 101 55 124 79 128 63 68 58 55 110 134 143 45 125 128 115 169 115 173 76 163 93 113 201 196 104 150 125 185 222 210 117 190 168 156 185 133 138 76 164 143 162 209 202 216 185 153 255 144 168 165 76 79 95 109 94 184 198 191 189 191 111 123 196 196 101 179 135 185 166 64 122 49 145 101 147 100 182 113 101 124 87 73 148 162 161 120 167 100 80 112 57 133 105 133 132 88 112 177 176 180 140 141 192 202 119 184 90 139 161 198 202 146 205 109 117 105 86 79 74 75 193 181 215 233 243 249 179 249 141 215 155 161 75 61 152 128 103 125 58 158 171 103 209 208 149 170 166 141 124 125 136 140 133 166 161 128 144 126 125 116 153 90 94 164 173 167 106 108 124 76 75 166 78 82 113 140 90 53 53 89 156 69 157 89 156 85 83 190 220 191 121 106 186 135 96 89 105 77 255 85 179 200 127 65 122 44 109 153 81 112 195 89 103 59 136 125 113 83 143 61 144 106 115 104 171 118 206 179 103 80 184 147 129 154 176 77 73 175 78 77 137 167 159 187 209 198 118 148 100 175 90 68 164 83 99 255 166 138 143 95 87 109 171 193 177 152 147 139 170 154 168 82 140 174 188 168 173 161 67 107 117 122 78 104 134 170 136 74 181 115 120 96 151 186 101 181 71 80 55 147 141 130 136 160 185 159 180 88 159 91 142 112 173 85 138 140 79 162 167 80 201 168 102 86 179 191 127 115 175 156 106 146 59 69 153 156 174 159 186 162 100 84 173 144 105 173 80 142 134 87 118 90 127 188 195 136 169 124 125 47 122 108 43 138 114 111 127 81 93 79 103 123 66 118 153 133 173 76 158 104 31 119 118 104 44 100 64 151 115 214 112 116 162 189
163 163 154 142 122 119 126 139 138 135 127 129 144 157 152 146 143 159 168 186 185 185 200 207 224 211 219 216 225 225 218 202 208 210 212 211 205 195 208 202 204 193 186 187 174 168 188 202 196 213 179 186 169 162 156 112 154 163 147 91 147 139 72 107 87 152 117 104 117 111 118 110 93 162 211 123 115 128 148 131 76 101 34 30 89 101 118 135 104 117 118 68 114 38 98 44 29 47 69 72 112 118 142 159 144 142 122 97 142 94 74 70 75 55 114 54 127 71 119 95 109 72 85 35 58 157 62 153 125 47 144 73 81 171 84 180 161 76 78 122 169 100 201 100 139 171 212 191 101 89 156 177 180 64 99 53 166 131 164 212 149 186 127 194 186 140 131 177 155 178 135 142 156 139 174 178 208 147 201 119 190 206 202 119 79 155 174 164 167 91 124 64 141 178 184 188 157 139 159 156 86 88 102 91 76 175 176 163 82 63 126 100 158 118 147 176 168 131 162 137 150 186 181 162 112 128 177 93 142 99 213 218 222 138 173 175 144 163 123 95 155 221 207 234 207 220 124 113 134 161 151 138 53 123 153 163 175 119 165 126 110 193 103 185 190 93 126 156 49 126 124 149 81 85 122 141 191 113 152 92 126 83 90 99 151 143 132 76 255 114 137 59 90 150 68 105 78 136 68 136 145 96 101 83 113 94 110 109 144 189 146 142 122 69 71 72 164 130 93 96 179 100 99 165 92 157 181 184 115 86 148 46 43 45 143 154 51 47 97 59 65 161 88 151 187 153 145 157 177 83 80 156 117 186 111 117 176 74 106 159 164 145 176 112 182 116 78 169 82 112 56 158 99 198 189 207 196 164 156 168 168 126 159 166 86 172 116 171 128 74 171 174 151 109 154 87 148 150 157 108 87 141 76 177 98 110 165 125 135 165 173 205 95 111 82 171 159 81 54 110 66 83 186 153 166 96 167 109 186 89 166 82 154 112 93 114 150 173 84 115 173 64 155 83 93 158 193 81 111 44 93 112 57 170 154 78 147 104 112 88 126 121 103 117 59 103 92 158 86 97 119 164 97 183 80 143 130 143 45 147 143 61 74 174 183 194 156 91 119 142 70 127 199 147 112 97 86 138 128 85 104 36 42 136 72 170 126 200 188 102 183 134
161 164 160 150 138 137 140 149 150 130 123 115 144 158 155 159 159 160 176 185 187 186 206 226 235 218 220 208 204 201 193 191 192 201 203 198 188 200 200 204 204 191 173 178 175 154 184 161 179 204 190 185 154 110 129 136 103 150 172 168 134 144 104 92 169 144 124 75 116 54 118 166 123 130 191 174 124 121 68 66 116 142 64 90 112 50 67 107 90 93 91 121 65 58 44 43 43 68 102 119 108 92 149 109 132 157 135 129 143 128 101 86 127 99 131 55 61 65 83 118 114 95 151 53 34 48 56 90 145 40 131 157 125 74 106 127 175 172 138 107 146 83 197 203 106 199 188 196 160 139 139 174 165 163 147 148 151 193 154 196 194 187 184 94 163 138 156 197 206 119 183 208 167 196 167 201 199 194 167 219 175 144 123 190 182 93 174 94 181 62 159 92 93 106 76 87 84 172 137 170 161 89 127 178 176 182 194 174 89 163 49 49 155 168 89 151 92 150 192 164 159 177 164 90 131 76 186 180 97 99 160 115 212 193 204 74 54 104 96 196 214 221 222 190 113 181 122 203 188 92 175 62 58 157 135 112 173 158 134 213 176 213 113 179 137 166 165 84 162 166 72 174 170 113 203 153 110 133 148 170 78 67 179 106 116 177 68 73 62 154 143 155 154 148 102 80 116 88 84 62 128 55 54 88 135 116 108 196 83 167 72 121 126 146 97 104 88 178 102 156 78 109 142 146 89 81 102 104 188 89 99 78 73 133 48 103 35 65 156 114 86 174 144 201 187 143 96 92 188 187 182 74 179 86 124 136 101 107 167 152 105 153 169 107 98 147 75 138 122 157 160 133 100 83 130 175 114 107 143 207 217 215 156 120 128 77 92 170 82 100 64 134 122 56 57 102 100 151 151 180 171 146 117 164 147 195 207 127 220 120 117 133 185 79 75 65 133 59 64 155 129 160 164 164 137 73 99 100 66 153 88 147 81 105 135 32 93 166 123 79 176 67 169 164 198 183 117 139 171 59 124 156 160 138 170 134 189 200 115 185 103 154 182 93 164 101 83 96 131 96 199 175 135 114 150 130 91 79 53 54 74 160 173 107 96 129 119 133 108 72 74 82 99 120 111 190 168 156 80 72 127 31 83 137 148 170 145 94 101 123 70 166
157 158 159 150 148 144 147 159 152 133 116 120 130 140 155 157 159 152 181 176 190 199 204 223 224 209 193 195 177 170 171 175 179 182 187 180 179 182 188 209 207 188 178 152 160 161 156 182 156 187 166 143 130 136 106 120 136 168 186 151 175 113 91 104 140 129 134 117 164 90 169 155 168 126 153 103 80 131 138 116 164 110 119 83 128 83 77 100 93 112 106 85 87 70 61 61 65 122 93 93 111 75 113 88 121 152 132 133 154 106 111 158 127 106 110 106 97 85 104 112 122 93 64 53 53 54 75 45 78 50 46 50 97 137 120 78 175 75 117 78 178 153 170 172 106 201 198 79 163 170 133 74 160 76 162 142 119 158 137 119 170 150 86 143 175 111 201 180 171 192 157 204 202 160 131 122 118 108 187 210 137 169 185 83 149 178 85 155 113 62 100 148 57 67 156 64 147 157 171 152 94 68 177 122 130 83 117 192 197 84 55 86 82 158 147 177 164 90 107 85 106 121 159 57 114 73 149 168 124 102 181 157 200 156 103 187 93 94 255 185 108 139 134 96 191 148 127 163 128 86 173 167 117 165 161 175 117 155 95 193 177 209 154 126 122 133 71 104 83 59 169 116 149 201 115 107 125 186 145 107 64 62 143 84 73 75 63 73 151 133 110 74 74 117 94 114 141 194 96 85 72 147 102 88 150 154 76 169 88 64 147 115 134 126 112 152 167 94 85 78 78 85 87 95 96 111 105 103 107 86 113 66 123 38 35 29 117 73 166 180 92 85 109 94 122 97 136 163 171 96 184 73 117 83 179 152 73 122 93 153 172 65 135 180 87 163 130 68 166 142 170 167 148 138 159 114 127 125 135 183 194 214 199 143 77 79 126 100 140 68 115 146 58 144 86 118 173 176 148 199 175 159 189 182 193 199 171 212 231 130 226 122 96 59 57 120 151 113 82 117 87 156 179 186 166 155 114 75 147 154 114 118 134 93 34 45 82 146 162 80 88 114 87 158 146 189 211 176 149 150 83 98 160 146 125 196 181 133 108 73 175 167 180 65 145 81 106 139 176 98 162 217 149 152 113 170 100 87 160 137 118 168 80 101 156 87 92 192 174 120 78 97 116 125 109 110 177 62 122 155 44 73 60 103 144 103 174 138 164 174 177 161
133 138 143 145 149 157 166 160 158 136 127 120 125 130 140 149 163 166 186 189 184 212 214 225 218 207 186 172 158 156 151 165 171 177 175 171 170 176 182 205 201 198 183 176 181 181 182 164 145 182 145 144 170 160 105 115 144 119 119 181 136 157 116 112 153 118 122 121 160 116 177 151 175 112 191 91 152 108 64 112 136 111 123 97 91 151 100 86 91 110 122 87 131 80 106 62 84 66 72 88 113 76 70 111 84 142 113 158 108 115 150 163 173 96 77 84 80 142 107 90 172 126 100 89 78 65 139 59 124 39 38 116 90 155 111 78 179 169 85 179 101 63 110 186 175 207 133 82 89 174 167 182 75 167 73 137 105 162 172 208 115 176 171 166 108 162 121 212 216 123 130 129 132 186 193 177 109 116 134 92 135 112 86 161 95 74 69 109 84 162 54 50 52 47 109 114 137 121 103 170 180 72 126 76 173 169 169 197 170 79 164 144 132 67 161 169 104 172 183 78 146 140 163 167 163 168 85 157 133 178 189 108 145 202 200 195 179 167 166 173 139 164 154 94 174 148 110 185 85 161 169 169 110 155 181 89 167 186 140 172 96 184 162 128 131 137 185 169 146 79 48 156 155 141 190 172 173 174 179 88 69 56 166 64 55 128 94 146 155 91 104 144 76 96 212 188 178 119 128 98 119 95 60 89 55 65 86 144 77 154 93 81 118 100 114 146 174 191 166 151 154 68 175 96 175 89 88 185 103 85 98 57 63 79 57 39 140 113 127 180 105 124 84 73 174 162 130 112 176 156 116 159 143 112 95 81 170 63 154 89 78 162 185 128 161 189 187 183 138 77 79 159 69 146 164 101 93 104 118 169 178 151 183 91 84 58 87 176 98 157 119 169 88 110 88 76 64 116 84 181 122 116 84 128 171 110 202 222 171 222 165 118 60 134 141 138 100 70 119 53 154 76 188 184 161 148 113 153 74 120 171 65 163 151 105 159 178 168 156 74 102 90 147 160 172 195 208 208 198 88 160 172 66 77 140 130 208 153 110 154 74 165 57 50 144 70 81 66 146 180 195 110 108 131 110 109 187 99 127 122 176 82 89 71 72 73 148 120 183 101 78 98 83 199 150 170 138 174 74 154 148 49 157 120 55 147 67 93 145 160 139 51
95 106 121 132 144 153 166 163 166 148 126 131 128 144 161 158 165 175 184 179 177 202 211 220 207 176 167 143 144 147 153 164 164 164 170 171 171 178 176 199 190 181 189 177 186 188 191 162 176 171 166 141 169 117 151 155 118 151 188 137 122 130 119 116 147 182 179 109 144 166 115 117 118 131 158 94 111 55 103 66 161 172 111 101 158 91 91 161 88 90 101 99 91 70 65 78 93 94 59 62 79 72 86 121 68 112 122 87 116 80 80 109 163 121 105 155 67 109 119 126 103 90 130 47 92 107 115 113 96 145 42 45 153 81 151 174 89 180 145 64 96 113 162 186 180 111 210 184 177 85 171 181 78 70 144 128 124 199 178 113 183 123 181 152 191 140 187 113 204 113 157 186 168 165 85 181 154 182 92 108 165 126 144 131 151 93 112 120 119 145 139 52 142 65 95 82 192 103 137 111 183 119 116 107 64 143 176 123 130 167 139 140 93 49 162 79 191 123 189 175 150 156 139 174 156 128 86 195 169 95 97 197 121 208 114 206 183 68 78 157 74 85 189 136 124 107 106 171 153 168 130 156 77 183 103 175 178 177 136 87 96 122 207 175 162 196 168 103 63 152 129 109 103 83 98 96 104 182 106 140 59 52 58 147 43 41 42 103 86 179 175 127 117 170 183 127 131 112 123 109 92 82 58 64 58 110 167 77 74 129 86 93 145 109 211 115 96 185 76 67 89 84 97 188 128 202 140 163 167 63 158 122 84 158 93 160 67 152 134 109 129 197 67 156 161 166 78 134 164 178 171 186 154 183 189 162 131 137 126 90 86 85 128 176 201 178 101 178 150 189 127 63 59 65 109 137 142 113 127 86 190 192 186 162 171 126 144 128 177 118 185 96 80 169 59 59 170 85 146 144 86 124 141 91 185 94 177 131 175 134 180 114 106 140 36 49 57 92 87 150 60 107 84 119 64 126 73 140 90 147 89 174 73 71 169 168 91 118 178 144 131 98 136 146 175 88 170 218 183 116 179 77 184 166 184 139 194 136 47 110 115 152 150 120 63 50 71 145 146 129 88 143 185 164 103 120 211 205 115 188 194 176 159 66 58 98 180 161 203 148 168 144 150 98 160 84 159 181 116 71 129 143 73 154 82 35 66 40 146 129 58 152
56 74 97 120 132 143 152 162 161 150 147 140 133 143 162 169 172 178 178 175 173 192 205 206 185 181 155 147 140 146 146 162 162 169 175 181 180 185 188 186 180 193 182 188 190 187 195 166 176 179 174 141 117 145 145 152 164 174 131 172 133 115 103 169 89 147 143 162 113 150 166 80 160 133 131 138 95 61 138 75 84 117 167 165 143 109 162 99 107 105 177 166 91 94 103 76 91 71 65 99 138 134 114 109 97 81 68 79 96 120 117 133 131 182 144 127 81 73 112 51 147 60 51 49 97 35 44 71 89 44 65 86 131 127 191 101 110 170 57 93 44 50 56 73 192 171 189 98 152 174 98 86 109 163 174 129 163 215 147 196 95 96 186 131 190 166 163 194 140 132 98 144 136 116 171 152 157 115 103 96 123 106 120 74 91 135 114 70 140 141 96 151 138 153 163 151 101 114 116 178 107 108 137 97 82 119 101 164 82 147 164 117 165 67 81 106 171 112 91 103 96 190 85 89 80 110 141 164 197 167 185 167 116 95 196 130 188 119 162 110 124 173 173 95 186 171 157 89 130 151 129 137 178 146 185 163 152 102 174 144 89 176 177 164 200 103 95 78 94 54 153 101 93 141 161 120 151 141 80 157 61 127 75 133 76 76 158 167 170 187 212 202 101 98 181 150 116 129 158 196 192 171 62 86 133 80 86 100 87 136 97 187 133 192 142 168 133 85 145 112 146 104 69 77 168 186 111 138 97 80 173 148 80 92 82 80 140 178 191 136 160 196 166 112 49 115 147 62 147 108 187 126 184 80 181 103 84 73 181 100 155 108 141 194 191 123 130 206 103 141 182 148 71 157 160 53 129 79 114 187 160 198 146 124 175 145 170 148 121 225 167 114 188 177 143 160 163 132 98 109 99 175 148 134 128 109 118 82 98 200 193 165 68 132 42 65 165 126 68 61 126 116 149 165 135 147 176 184 95 167 174 166 58 142 77 191 107 126 184 108 176 160 96 66 103 194 208 214 208 138 84 143 140 95 172 181 90 70 115 116 83 114 63 66 55 109 97 47 46 48 126 175 117 139 116 106 220 224 188 129 157 156 95 68 78 57 153 92 125 108 173 137 64 133 105 172 77 154 178 141 67 118 139 94 142 44 88 113 151 145 101 79
40 62 95 118 128 133 140 147 153 145 255 126 138 160 176 179 183 169 179 170 157 180 177 194 181 188 160 156 150 148 157 161 158 172 182 193 195 188 190 177 167 183 164 166 187 173 192 198 204 197 196 177 169 159 108 147 136 151 150 134 145 122 163 156 126 99 142 120 152 167 117 161 92 99 126 125 151 85 143 84 97 101 91 111 194 139 187 120 182 110 129 124 125 73 107 123 104 90 94 137 99 115 104 104 91 101 78 72 62 73 79 90 114 149 117 120 147 64 116 62 149 66 105 48 73 47 100 147 120 51 88 162 71 112 133 88 107 87 53 67 63 134 152 90 168 95 143 205 108 189 211 150 159 74 156 147 187 157 189 152 76 128 79 182 137 92 160 189 129 164 195 167 178 175 98 76 187 135 139 185 176 114 149 151 97 45 51 27 93 113 140 155 92 73 156 101 112 218 183 128 79 60 140 149 90 118 172 183 172 93 182 113 100 202 164 153 185 95 194 136 154 196 198 177 166 180 102 126 192 177 150 168 97 114 133 194 168 144 148 132 109 164 153 183 93 89 79 37 40 104 136 157 121 159 138 177 174 110 153 156 163 189 154 205 182 154 168 169 185 162 106 141 135 156 173 177 150 183 86 84 145 116 67 135 122 75 78 133 160 118 138 99 148 106 166 103 200 178 120 81 86 81 76 94 95 175 162 66 125 125 118 152 81 187 156 82 97 58 125 57 88 40 152 141 133 144 169 105 168 170 125 153 175 119 103 112 167 190 134 193 121 150 158 57 70 173 147 168 81 87 74 78 161 140 165 117 108 180 111 169 64 127 171 146 147 104 105 137 121 89 168 66 139 57 131 96 53 109 189 137 136 116 197 181 127 87 184 116 225 164 144 166 144 134 102 89 62 158 168 184 110 101 125 161 86 56 137 169 109 142 105 84 53 46 60 137 133 69 153 148 73 154 154 146 144 149 100 107 97 190 141 69 154 106 99 93 93 124 105 156 105 124 67 175 86 92 189 106 166 198 189 113 187 102 179 177 77 160 136 43 116 134 160 94 53 112 138 118 156 158 103 122 129 196 96 123 177 255 212 217 152 191 202 96 176 140 101 172 84 83 137 170 161 157 80 84 78 154 95 143 91 138 148 120 83 39 134 139 64 65 70 159
56 79 109 132 134 129 133 134 133 132 138 122 139 144 168 180 185 170 181 170 152 159 175 193 193 184 173 165 157 157 164 160 168 180 192 205 203 209 191 184 161 156 160 174 172 169 185 194 189 199 159 186 151 118 124 84 112 149 155 139 116 146 103 116 101 143 71 93 107 93 119 89 151 101 99 154 90 137 74 67 153 142 91 105 178 197 201 135 120 117 173 124 147 89 67 64 76 115 101 112 95 138 135 113 155 113 87 132 102 58 58 96 107 135 101 100 168 71 76 93 73 71 69 51 42 85 51 125 163 134 83 117 108 70 180 75 70 62 159 130 143 128 91 73 79 188 147 116 216 170 119 98 144 145 137 195 121 168 182 137 118 154 115 131 151 169 136 143 128 155 206 193 181 112 109 118 194 183 148 116 147 102 168 129 170 156 114 29 92 115 44 61 176 175 179 100 170 217 141 106 150 168 119 185 138 107 169 142 113 90 170 218 174 183 198 163 178 152 151 133 133 96 116 193 184 90 170 189 83 115 153 86 130 78 98 178 134 60 97 111 152 139 172 180 130 62 143 35 71 117 129 152 120 185 172 135 80 129 83 108 101 118 187 123 122 169 87 98 135 199 189 106 173 154 202 140 104 191 153 65 96 130 149 84 78 85 121 146 121 119 96 86 162 74 65 181 105 135 108 100 178 123 152 146 116 121 158 140 133 79 53 78 90 93 81 167 84 88 82 96 69 70 82 168 164 115 197 119 152 99 198 184 186 178 90 80 108 91 120 223 116 113 176 64 89 170 185 170 69 110 107 162 153 122 184 115 170 179 114 87 48 117 114 77 164 137 90 191 184 88 84 152 143 153 91 101 113 86 112 166 153 197 187 134 165 171 111 193 128 222 169 205 165 154 78 150 100 114 110 87 195 158 87 150 126 48 103 140 85 174 65 58 137 155 115 152 161 101 104 90 104 61 85 146 119 110 88 198 189 159 90 146 87 149 173 146 135 81 176 127 169 120 76 177 187 139 108 186 158 97 189 183 173 154 78 174 70 156 146 140 115 75 82 94 152 66 126 166 80 105 80 113 117 152 128 201 146 211 135 181 193 111 152 195 181 75 121 76 84 174 139 159 162 154 136 130 179 132 185 132 157 92 58 84 150 92 80 160 124 141 77 143
85 105 129 141 137 133 124 119 124 125 127 117 123 145 166 191 195 180 165 158 151 144 158 177 193 189 179 161 166 168 172 176 181 193 206 216 221 212 200 177 153 154 161 161 168 175 183 191 210 177 196 185 116 103 132 120 140 122 82 153 158 151 95 138 155 140 140 137 111 91 88 74 97 139 74 136 60 66 135 93 155 83 86 103 118 156 155 133 130 156 168 126 128 64 79 83 79 99 112 77 75 104 124 109 154 169 144 88 73 85 48 96 94 155 66 123 74 66 103 146 131 103 85 103 150 72 133 55 164 85 170 58 56 58 62 176 73 119 92 152 167 86 75 135 177 78 171 110 186 200 174 152 90 142 188 193 134 179 95 162 70 76 139 159 178 181 181 172 140 201 196 213 125 202 191 178 126 221 136 203 149 149 129 103 159 60 146 127 110 114 143 74 118 89 139 85 96 198 173 201 98 89 125 151 186 140 66 134 72 193 105 227 157 119 157 81 72 140 121 166 118 193 201 191 109 187 161 78 166 112 67 134 59 108 99 73 165 83 145 136 70 68 103 181 165 157 104 56 117 39 170 117 171 111 165 72 108 163 101 128 83 187 167 110 194 129 84 181 109 165 222 202 150 178 185 183 172 123 70 127 88 96 84 136 93 99 96 159 98 88 184 178 78 64 62 111 197 105 153 196 130 128 101 117 151 134 107 55 42 97 97 56 121 64 105 107 96 106 113 158 85 139 158 83 79 199 159 150 125 200 108 111 122 114 167 85 153 123 118 212 121 107 188 141 110 105 195 84 146 88 157 61 111 88 171 187 92 103 106 54 73 139 103 129 171 195 130 94 175 125 120 203 152 114 76 151 159 173 178 171 184 85 110 169 90 96 126 143 185 111 217 167 187 108 153 51 119 158 79 182 84 76 156 54 91 53 156 144 183 89 72 126 137 152 159 141 80 136 150 166 72 114 135 50 60 166 89 164 110 175 86 57 67 156 173 191 102 185 82 85 85 171 180 81 173 134 80 102 163 111 100 73 70 165 69 146 112 85 64 158 76 84 189 130 56 132 153 76 128 102 158 79 89 94 130 186 213 200 119 159 105 194 165 151 88 116 81 119 110 110 80 108 99 87 167 124 93 142 84 143 129 138 84 96 189 166 132 134 151 104 91 184
118 131 143 148 138 133 131 122 122 124 120 114 123 148 157 190 177 168 160 153 139 161 175 189 190 186 180 171 167 169 184 188 188 202 205 218 225 220 198 179 158 138 155 159 153 156 162 193 207 199 178 186 151 153 104 131 107 145 95 158 130 105 143 98 156 115 145 116 96 97 148 77 116 56 68 62 105 146 163 101 107 91 98 105 110 136 142 148 152 122 112 100 70 72 83 84 107 104 72 65 89 75 112 129 134 128 114 74 87 45 63 51 49 46 67 41 46 54 126 163 151 133 87 68 145 39 39 50 158 96 78 72 156 131 57 68 75 176 77 77 91 72 162 78 171 159 137 162 191 138 185 181 181 80 180 169 150 193 179 167 130 102 103 140 175 166 134 116 184 193 198 205 131 200 137 153 134 119 119 122 147 72 126 72 158 84 167 148 149 71 76 159 84 162 38 102 68 84 194 107 135 102 132 106 101 137 174 165 114 93 112 213 175 198 96 183 93 130 91 74 75 164 90 94 199 88 182 191 183 179 174 176 105 166 77 91 74 98 62 115 119 151 103 69 149 157 82 52 55 146 104 158 202 165 76 175 101 177 174 178 85 141 96 160 146 94 91 200 219 131 131 135 129 68 161 76 164 167 65 79 44 44 131 124 75 146 74 86 87 183 102 70 172 173 93 115 143 105 114 101 108 78 85 126 212 143 141 89 51 45 85 52 151 165 81 92 115 146 78 158 79 151 112 60 171 100 120 181 140 221 115 167 84 170 89 175 162 85 110 111 217 163 196 174 86 185 136 198 187 83 63 78 156 84 103 97 143 196 156 168 144 137 94 132 170 165 188 176 113 101 219 131 193 179 67 125 85 80 112 179 183 141 165 106 113 169 142 183 125 123 95 111 188 154 95 72 113 150 71 163 182 73 172 141 106 98 108 85 171 119 99 159 190 166 69 106 44 72 85 203 176 130 153 173 167 80 88 155 179 79 172 156 52 79 174 170 128 180 74 97 177 140 119 167 77 137 167 175 88 188 75 108 157 92 170 133 112 77 153 78 72 153 172 164 164 134 122 159 124 180 122 159 193 102 173 94 114 117 207 89 87 174 128 106 165 90 126 86 195 194 182 126 57 70 167 172 179 90 79 114 141 96 200 186 125 97 112 170 199 156 156 189
138 147 147 144 133 133 135 133 126 129 118 113 107 134 158 167 177 170 158 148 155 155 175 177 184 173 179 177 183 186 189 191 193 189 190 198 210 210 188 176 160 150 156 131 162 139 151 178 196 255 169 142 156 149 136 158 159 114 156 179 134 153 147 94 93 110 82 138 98 123 94 60 136 70 53 70 63 144 177 184 158 84 77 105 113 126 160 138 187 117 96 102 81 134 112 131 72 78 56 62 56 109 81 104 124 129 115 132 68 67 67 51 43 46 44 32 52 66 50 68 87 90 88 80 94 105 95 112 155 189 98 182 107 138 67 179 178 87 83 164 80 174 175 96 77 176 173 179 171 172 93 182 85 186 193 181 161 106 97 129 156 189 90 149 89 158 181 177 131 177 168 191 209 201 123 135 182 178 157 159 148 68 172 98 86 163 168 83 88 92 195 90 163 95 22 110 42 106 91 102 164 112 102 108 118 99 98 121 62 165 186 95 106 198 180 84 182 177 153 142 62 162 144 146 200 108 108 157 181 211 210 150 183 137 174 151 98 51 68 44 134 155 116 81 177 101 176 140 148 145 195 117 160 118 95 79 169 146 118 64 162 159 70 60 130 183 169 164 119 149 192 110 148 125 153 77 126 138 82 139 150 73 63 171 255 100 73 145 90 83 79 92 173 118 173 73 86 91 108 116 90 117 163 99 110 136 99 132 144 161 132 70 101 166 173 84 78 138 79 152 158 153 146 154 179 108 141 126 148 117 106 200 98 88 86 84 81 80 167 175 152 202 190 156 158 217 211 134 157 189 71 73 185 101 187 113 143 119 182 170 81 98 119 173 154 189 128 88 181 205 116 122 186 193 107 105 175 176 108 75 185 84 187 131 90 113 82 88 188 187 135 116 151 92 110 149 49 157 112 172 91 72 118 174 127 60 169 146 87 122 184 124 94 128 72 102 94 130 194 116 117 166 145 172 94 199 146 126 107 137 77 152 37 141 124 108 121 103 171 72 144 158 99 84 176 160 157 177 86 183 82 97 155 159 155 160 145 117 142 66 172 152 73 79 64 105 184 98 143 132 179 126 161 105 128 88 109 182 199 171 125 93 90 134 50 63 146 137 198 146 186 143 62 117 78 188 183 163 109 69 150 202 153 127 157 172 175 93 142 98 99 141
153 155 149 135 122 131 143 157 152 130 113 99 114 138 140 150 255 155 132 152 158 171 176 177 166 178 186 193 196 198 192 193 183 172 169 174 181 180 186 164 155 145 155 154 137 123 149 151 171 152 130 110 145 108 99 140 142 177 186 186 187 153 148 113 177 100 98 139 155 73 110 61 149 72 99 75 111 81 184 110 102 106 109 73 81 165 115 145 124 149 91 102 110 99 77 76 76 71 56 57 103 77 104 95 102 113 74 65 75 65 135 126 82 91 89 41 69 104 58 100 150 79 101 48 34 110 42 52 77 177 78 181 83 80 185 177 150 55 113 113 63 151 83 67 181 181 85 74 110 146 180 152 166 185 81 95 143 132 199 199 189 161 185 181 97 157 98 128 148 98 94 185 112 174 119 160 120 150 140 163 68 113 73 161 116 142 139 140 170 181 90 80 54 109 80 7 116 54 123 159 101 172 162 207 111 103 157 107 115 157 78 175 83 78 87 86 192 83 127 59 126 52 162 93 158 179 154 172 126 154 115 192 186 81 128 70 139 74 140 89 154 161 168 67 73 173 111 138 170 191 201 143 104 182 73 158 171 130 117 58 165 144 112 79 66 85 141 160 113 213 117 112 94 78 59 57 156 185 110 148 82 162 143 111 138 66 76 66 130 190 85 180 90 156 88 80 79 174 98 96 120 92 91 118 103 92 72 131 140 140 79 161 115 122 101 177 155 161 88 165 155 59 124 83 165 184 116 197 202 107 160 89 105 98 82 112 112 107 74 82 113 182 89 191 207 218 223 221 133 88 179 182 149 107 111 169 210 177 192 100 156 131 106 191 130 134 173 56 116 125 138 168 90 94 161 149 83 155 178 155 125 179 121 201 190 137 76 162 171 163 173 149 160 87 145 113 43 149 45 122 109 62 71 166 92 59 140 89 88 196 100 201 173 70 110 53 97 90 185 124 103 185 157 172 145 203 99 196 77 66 157 145 146 150 68 71 67 160 63 148 171 179 98 103 100 133 109 87 137 189 152 116 84 117 60 74 133 83 70 136 109 144 171 137 89 168 96 212 167 131 123 184 184 176 94 166 191 174 162 117 191 89 108 166 85 68 70 108 111 102 169 113 54 66 156 179 149 71 57 144 82 149 187 114 155 122 67 106 93 141 131 100
155 155 145 125 120 130 144 163 156 127 99 85 105 116 134 136 134 131 140 145 164 174 177 165 177 188 194 197 205 195 193 180 161 147 151 151 165 174 164 153 146 152 162 158 142 140 135 143 125 139 149 118 109 145 149 174 133 161 159 173 175 112 186 143 198 107 94 106 115 85 121 153 134 97 140 165 148 143 134 110 121 132 144 119 98 117 124 91 115 88 86 112 92 88 90 95 71 82 61 62 60 90 91 100 80 113 73 67 133 128 67 93 38 76 34 55 112 61 123 78 52 144 99 104 29 38 43 86 145 171 72 79 107 86 166 168 106 47 31 37 38 112 159 74 163 106 160 68 161 150 149 162 169 163 178 122 110 184 107 168 114 131 116 179 113 153 121 157 183 123 181 185 89 146 71 136 73 154 148 123 175 119 159 75 170 90 123 57 77 123 187 126 149 35 26 54 62 80 138 93 152 207 107 106 124 127 92 107 116 60 148 110 172 173 76 169 150 167 74 153 61 80 71 93 170 101 195 142 136 125 193 112 177 170 166 163 66 169 124 98 156 65 78 93 99 148 83 154 178 93 185 109 156 169 171 137 159 70 151 152 77 64 59 122 130 79 132 114 127 204 208 113 73 118 148 76 159 204 195 110 118 117 255 176 77 89 166 70 103 193 109 94 161 157 105 85 153 87 92 187 133 191 156 143 113 120 167 57 159 67 93 154 114 113 134 190 178 111 149 91 119 93 113 161 205 217 150 169 86 154 191 139 157 124 188 189 174 66 80 170 84 174 121 146 99 167 211 132 109 115 172 108 205 132 171 229 201 221 211 207 159 75 62 78 123 75 94 92 70 144 138 82 91 72 169 175 149 183 185 178 178 187 151 141 192 91 139 156 135 156 189 117 120 148 41 140 91 74 33 138 143 60 123 67 159 121 178 84 112 104 193 142 169 129 62 51 109 179 122 161 95 134 205 187 172 110 137 172 177 171 140 156 74 124 123 156 47 78 141 55 126 182 89 158 80 133 119 128 147 198 118 111 121 147 123 143 143 74 181 144 174 92 146 153 93 165 117 116 121 190 194 194 179 89 167 91 122 128 202 203 198 160 151 173 148 82 148 109 100 132 102 85 48 130 155 161 59 134 50 124 142 102 213 94 84 126 49 124 58 156 179 162
156 152 142 129 114 126 142 164 164 145 113 96 105 126 137 125 138 138 127 141 148 175 172 175 186 190 195 206 195 192 177 170 154 146 140 151 159 163 166 155 156 137 157 146 167 162 148 116 142 147 128 161 153 166 184 160 171 159 134 87 109 185 194 141 187 173 106 158 161 73 78 113 170 119 164 183 143 132 175 121 86 73 61 93 59 65 66 64 134 69 76 79 141 156 95 93 76 66 53 89 92 97 107 84 92 103 55 103 79 81 101 100 50 27 101 85 66 100 86 64 138 123 35 103 41 36 64 139 73 94 174 86 92 112 194 75 98 123 116 58 75 147 60 167 123 94 91 165 125 139 114 162 63 172 124 164 72 173 172 152 163 189 155 126 149 149 99 118 121 160 195 192 87 95 69 63 138 153 81 132 179 190 150 178 173 138 107 113 89 69 115 168 191 155 47 106 92 153 69 102 116 195 109 152 95 191 146 126 75 107 152 148 83 171 156 170 76 148 172 78 57 112 115 152 123 102 177 114 124 215 199 89 163 88 147 66 69 86 139 79 122 91 178 83 146 80 163 118 95 98 116 136 78 162 99 168 96 140 57 150 102 95 149 158 67 134 100 122 89 91 171 147 181 181 122 93 191 206 169 162 111 185 172 188 158 123 147 122 183 169 172 165 71 81 69 77 190 111 98 186 181 192 120 118 140 140 117 78 166 72 86 162 119 155 134 110 183 113 115 113 99 103 183 166 113 195 163 86 155 169 134 150 202 140 175 173 123 165 156 162 166 118 76 94 175 154 161 188 196 181 94 145 159 186 211 196 202 107 137 103 77 117 47 101 63 126 146 130 137 49 144 71 116 152 135 66 137 177 125 127 208 130 222 220 207 112 159 80 163 201 168 167 48 142 74 39 107 133 107 44 129 132 84 136 152 72 193 185 146 111 90 167 70 141 98 132 174 183 156 104 74 95 128 95 98 170 207 166 183 99 156 153 66 80 169 50 132 26 96 64 158 153 125 68 138 105 136 97 134 216 132 177 63 49 55 179 165 195 191 87 84 75 85 108 112 105 218 167 167 101 194 89 184 94 166 78 180 93 193 169 116 216 122 195 83 142 141 183 103 104 199 77 156 39 46 50 88 73 79 125 91 170 209 96 102 163 91 115 141 174 144 137
153 150 140 132 130 137 153 172 177 161 133 124 122 114 122 128 129 113 128 128 138 149 168 184 178 200 199 198 195 182 176 157 149 145 146 159 168 182 176 161 142 140 142 151 170 152 163 140 119 156 185 150 179 195 158 209 199 173 126 104 168 113 126 183 174 116 146 87 145 140 127 165 182 191 117 188 132 188 93 117 75 75 134 68 60 38 52 56 61 56 68 77 100 109 157 96 93 57 50 46 54 51 119 99 81 110 116 119 84 97 139 119 88 111 37 38 75 81 86 93 127 34 18 44 30 32 147 72 76 193 104 111 178 107 171 174 41 124 117 126 154 57 153 178 80 160 145 146 151 145 85 61 160 149 73 165 108 173 161 177 195 167 162 182 112 85 67 169 123 124 180 105 110 91 108 160 124 144 132 123 98 195 189 198 194 167 122 112 149 127 150 111 158 199 166 118 85 156 72 185 94 176 110 86 167 143 91 52 155 73 162 102 98 140 132 156 171 63 167 62 51 143 40 77 74 177 106 115 98 147 77 58 46 148 153 100 180 93 188 186 77 79 171 92 183 174 140 168 116 71 139 55 121 159 137 123 161 160 116 113 92 117 171 95 152 136 81 137 88 119 87 102 153 100 126 160 102 135 196 92 84 157 88 90 95 96 176 189 149 103 175 97 65 152 117 164 81 105 102 174 101 73 94 169 111 117 99 164 122 99 195 112 122 157 122 216 118 226 149 173 146 143 220 151 101 139 62 90 156 129 108 132 205 111 143 96 185 171 164 106 90 166 134 56 156 133 109 174 158 137 92 207 124 233 205 234 120 111 83 176 69 62 81 126 132 114 111 73 29 55 86 68 65 81 135 63 169 94 98 197 209 110 125 114 140 188 89 101 146 158 171 92 111 43 57 42 21 78 144 141 132 119 123 130 47 170 128 114 106 93 70 148 167 85 166 160 90 103 192 123 115 52 148 137 191 94 159 198 143 80 141 112 83 189 78 122 105 101 103 129 82 93 146 151 63 122 80 180 154 179 117 95 146 176 156 178 205 220 107 104 89 151 181 78 121 201 155 155 211 199 111 161 138 65 152 65 151 83 93 109 147 209 129 205 180 112 210 117 189 112 122 170 65 151 60 110 173 154 76 184 140 140 119 206 144 117 89 125 163 127 108 128
153 147 142 135 137 149 154 164 175 174 159 139 132 131 127 112 111 117 123 115 133 139 153 185 198 201 188 191 175 180 168 152 146 143 153 166 180 189 182 152 125 109 134 149 157 164 142 151 144 185 194 195 175 174 211 176 209 183 134 99 175 187 152 176 176 113 108 133 83 160 88 93 155 98 198 155 108 141 155 89 96 113 91 49 40 32 81 122 112 103 108 112 91 95 116 103 79 53 29 16 50 84 76 137 113 74 71 86 91 89 78 65 55 36 94 37 47 74 155 86 60 60 100 12 58 43 63 72 87 118 208 122 128 209 199 80 45 133 131 62 105 75 171 160 178 149 83 126 127 103 105 157 145 130 160 162 148 167 169 180 188 181 167 95 111 50 144 161 153 165 157 162 160 187 118 163 177 106 75 109 163 129 223 140 204 106 161 49 85 160 106 189 175 178 90 67 73 53 114 79 91 167 169 70 47 58 40 118 49 136 83 176 144 181 173 112 156 61 70 103 137 150 98 116 76 67 91 188 87 83 117 77 133 120 134 166 90 123 179 90 183 182 173 91 145 119 137 70 144 79 125 93 109 139 173 68 68 63 55 98 81 109 172 67 91 136 162 190 82 152 190 201 190 162 117 153 200 186 146 115 175 97 100 140 79 131 174 140 133 88 159 65 122 139 125 69 139 98 159 89 172 70 91 193 117 130 200 197 132 134 103 167 199 119 204 132 127 193 130 216 213 170 234 137 96 63 43 88 44 50 139 194 175 208 213 147 176 155 103 75 162 122 159 51 71 158 94 188 83 113 193 163 189 139 255 155 115 161 129 147 140 158 100 29 121 75 133 34 116 46 79 162 98 89 77 83 163 128 96 108 106 154 169 203 182 176 70 170 179 178 86 61 141 89 73 12 121 142 55 150 46 87 123 22 46 160 153 198 123 96 158 162 171 162 199 121 103 201 172 75 51 65 100 149 79 113 114 103 113 159 145 148 170 197 173 164 137 98 96 21 24 51 72 107 109 102 182 163 167 226 117 160 113 171 210 168 236 237 207 172 164 113 164 117 160 87 146 127 120 171 93 94 72 82 90 147 142 109 129 197 124 205 208 98 100 171 142 134 223 114 138 99 120 172 152 185 143 173 104 192 94 126 213 158 215 97 180 85 165 193 182 162
