P2
512 512
255
127 155 186 203 201 187 172 159 143 129 118 123 130 145 135 145 154 171 174 181 167 156 147 141 134 152 160 165 170 167 158 145 157 173 189 196 200 206 207 203 201 172 162 123 106 255 133 146 161 200 179 172 209 155 148 132 137 120 130 171 121 160 133 150 238 231 211 235 213 174 150 79 69 59 142 73 60 89 151 90 118 122 105 111 135 119 102 107 82 111 81 75 71 58 65 72 96 99 155 121 111 83 48 83 89 130 106 124 103 94 46 88 74 60 69 108 151 124 155 139 144 72 65 154 61 79 157 101 143 94 84 164 107 60 145 84 67 63 154 66 160 160 46 119 79 118 82 175 125 83 154 141 175 161 202 166 206 196 189 105 132 194 106 141 128 109 205 172 157 78 85 122 145 188 110 189 114 139 156 137 100 71 67 173 176 116 176 187 171 120 189 100 96 196 158 187 127 100 113 155 106 111 59 84 75 107 68 41 52 127 69 157 74 125 134 147 63 123 130 64 90 141 157 161 71 124 200 123 93 157 120 51 113 97 162 129 50 103 32 136 156 68 155 64 95 100 188 214 140 223 226 214 154 95 150 103 116 133 91 86 188 112 177 141 190 133 96 110 194 122 130 190 118 141 34 127 114 87 161 111 225 144 161 120 131 105 143 173 172 142 82 188 111 225 165 148 149 196 229 141 146 155 129 117 109 104 110 173 99 100 21 0 46 147 76 131 120 123 194 189 62 52 97 91 116 79 45 91 59 76 59 160 148 152 75 125 98 108 147 122 68 129 153 173 208 117 146 194 103 157 193 180 106 154 139 88 42 89 156 99 109 104 80 126 101 105 181 175 192 192 145 189 89 70 124 181 110 196 154 157 152 91 132 145 125 210 201 167 112 65 96 193 220 139 142 159 166 127 69 78 79 179 118 173 195 192 209 255 195 95 152 139 128 142 161 172 53 119 67 68 70 81 100 114 85 112 167 126 185 191 181 165 120 96 85 42 105 74 185 100 220 137 218 194 139 142 131 65 53 166 145 85 77 189 189 203 186 167 68 41 63 27 78 77 190 85 124 156 152 168 180 162 153 93 78 161 50 107 165 95 187 188 136 165 116 60 110 113 99 85 155 113 87 163 67 148 147 134 81 118 144 148 38 30 22 57 93 145 139 205 185 131
139 160 184 197 188 173 156 151 131 127 120 131 141 138 150 135 154 159 168 176 161 162 159 156 162 164 165 177 180 173 157 149 156 176 195 204 209 205 188 197 199 183 175 120 117 114 139 165 162 160 186 165 199 165 184 154 121 97 130 174 187 128 134 153 229 244 241 177 212 138 136 123 77 87 72 150 77 152 145 76 69 148 78 114 165 93 83 85 147 109 139 83 132 113 67 137 96 102 114 102 94 125 79 111 96 136 103 120 73 78 73 43 44 65 103 88 116 122 168 142 85 66 140 127 124 84 108 99 141 186 185 69 66 49 67 57 168 163 87 177 156 101 57 69 255 96 83 126 193 179 161 73 143 178 194 198 97 140 167 128 190 181 160 163 123 192 161 215 189 86 154 74 150 173 194 195 136 163 153 138 72 53 151 96 114 184 88 164 98 126 178 109 203 200 176 93 109 180 127 117 58 139 37 130 41 100 34 147 122 151 162 47 102 142 112 137 150 132 93 146 81 136 65 141 167 125 99 198 103 105 132 173 154 93 170 165 150 39 122 36 128 135 167 165 134 183 104 213 118 221 210 131 210 100 112 100 184 74 168 181 136 107 107 156 183 125 158 123 165 176 109 83 255 45 98 128 72 116 101 203 197 178 150 151 162 99 144 149 172 66 179 107 141 176 128 137 158 136 191 116 139 150 113 103 91 157 168 106 72 97 27 70 39 54 127 163 154 129 118 132 96 157 151 102 128 153 116 147 80 122 53 157 119 71 183 182 181 174 167 147 109 121 165 97 186 205 184 102 195 140 202 104 207 103 167 96 145 146 72 70 85 168 110 77 121 144 179 138 186 210 111 127 137 140 98 84 76 184 143 199 168 186 153 160 132 187 175 193 89 172 183 179 146 120 125 135 172 168 66 170 95 141 137 202 143 191 128 115 96 84 146 96 171 106 142 91 48 56 30 101 79 163 90 85 115 118 119 106 149 181 179 170 169 121 160 79 109 84 186 145 172 175 221 147 148 39 29 103 77 65 112 135 81 137 163 103 89 166 135 127 125 123 159 155 146 123 77 175 125 136 118 197 205 155 128 147 93 89 93 165 205 103 86 90 131 105 144 98 168 110 146 85 127 169 177 77 61 72 117 116 184 97 39 24 35 40 166 180 113 188 86 73
156 170 181 183 173 160 143 135 120 131 125 146 159 154 150 140 162 162 176 159 160 156 150 164 166 168 179 182 184 171 155 149 156 181 200 211 209 201 192 188 187 181 185 156 133 103 153 176 185 144 183 184 183 146 177 126 119 81 121 178 131 177 193 187 175 142 220 192 133 108 98 102 163 146 117 68 138 58 134 86 86 84 70 130 89 96 78 82 104 152 95 96 154 87 81 108 85 124 154 123 116 92 92 132 123 113 145 114 119 108 82 112 39 90 56 92 102 209 121 95 82 60 151 64 66 174 77 134 172 96 102 88 68 54 41 45 66 75 189 183 74 56 58 147 143 171 169 154 161 182 160 75 144 173 172 166 103 149 182 174 122 73 87 148 155 101 167 209 173 179 170 178 183 162 170 186 186 105 156 150 64 144 159 120 102 127 133 162 194 186 116 116 121 204 194 179 177 131 162 87 144 37 131 48 144 61 153 57 164 138 50 146 63 104 46 164 162 74 164 121 134 85 172 93 162 85 125 101 182 162 118 118 202 103 152 164 127 134 142 118 167 151 121 61 84 177 187 173 149 187 132 117 175 198 110 167 162 167 69 121 134 193 103 97 109 133 167 117 78 114 125 158 164 134 67 65 127 178 163 97 203 204 168 94 104 185 87 95 64 75 119 176 98 96 113 154 210 137 123 137 95 96 108 176 119 73 71 72 91 127 43 39 51 79 114 172 198 180 115 201 112 114 148 172 163 156 58 49 144 39 75 63 85 143 184 178 116 143 55 127 145 53 130 173 183 185 166 127 109 94 171 218 220 116 153 109 137 137 134 101 157 154 157 85 134 134 171 116 195 173 109 155 95 112 124 65 125 131 138 159 207 161 111 134 174 118 190 142 206 174 196 101 201 200 95 180 68 157 101 82 83 177 106 107 117 108 136 106 101 194 162 139 142 169 109 100 153 65 58 146 157 99 102 173 111 130 197 140 189 127 85 115 190 91 174 162 119 62 178 204 210 238 158 131 144 144 143 143 132 172 168 158 52 119 109 140 57 105 129 29 128 113 144 137 105 180 103 130 110 175 191 207 176 164 198 106 136 180 111 171 196 131 184 191 153 173 182 121 84 91 169 146 122 92 179 81 80 93 164 164 80 161 112 143 89 123 81 188 133 159 185 69
169 178 184 177 166 141 129 114 111 122 136 165 174 173 161 161 157 159 166 169 160 159 154 162 167 173 175 165 180 172 162 158 168 186 200 207 199 195 189 184 190 195 168 168 151 142 132 171 180 145 140 160 132 159 111 123 136 137 138 140 180 177 140 174 198 177 115 180 182 173 116 119 186 114 139 86 64 129 60 139 106 57 62 69 129 77 138 86 144 112 160 103 104 108 118 76 76 88 99 93 119 95 100 122 114 120 90 110 107 88 117 49 37 33 99 152 117 133 104 96 132 52 59 64 127 119 85 175 89 181 154 205 176 55 57 35 157 171 180 119 190 171 141 59 79 108 174 83 144 90 78 94 153 171 180 173 178 169 107 70 178 110 100 143 164 188 193 203 105 144 152 109 99 138 128 152 141 195 175 139 47 47 109 140 128 173 201 190 96 186 155 122 111 202 106 100 163 153 133 95 81 73 53 146 145 167 82 170 113 128 157 103 54 83 83 170 85 181 200 161 195 192 105 73 148 183 120 103 195 204 116 114 121 175 172 168 73 149 63 63 171 124 120 163 84 146 148 170 209 214 106 158 145 125 196 116 182 157 150 175 139 100 153 177 139 170 148 129 91 174 106 68 169 146 107 139 105 86 80 109 133 97 163 83 99 101 117 156 62 67 94 72 81 90 178 111 113 196 102 114 197 180 112 104 109 75 174 168 162 74 95 61 149 119 185 99 130 103 119 112 169 173 164 94 78 75 69 100 155 147 77 59 95 176 86 82 60 89 105 73 119 137 125 146 101 111 82 94 144 93 167 115 220 133 216 196 162 156 66 142 73 141 129 85 147 107 85 153 110 151 137 88 157 110 58 77 145 146 132 201 155 102 120 205 156 197 121 202 135 151 195 91 196 143 73 114 64 119 84 157 83 175 190 196 157 191 187 154 141 167 94 74 168 93 150 113 108 104 114 88 87 89 186 83 132 160 156 111 199 100 179 151 110 173 99 183 61 162 79 186 132 150 130 113 147 73 64 58 125 169 170 143 115 73 133 150 60 145 139 145 69 58 98 182 178 173 158 71 68 111 197 186 231 165 189 119 154 108 124 191 181 185 148 109 105 86 138 175 174 150 192 129 86 136 109 191 112 184 98 105 143 92 139 76 134 82 100 152 129 86 158 166
161 168 173 172 165 151 139 129 126 131 152 182 194 174 169 157 169 164 174 168 168 161 146 143 157 161 153 151 169 171 161 167 186 196 202 198 192 188 189 188 175 192 185 173 139 160 145 171 174 180 163 189 156 131 167 87 85 126 113 167 162 174 194 197 178 155 161 110 111 112 96 162 112 204 137 115 130 68 101 131 83 56 58 97 85 66 77 91 169 98 102 104 115 109 104 82 92 92 143 94 90 86 128 85 115 130 82 85 101 123 87 67 62 45 61 83 78 90 153 121 89 62 42 109 97 52 61 169 87 116 148 123 175 156 87 114 151 179 198 182 205 150 147 36 29 55 160 78 148 151 110 144 131 168 149 82 138 174 124 157 86 142 136 157 147 163 161 101 190 143 149 179 95 162 97 191 136 82 72 135 148 160 166 82 155 166 120 150 140 167 157 143 129 122 113 78 147 55 125 55 51 71 72 96 158 180 95 129 96 118 142 180 173 157 124 75 101 213 213 228 208 189 84 100 105 170 192 158 175 201 166 210 155 97 164 161 150 92 149 142 144 159 161 150 107 79 130 182 160 203 95 147 174 138 140 189 111 171 134 164 163 178 167 191 178 151 170 138 133 153 101 92 89 160 89 145 100 170 81 117 195 119 103 179 154 152 156 149 63 101 136 65 70 166 72 84 96 150 116 171 93 113 97 75 86 71 106 157 136 104 103 110 72 84 127 100 152 117 108 206 211 114 106 178 82 125 114 111 160 161 164 73 84 84 101 129 54 49 63 127 55 136 150 63 57 157 74 185 137 185 143 207 104 210 209 160 159 157 91 76 147 110 146 83 109 37 155 97 131 151 109 167 159 131 154 159 103 99 113 122 191 113 199 205 184 194 122 90 159 137 76 108 159 73 131 65 55 93 146 128 117 83 110 106 150 134 113 110 146 169 120 86 158 122 165 130 116 138 147 180 182 172 188 153 118 199 209 196 206 209 112 209 194 176 104 105 88 163 138 179 214 144 237 203 152 91 110 158 156 74 151 76 157 85 58 71 50 41 48 54 88 151 113 167 91 140 75 74 66 183 201 133 216 180 216 182 170 109 102 188 188 84 69 113 144 140 123 191 85 176 90 85 82 81 153 139 81 82 81 98 189 101 183 102 137 188 185 190 201 156 114 84
143 148 156 162 163 157 146 147 138 149 159 179 191 173 160 162 159 162 181 178 175 159 153 145 154 158 156 155 159 164 176 187 202 208 206 190 186 183 186 191 185 191 169 173 173 178 181 150 183 172 178 186 199 182 164 139 136 84 111 171 169 195 141 159 187 121 120 150 132 94 120 98 198 197 192 126 121 101 74 58 68 63 137 56 69 57 116 90 131 94 91 148 109 101 89 93 77 92 100 75 76 74 103 104 64 82 100 92 140 102 85 77 63 56 98 57 64 71 90 66 85 49 44 43 58 55 52 68 85 107 119 188 203 81 152 152 131 181 192 210 177 113 146 123 117 21 77 150 159 167 163 147 148 160 178 147 79 137 100 155 98 162 150 175 78 148 129 117 135 176 123 167 156 172 102 111 172 133 140 106 139 177 164 126 175 117 141 121 171 178 129 196 204 169 204 160 46 119 106 137 55 55 67 78 79 185 150 183 104 159 134 99 163 81 76 174 183 201 150 129 218 197 166 140 83 133 130 188 105 146 126 204 194 189 113 115 123 145 156 167 163 156 147 137 61 90 92 188 193 145 183 164 89 124 152 183 67 146 98 99 101 81 149 188 97 190 98 149 175 144 91 184 182 91 98 94 160 82 187 101 104 149 172 63 165 61 159 143 71 123 86 94 71 144 54 73 143 133 91 150 92 106 170 99 55 144 88 73 173 113 110 127 175 118 170 163 94 101 129 168 181 162 136 193 122 129 60 58 66 150 103 146 173 176 147 52 152 74 176 80 82 133 100 136 76 70 174 94 168 191 187 104 153 196 186 77 60 51 142 106 115 119 56 147 255 57 90 170 132 130 182 118 92 107 165 68 120 111 219 139 204 136 119 111 185 88 156 113 125 134 136 151 72 68 128 86 148 128 159 68 187 90 117 116 135 129 205 204 159 63 53 64 92 98 99 116 148 73 73 185 161 179 177 159 144 108 164 118 119 201 141 136 116 121 95 80 103 158 98 196 109 158 170 204 107 103 187 195 119 111 94 134 172 150 153 111 145 120 62 160 154 62 112 53 130 166 155 169 102 94 123 212 127 190 177 163 194 198 99 122 124 114 56 125 95 111 154 157 188 175 179 116 195 89 101 181 139 149 143 77 118 169 208 127 133 167 151 99 104 133 67 46
115 121 129 143 149 160 157 159 158 153 162 173 172 155 157 165 177 192 197 181 176 169 156 169 155 163 170 167 175 177 183 196 211 211 211 192 185 181 188 178 181 194 176 188 182 158 185 158 158 185 196 158 164 155 124 123 100 122 170 144 136 129 132 99 115 111 84 160 161 87 89 189 113 154 116 174 102 95 91 71 67 110 98 66 99 116 76 85 93 99 255 93 108 97 141 94 98 131 77 109 102 80 89 71 79 95 96 100 90 97 114 85 76 70 83 59 125 130 67 123 91 110 89 117 54 119 58 69 93 97 132 177 209 91 149 71 78 89 99 104 92 171 134 28 119 107 93 122 163 169 173 125 69 165 77 145 171 175 85 147 133 81 167 177 183 149 157 100 129 152 190 183 127 110 194 154 135 159 147 86 117 132 197 166 148 96 129 173 143 152 132 178 175 205 158 169 46 134 99 142 132 53 61 106 111 192 108 92 96 159 185 96 189 186 82 167 77 152 192 211 210 161 183 73 90 87 89 130 119 191 151 169 183 161 60 140 56 107 67 55 145 138 129 51 91 69 96 129 193 190 157 171 74 74 125 154 55 104 76 51 138 166 184 157 199 108 215 226 221 211 102 157 187 185 125 192 86 92 115 139 163 174 88 83 57 70 170 168 131 84 160 86 114 102 96 171 107 189 177 150 142 120 102 148 143 84 65 162 112 113 104 79 160 94 152 151 117 117 110 99 145 108 117 101 88 70 68 164 104 115 195 213 167 126 173 63 59 79 190 136 206 165 94 191 178 143 92 180 159 181 140 115 91 83 113 139 134 82 110 148 64 73 141 114 145 145 152 160 66 79 95 136 100 175 116 166 196 215 194 164 130 144 115 176 148 189 97 128 106 159 78 58 94 156 131 84 144 45 163 108 78 88 93 181 175 179 117 105 191 78 110 158 145 187 91 69 88 140 136 92 155 95 134 104 65 103 167 125 161 170 160 126 194 94 159 66 129 147 169 117 96 143 147 181 191 213 115 214 118 132 111 202 194 166 137 121 63 123 189 77 85 90 51 107 147 110 170 91 150 86 186 207 146 165 202 159 109 114 109 162 175 124 162 110 152 165 168 145 191 199 165 152 177 190 183 148 93 61 89 76 140 113 156 107 119 191 192 194 141 92 83 99
101 104 109 120 129 145 146 156 145 156 162 161 158 142 142 165 178 188 208 199 188 174 178 178 180 176 189 193 192 186 185 195 208 216 216 201 190 185 182 180 180 174 174 191 167 170 187 160 186 183 189 140 137 120 108 99 156 167 127 161 169 169 147 109 79 128 159 100 92 124 132 149 151 159 183 161 168 164 143 121 146 158 134 110 65 58 69 118 103 86 87 103 157 103 98 93 97 107 79 84 73 89 109 86 67 60 62 90 95 110 81 131 71 74 152 55 136 132 141 79 97 106 166 127 63 90 74 127 78 85 198 205 104 100 176 173 121 134 196 107 127 76 155 44 74 135 40 146 108 124 141 159 107 147 161 169 144 164 134 82 149 124 141 111 151 200 202 113 116 182 121 187 107 184 183 169 108 143 154 74 167 99 97 190 166 175 177 141 64 146 156 136 215 127 121 180 164 54 56 45 117 135 163 70 148 197 162 118 107 127 99 125 195 192 177 145 83 100 168 176 182 110 192 85 76 78 81 161 93 94 171 188 83 167 156 105 142 82 120 60 127 97 57 93 124 81 105 92 163 170 77 84 68 163 139 94 123 85 55 117 110 152 71 178 166 184 132 128 152 214 209 186 178 112 103 126 182 124 155 147 68 72 52 93 133 84 73 157 103 129 103 96 92 135 139 175 133 89 79 66 61 90 101 75 73 62 69 101 69 70 108 71 167 74 82 97 168 125 146 112 151 168 188 84 61 54 156 174 98 123 126 126 142 185 92 68 80 180 129 211 157 207 109 177 109 124 103 201 116 181 182 191 141 185 126 107 50 60 147 133 74 152 164 61 65 143 77 125 146 84 175 180 117 198 167 109 98 151 211 155 147 83 83 198 183 106 71 145 50 56 144 111 108 111 51 65 54 61 96 166 162 168 88 117 170 156 105 188 114 176 68 128 170 90 152 85 158 173 147 118 111 94 131 103 118 57 124 81 114 193 157 98 86 138 172 99 153 112 110 119 141 121 161 66 155 127 177 183 190 126 116 120 147 191 165 104 152 97 209 159 155 94 96 53 146 79 148 128 89 127 159 108 134 121 144 168 185 158 103 173 115 123 97 111 164 179 150 105 172 213 120 148 114 112 107 107 90 171 75 78 95 185 103 98 147 114 147 164 182 164 135 122
93 96 96 98 100 112 120 135 133 140 150 152 145 137 152 164 185 192 200 186 181 167 164 171 179 182 192 209 201 183 183 185 192 208 209 204 193 180 170 163 161 167 183 169 176 155 156 151 168 177 146 154 138 157 130 140 148 132 196 185 168 150 110 86 123 159 110 75 133 100 87 188 171 171 120 103 147 105 168 88 132 90 118 90 115 108 76 82 89 88 91 103 172 165 137 100 91 87 119 112 112 104 114 92 93 73 56 50 69 68 79 71 96 71 94 129 59 55 56 105 178 99 125 151 170 166 75 73 76 179 118 144 99 114 185 178 196 90 180 107 85 78 101 62 66 48 158 170 109 159 167 160 135 116 54 145 86 136 99 131 110 85 77 188 133 171 205 212 177 172 192 194 181 76 104 135 110 106 140 159 98 192 158 76 120 155 175 81 107 132 119 91 127 184 208 83 130 79 122 115 110 64 137 67 161 123 193 164 128 141 99 175 83 178 124 92 145 115 122 177 92 189 110 182 136 174 175 151 91 132 190 165 162 56 126 78 152 118 151 165 50 127 20 29 73 68 131 189 185 74 73 167 99 90 69 71 118 37 29 93 83 137 123 66 114 98 184 176 126 118 107 157 192 176 182 160 165 67 60 144 57 92 49 55 70 173 109 148 78 82 187 96 163 189 86 93 139 159 69 55 164 74 161 96 74 72 74 177 86 68 150 91 164 112 98 121 101 140 134 150 94 133 74 117 74 51 63 159 211 218 156 131 113 92 125 107 150 120 194 114 165 213 214 218 119 218 200 106 164 195 89 109 98 170 109 177 168 60 159 65 88 75 151 155 84 165 157 116 92 58 98 142 130 135 178 84 139 197 194 84 145 181 138 172 91 176 111 136 51 54 167 96 102 136 98 107 77 69 153 84 163 152 138 73 60 76 182 177 103 177 73 151 73 186 116 202 105 154 86 184 132 171 67 158 129 49 149 154 106 197 171 150 92 150 98 77 143 161 148 90 105 70 93 55 66 93 216 223 164 211 176 112 179 173 84 174 105 112 222 153 161 126 70 110 168 182 181 177 111 122 104 95 97 102 195 205 157 107 132 139 104 192 86 128 68 76 83 101 202 168 122 157 219 203 165 178 91 74 71 130 89 158 174 97 167 97 160 111 180 101 59 73
93 97 99 96 86 92 94 111 126 132 162 161 181 170 165 162 167 190 180 178 171 173 172 164 168 176 186 205 203 187 173 180 188 197 205 205 198 174 165 156 147 152 155 156 170 169 164 164 143 162 141 169 144 147 105 118 169 176 196 196 187 128 105 82 153 134 85 95 121 108 95 193 195 190 134 122 128 150 84 97 128 98 99 96 151 128 72 83 91 135 99 123 114 189 167 107 91 77 83 114 92 94 100 119 103 64 83 109 86 69 49 48 136 69 71 90 76 69 69 85 87 157 106 153 84 95 176 87 127 80 71 129 81 191 125 121 102 181 75 102 85 150 170 67 64 148 166 96 175 164 147 160 159 130 114 59 168 177 177 187 81 150 101 153 134 192 199 193 122 162 98 186 160 120 127 81 97 125 111 141 145 153 68 82 60 77 99 117 78 173 175 90 201 99 84 179 117 75 121 167 156 70 179 96 92 191 168 112 106 165 73 159 143 83 89 114 90 88 178 125 176 193 189 176 113 169 175 162 180 168 181 89 172 150 150 146 169 75 77 115 160 106 118 128 76 160 123 100 84 170 88 163 136 161 65 121 60 103 116 119 33 91 137 147 167 166 170 145 116 107 120 88 173 108 135 121 75 77 97 107 88 139 93 126 119 187 89 77 72 83 79 86 140 80 101 85 98 125 127 60 70 153 110 90 107 80 180 177 78 108 78 93 133 162 94 155 78 124 104 111 120 69 79 154 156 138 98 163 213 129 148 130 103 183 158 59 167 76 98 164 198 194 102 174 167 214 204 93 178 182 168 123 99 96 102 184 77 83 148 99 177 92 68 90 150 157 171 164 102 127 105 190 160 192 152 90 189 79 96 86 120 149 80 143 92 96 169 100 148 136 102 147 90 182 101 140 146 108 95 156 132 63 160 143 144 96 95 93 181 146 110 159 171 141 135 126 175 126 86 161 150 86 168 110 49 134 154 159 172 121 107 186 137 130 120 117 86 96 84 192 157 130 94 98 55 76 186 137 205 158 188 140 117 179 196 157 207 213 211 210 173 180 165 115 119 255 189 172 155 99 188 128 146 107 163 105 189 194 163 108 167 120 98 167 100 167 114 204 157 176 139 125 125 218 129 155 186 165 153 176 186 177 138 98 102 165 138 117 110 75 124 137
87 96 101 100 89 88 90 103 122 144 173 195 199 198 173 167 166 165 175 162 172 165 153 152 157 170 170 179 191 188 187 181 191 192 196 194 178 178 170 151 145 143 143 167 171 174 149 162 160 157 159 141 130 140 163 140 119 192 146 155 176 156 139 149 96 91 121 174 87 97 156 116 148 122 91 162 72 126 89 71 72 98 85 102 82 144 123 108 166 98 166 107 125 166 120 98 109 63 132 96 101 106 97 121 109 121 62 57 116 56 67 82 82 74 95 89 145 164 182 106 90 156 169 83 87 100 176 180 84 66 64 102 157 98 175 195 193 169 146 69 118 139 138 78 57 61 118 173 122 146 55 150 101 122 112 161 131 106 111 124 165 105 147 109 160 109 113 179 167 157 108 179 159 169 158 78 167 156 119 151 122 114 160 93 153 75 168 174 124 72 162 131 92 146 118 80 181 153 196 106 95 194 162 120 129 111 113 116 125 77 170 148 161 139 101 162 190 133 188 127 90 170 178 125 108 129 152 155 156 61 170 119 164 92 105 125 89 112 76 146 135 119 135 101 170 80 184 82 168 63 162 158 160 132 67 64 103 158 151 87 148 158 150 163 68 98 174 145 178 198 92 151 172 176 171 172 82 131 66 80 163 128 195 158 174 126 165 163 145 64 161 58 56 98 68 161 154 73 73 81 107 155 144 122 129 93 97 71 152 183 191 112 134 105 170 81 125 109 152 167 78 87 255 54 138 96 166 186 135 122 117 200 184 133 120 154 85 141 178 181 76 103 95 85 183 141 110 187 155 67 75 163 130 97 97 174 99 177 76 85 77 121 63 141 64 87 101 105 139 162 179 119 202 212 152 201 161 170 80 93 145 62 83 146 93 113 87 71 110 167 114 98 173 89 66 89 136 60 70 56 53 162 171 87 139 183 146 85 79 112 79 116 178 185 96 104 101 108 73 86 86 116 128 168 163 163 72 63 98 174 188 142 78 137 155 76 162 138 103 148 159 64 113 107 77 98 140 86 96 118 208 205 128 124 136 109 171 93 148 201 145 172 109 113 104 93 140 189 161 105 173 63 140 82 124 133 195 198 155 207 205 147 172 168 154 177 181 138 119 147 137 220 125 178 126 179 182 99 86 121 74 83 172 128 205 186 114 139 132 89 88 65
80 95 110 115 110 91 88 103 130 167 187 205 208 203 189 177 179 177 179 183 166 151 150 143 143 145 154 160 177 184 191 199 205 197 185 176 169 163 160 165 154 136 149 166 175 180 184 172 170 170 175 183 143 145 128 124 185 198 182 124 169 150 88 99 79 83 97 139 142 120 171 162 195 179 94 120 55 58 66 135 93 102 113 141 76 141 99 159 102 110 101 130 165 121 117 67 91 88 59 109 139 99 115 86 122 101 84 60 84 62 46 114 69 94 167 198 172 131 112 186 88 86 83 102 148 181 152 83 65 79 113 159 141 128 176 98 94 85 71 123 135 159 92 167 72 130 165 93 133 152 159 94 67 155 51 88 157 162 120 131 128 129 166 177 152 156 162 133 131 91 169 170 96 186 92 120 92 79 67 54 92 170 94 44 140 155 104 73 66 145 106 155 104 134 175 157 99 95 187 130 211 203 149 106 120 135 176 188 76 166 154 78 152 68 67 160 106 182 114 191 186 97 127 142 153 70 143 135 32 92 159 72 177 84 96 42 137 120 100 158 166 94 77 87 178 75 121 142 114 62 66 67 169 76 172 74 70 113 178 110 97 135 164 107 170 78 57 77 179 102 177 164 76 60 63 69 138 47 105 57 178 195 155 167 170 122 90 99 92 90 70 135 40 103 132 121 138 84 175 184 149 205 109 159 86 167 64 58 112 99 84 90 163 94 174 68 62 163 117 90 163 104 118 135 118 82 78 185 180 182 108 139 92 77 151 155 167 107 129 103 152 133 133 255 153 96 162 183 67 74 154 137 174 183 136 179 170 137 135 141 59 160 165 164 153 145 63 169 71 104 172 93 88 199 103 199 144 104 161 57 136 134 129 115 72 130 187 123 113 86 121 129 92 130 155 121 115 100 166 115 90 149 98 160 151 209 186 100 93 182 123 80 125 120 169 89 172 177 106 101 75 113 102 79 151 79 86 97 155 113 88 89 88 169 149 149 159 137 61 98 170 145 70 163 162 60 174 185 148 206 211 165 169 97 168 164 163 162 108 192 163 82 151 148 62 118 81 102 158 118 157 76 98 151 165 102 183 175 194 172 124 199 158 144 104 96 195 109 186 110 148 212 182 140 200 113 87 89 79 111 98 72 87 174 186 104 201 124 103 114 92 115
73 92 116 130 120 106 90 101 127 168 201 212 204 206 195 175 174 188 191 181 174 165 144 149 143 152 138 154 168 185 209 220 217 200 175 161 147 153 161 166 159 145 156 157 189 203 197 191 181 179 163 158 149 182 178 144 195 173 197 141 158 148 152 82 149 149 143 108 152 185 174 120 188 93 77 61 115 70 125 151 74 135 76 64 153 111 110 112 117 120 163 152 160 101 141 57 39 61 47 88 74 80 76 112 99 70 106 75 61 26 23 91 105 82 145 122 117 158 200 104 86 79 85 106 91 108 100 143 146 122 154 61 92 122 167 173 186 81 93 184 174 116 152 148 158 151 157 137 106 108 162 155 68 71 55 49 101 137 121 71 136 115 118 106 162 86 106 86 150 93 164 112 183 141 187 121 129 169 169 144 151 89 157 152 115 68 149 147 152 97 122 136 79 160 137 158 88 193 194 218 214 185 140 133 171 171 150 89 87 97 137 126 95 157 177 78 166 106 123 117 113 174 126 106 153 62 69 124 68 133 77 74 68 128 47 97 36 43 145 98 81 161 112 84 178 70 113 69 170 62 146 141 164 150 74 146 128 186 184 80 89 164 153 183 186 147 81 82 96 118 131 65 102 155 103 128 70 55 80 100 130 134 145 171 116 187 123 175 75 64 47 112 93 32 68 105 119 162 117 126 116 117 96 179 174 113 55 87 155 94 95 111 135 155 164 55 98 59 83 175 72 142 172 71 172 110 120 84 186 153 141 163 82 94 165 75 66 129 48 155 160 101 106 113 94 94 96 99 114 56 100 134 180 183 158 71 74 160 93 76 132 115 142 153 69 53 56 105 158 160 81 113 163 81 114 158 94 168 74 72 116 55 54 129 158 65 180 181 128 194 188 104 157 122 75 145 97 103 153 82 81 88 198 163 118 205 212 127 156 163 86 156 120 65 158 160 78 77 147 79 84 69 112 164 87 86 178 100 147 187 108 178 177 76 62 101 120 153 85 147 146 150 185 130 161 87 148 180 88 147 156 108 133 186 172 117 72 82 187 185 167 151 160 150 55 119 113 117 78 108 142 122 142 169 100 115 87 188 137 97 128 132 98 158 149 99 109 211 199 176 135 128 110 120 85 131 57 68 98 173 72 77 71 77 176 86 121 72 141 62 65 76
71 96 125 140 132 108 102 105 127 164 183 180 183 190 184 195 197 192 206 199 178 167 158 148 146 143 142 140 159 174 197 213 209 185 170 154 147 144 148 171 179 169 177 173 176 208 181 191 170 165 146 197 186 142 138 150 192 206 145 187 129 153 149 142 95 136 149 96 110 159 164 199 154 184 255 71 151 63 100 77 80 78 126 70 81 166 155 117 122 103 83 87 142 124 80 111 40 55 50 89 107 80 77 108 86 75 75 52 58 35 22 47 112 90 96 121 126 189 165 120 91 80 86 99 192 161 109 107 55 46 53 77 68 81 81 174 153 120 86 190 86 183 73 157 65 74 175 90 80 87 106 115 82 77 27 80 128 36 157 122 183 91 194 172 166 145 78 81 84 100 166 84 189 189 110 97 170 198 186 98 107 119 119 132 145 91 172 188 98 55 62 108 68 153 79 86 88 204 137 109 108 161 92 191 113 146 111 103 122 159 153 92 116 173 93 96 79 106 144 74 122 159 147 169 73 157 54 149 149 150 162 125 154 89 105 141 35 82 134 162 128 192 185 77 94 162 76 148 143 74 117 102 173 87 95 183 172 93 192 98 151 125 197 138 98 179 72 139 115 135 128 77 155 66 150 101 94 94 103 119 99 113 170 91 94 158 68 141 57 42 77 127 113 100 149 135 141 99 127 95 98 187 82 161 166 102 70 123 93 95 94 103 114 123 39 69 77 61 62 105 99 142 177 94 171 68 162 125 188 95 79 126 181 80 177 143 69 124 46 159 70 76 74 160 74 168 171 69 58 148 75 78 73 89 181 105 165 111 60 79 84 74 170 122 167 64 94 90 51 140 97 152 163 152 108 104 101 132 173 72 141 123 53 122 61 88 72 154 85 124 96 181 156 175 120 255 157 69 174 163 195 209 115 188 193 182 208 133 168 170 82 181 78 162 103 145 88 196 173 104 105 128 133 74 76 85 156 142 191 103 108 149 97 158 74 165 88 95 125 143 165 151 194 191 188 189 143 82 185 170 117 143 187 121 173 161 72 119 99 87 118 110 67 138 89 145 92 73 142 97 118 144 163 161 136 106 194 192 91 87 98 137 105 187 180 185 199 144 138 169 145 158 255 107 154 132 71 177 94 95 78 87 175 86 92 178 166 124 97 66 90 101
74 98 125 143 138 125 111 123 136 161 167 163 169 159 185 188 185 198 196 203 195 171 171 160 159 146 145 151 152 168 180 188 184 178 163 153 149 156 161 175 182 200 192 170 172 184 190 195 181 162 162 183 156 121 115 156 194 200 192 180 124 107 102 132 137 89 129 147 112 123 176 107 116 112 137 142 107 86 166 148 120 125 111 80 84 103 114 154 110 99 92 106 79 145 75 59 69 64 58 69 111 75 84 89 119 98 66 84 43 54 50 37 41 81 106 110 122 89 96 81 163 129 88 114 107 91 92 71 162 112 150 151 69 78 79 116 166 147 172 189 122 105 168 67 80 75 99 191 200 107 114 141 186 130 92 40 105 80 132 169 137 91 192 189 157 179 153 173 116 136 138 177 187 111 187 110 135 198 188 127 148 116 160 179 116 182 96 162 170 61 151 70 88 147 123 100 157 158 198 105 104 92 115 142 129 110 154 142 136 96 152 181 140 127 73 157 79 75 135 101 100 61 153 78 92 130 147 71 94 78 81 59 80 170 117 58 124 74 64 132 98 181 176 89 169 159 163 175 133 156 102 48 148 133 122 105 76 119 112 134 88 93 176 189 112 182 165 132 38 146 85 73 119 70 158 102 125 60 53 46 129 83 124 91 197 112 164 82 94 48 116 38 128 85 101 156 74 157 87 124 132 151 136 130 172 94 168 139 72 68 63 64 69 49 34 77 75 69 163 82 144 117 79 169 102 98 86 113 110 197 141 128 170 90 121 82 119 148 59 64 95 187 80 78 70 149 172 150 63 62 158 165 73 178 101 90 116 92 75 157 144 123 150 143 107 135 146 141 89 54 127 154 58 68 160 125 132 156 82 114 57 64 161 152 88 62 136 121 117 122 87 135 195 97 182 84 142 154 153 105 108 129 207 146 130 180 195 94 172 144 78 128 101 99 189 103 107 196 209 104 192 83 85 168 158 99 76 178 135 98 187 178 91 98 120 159 53 151 83 53 114 179 146 192 119 94 149 178 179 72 131 166 163 104 112 119 165 162 174 177 157 142 157 113 62 133 80 91 135 95 158 164 127 189 106 80 144 119 162 120 54 102 134 170 187 93 145 184 137 176 94 99 170 175 94 113 127 177 108 93 164 82 163 125 162 137 107 79 160 100 151 164
84 106 133 146 143 137 130 136 143 161 158 153 152 156 166 185 195 192 192 181 197 192 169 169 165 171 167 164 163 150 160 160 164 163 155 160 156 161 163 186 210 211 190 184 187 192 167 188 131 140 116 156 166 163 159 149 175 140 155 125 169 85 138 79 148 98 160 166 156 189 143 108 104 188 131 134 110 189 131 105 95 93 115 87 104 99 166 110 99 95 76 85 127 121 124 106 61 77 72 69 72 84 136 95 119 130 77 61 54 71 54 55 82 87 101 81 111 87 146 86 95 90 96 99 97 88 107 84 122 164 51 140 133 66 168 165 125 61 169 113 176 119 80 131 70 189 180 205 125 185 222 187 177 166 40 49 34 112 90 123 177 114 194 100 173 196 181 129 122 93 140 170 186 116 95 204 201 190 173 74 178 172 119 88 174 200 101 120 123 62 57 111 148 154 74 74 189 200 206 204 171 97 133 172 159 95 146 87 140 163 80 84 191 151 179 78 145 141 158 141 158 139 165 87 102 103 153 198 187 174 129 158 94 178 105 165 69 165 185 191 115 179 177 157 73 127 190 128 102 154 86 136 136 155 157 100 65 88 111 163 188 171 150 208 142 181 111 101 77 69 65 121 108 149 96 88 91 99 135 95 94 125 91 95 130 179 109 108 90 61 144 108 141 112 80 89 94 118 76 185 166 85 174 122 154 121 91 90 68 108 156 156 68 65 64 68 62 101 65 123 49 150 68 158 161 93 85 180 101 114 111 180 102 72 72 163 111 91 52 142 87 152 125 154 75 184 111 179 160 166 167 97 96 145 60 55 56 50 155 120 125 89 77 167 173 163 111 71 156 153 147 54 144 83 126 72 170 168 56 48 141 132 146 173 92 170 164 154 157 88 84 188 112 209 110 96 141 151 90 186 163 127 127 113 109 95 91 188 179 109 78 96 126 144 141 156 112 170 168 176 151 96 169 98 160 77 100 96 160 89 197 99 102 101 87 165 67 136 64 82 138 133 161 163 191 203 123 147 115 184 131 185 99 118 179 130 174 114 82 115 73 98 82 184 131 112 94 144 129 151 165 158 193 161 102 176 102 103 173 154 140 158 94 183 120 183 92 112 123 87 93 181 182 159 179 131 95 87 96 112 111 133 200 208 190 159 190 127 137 104 170 80
102 118 133 143 144 140 142 142 157 160 163 148 146 145 170 177 167 176 172 170 186 183 183 183 182 190 183 182 162 164 155 156 153 160 164 165 162 166 171 194 210 186 184 186 167 199 202 182 172 154 153 111 152 108 162 119 189 129 136 163 110 82 149 144 119 178 126 183 149 149 192 172 169 196 147 123 206 115 112 183 103 165 88 83 76 79 124 92 140 91 85 88 125 155 104 73 99 75 79 71 127 89 99 148 100 101 94 111 116 82 68 132 71 98 97 137 74 130 60 68 95 133 81 103 178 172 89 139 100 106 68 64 148 110 70 100 123 86 180 189 190 97 189 85 155 178 209 210 152 223 224 209 158 170 150 133 111 99 190 162 104 175 192 182 180 152 195 143 81 85 170 159 184 96 184 196 174 139 169 163 90 114 122 141 133 132 189 97 167 77 75 81 146 80 128 76 88 197 105 173 109 122 172 77 145 73 96 70 125 162 105 129 144 110 87 107 80 65 128 97 52 64 99 88 116 124 211 202 87 63 146 51 105 81 178 164 84 172 144 115 193 191 107 145 194 199 112 141 71 133 53 112 86 136 153 162 161 119 121 174 124 77 184 96 201 189 130 107 104 97 54 68 163 158 70 136 154 68 155 166 69 133 93 132 111 99 101 118 68 143 51 55 70 163 143 115 80 137 77 79 78 87 189 178 199 149 128 82 67 157 65 58 132 77 77 72 75 154 62 101 115 60 103 172 146 92 170 94 128 103 101 184 175 61 72 62 89 126 68 142 190 117 186 108 186 190 183 183 120 156 165 74 172 142 150 125 151 146 143 118 141 148 164 102 111 182 115 134 122 92 155 117 156 80 165 166 79 67 158 45 83 103 122 143 137 112 144 143 114 53 144 114 179 136 219 174 117 69 146 110 164 214 126 102 182 95 83 93 178 96 85 190 94 120 206 147 112 197 198 104 111 171 144 135 55 131 142 147 123 184 146 102 107 101 185 85 166 139 124 115 125 101 112 89 104 95 210 129 163 140 179 200 190 175 192 102 171 65 143 162 139 173 172 184 175 138 64 89 74 157 180 104 167 118 83 66 58 121 65 109 148 68 94 76 149 81 74 71 69 118 139 71 101 97 169 149 193 195 184 159 113 138 108 166 129 117 168 171 67 65 170 75
117 128 139 151 152 157 156 156 165 167 170 148 149 153 163 165 173 157 169 175 164 178 170 184 198 204 186 190 170 164 149 153 164 173 172 161 154 155 168 186 196 174 189 169 208 212 215 199 164 168 163 121 162 133 157 183 168 193 187 136 106 134 110 101 100 163 161 116 151 180 129 152 185 101 139 188 189 129 103 100 97 118 83 91 130 143 138 90 100 158 87 125 96 88 77 79 74 83 114 97 72 117 98 121 108 118 70 105 73 92 150 123 72 69 98 144 90 62 117 114 76 171 86 97 98 106 105 86 190 118 181 68 64 140 151 72 171 125 96 94 96 203 175 147 184 140 174 213 137 238 213 175 151 129 141 177 116 129 169 187 162 126 171 173 144 198 140 98 72 170 153 110 117 177 168 180 127 169 68 135 106 159 108 135 121 125 176 82 163 85 184 171 146 168 154 122 176 90 171 210 134 100 154 108 146 141 44 158 79 141 178 164 188 169 151 154 61 143 138 121 140 75 50 109 127 168 148 187 79 70 155 148 171 133 76 121 175 189 119 120 108 211 214 160 203 124 198 194 161 125 69 101 41 47 55 73 73 75 96 157 158 148 95 86 136 176 147 108 119 52 149 74 103 131 82 126 114 119 82 100 146 93 116 120 195 197 81 155 64 59 66 143 75 85 125 171 174 91 96 107 139 83 183 183 107 112 144 123 93 75 128 60 131 80 127 79 101 172 82 79 158 150 74 154 150 90 129 114 169 101 207 202 163 148 56 64 158 142 128 71 190 156 97 187 185 128 88 168 111 187 161 149 163 159 170 127 155 154 142 96 159 122 157 102 168 120 94 155 139 75 61 107 171 177 110 92 95 81 137 69 76 167 151 150 153 107 161 87 137 71 175 191 181 182 208 112 190 92 168 151 95 207 178 153 101 82 87 174 142 168 106 83 140 154 179 119 103 99 174 96 87 125 40 108 56 97 69 146 95 131 186 201 184 102 179 255 134 174 74 67 97 45 147 163 180 125 115 163 216 123 203 103 106 207 162 96 179 97 116 129 112 155 79 157 195 88 167 154 112 96 190 134 168 80 93 55 155 65 159 138 143 164 62 169 81 90 73 69 86 154 82 151 108 95 150 132 107 171 190 91 188 194 138 206 201 154 130 114 82 104 127 125
125 134 144 151 157 163 168 170 165 160 148 148 145 140 149 168 164 167 157 153 168 179 174 195 200 213 195 186 174 169 161 166 173 189 184 178 161 154 164 164 169 184 180 197 211 221 216 192 195 176 148 140 164 165 189 201 184 177 199 153 108 139 90 175 149 91 161 147 162 99 137 153 114 174 92 92 112 145 112 121 86 148 146 127 71 78 73 116 83 147 109 89 80 66 72 66 68 73 101 108 84 112 82 93 81 101 76 104 75 103 112 154 96 75 81 95 106 134 63 66 138 146 156 181 179 90 86 143 81 106 164 64 103 143 91 158 93 89 158 194 148 181 100 195 193 182 161 201 196 191 130 133 96 176 165 160 206 223 221 180 139 121 180 138 109 139 175 111 130 86 73 118 110 137 156 141 170 168 140 75 88 147 108 78 168 138 90 131 133 100 182 73 65 65 165 88 141 157 94 151 114 124 170 140 73 125 76 167 73 186 88 91 85 197 120 169 57 125 43 117 35 74 74 101 61 59 98 55 149 113 111 166 176 73 166 166 79 125 159 161 206 129 179 212 115 146 191 84 173 121 113 26 81 93 60 151 158 156 108 158 85 116 58 159 180 160 176 148 92 105 127 131 158 156 149 62 91 169 130 117 154 204 143 112 98 185 118 143 103 93 174 185 102 114 176 79 74 173 170 104 75 78 174 98 177 205 186 151 119 109 59 62 121 108 118 182 142 118 91 81 168 97 71 128 156 99 182 183 159 103 161 101 113 86 137 157 143 100 161 102 97 152 208 197 170 155 110 67 108 133 98 103 175 117 181 180 105 89 77 66 128 83 158 162 88 182 133 172 70 85 120 117 191 135 187 207 135 121 63 145 119 91 134 206 208 92 176 146 50 98 161 180 218 207 210 193 166 102 71 115 121 131 96 96 172 75 136 133 128 116 64 104 161 110 84 153 148 186 174 78 138 146 117 58 66 66 75 54 96 110 138 166 111 121 154 62 173 129 187 94 84 140 60 162 82 129 120 224 179 114 113 94 176 187 102 186 131 183 93 100 126 179 148 166 157 161 153 84 62 145 179 187 191 83 84 149 139 51 143 147 171 77 156 67 165 104 143 79 110 80 154 147 62 100 125 193 131 107 179 196 89 99 123 151 139 169 140 156 112 78 99 149
123 134 150 161 162 163 165 167 173 163 139 133 150 146 152 170 169 168 163 155 166 174 177 193 208 208 187 181 171 166 160 168 182 199 202 191 165 153 158 167 181 174 190 191 176 206 167 183 202 188 186 186 168 157 152 202 186 204 191 112 85 118 171 152 108 113 106 115 155 88 140 141 162 133 137 153 67 68 59 151 90 76 72 75 94 117 135 97 120 86 102 99 113 74 66 58 93 119 92 97 98 120 73 105 99 73 111 91 101 72 96 73 89 152 121 158 104 63 103 51 45 65 145 144 155 122 181 166 75 160 121 70 150 56 149 185 90 192 187 86 86 190 100 208 172 202 128 97 117 168 125 109 156 181 108 198 202 169 224 170 154 164 118 159 120 204 86 169 158 150 167 85 119 142 149 72 151 117 136 72 84 124 152 185 133 173 133 83 255 122 117 163 62 84 115 148 147 100 194 84 106 90 149 159 90 68 152 165 74 174 159 132 167 146 140 95 151 35 69 128 131 141 77 45 70 65 37 135 53 53 144 175 173 83 132 65 93 188 201 167 205 239 228 190 128 170 172 190 93 174 147 150 46 83 64 72 73 69 163 153 62 156 51 98 122 185 117 180 148 119 81 93 146 177 169 77 144 184 132 209 180 144 138 118 124 88 113 131 159 68 166 97 100 199 90 171 98 67 148 69 95 79 169 167 199 105 126 125 72 153 83 97 109 179 83 104 90 169 85 130 130 74 174 84 98 111 198 155 107 127 106 106 213 203 184 150 169 164 74 177 100 196 121 135 178 70 157 144 87 151 104 110 181 96 188 182 173 132 162 66 62 80 149 158 99 187 142 171 148 69 181 179 126 178 184 199 166 148 65 53 92 102 192 123 199 145 133 68 156 58 96 170 208 108 166 161 169 99 139 169 107 156 96 127 80 83 135 143 55 48 147 54 59 91 133 151 116 255 84 130 75 87 120 51 57 70 38 114 158 156 162 174 83 67 129 74 152 107 204 92 169 154 103 72 126 169 194 171 110 112 106 170 70 67 68 174 93 156 184 188 185 113 180 131 89 116 168 169 112 66 147 124 199 110 141 101 141 150 93 111 86 122 64 156 73 159 166 177 114 88 55 49 83 92 195 124 117 138 101 167 182 189 109 226 171 199 142 82 155 154 61 134
132 142 154 159 159 155 157 164 160 147 138 131 140 153 171 186 179 174 158 151 171 174 192 190 196 192 182 171 155 153 143 151 177 197 204 195 175 159 162 164 192 199 184 171 184 182 171 188 206 174 200 187 156 159 184 161 183 201 189 153 142 126 146 114 95 162 106 145 96 137 123 140 70 97 71 82 73 62 65 131 128 73 88 101 94 97 136 88 134 104 92 89 83 127 92 81 71 114 112 92 90 79 113 67 105 116 82 145 77 68 78 88 88 143 102 97 69 119 145 77 101 59 66 84 120 180 122 141 64 112 61 18 98 83 115 129 155 162 189 82 81 89 125 114 117 102 99 119 177 131 209 211 171 87 105 165 156 160 195 87 135 137 130 183 172 205 192 96 107 146 172 80 161 126 171 106 94 92 153 113 71 147 178 102 183 134 156 150 126 101 167 96 149 140 125 195 194 193 127 79 103 87 179 89 176 116 59 170 86 183 136 184 75 65 85 143 130 37 45 69 132 45 77 44 34 56 130 120 48 51 255 88 188 173 166 72 184 198 158 243 177 231 108 190 167 97 149 191 196 191 159 78 121 151 129 57 70 151 168 175 73 55 132 79 139 187 176 174 76 155 74 115 162 160 85 67 174 141 190 205 132 181 118 120 121 122 85 92 164 126 157 161 125 176 97 105 58 130 65 62 68 83 98 147 145 107 92 137 160 116 160 180 156 80 90 110 189 164 176 176 105 103 161 193 110 203 192 165 175 188 92 124 206 199 98 129 157 68 180 133 168 111 195 93 189 171 155 40 54 71 164 71 74 118 154 178 175 111 80 54 145 130 187 95 89 152 73 163 158 104 183 88 203 146 133 120 189 96 139 65 149 173 189 196 165 159 83 69 131 96 104 110 200 192 142 111 132 129 147 149 64 74 176 182 172 120 61 125 112 143 62 129 60 102 165 101 97 196 167 100 148 88 60 153 126 48 65 56 78 183 159 172 123 89 120 160 88 204 112 115 198 183 133 174 77 182 140 184 153 90 129 111 58 82 147 134 156 200 231 124 168 182 69 177 177 105 174 133 65 108 161 136 195 127 127 78 115 144 47 150 158 165 100 75 157 86 86 82 100 179 65 95 140 120 77 122 80 160 198 151 186 89 106 96 95 86 169 155 46 129 128 171
144 148 153 153 151 154 162 163 163 152 137 137 149 164 190 200 201 178 182 174 179 186 173 184 177 174 169 154 152 144 137 144 163 187 198 195 172 165 170 184 202 209 185 170 174 166 171 152 189 199 174 154 132 176 127 181 170 141 149 137 175 104 181 113 124 115 108 93 90 69 158 62 61 116 156 124 123 53 138 125 64 76 118 109 137 143 95 170 132 141 108 133 83 95 127 69 100 120 90 90 87 120 107 66 67 67 124 112 105 72 74 70 92 86 82 117 80 121 137 80 133 120 166 96 95 137 90 183 80 89 124 11 102 88 124 173 106 145 149 138 107 119 183 127 219 108 198 87 169 197 204 175 203 189 181 183 146 91 86 155 41 97 142 67 103 130 176 155 101 113 123 139 171 160 68 136 180 132 157 77 150 126 168 106 142 165 184 195 88 177 162 58 151 115 135 75 125 184 191 119 79 128 101 180 139 123 67 114 88 129 134 99 152 143 50 90 52 70 37 38 125 140 150 152 68 118 140 74 68 48 65 91 90 186 87 90 204 171 214 153 158 115 127 175 116 91 170 93 157 150 190 106 160 41 84 153 72 157 200 112 124 53 129 99 116 111 153 157 81 74 146 109 131 84 91 162 93 158 150 193 138 224 112 193 127 123 73 64 168 183 103 205 197 113 57 141 137 89 66 106 151 154 189 136 123 128 174 176 148 76 72 188 115 106 169 74 167 84 98 106 110 131 184 131 211 209 101 90 82 88 164 191 146 167 175 159 166 145 135 177 153 165 181 190 88 115 68 45 55 131 62 94 162 149 147 164 169 164 89 140 128 74 138 189 72 109 134 124 71 110 168 190 100 159 183 117 121 186 62 72 60 182 209 146 105 175 76 169 89 150 130 136 187 143 164 102 152 136 94 80 126 149 77 86 171 155 77 34 24 113 72 57 125 137 86 156 90 158 119 123 107 182 89 113 162 136 79 143 64 123 160 85 98 148 55 166 184 114 135 208 208 182 113 132 172 169 72 145 139 136 68 52 88 77 56 127 153 116 207 141 103 107 94 116 171 95 197 86 94 138 144 143 94 92 175 73 80 141 57 126 46 118 120 96 112 141 174 81 185 125 139 101 117 69 137 68 179 160 100 140 148 77 133 170 137 105 57 53 60 89 150 117
158 153 148 144 142 149 160 162 158 152 140 147 154 163 193 201 193 179 179 164 170 170 185 161 161 166 159 156 141 138 134 133 144 162 175 176 170 175 172 185 205 213 188 179 177 148 178 194 210 179 195 183 159 175 150 141 142 175 140 159 192 183 143 168 189 107 123 131 111 86 67 82 77 91 166 125 67 69 147 72 78 94 97 117 130 91 148 97 101 145 147 99 103 68 80 63 94 89 103 78 91 118 59 56 64 115 91 131 162 112 75 77 111 108 108 100 59 136 54 120 111 149 84 161 93 109 199 88 155 91 141 39 52 153 131 110 194 111 151 183 146 84 122 202 216 200 204 130 98 208 209 182 195 97 198 88 130 78 149 151 47 99 96 102 133 173 106 93 134 120 139 151 158 159 112 176 135 138 161 107 143 79 115 82 106 181 176 107 153 169 104 76 80 181 145 166 66 144 180 134 96 83 145 148 104 147 83 146 93 192 193 79 157 157 157 175 124 77 52 39 96 149 144 67 87 150 54 145 154 56 84 88 81 183 74 187 108 198 220 119 146 193 187 66 71 169 82 109 132 145 126 179 131 89 71 152 124 117 203 194 164 51 148 165 133 194 156 164 159 91 158 89 160 95 170 68 100 121 129 118 185 214 107 176 85 102 144 139 125 87 170 187 197 170 47 118 141 59 158 164 141 109 86 104 176 220 115 165 168 119 157 111 148 88 71 69 111 131 118 100 102 194 140 118 172 101 91 83 137 178 86 194 100 200 122 168 170 68 70 66 59 130 71 149 106 116 155 153 110 118 150 146 107 56 97 163 119 111 146 130 155 173 188 114 119 134 131 110 65 164 173 143 112 166 190 110 192 134 70 115 148 149 192 125 184 80 104 157 149 132 177 161 81 178 73 72 58 77 126 36 142 163 179 92 99 66 151 86 123 78 54 108 160 164 88 93 100 187 155 101 136 113 88 167 147 67 48 141 96 183 181 192 137 72 78 95 84 95 97 161 153 174 177 130 163 77 54 136 103 149 63 77 147 75 98 139 153 165 221 170 132 149 87 117 106 189 154 178 138 111 174 91 96 255 145 86 56 56 91 134 58 145 168 120 183 72 78 174 130 89 116 103 163 86 63 151 83 166 197 194 88 68 86 101 64 70 73 157 57 66 109 135
153 145 137 131 133 151 164 165 169 156 151 148 152 168 179 190 199 186 174 170 179 170 172 158 157 170 171 172 167 157 149 145 142 145 149 165 167 180 179 187 192 181 193 190 187 186 170 206 175 200 174 179 176 182 120 171 169 171 136 153 148 222 204 124 192 182 166 102 130 122 119 109 152 156 108 129 79 162 83 90 96 106 155 134 148 156 136 131 105 134 123 133 68 73 65 76 61 65 71 62 89 89 55 81 91 93 102 107 115 90 113 161 142 122 145 132 55 48 53 128 65 81 90 147 89 113 102 190 173 80 139 151 142 70 162 203 184 105 195 83 78 95 99 118 126 213 147 172 209 211 194 203 195 205 180 205 115 168 172 63 146 108 110 131 130 85 80 164 170 188 208 149 171 118 83 137 149 91 157 129 102 134 183 167 142 98 178 101 110 141 84 80 91 86 172 56 150 82 96 180 189 109 152 92 135 71 109 122 98 198 193 146 107 144 126 186 184 98 157 100 90 149 98 79 179 124 87 167 57 141 160 147 162 86 141 108 81 188 148 124 113 200 84 111 106 155 155 194 183 190 104 70 54 83 92 51 97 151 171 187 167 70 139 91 190 192 175 123 159 116 144 145 117 81 140 70 63 158 69 173 193 202 168 138 98 135 90 87 70 177 171 157 103 95 133 133 61 126 103 145 81 89 187 209 216 116 149 88 100 114 104 76 64 65 87 76 89 139 89 143 87 95 117 101 94 175 78 183 85 149 115 91 82 154 136 185 138 98 91 57 140 140 62 109 200 117 107 68 55 53 132 125 121 117 66 68 151 151 112 49 153 166 119 158 81 158 151 122 169 123 132 88 192 128 168 141 163 177 184 79 255 96 143 167 86 70 157 54 70 168 74 99 158 67 133 86 113 87 106 143 150 156 132 155 129 169 80 146 127 53 47 102 74 69 119 127 128 132 178 104 91 172 189 168 68 129 150 130 91 86 174 111 147 83 73 69 177 80 99 94 122 109 113 145 83 57 131 93 109 64 82 52 144 47 158 111 185 187 145 183 129 150 175 147 186 164 117 188 207 88 126 85 93 91 79 74 82 110 87 74 122 56 95 128 186 72 108 110 129 151 82 161 91 118 150 68 135 142 76 70 70 79 59 52 87 82 61 60 141 96 193 109
143 135 125 124 126 145 162 172 174 162 139 146 146 154 156 156 164 167 185 167 183 184 182 169 158 174 173 179 183 175 176 167 158 147 150 158 174 179 179 171 177 180 179 186 175 206 209 202 183 174 189 171 178 151 170 138 175 176 211 164 188 178 162 197 193 163 100 132 64 97 59 129 90 136 95 115 86 112 155 124 114 185 103 160 138 82 142 86 101 113 154 96 64 90 83 85 114 75 94 86 41 45 57 65 83 113 104 128 133 153 121 255 128 108 95 90 73 137 129 92 72 95 93 110 94 147 143 172 191 98 121 71 77 80 167 190 104 202 197 180 71 184 120 214 157 192 108 199 118 169 113 98 101 202 197 215 196 143 164 186 174 137 120 106 92 96 130 136 172 126 185 140 102 159 77 159 74 63 67 154 158 89 171 71 117 118 170 155 144 91 163 191 214 142 89 174 54 76 89 178 177 170 157 80 116 139 91 160 112 129 156 97 147 94 191 118 92 68 139 135 79 70 111 159 188 133 102 138 122 73 166 73 121 175 74 119 93 171 105 139 168 110 191 181 170 95 141 197 92 94 163 169 67 126 47 100 90 152 191 160 165 84 128 166 89 167 157 110 93 190 104 116 123 153 123 77 158 160 140 87 104 96 86 165 86 138 169 165 100 175 121 172 208 80 69 133 157 165 73 112 100 196 158 164 160 132 117 84 66 129 41 56 54 70 106 108 159 195 88 151 78 175 74 68 116 68 74 137 85 122 158 117 68 172 71 95 128 174 173 78 165 131 66 101 174 167 193 165 128 111 39 135 160 174 114 170 67 95 100 50 41 102 173 84 150 162 141 168 168 89 86 108 179 184 90 146 141 79 136 105 162 106 129 90 184 100 68 94 92 157 159 180 137 84 69 157 49 119 148 78 65 127 96 136 150 145 63 152 47 50 132 67 84 151 110 208 184 111 180 92 181 102 180 173 63 69 102 76 127 175 96 93 128 158 164 144 75 76 75 71 66 106 167 163 101 58 70 36 112 119 123 100 55 136 167 102 90 120 158 174 164 186 125 89 180 100 100 180 204 161 98 125 113 197 84 168 148 114 79 62 169 174 119 175 92 75 144 53 64 75 59 153 58 166 169 72 93 164 158 103 49 134 145 50 108 71 109 64 140 77 107 206
128 122 116 118 128 144 162 172 172 154 147 137 144 149 146 144 146 169 187 182 181 174 179 159 163 173 185 188 194 196 195 192 176 155 150 155 158 171 172 169 166 147 143 179 195 196 191 219 185 181 155 183 167 146 168 166 182 255 221 223 219 163 163 138 135 143 170 79 121 128 60 146 168 100 108 169 156 125 92 129 114 120 93 72 63 72 69 141 120 159 108 106 71 113 96 66 100 77 105 61 78 31 76 74 139 94 117 115 113 88 82 80 89 124 89 142 94 76 75 77 95 128 122 171 98 195 191 208 106 100 147 193 98 117 165 197 198 143 199 80 91 131 205 199 214 120 147 120 169 95 163 152 151 187 211 198 206 152 171 154 147 134 150 129 160 160 159 113 127 124 161 113 76 66 154 159 167 168 77 147 113 136 79 160 161 140 161 255 102 91 147 168 218 219 104 191 139 153 151 168 89 168 91 163 144 161 168 187 92 89 68 66 163 113 80 92 169 61 125 156 63 90 97 99 209 152 82 149 106 64 163 169 106 68 107 155 116 134 92 205 162 97 168 162 120 175 104 196 82 153 164 140 74 165 59 159 154 132 87 176 170 163 81 174 86 172 159 141 198 116 89 158 86 93 100 161 174 93 141 108 85 89 71 79 73 122 145 112 149 126 139 110 113 143 107 98 162 79 82 115 132 164 103 139 100 85 96 151 83 139 134 43 135 104 96 97 126 90 103 90 122 141 53 95 78 68 95 158 110 135 122 158 87 167 73 120 111 185 94 190 123 115 133 114 150 158 203 148 109 153 101 157 165 159 74 162 124 105 76 144 113 52 90 103 141 175 182 173 100 136 83 117 163 94 88 89 153 137 149 195 113 96 118 90 124 63 97 61 106 63 71 83 168 100 58 52 153 98 151 72 144 119 118 93 130 148 87 111 62 135 84 71 169 172 201 131 191 120 94 79 93 153 162 170 138 73 180 100 87 172 130 181 180 146 176 133 110 187 118 125 159 160 76 177 140 164 255 118 78 94 110 67 133 153 63 101 163 112 166 162 163 146 173 167 134 184 188 154 176 130 86 151 187 134 87 72 120 147 113 91 93 93 203 120 102 76 44 135 38 90 73 119 116 166 155 90 67 88 59 68 42 122 110 144 166 84 69 66 123 66 116 102
121 118 113 118 128 149 157 169 172 164 148 146 146 147 131 129 133 151 175 192 197 189 181 159 163 165 163 168 185 198 204 202 182 166 154 149 156 156 164 160 163 156 159 162 188 195 206 173 184 195 145 137 150 135 114 113 191 149 181 201 158 165 193 190 136 174 128 91 66 129 51 152 101 89 83 157 149 92 137 126 156 170 81 98 97 69 91 73 146 103 104 96 87 79 139 98 71 107 61 89 49 37 84 62 105 133 103 137 151 98 71 100 91 101 92 148 171 101 101 96 115 162 126 169 96 115 99 119 206 199 110 197 176 103 96 167 85 184 95 113 175 181 192 211 145 204 137 97 170 80 77 147 183 193 189 186 160 189 182 132 156 199 102 174 87 172 161 105 112 136 106 84 94 147 110 167 148 89 84 168 123 163 118 108 180 171 124 131 68 125 78 150 193 126 110 128 82 84 147 95 84 106 101 138 91 144 180 118 167 147 113 72 77 128 65 148 95 146 112 82 78 112 165 102 106 196 129 111 58 62 108 162 75 140 145 152 139 176 140 119 113 167 173 70 78 101 115 173 135 138 67 76 114 94 178 100 181 168 70 171 158 100 127 174 170 120 122 162 160 149 139 174 133 74 117 170 107 186 99 94 86 94 121 92 127 91 193 177 198 181 137 173 215 114 128 155 160 137 166 160 161 110 128 94 152 83 108 103 131 108 41 126 78 156 71 92 89 189 87 148 74 81 151 59 48 31 51 128 56 143 58 66 77 95 125 102 164 153 197 128 107 191 187 139 91 158 149 137 91 60 58 128 138 169 125 71 63 153 79 154 145 114 92 158 106 101 203 155 115 176 99 81 157 102 120 170 177 188 138 104 209 148 151 117 153 137 62 73 92 96 83 111 165 123 118 83 74 113 63 166 96 105 96 138 91 151 75 107 96 143 162 163 64 183 131 201 197 81 145 140 173 76 98 175 100 111 81 84 139 64 170 154 167 78 87 85 113 140 116 143 115 140 82 104 68 149 90 157 114 160 172 136 76 170 177 122 155 97 168 132 133 159 166 121 147 143 97 116 187 84 131 176 176 183 109 128 65 57 123 103 188 129 212 132 152 140 152 87 49 65 120 102 81 133 123 153 105 63 90 150 56 124 168 70 85 85 87 139 160 141 65 172
116 117 118 122 134 157 172 174 172 168 160 160 170 165 161 144 151 167 172 181 188 179 179 161 161 149 157 164 170 193 201 193 189 171 157 140 146 140 150 144 154 164 177 192 206 205 190 183 158 157 171 159 179 168 136 117 143 143 203 161 174 161 188 114 161 110 149 136 162 79 94 100 112 124 144 151 118 106 116 169 91 94 123 99 75 145 74 80 80 88 142 94 108 136 111 124 71 82 69 105 104 94 82 66 76 113 93 140 96 119 76 140 111 76 79 83 111 85 97 109 202 167 172 117 107 148 144 164 108 172 182 102 113 203 148 79 124 112 190 93 96 102 196 125 109 194 189 180 172 168 67 134 177 91 145 109 84 131 102 197 158 127 195 169 87 94 75 110 58 36 129 142 158 61 146 119 91 168 122 183 77 137 152 152 86 135 166 127 74 176 167 161 172 146 107 182 100 108 94 72 159 94 191 94 85 183 123 166 86 97 52 123 41 83 125 127 72 175 174 167 115 130 161 199 101 104 106 142 28 76 144 108 150 163 76 63 163 123 204 169 177 72 89 166 84 86 130 125 101 153 68 168 172 86 113 124 187 155 152 98 180 140 109 136 129 149 152 103 97 111 96 102 112 66 101 136 110 204 179 111 96 96 198 96 192 100 153 191 163 179 97 89 132 192 213 139 134 154 92 146 79 89 107 134 105 94 90 174 121 132 140 43 144 91 64 87 105 100 129 112 109 156 60 94 39 114 98 71 144 109 149 132 80 121 71 117 129 130 130 104 132 125 83 126 93 91 192 161 166 168 67 99 81 72 62 139 137 149 172 161 90 92 73 90 197 193 126 137 194 167 165 97 107 120 80 141 157 91 165 195 162 189 207 87 102 91 72 71 84 185 157 121 185 88 169 64 170 83 174 111 157 54 146 140 153 80 115 95 79 131 98 98 154 176 109 104 181 163 85 135 157 98 96 150 124 197 164 128 169 96 101 99 177 74 119 168 195 183 107 145 142 47 138 42 65 79 168 121 74 118 101 151 149 167 75 155 125 78 74 136 89 157 160 96 152 85 165 94 150 97 155 107 145 79 158 91 128 151 142 81 166 101 114 194 100 116 73 119 87 91 120 122 77 76 173 120 175 68 101 77 165 99 107 93 86 66 168 63 75 118 167 121
130 132 134 140 152 173 181 178 169 164 175 169 174 182 174 164 159 155 160 175 165 176 169 175 166 163 160 165 173 183 189 188 185 177 168 156 151 150 146 140 159 165 186 202 209 196 171 177 181 181 197 166 152 149 159 115 170 162 182 185 185 141 179 127 154 127 129 169 163 121 133 85 255 59 61 69 123 94 80 112 143 177 159 95 92 87 90 102 81 88 147 103 118 114 149 130 102 69 69 65 59 69 56 78 83 107 137 121 144 124 113 107 82 90 104 73 71 160 127 148 209 120 119 114 107 152 143 177 83 82 127 195 103 162 189 157 101 75 79 166 171 180 188 103 189 173 121 173 72 66 122 85 161 131 151 169 171 255 186 102 202 192 189 113 142 91 136 71 125 97 101 159 88 100 78 177 153 102 142 100 77 181 189 186 199 123 88 105 129 165 69 132 188 129 140 208 101 186 180 101 126 171 95 93 93 155 178 92 71 60 59 151 61 124 59 87 163 140 133 142 175 144 97 182 165 182 93 141 143 76 58 103 102 169 79 120 73 140 117 113 78 90 111 130 255 172 73 100 151 73 110 72 171 104 140 203 190 120 179 94 186 193 186 177 210 201 173 91 122 92 114 79 136 105 95 171 144 169 118 124 135 191 142 105 115 107 137 201 163 172 88 85 126 110 210 212 161 134 134 81 117 93 89 199 165 201 129 186 134 59 83 148 79 132 49 95 71 152 154 155 89 103 94 74 54 68 66 60 160 128 69 174 97 193 83 116 90 135 189 96 141 90 120 73 71 172 81 120 156 84 152 90 171 103 64 105 132 113 163 169 72 173 149 184 204 218 144 208 123 130 108 152 107 178 154 125 190 180 113 199 191 138 145 175 157 128 121 162 171 182 119 165 206 141 180 100 88 113 74 167 145 135 47 144 55 160 165 97 74 90 159 72 169 135 148 115 73 167 162 162 87 164 107 213 114 160 166 118 59 78 99 113 94 108 118 183 84 85 184 99 62 66 135 151 164 177 145 173 93 58 97 166 162 60 117 159 138 109 75 174 162 129 62 65 144 91 157 102 179 70 127 111 174 98 87 131 80 171 133 129 169 77 180 119 146 139 110 120 171 182 138 79 124 153 69 122 163 141 62 76 186 167 82 72 65 72 64 64 164 81 137 80
147 151 156 162 173 190 190 185 177 173 177 180 179 181 176 169 166 162 158 167 164 171 173 173 189 179 168 178 174 181 185 186 185 183 179 176 168 158 150 149 158 177 194 211 181 188 183 180 171 194 161 180 146 160 111 168 128 145 116 113 134 186 196 185 186 165 100 122 128 90 86 76 78 57 123 134 133 87 86 89 130 118 126 129 94 107 102 83 85 123 134 169 159 127 162 124 113 82 85 121 81 67 109 67 84 120 130 86 130 97 93 122 103 111 104 61 125 63 117 124 121 115 118 181 138 125 112 117 169 69 76 86 123 91 142 172 81 75 169 178 74 177 93 129 172 153 112 121 163 123 170 166 54 139 151 73 80 122 140 184 191 110 81 138 161 157 126 147 53 144 100 79 150 101 137 158 128 118 166 137 156 115 145 120 197 195 99 87 141 129 72 98 86 191 98 102 146 189 162 75 73 95 124 96 111 177 87 128 140 169 69 85 157 155 134 146 84 71 141 150 61 174 113 105 93 133 161 174 155 114 83 189 186 77 82 105 171 182 151 130 164 154 95 72 73 74 158 146 141 69 91 152 112 74 126 195 105 99 158 137 187 180 92 198 196 203 100 96 159 163 78 143 172 80 149 95 116 176 127 216 117 155 167 190 141 199 99 114 84 73 115 88 100 127 105 170 112 188 180 189 105 79 92 113 187 135 211 104 88 71 158 65 75 65 149 73 77 125 89 162 97 173 76 93 65 139 76 162 74 160 87 198 123 214 149 174 118 200 195 180 180 73 140 80 83 171 113 142 167 150 76 134 157 160 67 181 189 107 83 103 96 82 132 89 156 175 123 109 185 71 169 147 94 165 180 179 176 115 117 181 230 141 202 159 42 119 142 90 98 167 92 194 122 201 200 160 94 160 96 73 153 56 50 140 137 86 54 158 69 99 177 97 176 188 185 76 73 148 61 76 76 195 118 211 109 128 119 76 154 143 119 175 87 188 75 172 181 84 123 183 99 155 140 116 190 100 165 188 158 99 50 56 140 147 39 137 148 69 180 187 88 106 77 104 72 184 159 166 145 106 122 83 87 96 181 91 134 109 87 89 93 92 59 78 153 51 103 173 157 184 119 74 60 150 47 135 94 50 77 148 179 94 83 143 176 127 63 127 114 76 182 136
167 171 175 175 185 193 190 185 179 169 179 181 167 171 174 179 151 144 147 149 168 173 178 182 196 197 187 181 167 179 183 187 191 200 195 194 186 173 162 156 164 177 174 180 196 165 159 159 147 181 191 185 167 126 124 125 155 180 179 134 123 131 114 100 146 80 132 78 92 120 153 78 128 97 137 165 182 117 178 105 142 95 153 120 116 160 102 100 116 91 102 150 170 111 151 136 137 95 91 67 86 82 94 68 109 94 146 81 76 142 149 124 126 91 136 129 57 119 67 78 97 91 107 160 102 107 157 106 149 169 112 142 87 110 156 179 178 178 81 168 79 122 64 111 152 46 52 61 176 176 157 99 149 157 170 181 85 139 172 175 196 105 133 152 99 56 147 127 255 49 128 100 109 52 151 120 165 93 89 93 151 159 98 178 149 148 187 125 164 82 181 175 166 156 139 140 191 124 87 77 113 89 167 144 175 75 111 91 91 95 145 161 62 128 121 101 159 93 82 53 158 142 169 76 183 191 90 174 94 124 186 196 188 88 165 184 104 116 112 202 201 172 186 94 187 111 120 56 151 141 74 101 83 57 65 141 184 197 198 184 179 173 118 203 212 162 110 171 110 151 155 134 102 149 156 200 164 181 209 156 102 123 104 106 89 124 96 182 149 126 171 104 88 128 208 218 128 204 124 103 113 85 191 101 163 116 144 138 182 104 88 146 61 51 48 92 75 107 122 194 113 109 110 176 100 103 86 117 97 165 104 171 129 217 213 129 206 147 197 134 166 137 75 160 73 169 179 164 101 132 167 154 159 75 108 109 167 108 142 140 59 58 114 118 179 108 210 102 164 95 108 123 103 124 80 113 100 194 112 145 188 185 106 163 86 26 62 147 121 78 115 98 210 210 100 96 149 160 90 116 153 47 142 39 52 138 140 133 128 95 131 101 106 109 161 191 145 128 170 146 169 157 194 130 124 198 180 81 143 133 77 137 84 152 112 166 173 81 95 106 90 108 197 109 209 221 164 138 174 146 117 148 131 100 61 144 158 124 159 115 115 103 137 145 110 92 123 170 160 184 84 67 105 72 76 137 150 170 108 162 63 75 117 121 83 116 118 71 120 78 73 143 57 139 152 99 65 74 98 115 162 140 91 83 95 120 107 67 170 75 193 104
165 171 180 181 184 183 175 171 175 184 178 169 163 158 155 158 153 139 149 147 174 178 184 194 195 191 181 175 173 165 183 193 206 207 208 204 193 185 167 168 157 177 164 164 167 175 158 172 178 154 175 183 151 112 102 126 130 153 141 165 186 115 156 148 71 115 113 64 95 177 167 94 81 71 96 91 110 131 109 176 137 94 81 81 81 148 143 120 98 118 94 90 151 132 91 92 87 89 90 71 50 48 92 109 95 145 88 88 125 64 82 165 163 77 79 78 71 112 83 144 173 182 191 158 156 186 203 188 187 93 94 89 168 92 113 178 180 128 101 179 186 180 75 74 127 128 127 99 175 176 81 95 87 166 158 154 191 91 159 185 123 109 185 134 148 62 107 145 115 64 124 54 111 150 71 117 70 154 166 129 123 44 41 99 175 112 185 131 170 200 87 80 74 152 79 171 128 183 160 138 144 80 159 161 140 67 160 195 192 170 171 75 91 160 167 102 152 59 138 83 140 157 92 99 73 85 86 156 98 202 116 152 180 179 155 118 107 161 102 113 203 104 124 159 140 164 97 168 108 179 135 68 68 131 112 167 76 82 191 93 86 141 88 180 134 126 179 103 52 111 156 58 60 150 90 107 107 117 200 180 84 162 182 178 159 87 169 191 188 85 98 135 87 151 124 140 130 195 186 108 122 93 119 99 145 113 167 124 106 126 88 153 67 155 81 98 126 119 151 205 132 179 141 77 106 74 99 91 184 182 183 94 152 112 178 182 121 116 94 135 71 140 170 160 165 82 90 79 166 184 160 133 68 152 143 133 183 116 153 42 139 54 127 81 84 129 205 175 181 114 141 136 103 199 96 178 102 183 193 209 208 179 88 155 122 15 89 57 98 165 191 148 123 191 96 141 116 80 109 109 63 60 35 95 141 112 85 78 132 141 144 176 134 180 215 191 159 178 169 77 91 133 110 112 111 126 163 78 60 38 51 139 89 124 148 103 171 182 91 175 135 106 110 108 177 220 114 193 172 70 65 55 115 126 45 45 123 172 101 123 125 162 142 95 122 94 121 127 183 192 94 109 168 119 128 63 173 147 181 113 111 72 145 73 90 77 154 148 81 107 135 156 119 150 100 98 104 139 62 117 105 183 195 126 143 150 144 104 112 84 110 110
159 168 178 179 174 163 255 159 167 178 187 173 166 148 150 141 148 134 140 154 155 189 189 201 177 174 163 155 156 165 173 195 203 210 211 206 189 184 185 183 177 171 168 159 132 154 149 135 166 141 170 174 159 107 120 146 129 176 178 180 149 156 100 80 97 88 82 83 85 136 174 186 161 120 156 123 117 172 125 175 142 145 156 127 78 130 96 156 134 109 110 83 92 72 74 80 76 106 71 62 68 56 63 67 86 89 94 125 50 44 59 83 92 69 92 68 78 77 119 82 101 148 117 121 188 138 228 132 122 121 195 200 98 163 161 94 67 171 94 152 111 176 159 134 127 150 64 156 93 191 79 171 57 63 181 95 174 80 173 179 134 148 136 195 143 98 108 161 59 116 70 53 78 131 157 71 133 159 115 115 100 19 50 44 166 162 97 152 169 181 165 128 91 87 158 189 186 186 102 148 117 144 141 157 72 75 166 114 176 188 155 114 74 46 123 140 69 94 141 53 88 156 107 114 146 87 175 167 171 82 193 145 100 94 161 169 91 198 114 221 149 189 182 98 144 171 168 72 97 102 110 119 146 59 74 70 92 80 88 189 159 190 189 167 144 130 173 125 169 65 64 143 118 76 167 83 110 93 110 127 81 108 127 178 92 170 184 182 87 96 173 73 70 75 126 111 138 150 208 186 113 120 119 96 118 190 201 112 205 199 178 85 65 125 106 70 101 158 144 97 133 162 168 94 112 131 173 179 82 101 87 156 133 207 125 218 114 122 175 164 73 70 180 82 164 66 69 85 79 104 181 109 85 103 121 132 178 177 118 61 113 129 123 33 139 167 169 134 218 135 113 183 193 105 188 176 166 170 87 137 118 138 99 104 45 133 65 50 61 159 165 146 120 86 122 182 110 122 84 174 74 134 106 44 144 149 51 103 63 135 99 121 171 214 220 117 97 118 109 98 96 134 116 96 162 173 74 153 37 124 130 157 76 182 178 137 70 155 181 195 193 122 128 162 181 130 175 94 181 130 126 132 101 55 53 145 102 89 140 93 83 130 74 114 155 70 163 185 147 181 191 109 107 76 91 62 126 95 166 109 156 145 168 140 174 97 177 186 151 75 111 66 132 152 138 101 48 133 86 97 178 197 190 119 217 174 96 89 74 92 104 130
146 159 174 173 169 157 145 149 159 166 179 159 160 135 138 136 157 155 142 132 154 180 188 195 179 154 150 138 138 155 172 196 203 215 211 207 199 188 187 181 172 161 155 141 147 135 139 159 137 150 131 145 171 143 138 137 122 191 203 172 182 187 105 136 154 69 139 132 117 138 146 108 160 111 192 109 174 212 126 133 175 90 91 107 91 92 146 106 125 107 167 89 97 90 75 95 73 109 39 36 39 48 50 60 98 87 98 76 75 35 63 87 74 59 86 53 78 70 121 170 105 170 118 95 209 207 142 214 128 119 173 106 82 151 131 167 172 148 174 82 120 95 64 86 69 150 121 166 155 100 195 127 63 163 78 185 102 180 114 111 188 209 167 202 187 176 183 172 158 140 50 43 118 155 176 170 140 171 137 53 54 66 52 110 106 82 168 133 117 164 186 152 184 184 144 181 127 95 174 164 73 81 92 73 154 108 160 185 186 76 149 121 42 67 104 149 77 77 113 148 172 126 177 137 165 80 143 76 154 76 183 91 153 176 124 194 153 209 212 113 115 211 200 128 166 60 155 147 148 150 120 130 140 153 148 173 135 72 123 98 128 101 146 177 207 142 115 193 159 125 123 166 110 164 172 97 124 172 197 172 135 114 174 172 123 169 125 183 80 114 68 116 95 52 87 111 84 134 179 120 94 114 152 99 202 199 107 197 180 96 106 79 74 116 42 37 67 82 133 96 130 147 90 80 166 108 69 101 104 186 191 108 168 137 156 225 156 102 84 134 87 109 188 91 128 174 64 91 102 81 178 183 111 177 131 171 183 188 153 104 40 138 40 88 171 160 137 173 200 199 124 181 84 185 91 94 70 62 157 129 146 169 114 61 70 125 54 154 142 95 116 75 173 83 129 108 176 184 88 164 105 148 133 168 158 159 116 70 68 133 140 208 142 147 169 104 180 144 200 210 167 106 85 172 89 169 99 148 37 97 141 63 111 167 173 143 81 177 78 184 125 108 161 143 198 193 118 185 96 148 83 151 125 161 67 125 164 78 78 92 173 142 168 59 43 121 68 96 171 191 133 84 135 152 94 122 93 150 165 121 146 171 86 154 103 106 184 198 101 166 119 97 129 53 149 138 64 53 122 55 84 169 183 128 230 169 110 179 85 164 133 130
134 151 168 174 173 163 153 143 142 153 157 157 153 152 152 152 173 160 144 147 148 161 172 182 165 152 147 138 149 164 181 197 211 218 215 209 202 192 183 181 152 152 145 121 137 138 149 146 137 178 180 159 142 168 122 144 103 185 208 190 136 183 164 168 149 141 147 130 95 136 101 124 178 210 165 208 132 133 128 199 107 132 70 61 60 133 77 90 94 119 102 99 102 84 81 77 119 59 43 28 36 47 80 96 72 101 83 59 98 42 48 121 64 107 111 72 61 81 74 100 80 127 101 186 121 169 214 118 110 180 178 171 75 168 156 175 178 95 177 85 139 123 71 66 126 67 173 156 195 186 113 148 61 70 165 104 104 163 81 102 122 179 195 90 115 155 149 168 83 45 97 119 108 170 167 101 157 81 106 40 42 54 36 128 144 115 176 107 117 67 133 117 181 175 183 191 144 101 97 114 86 166 159 108 104 79 73 83 113 129 148 115 50 83 135 74 173 74 160 75 142 202 205 170 106 186 123 85 77 172 146 90 85 109 73 170 186 212 170 110 195 107 157 168 156 84 70 149 142 107 176 97 151 127 72 118 255 145 191 187 135 164 204 154 190 173 138 175 199 181 184 132 124 175 91 140 95 98 176 185 202 195 134 135 87 80 73 139 141 101 142 50 154 154 149 152 122 178 148 84 175 141 95 177 99 150 149 132 120 88 91 149 70 104 67 128 148 49 115 143 101 85 147 74 109 137 156 115 69 169 95 103 100 141 130 129 117 93 154 76 170 186 96 199 113 181 123 163 97 167 127 161 108 181 157 133 155 138 74 81 132 129 51 102 122 183 133 226 110 87 109 83 104 99 143 153 115 160 162 157 94 95 167 109 123 89 80 103 69 56 66 116 165 173 134 193 91 92 194 108 137 181 152 146 183 139 87 80 152 142 179 126 139 106 88 116 133 157 130 108 213 140 107 180 173 147 149 153 71 113 93 159 117 186 181 69 144 100 164 93 184 109 160 145 186 85 190 192 145 74 129 91 189 93 147 95 173 171 129 137 204 93 173 134 45 52 106 154 196 101 160 132 176 65 103 119 185 199 189 185 95 113 176 156 161 156 110 180 120 133 67 129 135 95 113 100 112 53 104 55 88 190 176 209 236 131 100 182 116 78 79 149
110 132 157 181 189 182 168 149 137 143 142 145 141 147 158 173 191 178 255 143 156 154 170 169 159 147 157 158 164 176 188 196 212 213 212 211 201 190 179 174 144 143 136 135 132 122 138 138 166 183 180 142 141 146 110 150 172 173 205 137 148 122 170 158 154 157 114 60 128 89 186 189 160 208 200 126 209 169 209 100 105 57 47 75 54 56 68 113 101 159 121 137 95 87 94 93 69 68 73 68 45 80 57 48 68 75 89 95 61 116 104 119 83 44 38 42 118 129 90 72 160 92 171 94 124 118 148 102 198 176 157 82 167 168 169 84 98 181 174 70 68 161 170 87 127 168 110 183 176 211 143 182 151 120 117 65 160 161 142 165 119 139 173 173 169 175 154 160 56 92 52 85 105 163 201 141 106 72 160 153 67 95 62 188 196 181 102 80 71 29 156 68 169 176 140 119 157 83 173 186 108 88 85 91 159 81 110 162 157 91 137 114 71 49 64 147 160 148 67 94 89 206 204 138 117 160 194 116 195 190 126 100 173 183 75 177 109 106 202 175 155 176 73 60 82 138 132 54 134 128 87 102 106 101 84 147 174 98 188 174 122 199 191 111 145 104 92 181 173 255 217 118 173 80 104 160 143 176 153 106 155 186 150 190 185 110 64 150 93 127 67 97 99 161 49 57 40 153 79 71 154 109 97 192 92 100 188 156 180 187 80 171 64 74 104 89 90 80 45 40 102 54 83 168 129 137 95 77 80 82 71 81 89 155 225 230 214 105 56 85 169 168 182 191 114 117 192 73 78 169 101 118 159 184 88 95 180 155 169 74 108 146 85 111 191 227 229 128 176 169 97 150 113 149 170 114 99 81 169 128 151 93 118 88 93 178 173 150 118 127 159 133 136 136 106 189 202 112 101 166 84 181 155 204 94 184 72 130 79 170 82 95 188 158 71 151 150 83 177 188 115 117 92 92 69 142 105 109 74 73 47 124 165 165 172 163 74 157 67 110 174 74 180 156 99 189 198 131 84 126 123 91 173 179 154 101 124 90 120 219 130 177 170 152 43 115 77 173 108 154 157 104 134 154 177 163 122 201 120 186 89 118 158 166 101 83 88 88 188 133 133 132 137 158 129 100 165 82 119 68 109 196 194 151 217 201 105 125 117 177 166 172
81 108 146 179 192 199 182 167 144 137 137 139 131 138 155 193 195 198 171 172 164 167 158 171 163 167 175 177 182 183 197 204 208 208 210 203 197 187 183 176 149 144 134 118 124 138 131 138 169 163 148 137 125 157 135 138 135 192 198 179 164 156 167 112 118 120 152 116 132 152 128 155 203 141 170 135 120 204 183 89 80 57 58 40 84 51 72 139 85 95 88 88 80 71 125 69 107 46 63 37 56 66 81 74 79 41 67 66 71 62 90 82 96 130 108 118 76 90 57 147 128 80 76 184 195 143 149 87 91 146 89 160 77 156 103 145 130 183 167 72 141 165 121 73 166 128 102 99 188 172 199 189 82 161 124 161 161 115 110 79 84 100 90 134 76 145 148 77 84 109 109 94 201 174 201 190 91 111 67 122 142 184 120 191 210 206 92 53 79 132 130 104 173 66 141 85 105 103 121 101 145 181 101 163 99 140 72 168 58 59 31 20 107 109 61 164 147 94 173 171 152 206 171 109 166 173 192 209 122 145 216 124 127 156 170 127 156 118 128 90 173 175 121 147 155 143 76 142 145 176 88 93 105 158 161 93 189 196 166 107 183 139 94 105 57 160 70 123 142 206 219 161 146 96 158 82 145 120 97 208 108 100 199 90 140 63 162 61 95 77 160 133 191 91 130 155 49 155 65 89 68 76 186 87 98 107 152 152 124 93 180 77 121 78 111 199 119 117 106 81 50 50 114 167 78 163 133 165 86 156 62 76 119 88 121 141 167 139 53 41 109 192 110 192 117 219 172 143 70 164 102 150 171 98 160 111 77 70 181 192 137 181 137 148 210 237 145 148 122 191 168 73 94 78 79 101 184 166 146 104 99 76 101 110 132 165 167 83 61 81 59 174 179 105 213 146 180 94 116 166 90 192 196 102 152 143 77 121 162 165 75 169 182 154 67 116 99 87 160 174 159 127 130 120 73 107 139 80 162 59 126 131 123 116 75 62 128 134 149 122 84 83 138 160 101 102 91 125 115 163 184 81 124 92 185 110 155 97 125 162 214 184 68 63 123 155 163 140 182 141 152 92 115 184 141 179 168 189 123 81 112 113 60 64 83 93 78 96 193 134 137 47 43 85 144 199 204 203 84 71 151 175 151 127 218 123 181 133 183 188 135 113
62 92 134 171 189 191 182 159 151 133 125 125 132 139 164 185 203 197 171 177 167 160 175 174 190 187 189 197 184 196 201 206 208 206 200 192 189 183 182 176 162 125 134 133 139 138 137 123 156 136 152 154 149 127 150 181 192 152 187 182 121 160 174 103 109 110 123 145 98 95 86 125 200 175 122 128 198 121 158 95 67 114 83 48 110 96 84 101 144 104 86 84 64 58 44 63 57 72 77 79 97 55 74 84 71 59 90 55 78 66 106 74 93 113 78 70 90 148 62 74 61 125 88 124 191 103 187 133 83 176 176 102 64 54 77 133 120 70 123 181 167 183 178 96 77 79 84 129 88 107 202 187 75 120 101 167 149 100 138 136 144 136 99 141 160 154 115 80 148 124 135 147 203 159 197 196 197 180 187 163 118 152 180 105 193 180 166 120 122 111 81 159 108 169 154 154 80 83 152 162 79 198 164 108 136 112 114 179 124 71 45 65 48 66 139 152 188 96 164 109 109 161 171 92 72 118 178 255 220 136 167 176 115 137 160 92 120 157 140 103 189 88 179 174 164 118 145 125 166 84 184 103 126 106 198 157 142 185 157 83 156 191 169 98 65 129 63 77 165 155 127 103 199 185 78 147 182 143 191 194 200 136 139 114 117 164 73 66 171 93 149 125 189 186 81 120 148 83 79 172 84 90 135 151 91 189 113 172 81 149 172 86 117 181 92 185 132 80 54 143 42 80 102 70 73 153 117 168 99 169 147 90 41 87 163 204 184 116 37 34 126 82 202 123 105 195 141 149 165 89 193 206 167 126 94 100 168 88 87 204 169 178 151 188 114 153 205 138 216 130 178 67 102 144 140 143 108 150 193 145 135 117 179 190 144 170 61 89 69 93 96 141 183 171 205 193 107 142 82 78 165 113 176 97 131 171 73 141 100 137 78 130 79 131 66 108 53 104 119 153 173 194 112 168 65 150 180 161 178 82 148 58 77 75 126 81 80 147 144 79 88 100 85 148 187 92 93 103 200 185 91 119 184 137 113 160 161 131 116 178 172 112 114 123 160 62 68 150 93 142 151 72 125 135 178 84 199 115 89 131 52 148 113 134 60 143 153 109 103 151 84 123 54 144 142 207 117 169 94 125 173 108 88 182 222 204 119 190 200 178 133 108
62 90 131 162 171 169 163 158 159 141 139 123 128 131 170 185 190 175 183 185 189 195 209 198 213 195 202 204 204 209 207 213 216 203 193 183 185 187 190 183 166 148 133 131 143 137 141 154 148 115 132 168 139 150 182 142 191 178 173 130 179 159 123 192 127 134 92 157 154 101 104 109 138 163 117 161 107 136 180 85 102 91 130 91 71 75 97 128 100 97 83 67 46 39 42 88 49 98 71 88 71 64 89 90 53 101 44 57 61 99 72 94 151 123 106 160 125 65 144 60 108 156 114 130 96 183 89 89 78 255 144 97 39 151 70 51 157 119 168 78 194 208 210 100 100 142 92 87 153 191 170 124 77 98 95 129 161 77 90 138 92 104 70 68 167 160 120 154 166 169 134 97 145 138 148 197 132 184 97 123 123 127 156 113 182 143 176 193 88 156 168 193 164 170 178 78 182 83 74 126 79 130 181 143 160 169 130 111 149 168 64 119 93 61 95 90 132 187 131 206 116 192 141 66 93 154 115 182 139 197 172 208 140 75 159 49 36 95 169 195 211 187 196 178 166 77 173 170 149 97 176 158 83 129 153 190 86 82 177 163 154 171 115 112 161 150 96 157 158 87 106 180 195 83 176 181 151 151 83 156 120 187 85 164 128 91 146 71 106 95 136 131 126 125 103 122 68 84 163 94 119 146 131 118 91 196 140 151 174 127 184 185 161 184 135 117 204 87 68 60 62 132 87 103 164 89 159 97 187 165 73 60 61 117 64 88 174 165 116 143 61 179 86 186 108 94 86 103 159 185 98 203 134 177 140 181 149 188 192 107 170 197 194 169 124 161 216 127 214 159 87 152 111 172 158 118 100 206 179 99 158 114 140 149 77 84 79 139 163 175 165 163 93 193 141 153 98 153 105 64 112 160 190 166 182 82 79 78 167 120 150 90 75 82 110 43 93 34 59 100 89 197 119 175 121 136 185 112 125 171 65 74 109 187 194 104 128 104 123 138 170 124 105 189 96 117 100 187 102 202 189 114 135 153 78 147 55 131 106 183 105 178 83 160 173 132 101 151 101 147 164 68 137 92 148 183 203 146 175 125 61 141 158 161 109 166 149 113 124 128 134 98 171 165 124 144 97 95 162 135 101 93 151 105 216 129 162 184 103 198 95 189
78 100 132 153 154 142 139 143 147 154 160 137 135 153 173 185 189 180 184 191 201 207 217 227 222 211 203 201 203 218 222 233 223 209 196 185 184 186 190 181 153 152 140 138 154 165 167 139 139 147 133 165 161 151 191 173 191 191 129 116 166 159 121 138 177 181 108 144 173 85 90 136 66 79 127 116 147 163 142 91 98 149 84 160 160 113 148 172 99 100 130 72 50 79 58 92 70 84 66 115 76 68 98 45 82 36 75 86 115 127 69 84 126 99 118 95 102 88 66 90 100 147 100 95 134 85 87 78 107 152 46 136 139 118 150 46 147 158 169 79 125 211 123 204 191 106 105 119 92 184 121 191 103 185 177 172 197 190 175 168 160 168 141 174 176 164 190 132 180 153 127 142 143 125 107 125 138 166 105 103 160 183 155 124 137 95 104 190 119 187 131 109 156 186 177 128 80 139 61 118 178 98 121 183 126 135 107 101 182 145 174 112 123 104 77 127 202 210 146 149 186 77 65 150 82 165 117 150 191 111 209 106 98 98 56 108 22 36 100 167 198 161 201 185 184 77 130 140 143 172 136 136 103 95 139 140 105 170 164 157 77 168 73 137 191 179 170 95 94 149 133 111 106 185 151 150 126 140 83 86 112 143 96 128 87 66 139 148 108 122 115 119 171 125 112 97 86 123 152 116 196 198 90 80 101 118 99 183 100 142 102 142 155 97 191 101 162 142 116 107 154 80 115 173 139 131 78 87 169 144 99 168 68 100 58 153 189 176 57 67 107 90 95 172 146 170 162 172 171 161 187 166 148 191 173 109 92 93 161 191 128 99 136 113 106 206 203 172 208 209 203 94 148 77 137 107 141 92 98 176 112 83 157 158 148 118 70 84 160 150 180 188 166 180 134 90 156 136 173 164 167 172 174 94 147 65 143 153 127 143 43 131 86 80 97 72 141 54 70 182 127 190 120 171 169 69 94 93 114 180 182 90 190 142 190 182 92 184 165 113 210 123 208 121 166 190 174 120 171 195 130 135 140 57 73 35 111 102 89 199 106 188 96 80 76 172 169 94 126 156 110 124 130 162 168 175 145 128 190 147 138 80 91 83 121 117 102 212 227 223 152 170 87 122 175 180 139 72 152 50 67 122 73 187 132 145 133 95 193 147 145 106
102 116 138 148 141 131 124 136 146 171 173 159 147 153 176 185 179 195 196 205 200 228 218 228 224 202 190 187 192 213 234 247 239 223 201 194 188 190 183 181 170 145 127 150 155 153 153 147 158 121 111 122 166 191 185 198 156 196 160 126 171 109 192 190 178 188 167 156 170 102 125 71 144 101 160 155 98 177 104 111 137 116 98 156 154 123 159 97 108 133 103 98 79 72 53 71 69 64 83 77 94 64 53 35 25 26 78 60 80 67 73 97 92 151 105 175 85 80 82 181 133 114 113 156 84 78 143 77 71 56 114 144 46 54 123 50 145 50 165 99 136 126 115 116 166 111 130 182 189 91 171 162 75 183 89 213 221 125 166 142 97 115 96 103 255 181 178 101 171 175 164 129 141 113 99 181 153 110 164 171 117 143 129 65 68 174 132 87 191 180 110 200 170 178 170 146 62 165 73 169 163 126 200 189 115 137 203 204 192 180 95 119 73 166 113 162 151 108 162 196 176 142 108 81 124 121 70 118 107 198 155 188 162 82 153 86 39 81 166 95 167 211 200 105 85 95 164 174 160 179 100 75 75 162 97 155 169 88 160 100 129 58 116 192 141 217 195 175 147 151 72 111 111 168 78 121 167 104 75 102 139 43 121 52 144 97 71 144 97 103 178 124 120 127 92 77 181 180 183 104 95 119 160 174 118 87 171 184 181 173 78 80 123 164 99 139 130 105 103 184 195 85 84 170 96 73 106 155 194 105 153 96 102 148 113 99 153 93 182 177 77 154 93 162 151 153 58 160 94 124 132 191 101 215 205 198 158 172 172 161 90 118 123 112 149 190 152 138 147 186 136 149 75 100 154 98 99 172 146 131 70 103 77 82 166 114 61 62 75 156 147 191 196 93 174 159 144 100 81 163 105 68 55 64 79 69 64 103 33 122 29 138 79 131 46 84 158 158 123 174 199 203 116 87 81 164 87 104 203 194 106 119 159 205 100 179 180 148 141 204 217 116 157 115 164 150 62 49 151 74 181 176 147 150 43 110 43 66 94 86 135 181 176 147 96 74 167 75 185 82 103 71 113 140 120 68 174 99 98 179 111 182 181 112 91 110 139 128 112 140 161 205 207 159 91 178 172 130 91 131 143 86 146 174 184 94 84 76 158 107 103 96
126 135 148 155 147 132 123 129 153 173 176 174 255 165 153 168 181 175 193 203 209 209 218 222 217 203 194 175 185 208 227 243 233 233 218 208 194 187 177 181 173 164 158 147 161 148 171 172 127 143 112 166 189 204 167 202 181 203 130 117 127 163 159 172 115 121 207 120 158 117 80 118 66 92 83 148 102 93 158 78 72 88 115 117 152 159 145 91 141 73 135 77 95 73 71 66 61 100 81 255 90 89 43 41 14 70 39 88 86 72 82 121 111 141 85 159 90 149 88 112 99 165 187 159 96 99 73 120 91 93 95 124 84 66 71 150 70 152 160 140 84 191 193 105 98 113 76 156 145 97 179 170 106 117 163 108 201 203 178 204 163 191 89 118 196 143 161 162 112 127 161 77 89 133 174 90 204 129 183 207 167 102 97 52 117 64 170 81 124 147 182 168 145 111 146 82 58 62 68 155 162 110 136 189 133 203 197 202 83 141 120 157 131 79 93 90 169 94 92 191 88 160 82 138 154 77 116 141 158 191 176 166 177 111 158 121 86 70 165 86 96 88 187 156 170 66 159 94 171 157 97 53 53 133 67 163 154 54 123 59 84 101 155 125 120 210 154 201 162 86 127 157 73 115 71 141 185 90 83 168 45 107 142 138 57 114 183 158 195 108 150 187 131 146 98 153 110 77 178 89 125 176 136 111 148 163 182 179 88 81 76 158 107 129 112 99 89 143 187 93 147 81 74 73 85 165 147 98 94 113 113 195 99 189 147 97 160 255 114 90 170 176 187 90 146 65 161 165 148 165 111 86 99 206 217 161 204 163 90 131 92 98 106 122 195 97 171 114 187 181 104 83 69 116 175 181 76 112 170 164 161 92 176 148 126 123 54 76 76 102 78 91 127 134 110 151 98 96 182 81 69 141 153 133 146 158 43 41 123 29 50 145 157 147 93 65 147 150 110 114 139 174 154 92 141 161 180 125 221 218 101 94 90 168 96 95 177 119 196 139 214 134 218 146 193 114 146 105 56 83 164 170 102 143 54 124 140 73 112 124 88 87 76 78 174 82 148 142 117 85 188 146 137 77 71 85 134 129 174 99 174 106 208 138 121 102 150 85 187 192 109 155 134 203 181 158 112 86 81 145 38 39 53 97 74 81 74 123 167 75 61 155
148 154 161 166 159 144 131 129 145 174 184 182 173 156 152 152 157 160 173 191 206 218 209 220 213 200 191 177 172 193 219 234 233 233 223 213 199 185 178 171 156 166 144 142 157 151 166 157 159 165 161 158 178 177 194 154 186 177 182 115 153 116 139 186 169 173 215 209 189 144 155 123 127 145 157 140 89 164 157 147 115 79 120 145 95 95 92 117 79 70 69 74 80 135 83 74 73 58 64 112 118 76 53 28 65 71 82 99 112 92 144 80 83 103 117 102 146 86 85 102 183 89 132 89 160 159 178 172 178 99 152 105 119 171 169 152 41 148 155 164 76 86 117 191 92 127 178 105 155 127 153 151 138 95 161 85 205 200 227 199 190 176 167 130 209 103 112 176 101 159 131 121 124 161 172 99 178 228 242 221 204 91 126 59 62 115 157 76 87 185 145 117 141 67 89 165 160 131 65 170 168 180 188 187 101 115 108 150 104 104 149 77 70 120 166 126 93 180 183 79 77 163 150 122 94 177 108 186 91 146 196 97 92 152 144 124 156 82 82 158 132 70 168 106 130 71 49 64 159 168 91 153 133 55 156 79 65 63 108 149 108 162 86 120 200 109 119 157 80 154 77 59 165 144 106 124 154 121 106 135 105 120 61 84 69 141 180 114 171 105 127 157 205 139 118 155 175 134 174 83 134 72 66 55 69 91 101 143 175 73 98 72 105 154 255 186 169 118 161 115 130 112 138 110 180 206 153 185 99 169 124 184 172 127 190 160 108 196 151 80 145 78 108 184 92 174 127 107 95 152 77 156 177 208 219 207 171 133 149 181 148 147 116 193 188 164 154 116 106 148 182 157 74 154 186 107 101 147 84 145 52 163 138 190 88 106 104 114 121 158 155 109 190 192 92 148 198 161 129 69 56 38 131 94 156 113 69 132 29 130 144 88 99 156 70 77 159 122 155 202 107 83 134 56 55 88 195 123 208 210 183 117 80 108 164 175 196 156 208 179 215 141 167 130 83 63 85 60 132 64 67 74 65 59 79 54 161 68 160 83 126 113 72 147 141 168 75 101 116 144 130 169 87 181 65 67 126 108 135 92 124 123 120 136 129 184 96 67 68 180 79 169 160 112 148 204 201 107 179 62 65 136 147 90 82 183 146 88 84 64 64 62
163 166 169 171 162 143 128 129 138 161 184 186 178 167 149 150 163 155 163 174 173 197 204 202 214 214 191 165 166 189 196 220 219 222 212 201 184 181 163 171 169 164 163 143 152 166 159 174 156 153 137 176 145 198 148 156 195 178 161 171 123 127 169 135 196 123 157 149 188 120 76 108 88 159 130 101 167 90 84 64 65 123 90 117 84 93 85 70 69 80 87 126 99 105 103 67 49 47 69 118 148 89 112 43 77 52 82 82 132 115 96 91 90 123 92 118 103 96 86 90 82 91 99 69 80 153 181 179 155 175 131 146 144 193 69 137 149 106 52 64 119 179 88 185 85 179 73 170 155 130 119 86 51 137 123 152 103 126 172 166 141 230 222 200 214 204 126 117 128 145 68 89 149 156 108 181 164 185 213 168 210 160 79 144 79 172 175 130 101 161 56 48 52 155 141 71 148 112 160 166 106 79 150 178 180 155 94 152 78 70 83 153 65 129 75 100 156 158 74 130 150 159 81 157 110 157 100 114 136 140 198 167 110 134 80 170 155 88 108 139 169 71 158 138 104 134 134 94 70 95 89 159 76 166 153 174 180 136 63 99 155 154 164 175 171 187 105 169 130 71 151 86 176 103 146 139 142 101 153 109 62 60 57 159 144 96 100 105 115 158 134 121 202 133 116 135 100 67 152 167 68 89 126 52 74 117 137 97 82 141 121 108 180 104 120 118 112 179 177 88 68 171 166 119 118 127 130 108 198 128 159 108 120 214 133 202 201 204 128 75 63 167 118 86 176 98 108 194 195 193 148 179 127 207 185 199 183 98 191 93 148 181 143 178 183 145 174 95 169 183 88 141 152 95 101 123 165 76 100 63 135 149 151 125 97 109 71 70 39 39 47 121 161 93 100 183 91 87 139 158 143 142 133 54 60 66 92 59 99 61 132 181 181 130 99 72 170 146 187 157 83 55 64 137 94 154 198 196 184 190 175 86 135 161 175 88 165 201 200 105 137 110 116 190 158 144 55 66 161 107 81 134 161 98 152 122 74 150 77 145 98 155 83 129 134 143 36 45 48 73 196 99 98 156 99 58 154 142 115 82 110 194 216 212 206 185 91 157 94 110 168 153 153 98 119 225 213 255 112 96 100 148 77 144 124 118 112 190 76 76 160 76
170 172 174 173 162 146 137 129 145 152 161 162 176 163 170 159 167 158 157 158 172 175 185 206 201 210 178 177 255 187 209 214 208 197 196 190 176 170 170 164 163 157 140 157 166 176 174 176 172 164 154 162 175 150 184 142 186 124 157 183 158 122 180 130 170 183 127 192 170 148 144 120 86 157 148 93 121 91 109 86 161 70 74 78 76 83 110 79 131 87 103 168 144 139 108 62 90 53 77 132 124 125 110 73 53 59 80 82 113 108 131 88 89 136 81 139 125 162 99 147 130 68 64 77 129 89 89 84 95 123 219 176 112 80 174 126 59 77 58 146 183 188 173 169 86 72 175 143 91 140 86 124 19 91 108 80 198 200 193 222 187 189 185 153 203 209 183 155 143 149 107 99 114 123 211 216 222 230 212 142 96 128 169 125 122 184 83 172 114 99 51 129 155 96 67 141 145 166 140 94 55 132 143 171 162 161 116 81 122 93 126 155 90 64 127 58 132 117 167 141 87 180 162 68 151 113 164 69 176 137 217 140 125 130 113 142 175 108 83 76 127 154 144 132 88 64 135 146 138 153 101 162 128 154 156 123 180 143 168 151 131 62 89 140 132 164 105 129 59 132 149 82 99 88 137 89 87 131 119 163 69 80 160 163 193 151 175 130 203 152 176 159 124 118 212 185 83 167 63 85 116 69 58 60 80 143 91 110 139 162 87 82 96 109 91 197 188 110 83 74 145 107 80 114 157 179 168 171 176 117 138 88 182 133 205 207 123 171 189 163 139 60 137 124 119 72 86 149 120 132 193 152 133 188 164 111 89 200 107 100 190 99 90 166 79 147 168 127 114 159 82 151 64 121 153 110 67 166 92 168 136 98 70 184 94 83 119 128 143 42 94 158 151 112 174 91 109 160 88 68 76 46 55 113 83 72 134 92 103 111 205 194 126 111 108 184 187 183 71 70 89 51 64 75 172 121 95 165 207 187 116 86 114 176 85 132 164 255 116 131 91 99 183 177 165 163 104 176 138 80 255 124 140 137 99 142 64 86 180 182 109 164 82 88 148 116 101 42 46 79 134 159 189 87 78 60 135 159 89 75 100 168 157 176 204 160 119 83 111 71 123 100 96 150 131 126 130 189 216 157 93 157 151 190 211 130 183 103 122 81 107 126
171 171 168 168 165 156 147 147 146 153 158 161 168 166 175 168 162 142 135 149 156 158 181 197 196 189 174 164 181 200 214 205 197 184 176 172 170 167 168 164 156 153 147 154 151 185 176 171 178 141 144 145 182 199 183 182 171 172 121 170 135 186 115 159 102 137 106 166 103 151 108 133 116 88 78 158 149 78 172 97 115 162 108 127 90 94 66 72 95 94 103 158 164 125 111 89 34 42 67 130 148 116 107 131 79 95 137 100 141 130 85 145 102 72 115 92 137 141 93 69 76 90 88 113 151 66 75 179 88 112 113 158 142 163 165 93 163 86 66 76 125 194 122 84 142 154 171 114 162 159 113 141 128 113 63 96 187 146 209 182 154 185 208 225 206 167 184 87 159 67 170 115 128 182 208 219 151 125 103 182 82 119 94 82 165 192 91 81 162 57 130 112 91 69 101 75 154 71 80 161 160 160 159 78 82 161 118 127 129 131 100 90 120 141 155 119 78 147 110 77 114 182 69 91 137 116 75 132 171 117 186 134 222 228 197 190 76 177 71 121 98 40 37 71 148 140 61 71 87 76 162 63 145 69 113 179 192 169 176 166 164 135 158 168 151 62 100 113 109 149 122 140 171 198 169 208 204 110 84 124 175 156 75 158 99 110 213 102 134 160 133 88 173 188 152 90 108 170 63 160 73 70 61 51 164 168 100 102 74 62 102 104 185 157 202 124 160 100 78 163 121 120 121 116 133 111 214 145 94 87 83 146 119 115 158 123 110 136 88 145 121 152 85 58 77 169 155 178 202 199 169 188 159 79 138 113 174 88 91 173 135 117 128 77 115 85 129 166 89 87 180 140 163 62 120 87 116 126 132 164 163 160 88 133 181 96 184 62 62 104 73 86 99 95 112 111 173 157 93 149 169 63 123 59 142 137 67 167 98 184 111 114 107 180 126 171 165 81 138 142 43 93 52 102 176 188 173 208 136 190 142 81 161 83 85 142 185 132 184 95 74 122 161 125 175 97 102 97 136 99 179 141 57 86 116 128 174 83 175 88 129 77 109 182 73 62 134 120 68 123 108 181 107 183 117 165 132 149 143 182 81 133 138 125 92 150 115 165 94 125 156 65 150 180 103 185 135 217 144 207 112 178 78 170 124 122 206 106 104 95 101 114
168 167 164 164 171 173 174 157 157 155 150 139 153 178 174 180 155 150 140 131 152 151 153 173 175 182 170 175 180 199 213 213 189 175 168 163 169 169 173 174 166 147 138 160 177 174 172 204 173 180 170 182 148 162 152 133 140 177 113 188 150 190 111 144 132 179 189 174 182 166 163 135 147 109 94 142 142 155 114 148 198 121 137 82 92 127 113 97 85 127 100 150 96 83 68 74 38 46 83 102 125 137 134 92 116 153 132 174 125 127 78 102 87 56 75 58 58 89 67 126 150 68 81 63 58 107 179 130 192 123 176 106 60 94 156 114 65 74 70 179 97 96 198 87 156 69 82 159 135 163 159 104 139 145 141 173 188 162 176 134 147 106 109 200 162 131 187 146 97 80 99 192 124 199 168 203 206 177 195 143 168 57 152 160 181 167 95 83 71 107 165 69 116 93 129 105 138 170 138 74 73 153 79 109 79 93 110 108 173 88 141 80 104 179 98 103 61 133 151 146 167 187 168 108 152 52 114 60 141 188 111 211 149 174 104 196 75 62 162 152 49 110 41 142 151 136 132 78 156 88 153 71 130 153 187 196 179 189 163 87 169 167 87 148 130 91 137 158 97 77 80 93 159 118 115 134 135 145 113 133 94 140 69 93 95 136 123 154 73 170 78 179 166 153 127 195 74 76 164 142 107 99 61 94 53 79 132 133 114 70 74 117 80 97 114 166 152 133 172 58 67 128 72 143 98 87 90 92 165 122 96 77 182 194 121 166 164 202 119 75 140 100 63 91 155 160 162 95 106 104 193 183 127 139 110 181 147 147 186 143 74 103 73 158 174 98 105 154 128 135 111 158 115 129 98 91 171 152 189 176 137 157 168 114 139 195 144 173 98 72 93 88 172 167 180 171 183 90 162 168 90 142 51 109 180 103 156 156 171 98 180 196 105 164 180 89 156 110 95 92 72 132 116 80 176 102 153 202 147 70 166 158 96 94 91 79 84 183 91 119 124 141 175 75 109 165 102 114 213 185 186 77 149 95 100 168 112 176 152 161 63 142 80 146 175 72 87 118 146 157 83 158 95 92 90 135 110 120 64 175 165 120 158 98 89 101 97 158 69 107 72 70 113 179 124 144 133 172 161 213 176 110 159 151 111 186 114 114 192 119 111 164
163 161 158 166 173 184 181 176 160 155 143 147 153 163 174 166 147 134 133 131 140 148 147 161 163 168 173 164 186 204 216 210 193 173 162 159 168 168 178 177 189 163 172 175 187 204 215 176 205 188 176 144 148 177 183 195 180 125 175 113 155 140 123 135 148 126 189 191 185 113 105 176 86 104 132 131 103 86 92 115 115 105 136 131 88 77 73 94 79 76 81 114 94 88 112 64 42 89 76 130 137 123 93 88 131 112 131 118 103 98 107 93 82 78 139 93 55 48 46 73 101 72 89 62 135 69 102 198 169 192 75 156 84 78 164 74 99 166 110 152 124 100 91 84 183 74 170 94 90 139 131 144 79 83 190 101 120 159 194 183 151 189 191 178 115 192 153 144 133 106 105 156 176 171 91 158 186 121 185 115 68 121 82 63 104 167 161 157 138 65 180 153 108 157 122 165 66 175 138 79 76 87 139 119 125 162 97 168 85 188 117 198 188 97 77 152 143 113 63 66 88 82 138 185 154 55 151 96 78 145 156 96 199 208 207 139 154 120 115 125 46 76 53 57 152 148 135 84 125 104 90 162 105 62 144 203 149 213 125 137 139 104 152 69 121 112 78 72 137 157 86 88 185 178 147 184 126 183 194 167 144 144 111 144 198 125 90 151 145 64 82 85 192 115 100 170 149 72 86 139 161 80 53 47 53 138 109 106 117 173 72 80 169 143 100 169 174 186 255 124 67 87 135 122 98 79 63 183 192 108 181 146 130 156 208 115 203 170 85 102 100 146 122 139 117 67 166 186 86 149 141 73 80 73 175 175 92 80 78 130 124 55 124 109 91 169 139 185 132 189 171 189 184 114 136 176 118 82 115 124 147 126 150 135 160 115 133 83 140 129 189 166 128 183 158 127 98 134 118 145 159 72 120 67 108 166 83 96 70 147 119 115 194 89 114 171 90 109 193 94 145 173 99 68 128 137 104 106 189 66 163 72 89 125 201 157 179 108 104 63 64 158 143 92 107 154 207 187 207 158 133 100 182 174 171 176 179 137 163 64 65 143 121 112 194 105 151 163 140 164 92 100 143 165 135 79 103 56 109 124 166 165 148 112 94 169 105 66 139 167 148 170 108 90 124 116 134 116 118 157 121 192 93 116 102 120 103 124 130 139 224 223
162 157 152 158 174 185 186 169 160 158 156 150 144 153 142 142 142 136 130 131 141 140 133 132 157 160 172 176 185 192 206 204 194 175 170 164 167 176 195 204 209 183 180 174 182 196 214 193 205 204 194 181 132 153 148 157 143 170 148 163 186 120 144 111 166 147 122 175 173 132 160 116 181 137 147 92 131 151 114 98 186 132 115 145 89 84 89 96 84 77 121 91 69 91 80 58 77 79 102 111 123 96 118 82 81 102 107 135 105 126 96 69 61 97 131 84 120 100 101 88 84 87 155 73 136 125 104 218 133 213 79 121 41 151 69 135 91 86 116 184 188 83 104 181 128 86 103 255 183 181 94 182 175 137 126 177 103 186 90 126 197 175 144 166 108 177 140 188 169 123 193 156 110 87 79 81 168 87 180 141 159 85 86 150 74 100 153 157 94 164 81 84 177 162 72 160 74 78 157 67 145 93 151 194 114 122 121 189 105 138 141 200 110 179 94 164 114 116 54 55 69 174 130 185 85 101 90 172 72 77 169 155 84 126 108 206 190 177 70 151 108 155 50 108 136 71 74 138 151 51 83 50 155 165 171 113 124 199 130 127 167 121 123 157 98 72 159 97 143 255 184 131 78 180 80 173 197 183 172 97 192 106 96 157 163 100 139 75 170 78 75 89 168 107 144 116 167 125 177 162 123 122 59 46 125 137 154 68 69 175 110 165 147 200 141 195 114 79 127 115 61 93 144 107 34 47 46 69 150 195 187 105 164 205 215 117 203 93 117 118 88 116 58 157 136 63 93 172 93 172 83 120 162 157 165 72 152 125 127 151 137 21 73 26 75 78 130 158 197 177 118 202 222 222 187 164 156 137 123 171 104 118 154 78 111 168 88 123 177 192 175 144 163 183 162 199 217 225 210 109 88 99 66 255 115 74 171 76 177 108 177 94 91 114 116 103 189 94 198 197 121 100 169 150 115 109 136 99 176 176 68 175 191 215 137 194 155 255 114 130 132 180 99 173 91 109 200 152 177 194 108 128 125 112 73 153 155 167 151 79 166 85 195 107 92 187 172 179 104 78 179 94 155 187 114 158 55 101 157 91 70 139 162 162 81 154 68 120 128 155 149 134 146 122 201 196 209 215 140 120 118 194 177 83 79 157 162 129 205 156 143 167
164 156 146 149 161 171 183 169 157 161 162 155 153 131 136 142 129 139 134 141 126 132 128 135 154 168 175 179 173 183 199 194 195 184 166 165 161 179 200 215 220 198 207 192 173 255 206 209 214 163 188 156 136 170 176 202 190 175 137 141 167 127 133 108 151 127 157 155 168 107 117 186 154 143 107 176 103 144 81 98 129 119 97 170 124 97 99 135 145 79 108 105 110 94 61 72 113 84 89 121 98 103 75 66 80 100 85 94 97 100 72 88 116 85 135 69 74 164 149 126 121 83 153 182 93 159 126 133 198 119 77 47 142 156 168 196 129 122 72 167 105 77 80 85 192 184 189 182 144 255 187 88 132 102 182 76 132 174 153 180 93 140 148 133 147 110 149 197 206 208 123 146 100 110 159 132 124 93 171 155 114 110 134 162 162 65 65 167 61 74 131 96 140 139 143 163 160 61 93 57 106 108 112 126 134 118 157 176 152 130 99 193 198 200 141 142 158 68 75 152 157 173 146 179 118 92 87 175 144 124 109 109 149 162 195 219 135 145 160 185 82 83 118 96 148 158 86 141 135 154 143 157 168 84 105 112 128 176 187 193 63 140 102 40 104 162 76 102 148 100 191 116 89 99 89 144 185 169 109 151 79 152 89 131 113 159 167 114 130 90 80 89 106 141 126 77 153 156 126 203 92 79 161 57 51 98 168 150 77 82 107 170 162 120 118 168 86 143 137 163 153 72 65 52 59 36 110 71 140 116 166 159 101 115 199 193 197 90 107 86 129 174 87 130 59 102 160 81 190 81 174 138 105 160 122 161 162 157 65 139 120 64 80 108 21 53 129 119 91 137 142 164 226 174 151 194 110 147 157 87 71 146 140 171 159 156 154 79 145 88 126 175 74 110 105 125 125 203 223 171 185 184 171 66 160 166 122 75 141 107 96 178 195 158 81 86 161 151 174 208 106 100 138 58 51 97 144 136 151 157 87 171 200 184 164 195 98 73 104 113 165 163 188 194 160 126 98 95 158 123 112 187 150 167 116 112 164 180 145 182 108 115 148 195 143 102 180 184 94 187 136 203 109 98 174 130 148 166 94 161 169 156 132 84 154 174 166 96 81 169 101 181 125 185 140 155 146 205 129 119 123 151 95 96 99 88 149 187 226 148 143 217
169 156 140 137 145 159 174 169 157 158 168 159 158 142 134 139 141 143 145 145 138 135 127 147 149 172 179 178 182 184 191 199 200 188 170 167 170 189 191 218 219 204 204 188 176 167 160 177 204 151 179 153 177 156 209 177 137 124 132 134 117 102 159 107 132 76 133 89 154 113 169 157 170 141 139 152 102 92 80 118 162 89 136 114 103 142 85 100 83 72 75 114 81 68 69 78 129 126 72 73 91 96 104 92 109 79 82 75 112 61 64 62 128 94 106 82 87 169 157 167 86 88 170 90 153 107 173 128 125 178 100 80 141 75 159 98 128 101 56 143 81 72 81 87 156 124 184 149 180 107 129 160 161 71 125 71 169 168 172 164 171 184 167 78 150 75 147 106 153 214 205 119 154 128 72 142 87 72 147 145 190 162 192 149 150 154 80 96 80 158 114 141 163 162 126 130 163 122 104 45 131 174 112 179 115 147 189 172 67 75 133 112 111 100 115 174 150 85 99 79 153 180 153 203 201 102 146 93 125 183 170 113 152 89 102 193 171 220 206 141 93 143 115 63 136 144 171 133 74 143 139 60 145 184 136 169 205 115 212 182 130 135 66 108 131 150 67 137 119 174 119 138 158 98 186 124 212 117 204 119 108 173 119 95 180 142 86 51 72 58 130 70 113 103 173 90 90 190 103 128 92 71 89 54 122 124 91 105 118 107 169 205 101 130 117 109 182 85 90 72 96 124 56 68 157 126 62 78 107 178 154 89 202 109 187 149 195 150 91 97 81 179 68 62 165 166 133 100 166 201 185 175 184 143 71 156 84 75 142 146 61 107 255 24 129 102 108 88 96 120 170 216 121 104 172 77 75 159 78 140 100 133 175 85 121 153 71 179 106 180 106 173 102 81 120 168 113 200 174 219 191 157 84 81 55 80 95 152 88 98 139 149 166 78 166 88 133 200 201 99 195 74 66 148 61 115 170 106 131 155 84 135 144 171 188 204 182 180 185 83 153 157 132 192 142 119 98 134 148 85 177 85 125 160 64 137 102 89 131 189 170 170 145 226 221 132 191 171 80 84 147 183 177 87 101 145 158 97 105 131 179 84 180 87 197 180 141 67 70 113 170 132 120 137 162 217 216 143 161 161 115 102 92 140 86 199 106 222 188 240 140 236
165 151 133 126 136 148 162 162 165 151 154 158 156 140 149 147 137 143 141 142 140 156 142 161 157 168 183 178 185 182 183 197 198 188 173 169 173 192 203 213 212 200 200 184 160 167 178 188 170 133 163 164 158 169 174 171 172 141 117 117 139 138 100 130 91 136 104 115 129 145 72 90 163 128 171 93 159 106 132 86 85 91 176 126 141 143 105 134 83 70 77 131 63 96 77 88 110 95 126 67 72 94 82 92 77 68 66 63 53 85 50 75 81 88 124 101 111 141 110 136 88 77 75 84 164 102 96 208 106 196 124 48 49 67 176 178 144 47 43 148 62 176 185 102 176 126 157 157 65 144 161 167 138 147 124 65 64 108 154 168 92 153 129 166 79 83 166 103 165 178 161 180 162 80 122 156 96 163 88 115 110 150 179 153 69 86 79 114 155 91 164 162 83 116 84 129 89 104 66 51 158 75 149 217 167 112 149 147 104 160 141 68 107 137 107 191 100 189 182 83 174 184 111 197 120 118 115 143 139 154 68 98 166 148 192 150 227 219 179 91 138 65 154 168 160 86 152 150 115 60 167 102 104 185 161 197 201 150 100 168 168 131 42 93 96 144 119 81 144 156 140 186 195 107 106 154 196 130 147 175 75 143 68 104 125 66 40 145 92 82 101 123 121 135 176 152 189 103 169 105 153 128 98 54 85 73 147 84 92 88 97 189 142 143 193 185 90 167 104 94 60 156 84 110 123 77 79 74 145 167 123 174 105 189 105 97 194 153 96 186 80 105 115 95 121 169 117 155 112 207 210 207 159 190 79 179 125 180 69 68 35 77 120 25 98 116 132 90 119 99 207 197 122 172 90 59 164 93 137 167 182 88 140 93 147 122 158 191 181 162 75 143 176 182 191 139 99 191 123 204 201 182 166 161 162 157 149 79 117 104 168 89 78 160 158 150 115 159 189 195 84 114 122 116 63 75 84 166 88 97 175 134 199 170 108 161 190 129 114 144 81 162 173 153 93 184 162 100 72 64 150 111 75 125 148 152 102 73 174 109 184 160 220 196 143 212 183 171 76 76 166 182 127 128 84 95 193 111 140 184 181 162 180 133 89 157 166 58 63 77 119 165 213 215 108 148 127 197 177 148 176 134 161 160 114 122 186 155 220 221 128 145
152 139 125 121 126 144 149 157 152 146 155 153 155 152 169 161 170 156 155 160 153 155 153 155 169 164 181 188 188 190 187 190 188 179 166 161 174 187 193 191 192 197 175 165 139 141 131 159 163 137 131 152 167 170 156 159 145 104 92 117 96 98 112 115 155 144 255 93 150 78 126 146 143 96 123 85 122 75 89 97 115 160 123 170 114 108 170 110 72 74 66 70 99 70 89 95 115 93 127 76 53 70 117 95 97 79 123 84 46 98 40 46 61 79 96 94 106 112 115 123 76 87 64 72 153 63 159 142 159 91 120 50 57 160 80 156 80 76 60 131 161 91 154 106 91 135 169 148 102 128 89 127 100 86 77 83 55 135 70 106 142 129 118 175 160 123 117 174 167 207 125 172 141 156 83 146 61 162 94 128 135 146 173 85 135 144 125 120 105 54 73 133 196 203 108 201 109 93 143 98 94 132 119 139 211 147 166 79 164 83 166 80 80 177 171 118 184 189 177 67 106 165 205 139 130 117 113 200 193 188 143 140 159 171 103 202 183 219 102 182 158 146 255 153 156 205 146 196 95 151 158 131 93 168 80 84 101 164 145 140 158 121 132 137 71 48 102 143 132 168 97 182 206 197 185 140 137 183 194 65 59 147 65 59 146 47 46 130 52 43 133 46 76 54 145 182 146 102 104 102 168 78 167 80 79 104 89 133 77 165 121 175 191 101 104 89 75 78 143 166 71 165 177 173 152 141 116 120 116 102 73 101 142 187 127 89 87 85 178 82 105 91 177 95 161 152 180 190 107 164 202 204 170 191 186 99 112 169 176 62 82 134 30 92 48 156 158 116 201 177 120 150 65 84 127 82 93 102 74 75 112 118 161 71 94 73 179 198 115 123 126 121 109 151 77 130 79 172 159 184 159 83 179 123 70 69 93 137 150 88 112 75 132 49 119 131 113 216 119 161 58 132 132 129 130 110 181 183 129 179 172 100 93 124 171 103 197 215 106 156 121 89 172 151 193 142 160 163 130 162 172 130 177 96 170 169 173 160 114 125 112 203 179 157 220 185 111 67 174 108 187 88 169 85 159 190 128 103 166 143 173 93 171 118 106 66 69 145 90 137 206 106 174 136 102 86 139 150 121 190 160 211 149 128 174 175 183 105 110 179 119 125
130 121 112 116 127 141 147 146 147 146 152 160 151 163 180 185 178 171 167 183 175 175 163 158 162 170 181 189 198 191 186 191 179 167 153 158 169 186 182 188 190 179 160 138 140 119 148 150 151 103 129 134 150 191 191 158 132 127 93 119 137 122 147 141 121 150 93 132 74 76 107 72 135 137 140 91 156 76 109 107 143 173 108 111 120 100 92 101 121 98 110 82 85 109 85 94 107 129 118 68 83 97 130 104 136 86 118 63 115 51 47 94 98 162 99 155 103 97 135 112 66 87 64 71 94 55 138 69 93 104 115 67 74 67 107 164 67 62 173 178 189 94 102 136 185 171 96 62 113 133 65 31 88 75 144 110 120 142 145 136 142 70 147 125 166 145 154 122 165 123 176 129 109 77 132 52 158 154 64 64 69 148 59 57 139 75 136 180 84 161 120 94 142 124 131 128 109 100 186 137 160 94 105 141 139 179 136 109 132 71 112 157 183 95 160 154 184 103 164 160 155 167 103 177 105 183 98 199 100 180 105 54 65 157 90 208 108 202 171 162 150 96 197 144 214 209 99 123 90 185 164 78 77 90 167 85 196 153 167 136 135 81 185 87 76 165 161 153 107 113 197 117 106 191 139 156 152 194 85 60 47 120 64 132 54 255 103 69 88 146 46 47 52 104 83 136 115 107 148 134 98 83 83 132 80 82 185 141 167 101 65 81 184 196 194 107 118 118 89 91 95 166 83 115 176 156 70 124 136 108 177 142 170 87 69 77 182 173 72 155 80 141 168 86 55 103 140 155 83 174 115 79 82 146 101 137 188 182 100 108 132 141 141 49 106 148 189 91 170 150 175 132 90 134 98 152 140 110 169 159 111 128 136 68 92 172 153 161 111 126 173 93 151 82 102 81 59 60 95 126 183 129 126 107 153 180 91 68 131 85 88 133 139 105 55 61 126 96 115 88 97 71 94 93 160 208 196 102 174 80 186 86 84 108 159 131 103 140 190 123 117 97 82 174 131 78 77 158 180 136 178 156 124 189 92 163 166 161 190 134 144 173 122 215 209 192 133 98 182 159 152 75 156 165 95 106 212 186 186 177 167 135 187 108 127 90 124 66 178 158 189 183 103 100 180 82 126 146 203 112 197 167 168 161 68 149 73 69 83 172 114 118
116 112 113 123 140 147 144 141 143 162 159 166 150 167 178 190 184 170 167 184 184 172 147 157 155 169 188 193 183 183 190 184 174 162 156 156 163 179 181 180 163 150 142 157 148 138 140 143 128 128 115 99 165 162 187 139 169 161 116 114 150 84 138 170 115 162 152 107 110 78 126 101 138 98 72 146 127 98 164 106 178 114 111 156 167 100 141 67 86 101 55 107 93 76 84 97 101 122 114 82 83 77 113 138 92 105 117 101 125 72 124 85 76 90 106 101 101 90 135 74 155 51 120 53 33 41 120 109 63 255 63 93 163 97 80 67 62 102 85 200 150 139 189 113 86 176 159 146 69 160 115 141 129 48 144 88 163 115 103 86 105 155 131 135 160 83 101 117 110 100 167 121 153 132 143 77 113 112 98 144 146 46 54 72 82 120 174 94 150 65 143 192 107 152 215 213 157 123 112 162 55 124 138 170 204 153 169 86 120 89 124 102 181 114 182 174 146 160 152 101 99 180 213 211 90 98 71 170 83 66 161 61 104 152 117 140 94 144 66 135 61 178 121 147 133 210 132 193 87 156 95 153 101 171 134 162 209 112 195 121 78 191 195 166 123 113 138 176 150 185 177 175 121 139 109 179 210 171 191 162 74 150 113 138 86 67 180 183 77 150 134 137 65 79 127 126 102 141 212 169 178 69 61 165 75 108 99 144 179 160 95 67 167 83 187 124 86 94 130 122 131 146 59 162 63 80 146 67 66 139 130 117 153 131 103 59 121 154 83 177 98 68 77 131 84 171 100 81 152 96 148 162 99 172 161 90 179 168 161 59 54 153 139 161 65 163 91 153 171 116 71 86 134 94 113 73 169 134 156 144 108 113 166 156 72 165 155 141 94 106 94 145 85 72 90 59 137 154 99 66 147 167 84 194 108 86 77 162 73 128 96 197 126 162 130 63 121 144 171 128 157 56 137 175 100 139 116 98 187 160 170 120 106 185 115 101 200 104 133 158 195 124 117 173 129 74 125 141 191 187 103 194 200 118 100 106 197 114 165 117 128 101 101 192 137 109 180 156 159 129 156 118 91 143 171 124 106 145 183 96 175 97 97 69 163 65 84 81 148 105 172 136 115 148 92 158 104 109 138 126 119 125 76 136 107 96 130 128 150 157 187 127
111 112 117 133 141 150 151 146 161 173 175 165 168 159 181 188 178 167 172 173 181 175 152 134 153 174 175 181 172 178 179 179 175 175 172 179 169 179 170 152 153 155 163 170 157 156 148 149 151 130 144 113 183 153 206 194 174 131 155 142 157 145 96 150 185 119 115 169 102 120 77 136 135 70 110 165 166 148 177 182 142 145 140 134 143 77 121 70 101 41 44 58 114 74 88 91 103 91 89 117 114 102 104 100 95 103 108 121 149 119 107 85 80 83 83 180 113 93 65 70 120 53 130 139 41 68 65 130 56 60 52 48 61 59 134 171 85 93 99 203 153 217 209 207 163 72 131 97 171 80 173 135 150 106 81 169 147 151 68 164 59 68 49 138 74 94 80 167 93 92 159 77 100 142 76 167 121 164 115 108 56 26 58 73 172 182 93 106 68 161 59 176 183 209 114 116 133 210 163 134 158 156 91 97 106 114 90 62 118 78 184 122 114 118 140 93 160 110 133 66 82 199 202 215 118 63 145 151 162 108 60 168 119 168 158 193 103 186 169 82 163 176 190 205 115 108 189 125 189 88 185 179 140 74 148 188 117 193 123 183 180 185 161 172 179 190 141 90 82 147 94 173 121 121 115 172 117 126 114 189 138 142 72 45 151 75 159 97 108 101 195 163 91 96 74 127 128 147 101 118 63 150 87 101 70 92 167 130 138 77 125 133 124 173 77 188 112 106 114 98 77 77 59 52 155 58 81 115 66 99 173 82 147 82 44 69 69 77 190 170 139 120 59 46 60 76 174 183 178 99 95 103 55 167 168 144 79 109 78 165 84 142 170 69 167 110 79 128 174 76 155 137 88 96 95 132 182 119 144 180 184 90 77 100 106 170 141 194 131 117 183 82 57 159 166 154 113 133 100 67 109 185 167 83 189 126 107 115 111 153 169 92 93 132 92 91 180 126 185 117 163 67 122 182 191 190 114 123 188 104 113 129 192 195 202 191 193 98 183 194 201 91 101 166 99 118 166 125 164 112 112 208 186 103 173 146 181 156 178 139 183 144 120 164 82 108 180 113 103 68 122 132 135 115 129 103 125 112 86 75 161 139 81 134 79 141 95 89 147 151 146 142 199 177 119 132 155 172 127 188 147 93 148 57 43 48 129 41 70 119 84 110
113 121 129 137 141 142 147 159 169 179 176 168 157 176 169 188 180 180 179 188 166 154 138 127 140 167 173 169 164 162 162 162 173 183 193 200 188 174 157 146 141 140 160 189 189 175 172 170 177 135 152 157 156 200 196 188 179 123 152 118 95 155 146 109 111 123 120 149 96 81 146 100 54 69 122 172 106 104 95 128 138 163 156 167 150 67 42 61 35 39 105 50 67 68 83 153 120 119 103 92 85 104 132 117 127 116 91 89 103 98 104 88 94 148 108 106 137 130 122 147 70 68 75 57 114 101 37 146 59 59 115 54 159 64 138 99 83 176 106 154 186 133 131 178 80 104 89 175 88 171 134 79 90 173 109 139 139 155 172 149 111 105 82 133 85 92 114 160 134 125 134 75 150 149 139 129 159 108 145 80 83 56 129 155 95 119 180 177 160 122 112 131 166 187 95 207 209 200 185 141 59 59 145 183 95 81 163 57 52 165 101 120 110 112 122 151 153 135 63 76 130 118 107 168 182 130 156 73 114 64 167 156 174 114 87 162 208 194 102 58 124 165 136 189 198 191 169 126 84 90 146 106 182 117 93 179 216 144 196 152 123 103 187 123 172 150 170 139 176 83 91 176 82 73 139 156 202 161 162 111 117 153 69 63 130 72 168 93 188 123 128 134 125 115 156 85 96 161 134 131 88 56 45 152 81 112 175 147 102 104 145 79 113 80 72 118 100 103 194 177 71 61 65 89 73 145 57 59 162 168 148 171 54 43 71 164 92 116 203 201 184 161 94 127 147 84 133 97 86 94 43 132 34 153 162 147 158 97 105 180 180 85 82 178 184 122 174 167 145 171 175 72 65 100 141 86 127 174 179 123 83 155 95 84 87 188 192 148 96 138 106 123 67 67 171 171 64 147 93 144 140 183 135 167 110 159 148 144 96 143 77 147 120 187 149 133 110 104 134 131 121 164 77 163 86 96 200 160 97 107 189 191 149 161 212 112 84 72 103 187 109 107 101 62 96 123 81 88 85 110 152 125 101 101 199 97 147 82 173 162 126 150 69 66 126 149 83 170 255 147 134 109 155 163 121 166 90 117 135 158 170 151 96 66 104 77 184 154 103 100 132 149 98 160 203 124 224 188 124 144 154 185 76 54 37 26 18 117 102 116 90 114
115 129 140 146 140 139 145 169 175 179 167 152 160 164 186 194 189 179 182 182 163 140 115 129 139 155 176 161 148 146 141 159 166 190 207 215 198 181 152 141 138 162 184 184 174 190 179 178 171 196 157 187 193 200 202 196 165 147 167 162 145 107 125 118 110 167 172 104 116 103 68 98 78 120 96 162 101 143 171 132 87 107 134 159 152 136 46 93 52 65 60 69 115 71 89 111 136 127 87 94 104 121 132 123 96 93 86 137 108 109 95 89 116 121 105 166 86 91 160 125 84 179 98 157 109 112 112 42 71 153 61 57 94 179 87 107 83 141 82 75 110 94 150 87 173 110 94 169 192 95 175 173 79 171 117 188 167 132 100 182 103 74 153 94 95 122 125 86 171 152 168 160 64 140 173 183 255 229 179 149 87 78 164 183 188 170 86 76 92 46 116 84 139 140 179 190 148 175 81 169 150 152 153 180 149 66 112 60 89 160 176 121 144 82 66 123 97 66 88 169 72 91 123 188 185 123 89 101 170 70 80 108 73 86 203 179 179 200 180 141 155 125 137 172 198 182 80 94 72 153 129 103 158 92 108 192 168 188 78 66 52 146 119 167 167 74 144 169 105 188 132 198 176 89 102 179 132 237 227 112 76 132 123 255 42 52 142 167 205 204 149 219 220 198 162 163 80 107 105 160 104 79 101 106 79 126 80 83 122 202 120 97 167 135 116 75 172 91 80 113 52 128 54 101 151 135 97 111 71 169 148 174 82 72 123 118 88 100 195 178 91 152 46 129 136 165 140 185 136 99 33 40 74 76 127 93 79 101 172 190 178 164 89 195 177 172 171 163 74 133 91 122 98 176 82 167 100 64 84 80 98 132 184 105 89 102 189 191 96 106 101 141 177 133 160 187 137 80 95 194 103 143 186 159 148 87 105 111 34 121 76 174 175 95 154 109 204 94 190 148 185 170 87 131 97 159 194 181 160 184 159 190 119 223 219 135 95 99 65 134 74 168 65 162 80 139 156 62 72 176 176 207 117 178 168 108 164 170 58 139 79 64 109 81 154 81 109 133 147 36 71 106 134 151 67 159 152 67 146 115 143 104 184 135 82 113 89 184 197 144 135 93 134 147 180 109 143 142 219 115 116 135 86 53 129 25 24 21 51 40 43 120
119 136 150 152 140 134 144 163 179 179 165 157 157 171 169 178 194 199 186 185 166 153 112 114 126 156 165 164 155 144 133 149 164 194 206 212 190 179 157 149 136 166 178 170 181 158 181 186 187 202 194 182 185 170 173 137 177 129 171 150 201 207 185 170 144 85 162 91 104 173 85 129 113 82 103 113 154 89 75 87 140 126 128 82 76 54 86 34 89 56 60 57 122 99 96 97 99 102 92 121 102 128 104 145 80 120 70 83 87 78 94 117 111 125 150 127 180 163 101 92 111 114 125 184 88 162 43 43 155 146 171 73 176 182 170 102 171 190 87 87 72 116 174 177 56 152 131 160 108 99 181 76 133 170 197 188 175 91 179 164 175 160 94 95 129 115 82 73 130 177 112 86 80 145 75 142 160 147 177 197 110 84 169 120 97 128 164 96 135 148 128 137 109 141 140 75 182 160 78 156 43 79 68 96 168 56 103 152 66 83 140 63 134 137 48 43 139 132 122 163 120 151 92 191 167 215 198 139 146 164 77 158 132 178 210 221 217 92 89 148 80 156 68 188 161 153 178 165 124 174 94 95 138 183 125 144 113 75 162 59 78 97 50 51 155 168 167 82 87 145 198 152 124 168 175 191 158 160 151 150 180 81 92 37 135 75 58 172 203 122 141 175 200 100 75 65 79 95 83 183 91 105 70 152 91 107 138 118 115 125 205 200 143 91 129 87 148 140 144 62 121 169 110 172 70 99 165 78 78 79 191 183 150 185 76 81 162 192 120 125 150 178 116 45 67 69 107 177 157 100 89 135 127 133 171 164 172 97 127 123 142 90 164 98 178 168 72 94 101 94 110 160 135 89 86 75 144 78 137 108 150 172 113 100 79 159 174 178 104 108 157 123 206 188 133 198 98 110 105 204 205 88 110 83 109 118 139 142 86 91 44 139 87 163 185 117 159 88 98 185 167 106 211 204 136 133 111 130 170 111 77 198 130 128 146 197 105 163 151 117 112 154 128 148 167 62 138 100 92 180 108 96 116 182 186 180 171 71 68 51 139 54 158 73 98 95 65 125 141 34 126 155 128 109 58 66 147 81 174 189 149 190 197 98 186 91 194 90 132 82 110 173 120 195 145 103 197 152 116 182 111 197 98 62 87 69 127 49 78 37 45 80
122 139 154 155 142 140 141 165 171 159 157 138 152 166 174 176 191 190 186 188 180 152 130 124 132 157 177 161 150 138 130 146 172 190 192 194 186 173 167 160 157 161 163 157 152 255 181 179 189 161 161 158 181 176 119 162 164 165 186 203 146 223 224 159 185 115 129 132 158 163 124 170 158 101 66 89 117 99 155 132 117 108 85 255 63 99 49 104 100 58 116 54 129 91 103 141 161 102 104 126 144 112 120 145 136 63 71 60 79 78 102 114 116 104 110 145 130 89 97 85 102 128 135 211 94 70 57 148 81 81 88 185 167 84 82 125 103 98 109 158 178 146 185 90 152 132 144 147 115 131 91 153 161 181 209 195 121 101 172 173 103 183 168 88 128 146 146 177 191 159 187 123 151 146 130 122 205 146 111 176 130 204 122 206 204 118 119 149 148 86 121 49 55 106 111 163 116 74 135 148 43 126 85 115 140 95 72 105 72 170 68 116 42 77 134 96 133 157 168 146 153 89 176 170 227 145 226 176 113 78 110 157 95 143 137 110 204 181 157 84 108 158 178 169 104 160 129 115 123 128 86 196 182 90 183 140 169 125 136 53 149 146 124 79 66 157 110 69 144 255 179 138 125 104 147 159 89 134 206 180 177 87 90 89 143 87 60 90 96 208 220 221 119 102 80 78 91 179 138 83 170 106 87 170 107 56 113 104 116 88 103 117 140 193 125 65 148 33 34 148 66 150 91 91 117 148 71 130 144 87 116 186 190 114 163 75 130 67 188 113 107 73 153 75 61 118 182 105 103 77 160 156 126 176 178 168 177 97 185 156 151 178 125 191 159 145 138 150 179 93 132 148 121 182 205 119 99 28 47 144 60 176 167 116 66 130 141 81 110 175 227 190 200 203 150 186 140 103 187 147 150 82 102 51 97 162 123 111 75 43 106 82 108 186 168 108 123 86 77 142 126 177 168 135 168 173 176 160 138 160 132 90 140 122 138 109 69 103 107 109 119 149 163 166 151 76 159 60 171 99 154 172 93 174 171 76 107 136 150 81 141 80 75 101 149 133 158 125 119 141 142 131 141 127 93 105 146 161 90 130 207 196 110 108 160 142 119 88 119 80 124 172 161 174 183 139 155 185 122 175 94 131 131 122 81 116 47 119 40 78 69 88
125 139 153 153 143 140 146 149 158 159 153 146 137 157 158 167 163 182 181 183 161 143 134 131 146 169 177 166 156 138 139 155 164 179 175 169 157 159 157 164 156 147 137 159 155 172 175 160 174 170 172 141 119 164 120 125 149 185 179 171 186 214 150 185 139 88 143 169 106 181 172 95 74 147 83 107 53 63 80 136 159 102 128 67 59 81 62 61 62 45 87 108 94 102 113 103 111 136 133 110 115 146 145 143 80 73 62 45 45 102 86 114 143 143 115 106 184 124 87 137 101 203 115 196 193 180 116 153 128 96 91 153 105 83 92 88 107 187 186 170 81 192 155 151 66 133 144 68 104 153 135 160 157 156 116 219 193 189 182 127 181 147 134 174 142 140 148 99 192 186 110 134 74 121 91 194 151 165 175 173 101 164 128 114 170 112 159 170 85 102 118 98 106 178 129 87 182 165 120 135 56 136 83 124 131 127 164 189 97 155 54 130 18 29 45 145 55 156 129 78 132 105 154 124 133 130 232 174 127 70 95 157 76 180 111 133 85 168 158 151 89 177 179 113 177 107 73 69 140 141 156 183 90 184 83 124 146 153 159 79 163 161 75 76 57 155 118 59 64 187 173 214 129 204 152 82 171 85 154 90 181 83 55 139 107 153 83 168 196 128 114 115 106 132 88 174 83 81 174 190 174 199 159 142 131 155 70 89 170 159 182 151 99 202 172 113 46 29 66 65 180 180 111 190 75 141 82 189 159 110 86 103 191 164 72 56 48 78 98 96 111 93 160 112 74 95 114 139 137 187 176 151 143 177 194 147 185 150 125 195 164 189 222 200 195 180 160 75 87 149 107 187 158 145 173 94 48 63 94 117 54 129 75 171 74 143 40 112 116 138 135 229 198 200 121 86 186 194 159 120 138 147 67 50 142 61 116 68 52 138 149 86 164 193 102 96 169 128 99 118 180 155 126 116 218 199 155 105 150 76 59 168 121 197 193 106 143 87 53 80 119 98 160 104 77 100 103 154 173 122 147 156 130 155 66 171 114 60 153 69 39 147 70 174 134 105 150 164 99 58 112 71 125 126 91 106 157 70 178 96 144 142 189 114 160 149 188 170 90 75 158 147 75 188 93 106 128 88 109 169 186 161 185 85 164 109 85 61 161 113 152 138
119 129 137 139 143 136 141 147 151 154 160 143 145 151 136 154 154 156 161 154 142 129 130 135 162 173 191 179 157 147 147 161 173 171 160 144 141 155 151 160 135 150 154 166 175 182 179 161 162 124 141 157 142 119 146 113 168 139 183 177 209 217 216 173 151 156 185 197 200 144 132 121 77 119 70 133 122 77 82 145 140 110 90 75 91 117 70 116 63 77 106 106 105 142 158 155 151 116 115 112 102 113 143 131 132 108 66 48 60 68 101 86 145 148 81 175 141 94 98 133 178 105 158 159 174 166 145 85 184 148 120 84 152 109 175 118 93 113 70 76 85 160 202 137 156 48 141 140 183 97 179 175 110 202 199 185 107 181 91 131 126 143 158 186 177 151 133 170 162 166 157 172 132 150 97 167 105 163 122 86 100 176 87 116 178 157 176 84 144 169 65 167 114 89 107 171 208 181 178 68 147 28 63 39 140 130 99 105 165 161 126 140 23 140 159 161 163 118 73 167 84 148 170 161 204 208 121 155 126 166 104 157 134 179 167 187 162 161 153 163 117 174 95 176 82 175 127 113 55 71 73 69 174 180 167 145 139 152 64 118 141 107 170 178 164 125 103 45 167 145 107 178 129 166 141 103 128 77 110 85 169 157 64 118 100 86 170 188 93 147 93 95 160 119 60 159 126 67 73 125 101 110 121 104 173 141 61 109 85 181 90 103 111 140 189 130 114 47 131 87 84 142 113 117 105 86 89 195 165 94 101 136 94 189 133 84 156 125 132 98 169 173 169 151 151 157 100 142 103 154 115 111 155 190 196 194 179 162 112 188 182 190 135 128 136 194 140 179 160 106 87 167 212 173 176 134 49 129 115 129 74 152 70 70 44 52 46 166 88 165 230 239 203 106 113 124 167 97 80 171 76 64 140 104 50 161 70 68 154 99 136 193 133 174 118 112 84 163 66 144 162 161 93 184 103 126 162 69 44 121 55 166 180 81 118 137 39 142 69 160 82 153 88 100 89 173 84 65 166 89 87 159 60 124 170 80 171 77 105 85 54 89 72 91 128 181 89 168 173 164 67 75 188 177 189 130 108 56 107 128 214 130 155 216 182 98 159 186 166 110 151 95 66 133 87 92 140 68 84 77 107 185 193 117 125 194 187 86 88 73 99 115
110 114 121 127 130 136 143 148 157 166 166 153 153 144 133 144 148 145 157 131 129 117 127 152 168 186 194 185 167 156 161 169 168 165 149 138 136 155 161 155 137 137 143 171 164 164 179 175 173 155 138 144 167 171 128 166 125 195 181 186 160 173 168 167 107 127 186 219 173 141 176 70 60 97 128 78 138 176 91 99 117 177 94 108 79 123 81 97 76 67 125 123 107 118 116 113 134 161 123 112 110 147 91 121 73 107 98 121 85 122 85 140 64 106 69 151 81 170 132 122 194 167 83 113 135 111 83 94 79 172 83 119 99 196 128 168 152 152 121 137 183 102 186 92 159 119 67 108 201 200 148 181 195 131 171 133 81 100 138 127 147 147 182 182 83 97 143 104 101 154 162 90 146 87 161 142 144 110 182 111 111 142 110 183 175 171 158 81 175 161 174 176 121 197 208 186 128 109 149 68 136 49 121 104 156 163 185 208 206 97 133 132 112 153 156 128 95 127 146 79 157 177 189 97 130 181 126 169 175 134 90 90 154 160 182 172 172 146 146 76 70 76 119 130 63 167 174 107 96 125 48 157 255 89 168 105 134 161 170 196 193 137 186 188 139 163 71 126 144 153 188 92 106 94 168 108 113 170 96 86 77 70 162 143 159 132 124 79 149 75 75 80 62 94 64 143 92 55 69 152 195 115 97 119 92 154 75 68 166 85 67 129 101 205 164 164 86 67 89 134 106 161 109 91 125 115 125 189 119 146 86 81 153 104 100 119 174 123 71 82 177 86 80 142 64 78 166 134 194 190 175 179 117 176 101 169 189 173 179 97 165 212 217 165 95 179 172 130 142 183 92 191 113 118 147 136 153 130 33 120 117 120 82 113 53 159 148 73 189 115 138 199 135 161 61 60 95 162 127 150 69 162 62 125 151 153 63 76 76 96 109 123 220 225 114 185 150 78 124 164 83 161 145 147 86 103 100 148 140 52 65 147 91 174 72 44 75 39 143 164 151 143 127 110 119 120 114 78 144 159 146 74 79 115 144 143 102 56 66 66 93 162 83 176 100 126 185 115 153 61 75 176 195 102 93 82 106 119 90 158 139 131 208 117 182 154 91 141 255 134 175 162 60 71 174 179 176 65 118 72 91 136 108 202 114 114 121 110 145 166 153 149
97 99 104 110 126 134 145 147 160 171 171 165 158 158 149 141 139 144 147 139 133 123 143 167 180 196 201 189 173 162 160 175 175 172 160 151 158 170 172 152 151 150 164 164 163 183 184 187 140 170 171 145 154 152 184 168 167 183 160 131 158 142 191 188 145 255 142 158 161 118 158 79 121 73 88 91 122 111 113 106 87 88 153 88 80 157 87 90 144 134 74 91 87 97 83 79 97 149 129 114 125 94 121 120 86 76 104 100 70 67 72 67 69 75 52 94 75 84 175 157 134 96 168 78 73 67 114 150 93 144 108 118 188 127 134 180 63 60 144 77 167 197 161 138 145 64 172 195 111 203 205 112 195 202 207 187 148 107 132 105 92 155 140 105 149 128 103 143 138 161 130 150 151 171 158 138 198 116 195 101 150 167 190 113 118 76 147 159 181 74 173 67 79 90 184 153 128 210 181 75 159 144 135 43 140 121 181 188 178 184 189 175 64 166 81 70 128 84 101 43 122 60 82 81 106 181 203 180 184 74 80 168 164 120 152 176 67 62 157 93 108 82 183 166 116 167 157 176 164 108 48 140 92 164 124 108 161 128 109 185 200 120 125 162 161 162 54 66 176 129 146 111 89 136 162 191 108 83 156 160 75 77 85 97 90 132 134 110 75 77 68 162 49 42 28 28 137 137 162 157 114 180 107 112 90 84 57 61 73 104 112 103 104 119 180 148 77 145 123 134 68 105 119 78 110 193 86 191 148 168 111 95 200 102 153 91 102 190 153 179 76 179 165 191 148 90 144 147 183 185 173 98 172 170 66 164 61 109 165 96 162 148 158 188 93 175 113 148 83 178 190 193 218 163 194 161 109 67 95 42 85 131 68 60 71 163 96 172 170 96 128 187 103 170 52 114 144 76 108 68 155 127 169 78 88 92 116 139 173 82 91 116 208 125 107 185 158 81 98 91 137 184 102 179 120 176 93 142 127 77 64 137 160 107 51 41 47 140 53 155 100 112 44 156 166 87 163 80 98 161 150 58 129 101 158 154 78 92 97 130 144 172 190 100 202 152 106 171 99 124 62 73 189 101 172 150 66 166 61 166 108 107 103 166 129 131 69 157 100 102 178 112 154 74 162 84 162 67 65 183 127 145 171 148 224 126 114 123 90 118 149 163
91 94 101 114 130 138 147 148 155 156 169 160 171 168 153 137 144 139 149 141 142 145 158 171 187 177 192 188 176 163 169 173 176 174 179 181 189 192 188 169 159 159 168 168 185 191 169 164 170 168 138 137 169 194 187 194 151 171 130 170 132 177 200 129 133 194 125 166 188 129 182 91 131 90 132 172 126 110 109 127 147 107 156 88 79 78 100 106 168 95 137 150 94 102 104 98 96 112 83 103 100 111 85 106 87 101 98 88 78 115 81 82 77 91 72 67 60 78 150 117 102 90 71 65 140 88 167 156 91 94 86 120 104 102 201 121 82 184 115 103 84 186 111 105 151 156 173 88 173 202 208 125 209 210 105 102 92 171 104 86 186 157 183 177 98 89 108 191 198 169 149 152 153 108 145 184 203 172 204 220 169 197 194 203 109 132 53 125 74 78 82 106 145 67 149 109 204 129 177 180 156 63 65 97 144 148 176 140 115 201 99 183 192 81 70 124 87 110 111 76 126 53 154 95 188 129 196 91 134 169 171 89 62 153 66 168 99 138 167 161 188 95 118 89 78 80 162 112 157 134 130 100 67 137 173 104 96 148 189 181 114 81 88 111 81 116 79 75 195 162 110 110 100 153 157 193 190 117 99 138 131 109 139 184 113 82 156 170 66 72 134 172 125 117 43 29 53 47 160 77 98 83 155 169 120 39 39 64 160 91 76 76 93 114 128 108 73 78 96 71 57 44 48 66 155 165 125 167 255 199 109 196 140 135 187 104 127 201 103 85 130 97 155 128 86 102 132 96 101 181 120 93 155 150 104 155 115 149 114 163 151 92 185 143 137 162 84 99 177 156 111 216 111 168 80 59 92 130 70 68 117 81 89 166 109 116 79 138 178 190 194 149 73 154 102 136 131 126 121 154 120 66 178 85 74 161 161 66 74 106 178 137 112 202 161 91 116 147 123 139 94 105 165 194 198 84 76 66 143 147 138 91 151 136 120 148 59 109 61 139 42 77 103 69 119 172 176 79 167 66 163 78 100 73 102 112 124 84 158 154 165 156 176 192 185 170 177 155 109 85 56 147 146 131 118 71 167 78 140 150 99 140 166 135 55 124 148 154 165 111 113 151 111 141 90 85 116 86 135 113 116 112 164 167 207 126 106 81 70 104 109 87
93 97 106 124 142 144 153 153 158 159 164 170 176 168 156 136 135 148 169 159 167 158 179 190 188 176 177 179 171 157 163 173 186 193 200 198 206 205 200 175 152 163 153 177 173 163 179 172 159 142 127 141 150 186 166 187 198 149 160 131 126 185 195 206 143 163 170 163 168 174 147 132 153 111 135 96 125 179 116 88 117 93 84 150 70 65 70 132 139 109 97 87 83 123 92 115 53 63 94 111 100 131 135 86 107 113 87 119 71 77 97 151 114 88 58 55 54 54 100 90 95 102 153 105 70 170 117 88 108 188 171 201 101 202 152 126 119 188 199 132 144 176 136 69 73 55 161 88 161 134 132 171 192 134 155 184 160 83 187 125 134 160 163 173 155 125 96 136 121 114 115 117 148 167 105 161 151 150 237 214 148 108 150 105 178 153 128 55 125 112 155 160 94 97 137 91 177 182 92 180 119 112 141 147 146 75 81 140 104 198 160 169 106 129 66 43 46 107 100 109 77 138 52 116 159 168 120 184 188 196 193 109 142 142 95 116 167 124 110 91 150 125 150 203 179 187 93 146 171 158 59 142 147 166 138 165 107 196 113 177 161 77 117 101 94 112 154 73 149 177 184 175 71 85 107 187 207 155 101 153 130 161 95 154 118 78 87 67 175 140 88 103 147 116 132 88 52 71 80 114 122 74 84 89 106 112 59 86 60 65 146 157 81 171 176 130 63 108 79 170 97 127 62 67 118 88 97 116 77 99 164 108 108 196 126 190 185 201 156 144 83 189 207 173 105 146 124 117 155 147 148 155 117 169 144 44 40 105 86 108 121 165 173 96 171 66 169 172 99 105 109 184 92 81 55 153 75 67 121 46 84 118 164 107 112 158 85 145 166 102 82 100 107 153 158 160 141 105 82 68 160 176 126 181 158 135 158 142 171 174 188 188 191 171 142 73 113 161 161 168 200 96 161 139 185 197 190 74 164 94 94 41 92 134 133 141 137 158 147 52 106 44 53 113 153 60 70 106 148 65 79 128 177 90 184 124 103 113 103 131 170 171 176 133 157 167 165 116 77 71 76 154 91 59 77 73 106 144 174 129 98 163 65 118 147 69 111 139 104 178 108 148 138 215 151 194 151 68 157 73 146 178 167 141 144 110 97 122 61 87 118 68
96 104 116 139 150 155 147 139 145 160 157 165 172 173 157 153 162 161 173 162 170 167 178 192 177 172 169 167 154 153 156 165 190 198 209 212 217 212 196 179 169 152 178 173 179 148 148 157 141 167 150 184 181 153 192 198 161 129 109 160 107 114 159 195 97 102 83 147 168 153 175 119 85 122 74 82 168 137 96 142 144 80 80 72 116 51 96 87 111 109 101 154 110 106 119 108 68 63 72 114 98 96 94 97 111 97 88 120 63 74 87 169 143 79 108 52 37 126 122 90 97 157 94 101 182 82 144 181 158 87 93 190 104 185 178 96 185 191 156 80 165 138 158 107 51 151 64 156 177 87 133 156 183 170 107 149 114 191 105 112 201 191 184 112 111 180 178 100 196 147 93 92 143 68 180 128 195 130 241 193 223 138 200 177 102 73 70 156 170 121 72 70 149 135 138 176 164 125 181 174 163 94 141 112 53 78 109 116 101 194 103 177 161 100 164 104 132 123 102 51 60 128 139 146 195 173 143 105 122 137 190 202 77 91 145 109 95 78 175 107 209 179 122 198 190 197 84 81 148 140 129 155 82 165 113 90 91 90 188 173 162 58 119 120 59 90 103 140 88 171 179 110 149 79 98 206 118 168 157 94 132 116 149 105 182 80 85 168 112 154 157 130 96 41 51 77 98 64 84 180 102 182 66 87 55 73 60 65 110 84 80 91 87 126 169 78 154 55 164 152 94 117 69 106 64 133 48 134 131 170 187 108 95 99 116 173 186 153 100 101 127 106 221 198 135 111 186 132 199 117 203 193 141 167 126 96 92 53 130 84 58 69 111 125 167 65 132 69 83 153 98 107 171 80 138 115 255 124 68 133 109 95 123 125 198 99 105 94 143 167 168 57 45 132 70 69 164 77 111 122 138 148 189 162 103 125 165 166 125 115 127 127 177 104 154 63 142 79 126 160 191 145 102 155 173 187 175 102 53 134 130 61 38 24 115 57 96 57 155 53 141 57 88 54 62 150 61 85 139 115 173 173 183 189 182 78 74 64 149 157 176 178 163 97 113 105 158 161 122 69 81 85 108 152 82 64 173 115 194 96 144 147 62 91 136 146 49 157 156 69 130 142 207 171 188 89 165 126 80 60 138 179 150 145 142 198 100 88 162 160 160 110
98 108 123 144 150 148 140 136 140 154 171 172 173 159 161 162 172 185 184 168 156 165 173 180 180 159 155 156 140 143 153 170 190 197 209 208 205 202 188 163 163 176 179 176 169 148 129 160 165 152 169 163 145 160 162 199 147 167 127 100 148 99 163 111 163 151 126 112 128 97 76 74 153 139 150 127 102 179 102 91 101 159 82 91 49 47 87 67 100 116 163 116 86 87 78 73 108 71 89 104 78 106 90 151 155 106 89 81 119 69 118 99 97 161 55 31 64 73 71 120 172 144 108 182 129 89 139 125 83 76 179 191 84 84 71 52 92 115 75 162 57 108 98 88 158 56 58 59 165 132 60 166 150 146 139 152 138 178 184 173 191 143 171 155 177 174 144 113 189 146 135 128 143 109 91 165 200 113 152 237 187 182 192 127 132 144 101 112 155 142 94 60 41 61 116 101 163 183 132 129 139 81 145 144 159 99 98 195 151 185 101 100 211 121 82 52 144 41 131 146 69 78 183 204 119 117 81 128 96 125 125 164 194 147 70 68 127 155 172 143 110 214 136 212 127 126 194 82 168 62 93 162 153 87 134 73 77 169 156 112 133 136 101 110 149 155 67 165 123 198 126 196 93 196 207 218 184 179 125 137 55 113 94 137 139 144 106 176 161 194 119 130 80 123 54 151 75 174 156 115 121 191 176 81 67 45 47 41 155 82 76 172 113 90 79 82 133 52 76 72 94 176 93 184 88 111 50 51 122 106 138 102 87 98 120 147 169 93 79 150 185 106 187 153 139 188 146 175 115 114 148 190 140 65 52 139 76 160 60 125 46 125 49 134 163 118 160 165 119 162 137 97 116 147 32 128 64 84 103 148 98 123 103 178 188 124 178 193 91 175 108 94 59 45 154 72 178 134 86 182 185 202 126 150 189 179 85 157 93 124 120 107 70 165 98 63 147 87 84 162 151 150 160 184 167 196 190 85 122 82 129 127 25 91 120 48 75 137 57 160 63 107 127 141 69 81 134 84 84 157 80 173 135 97 186 109 59 70 76 146 80 76 101 156 122 136 142 130 80 104 162 120 129 125 171 111 158 164 184 87 152 156 118 120 69 119 139 140 107 87 138 115 204 124 118 111 155 56 75 102 165 78 63 174 125 111 72 177 96 98 66 109
94 105 121 141 144 136 120 124 130 158 168 164 169 156 173 177 187 200 181 166 147 155 158 172 164 172 154 160 144 152 161 180 195 201 204 204 205 184 181 171 171 174 152 152 137 167 135 164 166 188 188 148 176 158 185 176 184 150 193 107 146 145 95 163 122 115 127 129 70 132 92 76 66 77 85 99 187 151 131 101 86 147 129 59 113 47 50 118 92 102 105 137 83 74 94 96 93 93 66 60 87 109 124 100 108 145 83 99 112 89 99 112 93 159 119 44 29 91 159 162 142 123 170 102 103 96 88 90 72 164 99 113 178 65 97 42 142 61 157 99 144 148 59 172 172 154 55 149 146 114 48 143 161 164 74 154 165 173 143 174 114 136 161 121 112 155 108 168 147 123 83 145 74 115 81 109 160 192 146 217 167 197 170 86 123 118 132 85 135 196 188 138 81 71 82 137 97 171 188 104 64 54 145 138 138 153 168 108 93 163 121 119 117 191 175 153 66 147 71 184 149 197 113 197 150 151 79 119 171 185 160 157 109 92 192 171 68 65 148 153 156 189 104 206 138 159 199 108 158 145 120 73 80 175 136 59 111 118 132 134 173 78 177 108 171 126 129 108 175 190 105 140 135 211 166 128 204 179 87 60 89 89 104 172 178 194 142 119 194 88 91 79 115 61 76 101 97 93 130 108 108 207 101 184 109 175 111 49 54 112 73 84 92 129 62 51 129 149 65 62 101 69 153 126 84 64 139 69 114 168 143 170 151 176 96 140 86 157 73 112 126 133 152 224 205 202 121 143 178 196 84 175 70 117 123 105 83 125 100 60 138 145 116 126 173 123 132 167 60 101 176 114 102 155 93 138 153 78 128 255 141 106 155 85 196 105 136 145 152 104 160 164 59 101 174 84 129 203 199 183 108 105 129 176 98 141 68 131 110 148 75 120 167 61 162 66 66 79 155 147 137 110 171 87 123 104 122 113 143 141 43 91 40 96 40 39 61 140 82 160 79 103 183 177 140 60 156 151 112 182 98 115 152 113 166 101 74 141 97 139 86 170 96 48 142 116 149 75 168 168 120 105 130 97 117 86 74 154 92 138 156 131 104 35 137 157 118 90 56 118 183 192 160 176 205 169 59 54 79 73 143 87 154 90 167 66 108 171 162 90 74 141
96 105 115 125 128 121 120 127 146 153 168 159 152 152 162 179 186 192 177 158 146 151 151 158 164 176 171 174 165 176 183 196 202 202 206 210 209 199 180 175 174 166 158 151 167 142 144 180 162 156 132 119 161 158 117 128 190 169 207 199 180 164 149 104 148 91 73 119 56 122 114 110 134 86 96 96 105 103 151 169 100 82 112 66 117 68 85 96 91 104 108 81 114 72 60 66 76 72 102 61 70 82 126 103 136 99 83 71 106 59 70 87 88 83 74 139 84 68 74 129 101 155 192 108 104 144 138 156 57 147 154 119 130 69 57 84 162 82 88 169 121 63 138 180 181 86 117 84 111 89 124 145 164 164 146 107 152 138 104 62 161 177 173 173 180 191 151 134 165 143 156 162 157 170 177 156 178 132 102 164 160 110 98 62 124 51 117 142 99 115 143 117 64 90 166 176 194 108 103 180 157 92 50 139 51 66 115 70 110 162 115 114 153 148 93 133 112 121 107 124 103 180 192 148 186 74 56 45 115 177 114 101 101 192 117 193 124 159 140 54 83 142 98 184 102 162 106 81 152 155 155 61 158 129 71 136 76 143 152 121 82 119 181 98 132 183 177 173 85 122 199 210 223 208 211 220 188 102 175 177 177 118 164 201 119 111 148 121 102 112 168 75 90 127 171 81 155 198 95 115 206 196 99 92 153 182 75 66 162 91 176 72 67 128 68 80 66 40 70 125 66 152 112 176 169 141 151 86 61 101 150 158 76 96 141 122 186 177 173 129 155 208 172 222 255 232 123 178 190 162 76 123 71 148 177 180 88 91 181 167 121 171 73 178 180 83 149 142 154 140 90 98 166 85 152 146 112 102 192 152 123 149 124 167 135 111 150 183 211 163 153 188 152 177 136 153 207 196 119 216 209 123 112 87 158 129 96 59 84 60 57 115 152 93 130 82 69 129 178 151 176 98 75 179 80 90 93 174 131 144 156 106 97 90 148 39 138 144 112 131 91 130 160 117 83 164 164 164 70 83 177 138 152 69 93 112 165 143 66 69 65 62 97 90 105 123 78 183 174 62 109 147 96 188 199 194 152 88 105 118 63 107 49 146 143 129 104 148 143 63 180 174 196 168 124 125 177 125 104 112 177 97 135 112 109 62 71 88 100 176 156 89
102 106 113 124 128 123 127 143 152 159 151 141 146 145 156 167 173 163 151 135 148 142 165 173 161 182 184 191 185 203 208 216 206 210 207 209 213 208 202 192 175 142 137 174 172 193 158 190 179 156 116 145 104 110 133 122 162 152 174 156 195 155 144 103 105 77 100 72 126 42 38 66 133 125 140 84 99 149 165 148 127 91 82 124 154 137 97 87 169 108 129 84 61 110 81 57 65 76 99 76 102 98 88 113 108 104 68 104 121 95 84 89 125 69 98 78 79 86 70 139 159 81 139 139 150 137 82 72 162 69 113 77 73 103 68 67 151 79 82 82 169 104 86 193 192 80 87 52 120 133 80 163 94 97 152 137 138 146 127 163 73 114 184 209 200 146 95 173 69 85 161 149 170 113 76 143 157 107 173 178 91 172 151 135 129 140 62 85 197 141 202 100 187 193 158 210 168 112 173 201 173 68 60 57 36 38 63 105 73 79 119 68 98 87 189 176 151 104 190 194 134 255 151 169 80 100 75 137 39 141 150 65 66 178 197 111 185 169 66 126 97 118 114 195 155 184 195 177 106 150 148 135 128 139 73 51 104 77 122 119 135 166 141 166 107 131 194 127 184 188 109 204 114 170 162 130 116 104 128 109 107 97 163 104 186 206 135 110 103 191 80 86 67 55 165 141 88 89 177 168 130 135 107 153 118 101 148 108 77 70 155 90 55 49 147 139 86 127 131 70 124 97 64 125 90 116 126 125 167 169 74 174 127 72 80 111 118 96 174 95 165 143 196 241 172 204 125 122 203 110 127 157 172 194 195 193 185 97 191 191 109 111 157 197 119 163 76 133 102 155 86 82 147 148 136 174 160 159 145 187 97 100 157 132 80 128 168 211 174 208 183 184 179 196 99 119 163 175 176 168 164 202 124 168 62 57 85 164 142 157 161 184 114 170 168 167 107 183 86 190 155 180 69 71 80 151 92 139 154 68 96 174 141 171 63 112 135 52 48 109 169 123 190 189 176 74 143 55 169 165 183 103 170 135 80 121 111 197 128 116 95 70 56 117 158 167 148 87 85 116 57 75 117 170 113 105 122 133 66 162 61 77 52 67 104 72 119 122 63 144 81 93 134 110 121 183 91 168 86 106 163 85 82 93 171 143 123 185 127 137 172 102
111 114 123 133 137 143 140 154 158 158 140 138 125 136 145 156 153 158 142 141 149 157 172 166 179 174 191 199 206 220 231 232 230 216 212 210 206 212 214 203 169 164 165 182 204 191 179 153 153 120 143 143 98 114 102 152 186 200 180 164 136 133 129 157 182 116 86 137 53 50 62 99 52 60 143 86 106 51 67 103 75 123 112 89 131 106 124 111 108 123 102 89 78 63 47 109 73 83 111 111 77 94 69 69 75 74 63 84 95 109 176 85 147 76 93 167 94 89 115 112 64 76 141 155 107 154 75 157 77 80 77 73 168 147 177 153 92 91 122 189 176 83 157 255 146 131 174 120 133 121 118 138 193 111 96 193 190 169 146 106 136 142 190 143 133 195 147 103 94 170 76 165 75 170 160 177 98 163 158 189 79 104 83 151 126 52 149 105 193 116 172 109 169 102 212 215 201 199 131 100 84 81 55 142 40 132 64 96 160 170 125 108 73 65 157 97 184 158 107 101 168 167 189 130 126 86 112 123 125 120 47 106 45 165 145 112 170 168 73 165 181 153 185 143 113 98 104 157 82 115 111 138 68 127 48 58 26 123 103 127 100 56 116 153 135 99 106 101 127 162 144 144 175 103 149 196 148 173 207 115 159 174 166 192 165 95 95 195 113 149 154 78 54 136 70 67 121 126 159 147 61 80 85 110 173 122 158 109 174 61 60 55 108 131 38 59 150 56 164 153 128 59 61 146 78 115 77 135 101 157 178 181 119 176 120 119 148 151 91 138 112 121 228 166 214 232 132 152 121 100 151 121 160 161 97 135 197 200 199 103 116 209 115 190 91 146 144 92 136 83 154 100 70 120 75 141 157 198 182 136 136 93 144 95 77 150 115 205 129 204 158 141 192 207 105 106 187 152 141 128 186 115 139 72 131 142 64 78 123 201 100 148 89 94 77 138 75 141 151 94 94 114 135 58 147 142 177 82 166 129 77 188 131 191 68 58 55 163 80 163 155 89 122 116 84 177 129 160 66 77 87 159 138 89 80 194 150 139 164 90 123 44 98 42 160 153 81 130 164 145 145 145 175 92 149 186 137 161 110 73 97 111 86 107 146 80 161 82 136 169 91 94 133 108 220 118 121 177 103 191 193 106 172 102 175 94 195 129 144 157 175 135
121 129 139 151 160 152 151 152 149 154 133 130 128 135 139 138 134 146 138 146 161 174 183 180 162 174 185 189 208 218 235 239 235 222 212 202 204 214 217 209 168 148 176 198 211 190 195 168 120 124 107 126 100 94 149 155 146 199 196 185 166 199 179 176 113 99 94 96 255 39 88 37 124 134 123 125 38 36 127 97 85 70 81 99 112 171 116 140 107 166 125 94 93 64 97 69 99 95 141 87 122 105 89 61 61 66 71 131 133 143 112 102 115 84 73 93 112 171 118 53 46 78 85 83 255 98 70 115 188 86 110 96 86 124 96 94 82 139 148 114 88 186 184 167 129 186 162 148 146 96 63 163 195 175 153 90 183 153 134 159 70 158 152 209 170 195 154 180 169 154 137 146 68 85 103 174 82 102 154 154 110 141 131 146 141 105 136 131 171 153 204 179 105 191 216 223 199 183 109 198 81 125 78 138 152 62 84 140 205 98 191 105 157 60 142 165 97 203 111 145 78 103 120 125 149 151 57 50 54 116 155 145 100 149 118 133 185 179 185 80 189 101 194 105 106 81 180 87 106 86 59 107 132 54 143 52 123 115 84 28 60 80 115 169 96 130 106 197 186 109 163 86 119 139 166 167 172 185 108 173 173 146 98 180 171 78 152 204 219 156 103 74 55 52 106 75 82 176 138 56 61 92 82 194 108 158 201 102 111 92 67 27 61 39 52 84 88 81 125 90 98 97 80 80 135 255 82 174 69 180 124 137 111 92 78 87 158 85 113 85 106 164 201 142 154 124 207 232 190 198 126 174 167 112 144 203 98 196 128 152 122 217 182 204 134 174 82 71 172 162 110 109 109 114 105 180 128 206 190 168 158 182 85 113 111 172 103 149 147 197 156 113 103 211 192 178 98 88 104 76 84 182 151 75 164 81 147 94 198 108 204 138 111 194 86 164 125 163 94 145 124 182 91 142 172 126 183 158 135 156 93 147 194 178 173 165 128 182 81 137 89 82 69 163 112 98 138 105 146 183 131 126 88 85 84 190 197 221 209 190 119 113 146 60 65 162 74 133 64 57 131 155 88 199 146 189 94 133 152 148 68 58 132 170 110 64 148 86 52 60 70 124 143 164 190 229 177 206 183 111 82 185 130 149 185 169 154 125 155 92 78 83
127 138 151 162 164 162 154 150 153 150 137 138 136 144 140 130 121 127 135 159 158 176 179 173 148 158 166 174 200 213 222 228 226 214 207 197 199 207 214 203 185 168 168 189 195 211 166 122 136 100 149 156 155 120 155 101 110 160 184 211 209 255 193 193 105 152 163 143 137 90 114 115 100 116 81 58 99 55 79 128 84 135 84 102 167 97 95 101 97 98 163 102 88 75 69 86 96 100 133 115 85 96 84 62 75 77 114 131 115 176 127 122 102 63 155 87 126 84 67 66 76 47 65 168 155 80 61 66 79 96 85 151 110 197 212 206 91 100 191 182 99 79 119 184 119 146 83 114 149 142 119 175 185 123 89 145 183 125 140 59 154 90 141 159 159 149 180 164 178 100 92 87 68 173 87 82 93 194 199 163 78 123 143 134 98 68 146 98 132 99 205 118 168 114 216 208 202 204 153 145 130 128 73 114 146 77 174 209 170 142 110 103 157 69 169 154 187 89 157 89 153 89 106 100 198 119 121 170 163 167 86 163 104 80 88 163 183 178 177 82 90 191 153 127 154 175 112 157 142 173 75 142 91 71 109 142 160 88 84 117 74 38 120 183 124 203 205 165 106 90 140 109 83 188 112 93 121 91 173 93 148 99 158 181 90 103 163 106 172 179 121 99 255 69 148 120 161 122 117 106 112 108 151 145 130 143 226 145 77 143 121 31 90 142 81 81 113 92 116 74 166 62 79 173 89 143 148 155 110 80 96 100 192 172 85 170 104 125 94 81 115 126 161 96 205 184 160 137 207 104 120 166 138 170 160 139 92 147 174 143 172 192 149 114 87 184 166 179 72 130 132 153 123 155 105 170 127 205 142 85 99 76 164 160 98 130 134 94 161 178 93 190 145 161 192 163 123 169 113 168 180 151 77 157 117 61 124 190 135 181 167 210 113 113 103 195 135 80 119 111 139 176 174 70 88 189 81 70 51 141 105 166 184 94 180 86 195 193 197 110 136 54 59 159 105 113 96 119 164 160 192 193 112 88 99 97 117 214 174 113 174 131 158 80 134 126 136 66 54 132 82 107 147 197 200 177 102 162 128 184 87 130 88 166 162 60 54 86 78 143 154 138 175 211 179 138 155 116 206 93 159 111 195 201 109 163 139 120 215 131 124 113
121 133 146 155 158 159 153 153 149 156 152 145 150 165 161 142 136 134 142 152 165 181 178 163 155 157 157 177 198 208 214 213 203 201 197 193 192 190 205 195 163 171 165 201 211 204 158 148 141 137 126 173 128 162 154 102 157 144 156 130 139 158 163 111 176 156 104 125 91 178 173 84 104 81 79 59 62 116 35 48 46 123 60 91 114 147 82 75 76 82 92 128 99 94 114 82 106 115 115 87 91 86 67 67 80 126 115 125 140 137 113 76 54 50 94 98 80 57 58 53 106 139 101 170 134 159 53 131 143 84 123 80 168 111 152 216 201 170 78 147 169 72 131 73 178 180 169 185 168 78 160 201 200 193 183 135 87 167 152 87 151 127 172 107 140 172 120 178 121 149 59 159 107 180 95 143 131 140 116 87 171 97 56 152 162 132 131 150 109 134 192 202 111 205 169 120 172 185 211 198 153 162 135 71 184 91 113 158 195 134 187 101 174 64 106 101 131 103 43 30 134 87 170 175 173 82 181 130 142 95 149 143 97 93 74 136 107 155 166 90 75 146 129 168 122 160 139 145 77 171 97 181 146 89 78 157 159 106 141 88 72 61 56 82 206 141 143 84 141 62 51 112 88 120 84 68 117 95 143 144 182 112 90 181 87 155 126 119 127 192 201 171 98 166 149 104 202 97 191 86 105 87 108 93 154 159 225 152 119 70 130 126 157 91 89 187 160 170 93 80 73 74 153 175 182 127 71 162 89 131 196 99 119 113 77 176 168 77 161 157 77 88 175 131 110 204 217 127 217 204 178 62 148 120 78 157 188 95 142 123 95 193 112 91 122 91 133 121 78 141 157 56 143 85 165 190 110 167 115 111 74 153 95 168 191 176 108 155 193 97 159 180 118 177 199 92 85 63 70 114 174 168 66 57 59 117 135 108 156 183 93 190 183 100 204 150 180 149 151 149 153 205 151 170 142 185 89 120 124 45 132 175 192 180 129 193 102 185 190 80 65 72 168 156 84 196 165 113 106 174 204 160 101 163 90 145 163 125 172 187 177 141 180 180 74 115 65 137 148 107 151 169 113 141 152 140 101 95 183 153 110 90 90 138 158 64 57 121 104 27 37 130 167 113 205 207 204 185 126 104 117 103 185 107 145 114 102 208 109 138 105 103
103 115 127 142 148 147 150 151 148 150 160 169 177 171 160 151 127 134 148 154 169 176 180 173 160 160 175 194 209 213 210 199 193 187 196 194 193 197 199 191 167 178 168 195 193 189 157 153 134 135 126 145 136 149 136 93 139 132 165 176 124 183 201 175 162 140 110 136 178 176 169 183 95 96 140 115 109 56 127 123 106 83 95 128 83 85 131 63 59 67 79 96 145 121 84 78 81 89 104 83 89 71 78 103 90 107 116 114 109 118 87 109 65 135 102 62 60 41 51 149 139 116 81 70 68 60 55 159 131 121 72 168 84 125 203 162 202 170 178 112 162 61 50 87 144 177 171 93 93 106 97 208 106 204 160 93 105 167 94 158 156 98 156 179 160 181 135 164 63 82 100 87 83 177 190 164 97 136 130 69 158 138 113 163 170 173 132 68 135 146 148 94 98 195 201 159 166 230 180 162 160 90 122 182 98 168 109 121 137 101 196 157 172 148 173 95 108 138 140 99 123 141 159 135 158 125 176 181 191 193 148 138 175 108 170 102 140 166 67 167 168 109 179 161 81 149 56 126 167 180 170 134 165 83 114 131 98 169 171 85 138 152 109 153 212 108 128 101 60 34 52 155 77 142 118 79 136 37 61 149 168 77 180 85 173 70 77 161 145 126 154 203 196 170 226 127 164 217 191 208 165 97 174 99 178 140 121 147 69 155 80 116 64 114 90 134 85 98 147 95 89 139 96 131 91 108 183 87 189 183 93 92 186 101 107 140 164 175 96 101 72 69 153 183 142 106 185 109 143 171 174 94 55 142 124 188 152 155 165 120 181 184 130 160 121 72 255 182 140 99 82 153 75 165 175 85 143 255 111 176 119 94 144 92 149 122 98 74 98 168 168 178 173 84 139 112 161 130 71 164 112 126 79 130 113 114 100 136 126 163 179 181 194 198 94 179 165 113 76 179 190 205 203 166 130 95 85 95 126 98 99 163 153 158 120 204 195 144 184 178 133 164 71 113 123 161 103 165 119 131 198 79 90 131 140 103 88 151 139 112 255 82 82 93 76 61 137 149 53 64 75 106 170 139 108 171 178 109 86 138 133 176 92 148 93 174 124 76 41 30 95 99 142 59 169 158 111 79 92 196 104 90 91 124 79 121 167 109 139 169 106 102
91 104 117 127 139 140 147 142 152 151 155 163 164 175 151 136 128 134 148 160 176 174 179 177 180 189 197 204 222 219 206 187 178 180 184 185 191 195 191 196 187 191 195 191 191 186 180 150 146 120 117 164 158 148 142 159 153 102 133 173 159 150 194 139 175 134 147 194 214 131 118 186 94 145 102 170 90 136 63 51 95 113 54 66 78 86 125 80 62 62 122 93 125 114 157 94 79 69 73 85 97 108 85 81 116 153 92 123 82 79 75 97 81 65 66 73 55 53 48 168 188 180 101 175 78 137 91 61 147 60 153 73 81 194 191 205 94 79 140 163 86 49 139 64 146 119 191 135 104 184 181 189 111 213 183 127 81 91 130 88 136 157 100 176 167 137 155 70 34 30 93 141 192 125 165 170 78 84 144 126 72 138 145 108 91 111 185 144 154 71 75 188 84 86 95 163 126 123 122 194 144 69 167 129 183 161 94 102 92 189 184 88 119 151 143 162 93 83 63 140 64 114 116 58 58 142 152 175 190 143 171 96 180 139 74 150 144 160 71 156 165 172 194 122 188 152 112 77 162 123 160 172 169 145 142 132 159 173 121 106 124 145 198 116 131 114 114 131 135 29 116 136 149 79 162 101 87 43 42 69 106 136 172 104 78 131 182 93 122 117 197 175 181 119 133 222 191 113 120 113 131 147 178 201 117 189 225 145 87 75 70 160 73 97 177 92 152 202 217 177 154 82 77 76 171 167 201 150 158 101 106 139 89 88 79 175 155 111 102 142 148 103 177 145 120 86 142 93 177 179 167 59 78 145 63 90 181 103 141 130 164 135 156 81 51 157 115 193 98 152 151 76 79 143 89 185 196 194 190 152 154 148 151 167 74 160 96 93 78 49 142 89 137 76 147 113 181 58 93 65 134 51 124 130 44 86 167 161 132 85 108 191 111 145 181 181 170 149 166 172 210 216 115 109 169 176 79 185 126 130 179 178 204 124 116 100 93 94 95 141 102 68 74 186 104 160 168 191 229 184 109 181 162 148 61 68 74 157 179 147 96 85 165 125 135 56 130 91 141 82 73 132 129 66 167 139 159 169 185 92 136 206 108 155 123 162 105 155 139 72 133 109 138 45 124 93 110 59 73 86 195 192 80 147 74 184 192 98 94 85 95 102
98 109 123 133 138 145 139 140 135 145 156 162 168 158 152 134 150 143 155 164 175 185 185 190 190 211 214 225 229 214 205 184 255 163 168 173 183 202 209 207 187 200 180 177 184 186 155 190 149 134 154 176 161 164 143 127 123 166 174 196 198 174 184 155 197 152 214 141 148 206 188 128 137 176 99 136 126 123 78 142 81 83 61 135 130 162 94 79 69 62 112 93 103 134 113 124 99 77 124 64 97 63 92 106 123 123 74 107 59 91 123 67 98 144 131 51 75 50 122 83 105 109 151 95 97 82 136 163 125 56 41 44 107 76 125 179 81 182 82 164 80 74 146 155 70 181 167 168 192 146 191 160 132 133 213 103 102 134 172 139 162 165 184 174 107 154 112 130 121 134 157 181 134 207 121 175 75 106 142 128 89 60 83 81 151 148 181 184 180 69 79 161 146 198 175 108 215 142 199 97 87 79 103 106 74 84 139 160 96 93 67 120 106 70 146 165 181 198 177 129 97 92 145 39 112 58 149 98 110 103 97 191 174 155 151 51 96 166 176 133 69 178 95 129 182 170 99 160 61 104 148 156 105 156 126 148 164 110 149 160 136 145 203 159 169 211 185 61 49 32 116 127 124 142 111 156 80 99 56 162 162 165 84 91 147 163 181 159 81 130 85 140 200 197 153 163 141 159 143 146 120 172 112 207 192 125 147 101 66 62 51 56 57 64 74 86 188 132 152 118 196 151 91 162 155 190 110 206 119 191 147 113 94 87 121 83 90 190 148 103 113 114 72 119 82 76 87 56 141 74 148 51 39 114 119 167 151 140 66 157 84 126 43 106 37 140 146 130 118 129 123 160 95 74 165 91 112 177 140 183 187 97 196 108 118 123 71 137 138 39 52 75 149 110 93 163 83 57 101 91 140 78 100 58 132 163 151 181 172 140 99 180 188 169 97 107 86 157 70 177 218 189 133 120 127 176 160 100 204 208 115 113 166 192 135 91 117 139 165 69 175 69 175 183 155 187 125 215 158 217 182 114 108 133 143 43 57 161 68 169 98 100 78 73 146 142 84 52 53 106 166 100 127 44 96 143 135 144 90 175 104 164 206 97 170 192 163 78 89 59 56 107 76 46 94 96 81 156 68 74 158 85 164 178 84 106 193 111 136 142 159 93
112 123 134 141 139 139 140 132 135 139 145 145 147 145 143 146 158 152 164 159 163 170 161 178 199 215 225 235 230 213 188 169 150 152 159 170 188 197 211 199 192 204 190 175 184 160 173 209 200 165 132 144 181 174 157 174 173 174 134 205 169 157 182 139 139 191 122 111 175 152 106 164 116 143 154 134 108 161 86 90 80 97 141 113 108 80 160 141 73 57 95 134 127 126 173 123 160 106 82 90 84 67 88 88 107 82 91 55 78 85 67 73 74 94 85 81 82 74 136 100 255 140 109 132 91 94 86 84 159 68 45 50 61 177 86 163 77 130 160 66 56 161 82 97 97 101 122 149 161 134 125 155 138 102 191 206 193 150 177 139 179 101 150 90 174 158 59 76 40 60 108 163 209 206 190 115 95 153 157 92 117 103 147 165 157 78 90 146 161 126 163 176 128 211 255 183 202 176 166 111 88 79 72 83 94 90 167 184 79 176 84 46 56 114 73 160 105 161 181 111 162 64 109 97 109 101 158 109 139 131 139 196 165 148 80 81 105 117 82 102 177 87 182 188 91 182 179 162 77 72 152 72 156 174 143 67 150 122 123 64 168 167 205 225 228 204 117 146 36 109 48 101 140 135 100 178 88 83 96 107 158 179 177 102 132 107 125 80 181 95 114 87 116 123 193 138 213 96 118 138 194 97 88 91 158 109 97 77 93 154 85 156 56 110 82 145 151 109 183 119 105 185 80 128 111 188 127 197 169 105 179 120 179 93 158 88 88 95 158 182 139 100 79 82 104 125 101 50 55 166 61 160 47 148 146 72 168 176 126 120 86 57 126 68 64 149 74 88 181 88 144 81 119 144 129 162 95 128 190 123 87 100 103 89 75 133 39 31 131 63 140 96 101 182 106 89 153 144 142 68 88 51 45 105 159 180 105 143 168 125 163 122 127 197 212 108 129 108 147 107 186 138 160 191 131 170 184 110 212 167 192 125 197 106 132 179 116 61 159 170 145 79 179 178 177 138 130 186 217 223 199 181 102 134 102 126 152 163 133 170 147 130 165 109 60 49 67 99 69 69 135 148 118 48 75 39 80 68 153 111 140 168 176 94 167 144 97 198 159 149 88 106 66 85 111 74 62 67 125 135 68 174 80 83 167 178 198 126 158 255 149 78
116 127 138 138 139 142 138 136 125 137 141 147 141 134 128 131 148 171 172 165 152 138 149 158 185 206 218 223 219 205 177 150 143 146 157 173 191 201 206 201 199 179 182 157 158 188 179 201 182 185 169 167 138 175 148 151 121 184 209 192 197 123 145 169 94 124 144 80 161 106 89 77 151 163 194 199 129 103 85 155 73 135 67 67 69 65 70 68 94 46 56 65 92 102 166 143 167 107 93 116 116 99 58 57 91 61 53 95 66 82 58 79 144 114 93 116 88 88 167 118 188 140 205 191 92 117 76 78 135 154 52 58 162 157 180 159 111 82 87 131 116 111 98 218 132 137 109 160 157 48 147 64 99 91 161 166 179 188 114 172 83 107 140 188 94 143 139 97 60 166 184 170 148 136 95 156 110 152 70 127 70 161 166 164 66 100 108 99 140 175 172 186 201 162 173 154 201 174 189 166 189 90 163 147 56 153 66 126 166 82 162 152 78 178 170 147 115 127 184 212 143 135 162 116 63 137 165 103 215 222 212 171 117 167 62 84 56 98 185 114 160 176 178 190 126 144 192 89 150 71 64 110 176 121 66 147 111 59 125 101 185 104 205 166 139 118 87 56 152 55 74 126 88 97 95 133 116 119 89 165 117 118 88 100 89 100 151 158 165 117 79 83 152 117 192 183 113 157 128 197 199 151 137 79 133 162 82 53 102 43 83 156 141 70 195 206 149 138 94 137 142 96 91 182 85 97 119 204 204 131 114 103 172 100 86 85 140 180 119 186 115 94 68 100 151 76 67 102 65 119 116 164 163 154 111 112 138 69 147 70 75 121 150 134 114 67 168 137 144 165 91 147 117 118 176 138 123 207 149 170 155 112 107 109 83 143 42 86 73 26 102 101 166 98 186 96 129 160 77 84 40 101 127 147 65 82 152 87 137 213 121 121 177 198 161 198 117 93 163 98 212 220 127 137 143 170 255 205 129 170 126 192 100 133 180 92 60 57 61 168 109 75 145 169 161 93 135 177 176 128 159 174 126 126 73 75 54 62 90 93 167 70 145 104 149 73 144 76 164 154 55 144 108 64 93 141 110 46 128 68 67 73 115 160 110 170 109 113 198 105 165 73 120 158 84 112 171 62 126 99 54 161 159 90 180 120 146 120 110 79 146 109
101 112 126 130 132 134 141 135 134 124 127 133 131 140 129 137 156 161 173 155 148 126 142 145 169 200 207 212 203 181 155 149 146 154 167 255 184 192 191 191 171 177 178 166 160 184 209 203 214 196 184 126 140 161 156 124 166 146 145 171 175 170 171 131 163 88 90 98 85 67 93 96 103 145 104 118 178 160 106 124 60 83 83 66 108 49 111 73 57 46 104 80 84 97 112 178 182 112 111 128 98 63 53 41 66 54 118 84 105 55 79 66 83 110 172 97 113 107 195 185 121 190 194 201 91 81 70 97 62 165 126 157 126 69 174 178 176 173 166 158 167 190 153 130 132 223 187 122 66 121 55 80 165 106 205 194 162 178 104 149 191 189 129 173 125 74 104 75 76 161 154 109 131 193 131 164 70 60 56 163 127 149 115 66 64 117 96 141 179 99 178 178 109 186 179 185 196 174 117 85 180 153 105 80 161 133 170 156 112 80 176 78 134 194 180 157 180 194 148 142 111 194 140 147 137 130 142 197 125 179 119 205 184 178 159 158 79 92 138 178 149 159 181 184 170 150 132 89 175 136 157 73 162 117 145 152 134 57 59 167 155 164 179 162 111 71 164 65 174 183 120 107 171 196 172 158 183 176 133 120 101 168 142 168 102 83 151 96 120 186 80 155 176 190 211 178 125 92 174 96 94 147 98 93 158 70 65 91 122 113 76 98 166 83 112 139 97 82 99 134 117 144 175 164 170 176 189 115 121 158 191 123 206 99 182 161 105 188 162 190 115 162 152 144 73 82 175 119 100 95 181 84 164 124 179 178 89 159 86 120 160 80 140 107 167 128 194 207 102 174 182 199 128 213 120 132 211 158 181 161 175 213 124 95 71 82 28 35 31 50 118 175 80 179 177 102 133 96 69 103 133 94 59 66 144 184 131 194 118 116 146 188 146 203 208 140 169 206 203 146 202 121 131 100 184 98 96 209 226 151 123 118 196 175 157 140 163 60 166 169 106 99 132 52 136 148 91 125 106 111 116 202 176 167 69 63 100 50 97 105 127 114 70 104 145 58 143 134 170 160 148 138 102 95 112 138 52 101 58 80 141 75 110 94 96 119 208 115 120 120 165 162 178 91 91 187 72 65 91 144 59 165 76 183 112 152 220 123 89 103 152 158
85 94 111 118 131 135 133 135 134 137 127 132 128 133 137 130 141 159 149 155 152 129 139 152 179 192 198 197 173 162 154 153 161 167 175 176 181 175 169 174 173 177 176 146 168 179 196 198 187 174 147 172 161 172 162 105 116 138 156 149 189 201 176 180 114 113 122 125 70 120 153 72 79 168 90 103 154 89 73 65 55 51 69 42 46 66 82 72 55 60 117 112 77 97 98 106 119 101 87 112 68 76 60 39 62 76 84 64 76 48 55 87 67 101 142 125 100 168 117 129 109 114 196 120 186 109 75 174 172 149 117 162 88 125 169 76 125 124 166 169 122 106 215 229 169 230 209 168 54 134 48 116 146 195 192 97 143 140 137 180 162 131 214 156 122 131 69 134 113 182 187 198 198 174 172 120 152 98 77 164 115 93 155 255 123 174 146 147 179 88 84 90 198 108 146 162 154 116 112 69 73 126 153 73 142 137 181 81 188 183 144 120 105 159 129 196 155 219 231 126 207 194 165 131 68 68 143 125 138 188 119 182 131 112 185 98 181 72 160 66 162 167 175 176 173 176 180 72 108 98 138 46 120 149 143 148 120 37 142 91 73 181 177 175 132 165 115 80 198 155 108 188 176 116 158 186 125 171 110 172 105 166 158 119 110 181 165 106 98 90 149 154 90 175 110 111 121 143 151 126 109 99 169 94 80 101 45 28 109 120 46 75 81 128 114 168 168 72 65 110 179 182 105 79 92 83 132 158 130 147 179 149 110 145 75 106 81 184 112 182 180 153 69 80 139 190 120 177 169 153 91 201 100 185 197 134 135 179 90 106 131 121 125 162 178 174 153 138 211 157 186 209 171 115 116 140 140 165 227 122 194 147 198 83 152 126 120 46 132 150 100 83 165 117 60 161 146 172 92 110 60 141 115 122 170 170 91 100 161 115 125 108 151 136 125 201 206 134 168 195 168 100 111 144 139 103 111 130 170 119 124 129 128 70 166 87 158 63 161 100 174 164 47 39 44 48 169 133 94 101 144 101 184 87 166 96 78 65 92 187 187 112 68 139 48 152 172 85 153 115 101 70 52 151 147 71 68 53 107 70 157 118 118 103 197 147 197 167 154 136 165 111 88 153 90 89 76 151 48 76 102 160 144 114 102 113 102 178 182 84 76 81
83 90 104 114 125 131 130 132 126 123 130 121 145 145 154 153 158 151 161 147 147 155 156 163 180 193 201 184 159 144 148 158 173 179 180 176 175 170 170 174 181 189 181 161 156 138 178 192 202 170 179 154 165 175 136 147 169 176 169 186 195 129 158 164 100 79 100 136 127 87 94 99 111 115 94 92 170 85 142 101 43 42 60 112 48 122 56 69 67 66 65 85 116 99 137 141 143 95 91 91 92 55 54 43 59 64 71 104 78 54 255 59 112 92 130 109 133 97 87 135 142 106 117 98 182 181 186 89 174 79 153 83 64 77 145 108 144 172 109 177 106 101 107 178 139 178 203 130 157 143 164 169 188 200 101 195 122 102 131 122 179 146 197 189 124 72 165 169 138 90 108 91 177 178 95 88 88 91 156 160 126 150 179 116 91 103 116 183 94 176 155 96 100 100 84 170 139 147 50 54 110 89 61 77 145 157 153 90 128 90 160 155 89 85 188 126 174 187 128 219 177 155 192 84 72 102 83 197 130 142 211 151 201 213 117 102 93 173 158 52 158 69 75 155 149 130 99 86 161 94 71 130 136 145 93 92 120 145 46 103 146 151 92 67 93 124 103 84 203 155 123 195 182 188 158 203 105 91 121 85 175 131 98 76 117 177 129 91 108 159 105 57 52 102 169 196 115 132 128 156 122 109 100 97 135 153 145 58 91 81 113 71 166 148 121 216 188 73 125 81 70 145 80 146 105 112 176 123 159 122 117 113 112 88 136 152 121 178 162 157 103 82 181 163 196 204 196 183 144 112 92 208 200 181 182 108 195 147 123 96 105 147 52 53 123 105 97 120 171 133 213 152 98 152 96 132 110 209 192 166 121 111 172 134 118 63 94 114 126 158 163 81 156 74 92 78 171 102 70 131 149 106 147 92 185 105 182 123 105 213 193 168 159 138 83 186 200 207 100 107 95 98 103 180 192 210 195 99 175 167 209 103 154 158 110 141 141 65 109 180 85 114 43 58 65 60 135 128 145 124 93 194 188 179 98 179 97 84 169 110 211 166 132 115 130 162 94 145 199 171 121 156 90 56 117 172 147 92 160 114 77 174 175 96 171 162 167 108 155 130 72 167 187 126 170 171 158 151 58 47 147 165 76 183 159 192 174 158 139 168 152 95
97 102 111 116 128 133 133 127 128 130 131 122 139 150 170 174 155 153 156 159 161 154 158 170 175 196 198 178 159 140 142 156 177 185 188 182 185 171 172 178 188 199 172 148 120 124 164 188 198 199 171 181 175 191 184 137 176 169 169 152 165 183 164 176 109 161 104 125 255 95 82 92 144 142 165 116 182 153 77 117 50 51 130 94 58 131 65 119 72 119 71 86 65 66 77 79 80 73 75 73 63 57 104 68 104 102 93 73 101 75 67 91 95 108 125 75 114 108 65 157 108 180 101 169 173 163 90 142 120 186 186 176 152 89 71 73 174 174 75 184 194 137 197 103 183 190 179 173 161 152 69 175 97 197 86 176 118 61 74 141 128 148 207 198 149 104 99 139 103 165 167 156 154 170 171 141 114 113 121 167 92 175 122 160 200 212 115 141 199 161 195 174 212 135 144 75 49 56 255 65 128 54 71 146 112 103 131 92 182 187 80 185 96 86 172 132 113 97 100 167 188 157 157 103 92 187 175 192 198 205 131 147 145 207 108 119 188 84 149 157 115 134 132 174 141 109 83 150 127 142 154 49 92 106 123 63 59 146 152 119 134 151 110 66 73 113 169 170 184 195 113 122 84 185 117 195 81 145 110 169 94 154 83 83 178 98 105 178 191 145 94 51 117 103 102 103 193 106 143 129 111 212 109 95 84 109 96 80 255 106 168 103 117 137 154 228 105 113 79 134 117 72 89 97 156 178 85 197 212 144 210 146 91 120 77 160 79 188 136 105 139 126 108 194 120 194 174 187 102 89 186 201 127 201 193 108 201 214 209 93 255 60 121 69 169 103 94 119 187 204 108 146 150 159 140 125 139 156 170 145 185 141 85 75 76 98 95 71 64 91 188 80 120 112 132 157 163 73 76 169 97 86 70 170 155 95 136 195 160 109 93 110 133 159 76 106 91 136 134 198 177 101 197 121 172 92 180 136 78 174 168 137 152 121 109 73 133 150 143 168 146 173 58 49 53 69 169 168 94 172 90 135 192 89 82 137 165 72 120 165 132 104 155 166 60 113 90 190 194 109 126 49 135 166 182 135 186 93 166 70 255 168 141 173 96 195 200 120 117 167 72 78 120 142 180 72 155 144 96 125 67 108 151 186 78 73 60 59 56 68 90 199
120 121 126 131 137 135 128 121 118 109 120 120 144 162 175 186 164 162 174 159 173 160 168 169 169 179 184 165 158 136 140 147 169 189 193 204 204 196 185 191 196 203 166 150 148 131 173 196 181 206 160 191 201 162 194 144 195 184 176 170 165 104 174 164 179 152 149 152 95 128 108 152 122 68 152 174 97 114 151 52 71 114 117 59 121 68 130 96 67 82 131 77 113 67 75 63 60 89 103 91 118 84 115 73 85 113 86 114 78 88 147 102 141 183 116 98 99 58 96 76 70 97 113 119 123 85 102 189 138 94 93 92 83 116 145 133 175 179 183 155 87 175 110 190 207 122 85 163 148 84 167 75 79 138 181 146 83 99 175 197 163 139 107 120 75 103 111 95 114 143 169 79 93 120 170 94 115 158 103 167 131 112 192 124 196 177 201 178 136 143 190 196 129 205 91 116 108 153 154 89 158 149 157 148 144 141 192 189 146 112 83 84 187 184 157 85 151 75 161 174 161 79 70 72 96 82 181 122 201 110 100 180 163 86 144 167 96 180 80 100 115 174 171 129 177 86 133 101 181 84 116 71 128 139 84 73 143 154 69 129 106 157 107 163 74 167 99 103 152 92 175 79 126 191 104 152 89 141 67 101 158 164 76 139 88 111 145 99 112 65 138 150 52 85 168 193 143 100 182 93 96 152 117 102 145 112 88 68 119 86 77 205 120 165 223 130 220 125 120 164 82 66 67 115 81 132 126 191 154 99 95 83 146 121 165 167 105 98 180 125 196 92 160 104 147 180 210 200 164 179 189 99 148 187 94 185 109 107 206 197 106 78 76 157 161 165 124 137 128 130 111 118 161 168 95 121 100 166 140 172 181 86 101 134 52 81 75 116 183 95 197 179 169 153 111 150 163 85 163 61 171 75 68 64 170 84 88 95 83 124 127 85 166 64 63 178 114 208 119 199 115 198 142 117 72 151 96 166 64 88 201 131 201 183 60 141 25 76 160 145 101 133 112 76 158 99 86 61 87 110 95 183 180 77 152 150 99 170 77 189 108 150 135 128 138 255 169 119 117 107 142 114 64 76 168 197 197 205 92 122 69 183 87 82 117 83 101 123 103 67 70 104 108 109 83 71 54 66 149 45 131 73 116 137 71 159 61 147 146 64 170 120
135 134 135 138 139 141 135 116 99 110 108 129 138 154 170 184 178 172 170 175 180 170 179 181 185 181 174 170 164 147 143 156 176 189 201 218 220 207 202 201 205 203 168 165 156 164 168 209 194 217 167 168 181 176 159 184 165 155 119 113 165 110 132 177 162 169 133 104 158 177 197 92 90 156 83 89 110 169 73 136 66 51 54 80 103 100 72 52 64 106 90 85 92 93 80 73 76 110 88 98 81 80 84 134 125 101 123 100 94 101 141 133 116 114 100 66 41 40 46 103 88 99 116 135 104 95 184 90 81 156 148 192 93 98 90 161 86 70 74 160 172 161 157 148 183 206 87 76 122 125 71 156 144 90 57 121 48 152 96 193 199 109 105 173 168 120 153 93 189 117 93 180 111 94 174 180 146 180 179 177 161 180 85 135 97 213 169 234 164 166 221 159 145 195 198 169 113 158 108 80 120 66 110 117 88 93 76 97 79 80 137 155 121 128 97 160 79 155 59 112 147 105 75 146 170 170 149 135 171 94 172 99 103 176 158 106 109 195 81 179 112 176 156 180 178 193 125 165 139 161 112 110 150 168 179 182 182 161 74 71 129 79 159 168 152 121 134 111 108 101 79 132 107 95 133 65 96 152 123 160 147 147 85 182 193 171 161 167 114 68 102 59 63 96 129 123 116 99 140 71 147 96 87 123 116 94 112 82 115 119 175 121 167 152 165 178 122 134 112 111 84 170 121 165 122 140 90 82 133 184 162 86 93 151 173 187 124 198 202 127 196 162 130 94 173 113 181 195 142 75 70 149 95 185 89 196 196 154 171 195 183 146 85 121 143 140 84 157 180 191 138 95 84 98 95 60 151 153 118 147 162 96 174 77 56 46 76 62 83 167 198 188 176 175 138 90 82 122 119 66 178 121 78 153 49 63 75 99 75 74 140 171 139 97 172 83 96 126 173 118 210 139 174 131 132 79 141 109 132 168 157 101 203 202 81 75 29 149 174 92 174 108 189 191 182 116 157 163 93 82 98 86 184 86 125 65 71 143 119 155 119 95 194 123 176 145 154 122 168 173 156 121 119 169 176 143 97 162 165 87 170 96 108 126 141 79 130 184 140 133 118 96 154 195 164 133 135 124 110 50 152 97 84 118 95 110 150 66 59 156 108 196
134 131 131 130 134 135 124 107 108 103 117 134 152 167 175 174 172 172 169 190 197 198 184 187 184 165 174 176 169 154 152 161 173 196 211 214 218 215 197 201 196 196 179 167 154 183 199 182 220 213 184 180 176 186 171 159 198 136 180 149 144 159 104 155 159 99 153 181 167 186 131 119 84 163 146 146 150 157 100 163 140 52 127 74 85 60 69 53 80 118 151 90 103 130 82 69 89 117 147 92 131 119 114 108 91 91 85 121 161 108 120 152 101 90 66 86 38 30 116 75 62 66 85 183 157 166 80 126 64 69 158 83 198 197 112 74 64 66 180 74 66 164 89 109 157 200 96 175 65 157 123 41 104 128 127 68 120 138 196 213 170 173 183 158 134 95 87 155 172 108 198 149 90 113 176 168 164 186 173 161 126 61 164 74 108 189 114 213 148 182 209 212 193 115 180 141 168 129 127 144 126 64 132 130 124 164 143 165 113 90 181 98 104 161 103 89 79 126 156 140 159 86 110 81 170 114 150 92 89 90 64 152 157 157 175 161 208 163 102 111 73 167 111 93 177 157 162 140 184 183 81 171 140 157 81 115 92 86 153 144 76 136 172 187 183 130 140 95 144 175 77 74 167 101 69 103 138 136 150 158 105 186 150 191 112 167 108 110 67 107 132 109 91 123 135 187 168 129 154 91 98 67 57 75 180 115 103 137 77 177 117 129 98 164 174 201 110 120 107 183 81 103 75 171 99 176 84 94 188 81 73 75 170 77 87 185 90 92 185 93 93 171 170 99 152 193 198 148 156 67 155 52 119 163 167 94 170 187 184 164 97 140 206 101 122 200 108 92 191 94 161 163 79 89 180 73 89 122 148 73 63 180 184 86 109 61 132 157 97 161 105 142 96 144 129 151 75 104 171 97 137 88 81 104 151 60 173 93 173 158 172 191 89 185 152 179 200 131 184 200 136 166 178 76 39 46 36 90 125 139 143 106 129 164 85 102 141 154 163 138 195 194 94 135 102 203 193 81 132 108 178 90 91 180 118 143 178 84 81 157 149 151 191 151 141 98 93 161 108 188 115 145 105 93 178 155 120 87 113 72 154 155 99 76 137 168 133 160 96 137 184 123 91 121 97 63 66 152 61 158 126 70 132 132 86 66 87 51 71 147 98 199
121 121 119 123 127 132 130 123 107 112 114 136 150 165 163 172 164 170 178 193 216 215 204 189 179 163 163 173 174 174 169 172 187 200 207 214 209 197 191 186 170 183 162 163 165 190 209 187 211 197 194 183 142 172 123 135 166 199 126 176 146 150 110 94 121 144 159 140 116 166 179 90 92 88 88 111 151 80 172 172 154 99 56 59 65 86 77 74 85 71 124 255 108 122 98 110 80 87 140 111 87 135 96 98 93 90 86 128 167 137 102 95 143 147 49 113 25 107 42 121 74 109 146 104 189 95 129 78 57 137 67 80 180 128 75 125 160 152 185 159 98 140 137 136 148 101 198 87 177 109 154 138 33 110 48 56 67 96 161 209 115 173 146 177 115 69 133 163 160 142 135 177 197 117 172 131 161 190 123 42 137 51 163 173 74 77 191 203 172 205 190 184 180 204 160 255 146 140 148 151 108 78 177 101 180 139 103 138 75 137 152 145 92 179 171 145 172 116 73 110 170 95 86 159 158 71 130 102 195 117 127 96 121 70 155 210 215 145 171 185 97 141 173 139 92 109 146 166 87 142 255 178 186 131 109 171 170 183 104 155 179 91 146 154 149 75 178 99 85 155 76 71 144 87 84 119 137 60 74 107 184 132 203 111 93 122 174 168 75 170 133 107 200 167 188 210 200 139 68 112 105 62 51 63 133 165 81 186 135 88 147 103 66 159 107 80 101 204 102 155 113 159 174 96 158 89 91 82 105 156 183 178 113 73 174 72 89 184 125 188 161 165 170 168 111 208 163 86 102 67 75 115 154 163 122 117 116 96 65 156 141 214 122 127 223 174 129 152 178 134 85 135 156 151 155 150 103 86 156 160 95 113 138 84 113 76 99 105 134 52 153 104 79 116 82 160 149 72 181 154 111 113 175 77 106 163 172 69 59 168 107 133 121 192 187 185 145 168 194 99 124 107 93 145 128 132 35 60 43 93 130 54 99 151 134 162 166 168 72 169 168 161 132 161 169 192 144 97 162 131 147 199 206 206 110 173 255 170 158 146 153 156 175 191 164 153 80 110 97 182 214 110 119 138 136 69 159 163 108 89 73 109 79 117 132 76 99 117 133 92 179 102 115 64 142 132 62 108 115 67 82 187 138 132 79 79 154 161 89 70 134 125
108 110 110 113 117 124 133 128 121 108 122 129 161 171 170 172 171 159 174 203 223 222 203 199 174 167 156 154 169 177 176 181 181 195 201 200 193 183 163 156 172 176 172 173 179 169 182 192 224 212 170 179 138 178 136 155 190 139 184 116 111 150 74 126 58 144 128 151 147 107 125 87 150 180 111 148 148 91 100 151 76 112 55 65 109 103 92 82 106 124 81 144 111 109 91 82 59 71 64 76 112 109 125 102 110 72 116 87 130 165 106 80 77 67 76 43 51 60 49 148 141 74 85 101 156 180 177 159 66 53 54 153 162 161 148 146 90 90 195 106 188 147 109 193 196 109 94 255 83 157 69 49 142 37 43 128 181 145 98 143 159 149 114 113 73 129 174 99 112 211 220 213 191 156 184 200 183 127 88 45 127 86 100 62 55 159 138 163 180 125 178 175 196 103 134 78 133 111 66 137 171 195 168 99 125 66 94 144 184 95 203 128 154 100 188 195 156 123 103 98 169 79 119 86 93 112 145 146 179 113 171 167 148 147 158 121 185 137 183 197 113 130 173 99 172 130 132 132 165 86 184 174 172 88 96 153 122 114 157 153 142 180 73 75 111 146 115 141 185 173 158 158 149 94 181 171 102 182 82 91 202 212 218 204 193 72 132 158 68 156 82 140 180 206 164 101 93 165 115 66 164 164 89 64 156 174 155 71 77 77 150 47 58 147 157 70 147 177 96 183 167 160 177 142 94 94 124 87 161 203 95 117 134 168 80 70 98 175 122 188 77 79 180 111 174 163 126 131 136 84 137 38 45 115 172 184 79 67 111 166 89 119 160 138 240 240 248 142 174 125 182 62 136 135 159 171 75 67 95 171 100 145 183 105 125 89 87 153 82 46 67 129 54 90 99 109 168 138 175 114 143 202 145 171 121 80 155 66 93 73 179 89 94 187 95 85 101 128 173 151 160 163 68 99 255 88 137 100 93 104 110 48 57 150 167 79 100 71 84 89 135 79 71 173 177 77 168 170 83 86 201 204 195 218 204 234 127 104 162 86 55 156 158 109 178 128 63 160 128 199 156 113 122 148 112 139 76 77 162 180 147 102 110 67 69 75 147 139 120 160 122 151 93 113 88 49 145 104 151 116 102 204 201 130 137 132 86 138 163 93 75 180
107 108 108 105 107 124 137 142 129 114 113 118 146 148 165 163 178 183 181 193 206 219 213 200 173 161 152 156 166 174 167 176 180 190 193 188 179 158 157 148 163 169 169 159 177 187 192 227 205 205 172 202 163 196 190 190 161 147 130 163 103 77 112 113 78 64 86 146 72 72 161 132 154 159 167 126 156 79 128 156 143 112 123 113 92 139 150 127 91 71 95 141 108 104 110 65 59 104 84 95 59 255 118 71 101 70 86 75 95 89 87 142 110 122 143 119 128 104 58 76 111 109 75 63 75 127 88 55 102 66 151 134 94 61 173 151 142 185 167 98 191 91 88 86 195 164 138 177 194 171 179 135 61 92 152 65 175 186 142 123 187 186 93 181 176 133 138 85 102 131 158 204 102 157 104 205 203 180 78 89 122 80 157 145 88 56 48 71 180 182 101 201 181 146 137 135 62 118 86 162 143 104 117 163 104 79 130 123 170 94 151 102 82 172 91 166 158 158 142 57 153 74 130 119 157 122 161 192 185 94 153 156 159 164 166 152 137 141 128 169 118 113 137 81 83 113 158 149 149 101 77 171 135 167 88 90 181 203 150 199 139 76 154 102 56 126 122 108 81 155 80 88 49 104 80 167 120 172 118 125 143 207 187 122 111 134 152 54 136 135 83 124 136 115 70 56 52 46 141 68 181 111 72 60 162 66 63 128 47 121 80 46 48 48 155 71 113 90 116 148 139 107 91 177 100 145 91 113 200 189 110 182 161 130 53 156 102 133 180 181 167 86 187 170 77 92 188 158 70 147 48 37 139 41 160 86 174 66 142 156 77 109 201 190 179 205 225 133 191 173 103 110 53 70 164 88 84 132 151 174 143 115 196 87 188 155 107 82 165 56 86 135 92 63 124 118 75 84 186 94 163 199 186 162 59 134 69 63 114 113 86 196 94 172 102 137 151 93 115 119 107 65 89 142 44 98 101 94 144 157 65 71 102 68 123 154 102 167 175 129 167 110 181 98 68 132 59 149 110 130 169 94 140 163 184 146 220 179 156 53 139 158 181 87 159 141 90 161 76 163 161 172 92 82 149 98 140 146 115 99 129 87 161 128 141 74 163 176 88 161 131 82 67 165 64 62 71 153 121 172 103 193 187 197 181 162 135 155 97 167 114 75
112 109 106 100 110 119 133 142 126 113 113 122 126 141 158 161 172 174 181 186 206 215 217 206 180 163 170 169 170 167 157 157 167 174 184 175 166 165 166 162 164 171 181 181 198 210 214 227 209 215 198 191 183 185 184 173 129 184 152 179 131 126 104 32 70 130 77 82 155 159 78 157 108 107 97 151 150 95 147 107 68 109 125 77 99 103 112 87 101 107 140 94 97 141 141 64 68 61 80 91 59 75 79 94 112 76 91 114 70 115 92 86 109 74 67 63 120 49 72 105 156 80 130 72 102 69 56 134 133 89 133 95 49 168 181 87 160 90 176 183 110 179 138 89 170 185 201 194 203 129 169 129 132 162 140 125 100 83 168 169 130 158 186 110 77 84 167 108 164 193 203 140 192 91 99 108 135 178 151 47 47 102 86 86 78 60 49 93 181 140 103 138 148 192 193 177 121 93 56 70 178 178 113 117 206 100 107 181 171 143 103 150 133 91 185 186 142 164 152 155 139 162 133 90 86 92 180 87 186 151 137 97 131 139 128 156 69 173 126 98 115 200 82 81 108 95 102 170 76 75 144 131 176 114 149 182 89 136 168 171 140 140 108 100 147 143 102 70 149 176 189 164 101 49 147 100 142 102 175 98 121 136 255 179 78 58 143 125 112 155 120 75 75 158 118 42 37 38 142 75 107 158 76 156 72 56 129 102 64 68 80 122 73 115 139 85 95 189 113 97 85 185 159 172 108 174 109 201 205 111 162 199 170 69 115 57 135 153 138 169 94 143 102 177 67 168 134 175 170 141 146 63 100 47 130 108 151 71 151 148 96 100 153 224 227 199 219 115 110 83 167 51 96 74 132 143 124 88 165 206 127 148 187 142 171 195 94 159 81 102 154 67 131 136 124 96 149 177 162 82 114 135 136 100 129 144 49 93 84 155 88 104 203 167 175 107 114 91 69 149 161 154 156 58 129 125 145 128 74 85 151 143 152 134 85 168 94 74 137 114 148 95 157 122 147 167 155 139 123 165 174 179 157 189 210 132 137 129 77 86 75 80 142 169 177 153 141 104 75 93 78 74 77 157 106 44 65 133 92 95 121 120 178 142 111 100 112 128 131 102 131 145 110 75 121 66 67 73 173 193 172 156 159 112 115 56 94 134 80 113 183 96
125 119 111 107 108 116 129 128 129 123 121 110 115 121 124 150 166 165 187 177 197 194 194 195 195 181 177 167 178 174 162 161 165 171 179 174 173 168 169 171 168 170 162 192 205 214 222 195 211 195 182 130 188 176 186 186 142 171 129 169 175 131 96 69 39 135 75 134 168 166 119 163 93 100 178 170 165 101 144 72 108 40 65 104 97 142 154 85 72 121 65 76 98 89 137 70 91 139 84 83 114 79 66 79 71 111 116 95 72 92 116 99 89 89 66 63 81 53 95 105 186 159 70 76 60 161 109 80 154 143 43 122 48 163 185 116 90 184 113 125 161 110 117 174 150 176 108 201 97 149 151 209 170 100 113 80 183 125 104 158 156 132 126 130 109 133 142 146 177 189 146 191 127 104 103 179 173 153 68 105 68 83 42 90 90 81 49 152 70 179 201 162 108 112 95 115 75 91 137 125 177 100 116 216 220 201 201 101 124 84 171 137 136 182 192 131 179 89 162 180 86 166 127 146 125 140 172 169 92 164 68 145 58 135 117 121 85 160 79 87 92 175 176 161 77 97 143 193 85 91 106 159 147 126 139 172 104 168 174 165 135 163 93 160 107 114 131 169 195 103 96 147 59 118 55 56 80 95 96 203 150 115 151 73 98 107 109 63 106 73 102 92 64 42 111 25 71 33 46 104 180 115 171 142 98 121 121 64 36 76 56 163 93 169 180 92 143 79 85 89 90 166 109 191 160 112 199 138 178 145 172 136 95 162 62 96 57 84 89 117 69 80 86 166 141 61 142 172 99 65 66 58 89 154 70 54 86 142 117 61 100 192 102 201 200 209 186 160 164 164 84 64 127 107 148 64 152 83 121 139 134 158 93 94 185 124 119 115 82 177 68 68 72 84 88 111 114 112 174 143 140 177 170 174 63 80 100 46 110 76 172 174 203 131 171 99 72 67 160 86 52 63 142 112 72 64 155 135 131 142 145 106 89 150 147 93 125 70 83 83 189 157 154 133 142 156 84 157 114 115 139 179 87 194 192 134 152 177 134 164 63 143 79 90 146 107 190 123 156 116 174 74 128 122 141 60 116 94 131 117 103 195 188 85 87 129 156 69 121 146 102 210 204 104 94 83 108 78 158 83 116 112 128 187 130 60 38 137 65 101 168 148
133 125 114 111 118 120 120 129 130 136 140 139 136 124 132 131 147 157 175 185 187 189 193 208 205 191 188 176 177 175 164 161 164 163 170 165 167 176 184 181 178 172 175 184 180 206 180 203 191 166 160 137 159 160 138 139 172 120 183 180 186 135 109 128 94 56 80 255 93 112 133 168 88 114 112 95 161 95 90 80 82 124 111 82 97 110 139 87 86 133 94 62 91 74 106 94 88 118 97 90 89 100 75 90 67 67 89 76 134 88 106 100 128 86 135 70 97 56 67 108 141 98 76 93 67 154 85 159 67 92 50 44 143 70 83 100 110 185 71 59 155 121 83 117 176 162 146 104 179 96 205 211 131 175 160 165 176 173 67 67 142 143 175 131 160 116 72 164 103 92 176 179 185 94 188 103 147 151 125 115 129 96 64 129 80 104 40 138 62 155 185 130 96 92 193 130 78 51 75 63 170 199 153 156 212 221 149 187 140 148 156 136 109 180 140 171 175 93 197 158 100 178 59 59 69 166 81 138 150 76 142 121 148 67 60 159 157 145 53 54 143 173 178 125 152 163 177 183 77 77 156 144 156 81 175 86 160 55 154 73 66 104 73 101 50 87 127 165 214 129 105 98 57 125 107 44 55 129 125 101 153 107 98 92 84 54 64 58 173 153 159 87 87 122 91 99 110 71 54 72 147 126 104 152 106 131 145 71 83 71 76 132 87 93 169 119 82 136 173 168 174 99 89 92 174 122 210 115 136 209 205 95 176 58 56 82 47 78 114 147 131 149 109 65 61 113 101 173 175 117 162 110 63 160 71 154 87 128 135 120 118 94 95 177 109 157 182 107 130 148 150 149 84 81 115 153 161 88 140 162 117 165 88 105 100 185 103 102 191 107 173 140 166 86 94 177 184 188 80 70 71 145 72 177 124 156 75 58 90 165 203 204 240 162 109 86 125 57 133 74 81 46 121 106 146 96 142 68 71 38 148 153 121 139 126 111 71 146 81 80 170 117 210 228 216 138 86 74 55 91 74 76 115 181 154 105 198 96 89 107 83 84 187 113 110 199 96 124 110 189 96 146 58 91 71 66 97 66 88 158 190 192 99 180 74 155 60 61 69 168 177 201 127 110 122 136 132 101 168 115 81 185 109 77 70 68 148 58 174 128 103 110
135 129 121 126 133 137 133 125 140 153 158 163 158 142 124 140 142 158 180 178 187 182 193 199 200 185 185 173 177 178 174 167 166 158 160 153 159 171 168 179 161 167 166 147 181 191 168 185 142 122 126 150 131 180 127 132 152 144 142 188 140 169 155 138 84 74 144 146 190 113 141 125 111 85 117 126 182 139 163 155 81 135 62 88 99 140 99 92 144 138 78 105 125 77 97 128 100 125 95 105 92 104 115 93 110 109 116 105 141 113 112 150 109 116 122 92 134 70 156 123 84 150 161 173 159 67 59 85 61 60 82 119 46 164 186 203 124 120 83 177 172 176 127 79 70 71 77 170 180 188 192 192 98 112 139 180 98 126 57 102 109 46 103 129 175 148 91 101 168 146 158 115 163 156 132 84 67 105 147 74 125 130 67 147 133 107 146 138 162 77 134 154 102 89 181 114 116 133 85 75 169 188 113 228 219 226 198 211 113 192 152 120 126 175 162 187 181 89 190 180 112 157 109 80 92 94 155 83 114 97 105 134 68 98 164 159 75 115 139 147 171 126 171 86 53 125 71 165 148 153 56 113 80 80 159 156 55 124 127 70 163 140 62 96 164 132 186 185 138 185 102 93 125 127 26 55 90 121 151 209 204 125 163 99 150 156 74 97 136 152 116 117 78 83 87 56 146 152 75 124 137 110 211 206 175 80 146 59 151 172 92 180 153 193 169 113 126 91 92 88 83 107 78 90 188 97 108 157 171 108 109 104 87 54 111 58 44 137 36 96 136 158 165 132 148 86 88 124 183 107 71 161 62 56 58 133 81 74 150 101 176 191 138 176 143 175 150 117 165 99 137 88 93 72 107 70 128 132 159 56 159 90 183 83 87 121 110 188 162 94 79 88 136 161 82 99 186 186 78 143 145 171 159 72 70 159 46 107 56 84 200 193 167 226 171 186 122 87 40 105 44 131 39 41 143 51 151 113 88 143 82 150 107 141 196 96 137 92 153 123 168 93 116 121 220 157 135 76 157 164 98 179 186 190 152 153 182 170 99 160 131 153 153 189 120 167 149 91 131 198 86 66 65 157 89 54 140 141 45 128 77 172 112 100 114 99 73 117 64 106 90 174 166 127 184 156 182 95 144 155 73 160 94 80 123 62 63 59 102 116 103 114
122 123 127 140 153 154 149 141 144 154 166 182 162 151 149 145 159 176 183 192 187 184 191 188 196 190 173 160 170 171 175 175 172 164 155 146 150 159 164 170 163 168 157 161 152 179 162 154 159 142 110 152 177 158 127 147 158 177 183 124 194 195 184 159 116 149 97 87 117 113 156 140 100 98 126 142 118 178 160 120 111 68 147 154 128 89 164 95 96 87 86 80 96 69 80 117 115 130 111 85 110 79 93 98 85 87 139 90 149 148 80 154 102 150 101 77 75 108 66 164 180 190 108 176 84 66 160 65 101 76 162 80 71 76 155 107 104 128 192 126 108 216 189 156 174 167 74 150 95 174 187 143 165 181 110 85 98 58 130 38 39 130 68 159 146 82 109 155 192 157 137 98 141 181 101 138 158 135 165 164 203 102 192 168 161 114 60 74 66 81 178 161 80 177 120 161 152 167 86 64 145 180 199 154 225 209 154 194 169 144 80 127 130 143 86 117 148 93 105 197 145 117 198 191 129 174 173 176 112 183 98 158 154 121 54 49 76 38 142 106 172 82 93 151 153 131 137 99 43 139 144 142 55 109 53 140 144 125 102 93 148 171 66 157 140 101 119 198 219 202 189 198 255 83 130 61 79 178 181 162 207 115 94 124 83 77 75 126 127 159 193 188 148 54 104 63 166 73 173 137 208 118 227 172 158 84 63 93 70 90 122 84 110 189 172 102 176 114 131 83 91 105 81 98 95 88 100 100 102 162 131 98 91 139 94 126 43 26 92 97 82 61 152 150 152 59 95 151 101 110 159 135 111 50 53 62 115 160 153 164 143 172 88 58 56 151 78 96 117 142 84 97 74 120 166 131 69 64 164 124 132 158 103 72 91 130 142 204 217 144 188 171 75 146 131 153 177 179 107 124 148 62 122 169 64 74 111 100 103 121 141 203 120 180 92 153 157 60 43 119 150 77 108 85 152 160 82 100 143 157 142 171 96 164 188 177 81 114 67 164 80 160 119 125 153 155 160 75 163 166 153 89 164 101 166 75 186 188 205 195 214 179 219 192 142 146 183 82 91 154 187 145 165 92 95 156 95 119 82 123 89 180 96 197 111 98 163 103 153 88 107 188 191 127 184 123 195 180 92 86 125 113 182 83 160 71 138 84 61 110 139 120
104 116 131 150 160 166 160 141 148 160 167 175 177 159 154 158 163 189 196 181 175 167 176 176 189 174 168 172 172 181 186 190 185 179 167 157 147 148 154 153 173 163 167 157 152 148 162 167 158 154 132 131 171 145 183 132 117 178 121 172 127 180 113 118 85 78 79 150 138 128 128 154 147 172 143 175 185 111 118 125 126 75 89 82 90 152 152 126 134 85 85 69 77 71 105 122 145 117 93 85 78 92 116 88 113 118 118 128 97 116 119 64 85 64 153 149 92 82 156 155 105 93 194 153 170 78 110 73 69 78 115 109 125 96 102 214 112 143 173 116 226 150 219 158 182 161 173 175 182 166 90 151 192 153 199 189 75 163 156 94 72 70 87 120 155 92 153 115 139 204 187 164 189 160 157 126 173 163 117 100 102 212 202 126 178 177 84 149 83 153 139 107 171 117 58 118 70 67 174 67 59 173 179 167 195 124 161 187 144 175 136 119 84 168 84 164 136 158 185 200 179 149 206 184 124 164 166 78 158 129 102 119 110 47 150 117 48 255 116 133 164 179 178 100 149 111 147 48 130 106 141 69 152 116 108 132 111 52 123 175 82 158 104 60 78 172 105 150 150 142 159 189 161 113 123 169 180 95 190 128 152 89 122 158 61 49 143 134 115 183 110 179 128 65 163 67 133 70 65 82 177 157 137 188 195 108 154 92 144 121 98 97 81 145 78 150 95 179 91 139 181 145 115 44 143 130 88 158 197 170 202 178 135 66 32 70 88 121 38 42 125 150 155 93 153 145 154 170 182 89 72 57 112 60 125 29 59 163 118 186 107 140 106 152 124 153 99 88 152 148 152 174 168 75 110 85 156 131 129 146 173 79 171 105 84 102 151 215 119 128 188 78 166 58 117 112 193 195 207 193 130 88 120 160 52 93 109 118 93 88 155 103 130 196 166 97 133 69 73 172 138 173 108 143 141 69 93 181 177 185 81 153 109 113 169 202 183 155 169 155 189 200 177 98 255 132 176 78 168 136 61 92 134 52 62 136 178 111 195 116 128 224 215 182 126 152 79 71 65 167 80 185 149 118 80 144 131 114 70 126 62 183 116 200 132 175 161 153 68 96 149 165 179 119 218 194 191 162 163 182 213 164 114 89 115 175 170 58 75 164 106 117
95 114 139 160 162 163 153 142 142 156 170 173 172 162 158 162 171 190 200 187 179 169 169 179 179 184 182 182 171 180 193 201 201 193 181 164 153 146 156 164 183 168 157 160 143 163 163 142 154 148 157 151 157 160 181 134 150 150 139 163 131 185 148 121 159 137 146 103 104 140 140 135 99 98 111 93 130 175 133 186 133 83 75 148 108 151 95 146 132 98 90 71 66 76 79 93 153 93 86 81 91 67 90 85 91 128 80 98 67 67 97 126 69 75 94 89 177 170 159 104 87 100 102 111 91 133 127 61 158 101 106 133 198 187 204 108 123 115 199 146 220 171 174 175 126 176 129 123 182 119 115 148 171 163 196 196 161 107 155 147 58 58 140 118 84 181 195 145 134 163 133 141 118 95 169 97 162 174 185 183 191 136 196 146 180 164 194 174 168 174 154 106 58 133 157 83 164 71 158 135 164 165 146 101 106 114 56 164 141 90 111 127 113 73 175 145 189 89 140 136 108 89 125 182 192 176 168 111 110 119 176 104 135 69 47 42 140 137 101 53 74 117 164 104 164 89 155 102 97 132 42 79 50 94 150 127 74 93 146 79 112 161 126 99 135 146 108 74 158 143 227 154 228 205 92 100 122 121 133 160 102 159 141 131 61 116 51 157 153 164 64 159 87 139 166 130 79 69 70 103 153 129 154 121 153 52 54 142 64 135 98 96 86 86 67 142 172 165 198 122 105 122 84 125 123 69 175 195 123 168 200 108 178 132 97 83 25 134 88 153 68 156 67 53 55 119 87 185 168 182 123 148 118 61 35 114 23 123 161 196 146 96 107 162 84 149 57 116 99 143 80 156 105 70 94 181 101 105 159 150 84 81 165 108 143 63 177 128 197 183 163 115 67 164 172 139 169 160 135 98 94 144 60 102 133 62 152 92 164 169 157 89 109 179 133 63 114 116 129 164 128 175 133 72 124 176 80 163 195 193 137 109 204 138 181 202 169 116 184 83 110 203 98 88 92 151 83 73 101 107 62 150 96 54 148 143 180 153 162 205 201 137 226 179 139 184 159 60 117 159 173 147 156 100 72 121 49 45 53 129 98 78 100 102 134 93 68 68 137 113 87 141 98 170 121 116 198 189 152 209 116 111 139 177 76 87 67 71 51 94 161 101
102 123 146 162 161 152 140 131 134 155 171 174 166 145 146 169 171 172 183 181 177 152 160 177 185 179 194 192 197 194 192 202 206 194 183 167 156 157 166 186 181 198 177 168 158 151 122 123 123 153 138 142 159 158 123 150 172 113 103 158 106 158 140 154 160 154 163 87 166 159 135 83 142 165 92 99 102 112 98 105 93 72 128 159 98 117 105 85 81 82 131 90 73 71 80 123 100 121 101 67 60 63 103 90 95 102 139 90 52 113 63 79 87 127 109 96 179 155 102 81 126 84 92 97 100 101 87 132 89 79 161 103 210 108 126 110 97 146 192 91 198 208 103 133 89 156 187 171 165 185 188 162 91 153 124 171 137 152 65 118 157 172 85 165 169 132 168 154 156 183 131 104 125 171 156 180 129 179 138 174 152 177 80 151 197 176 97 137 189 172 156 73 66 148 76 255 157 83 172 140 91 154 137 72 78 35 152 82 192 122 107 72 81 74 159 105 182 190 164 156 144 121 160 91 102 177 85 107 177 111 182 167 147 122 113 131 40 72 43 149 69 63 138 85 171 168 144 89 138 74 61 164 102 78 88 121 155 59 171 90 69 154 134 134 154 167 92 90 178 110 160 211 190 114 112 129 195 175 106 150 152 170 109 111 119 98 87 117 67 49 53 59 92 76 92 67 76 52 132 89 113 255 114 121 57 62 32 55 44 147 58 82 102 66 123 103 76 122 125 114 121 107 144 154 80 80 190 123 99 134 148 194 142 156 69 78 138 45 55 160 145 56 156 156 73 136 116 171 94 183 184 161 51 52 131 119 106 133 77 175 116 97 165 70 93 119 96 158 136 152 49 98 108 166 178 136 149 168 74 71 64 85 92 126 154 99 102 165 130 171 184 167 131 94 127 102 145 165 103 182 87 41 62 85 92 106 159 66 178 76 171 68 156 164 106 81 69 167 197 168 140 201 93 87 92 189 168 152 113 141 152 143 96 123 99 101 95 196 126 192 187 167 149 78 66 113 176 159 131 172 98 168 148 119 101 128 157 108 161 211 152 187 199 156 207 89 56 50 48 113 74 103 137 190 112 109 53 29 56 121 148 118 158 192 130 144 188 102 148 106 161 79 195 114 132 194 167 202 104 105 138 84 99 70 172 102 150 141 98 159 121 156
119 134 151 157 152 138 125 121 138 162 175 167 159 157 166 157 176 163 164 159 179 177 181 173 175 187 194 189 199 191 186 197 195 184 173 162 158 162 184 198 190 199 176 151 152 136 129 142 148 151 133 141 132 160 174 172 122 167 147 146 120 160 157 112 165 181 166 118 127 86 181 155 154 164 117 89 168 91 95 92 81 66 85 88 165 91 100 75 82 88 100 117 86 99 78 121 86 84 110 96 58 72 76 93 101 113 106 112 92 85 103 95 101 112 139 100 90 111 137 106 69 167 160 182 99 135 98 150 96 74 171 96 123 200 138 95 122 187 76 176 153 154 84 91 99 177 163 172 89 94 185 113 171 182 202 131 192 102 117 147 80 160 106 139 148 102 189 158 83 177 173 164 113 93 152 77 171 134 179 90 147 93 131 189 169 131 137 79 76 112 92 126 79 88 143 174 98 143 94 133 78 117 74 125 61 60 167 138 125 90 99 150 126 129 109 118 127 108 182 68 126 161 160 98 148 189 186 175 82 84 186 172 49 125 118 126 25 44 145 97 138 152 139 106 164 149 159 93 153 170 137 135 182 177 169 152 76 112 96 180 63 112 95 142 122 113 100 154 173 141 87 191 128 214 103 134 120 158 176 135 129 132 59 52 26 47 149 81 84 129 52 57 130 176 179 143 158 52 155 99 138 130 148 163 86 142 66 116 43 106 135 119 70 128 71 255 144 93 130 121 130 119 60 98 132 88 197 158 106 188 180 188 193 177 139 142 79 156 133 162 87 46 83 60 96 84 89 97 107 117 94 125 116 157 127 83 83 134 160 159 108 100 90 76 57 127 100 151 143 141 138 146 75 126 115 159 131 76 148 146 156 117 145 154 144 108 59 108 97 153 102 52 115 120 73 157 102 75 107 115 75 127 73 58 158 68 98 73 177 113 57 104 75 57 50 127 131 178 99 133 135 199 124 125 201 127 100 125 218 148 197 92 92 152 192 181 157 136 90 191 160 177 152 159 145 71 106 193 117 92 180 174 87 162 73 81 122 82 184 102 108 209 218 112 103 89 101 159 45 149 165 182 195 83 86 97 93 94 147 132 123 87 183 95 156 204 100 67 90 152 169 92 193 117 133 92 167 128 206 140 181 69 70 62 162 75 104 74 86 97 74 86
133 139 147 144 145 133 124 123 140 172 177 186 177 167 177 170 165 166 155 175 178 187 176 182 178 181 183 193 191 181 185 185 182 172 159 160 164 175 186 204 197 190 152 156 155 120 137 141 137 138 138 166 169 169 147 143 151 156 151 145 99 109 106 174 145 152 141 107 153 173 176 185 184 147 170 81 138 98 102 107 128 77 62 74 137 114 111 150 83 94 138 98 104 81 78 123 109 85 91 92 77 114 77 141 109 144 122 103 89 99 102 100 120 182 126 157 142 97 108 54 73 87 88 83 126 193 159 149 69 133 82 190 178 102 196 119 158 154 86 156 91 148 86 93 96 169 172 83 188 149 155 57 119 105 106 180 188 139 153 137 161 184 171 69 100 133 185 106 173 153 86 82 70 133 130 167 160 84 90 131 165 126 184 153 160 125 118 132 111 110 67 100 155 85 143 118 115 172 88 71 146 142 87 165 135 69 177 115 159 180 90 106 69 171 72 81 127 152 156 99 56 57 70 143 138 166 168 173 173 111 146 86 157 125 33 121 92 70 112 111 132 128 144 179 145 168 173 81 101 201 201 206 193 171 170 81 154 165 75 69 93 156 106 156 157 174 69 92 58 93 75 198 177 130 184 170 88 163 133 120 193 131 80 99 68 31 145 80 126 115 146 71 166 79 93 144 71 60 77 65 68 120 99 69 115 43 122 31 56 30 76 147 170 83 111 121 153 152 154 135 155 83 70 83 178 121 106 182 141 148 112 105 195 151 73 75 171 74 95 101 64 146 49 148 70 181 199 165 116 115 205 174 165 75 78 104 140 47 132 197 108 101 96 123 93 57 43 76 123 136 64 52 117 167 171 166 162 151 54 60 147 137 143 45 63 58 75 43 149 145 142 87 155 87 77 106 155 79 133 146 92 73 92 94 81 86 168 130 157 62 45 119 128 48 94 78 146 81 137 199 170 177 141 176 189 167 103 107 127 155 156 85 89 80 105 164 128 88 185 125 158 87 148 132 110 69 129 187 108 161 165 149 130 167 83 189 140 89 147 81 178 162 131 98 202 195 186 100 56 122 81 178 77 104 108 146 102 142 155 172 101 106 172 168 175 104 181 66 85 105 152 136 146 100 88 110 158 176 207 135 144 151 53 124 160 131 128 98 103 86 74 141
142 142 139 131 125 123 118 128 144 170 190 185 180 180 185 178 161 166 168 180 190 194 184 171 181 179 172 168 181 172 182 178 177 165 157 161 157 175 190 198 196 186 157 151 170 163 135 139 137 166 165 119 138 155 122 153 163 115 134 94 140 150 159 84 158 174 191 196 180 112 116 116 103 125 176 139 104 142 86 68 84 119 78 146 87 125 88 111 79 90 101 96 88 79 96 84 103 91 112 67 74 95 126 102 140 111 100 122 92 116 142 154 111 139 173 81 56 48 75 40 62 95 165 168 72 65 70 99 106 63 159 179 98 193 150 216 205 159 156 152 150 83 60 59 140 145 158 182 184 74 131 62 150 128 165 108 168 210 157 127 108 79 157 141 101 108 184 119 176 100 126 108 158 156 255 87 177 119 105 127 158 159 86 85 178 138 131 88 62 56 162 149 90 87 168 109 107 108 124 153 110 147 183 131 107 158 150 192 98 187 171 90 161 176 141 76 67 78 161 173 166 115 92 115 132 140 138 82 105 197 104 185 69 47 112 110 120 84 100 123 42 56 83 181 86 96 101 104 89 152 166 205 191 187 159 255 171 151 127 139 130 134 57 118 168 152 93 82 147 133 168 183 104 181 98 75 103 180 104 159 111 207 145 168 137 49 71 130 50 96 79 62 155 127 186 92 73 88 60 160 73 157 151 105 96 137 55 39 148 76 79 137 85 130 190 157 151 97 96 116 177 131 48 74 143 145 206 99 75 141 120 185 162 107 89 83 157 181 98 116 151 63 155 62 165 163 96 190 146 126 207 139 77 74 89 91 75 84 154 182 163 128 79 133 102 80 39 118 66 122 119 160 69 77 135 155 98 44 141 134 142 65 61 67 143 142 56 136 53 63 69 104 140 107 255 62 69 84 144 137 53 76 99 91 81 93 156 147 82 155 36 107 35 115 134 39 54 75 186 193 179 138 169 122 96 115 141 114 171 100 177 169 164 162 152 57 160 89 113 132 77 104 151 65 155 128 67 177 134 117 124 105 81 169 93 93 193 189 182 136 175 177 167 98 165 111 160 92 90 63 172 164 81 139 155 126 92 84 174 71 177 138 124 118 86 105 112 154 111 46 159 146 106 116 161 169 204 206 107 127 172 50 80 139 63 75 106 120 155 118 114 92
151 146 138 127 121 115 115 124 147 158 180 177 180 175 191 177 174 150 149 172 171 189 190 181 181 175 174 168 165 170 173 175 178 171 162 159 158 174 185 192 173 181 174 183 176 159 163 169 165 181 180 158 156 141 139 175 166 143 154 107 157 89 95 157 103 126 146 199 199 120 132 141 170 161 167 143 94 111 68 119 146 84 156 103 99 119 139 89 117 119 89 81 71 72 85 92 144 88 103 69 85 64 114 110 90 97 121 132 160 122 95 112 109 115 180 79 70 34 49 124 69 71 151 161 82 38 41 110 136 151 65 84 98 181 218 209 183 176 56 67 40 132 151 57 118 143 166 104 115 110 60 51 63 168 158 202 218 139 141 185 123 152 76 100 67 107 127 183 115 85 62 155 74 137 85 76 82 145 168 181 173 159 113 154 135 178 75 160 146 83 159 159 194 164 209 143 123 158 107 134 140 187 184 214 149 109 105 192 183 106 211 196 176 111 153 114 170 169 133 64 116 152 59 124 144 60 76 133 202 94 187 88 162 74 154 160 158 82 53 155 122 149 96 148 82 129 123 163 142 187 128 185 160 178 193 85 74 150 150 127 99 148 76 71 95 155 118 160 154 161 144 120 202 133 125 132 155 186 114 210 205 198 101 134 169 155 74 137 127 53 136 63 142 147 133 139 165 76 145 49 52 126 83 161 109 81 61 60 128 72 133 89 192 152 207 104 69 173 97 86 166 62 66 70 98 167 178 87 79 127 76 86 174 80 66 137 169 86 103 158 139 130 142 145 105 111 123 108 212 135 194 127 170 60 157 155 146 111 134 119 183 180 173 60 130 80 142 98 60 65 167 138 88 107 80 83 62 40 142 72 131 141 42 51 77 146 82 97 53 61 102 159 123 66 107 148 57 166 85 83 101 158 87 123 173 184 81 183 76 50 34 42 27 131 77 116 134 104 167 174 118 51 116 80 124 146 116 188 121 121 86 85 70 68 148 75 125 141 133 130 53 157 101 50 153 255 64 73 172 178 202 146 163 86 180 106 181 199 159 182 125 162 111 183 180 111 90 144 173 159 166 176 112 178 184 87 172 101 93 163 89 120 170 154 134 112 78 88 82 107 102 67 160 82 173 150 115 112 120 151 176 99 94 63 80 170 172 129 111 163 93 72
165 158 148 137 130 122 123 128 138 145 170 169 170 169 186 174 164 152 134 145 163 170 176 194 201 200 189 181 158 162 163 176 184 181 172 166 161 163 170 189 190 186 174 188 205 179 178 188 192 174 188 151 101 92 160 139 134 160 150 135 127 161 163 154 180 165 168 195 209 140 140 179 149 104 148 175 137 101 149 123 120 138 154 123 189 99 90 132 80 108 133 104 66 64 89 96 100 133 89 64 60 50 76 70 73 79 104 113 116 100 128 141 166 91 87 70 45 41 83 131 62 105 156 141 57 121 112 129 113 38 149 58 178 106 194 90 133 154 47 86 117 120 118 44 114 117 166 178 86 72 88 154 119 143 188 142 203 97 99 166 168 135 51 121 102 76 168 119 119 140 98 158 127 119 90 85 193 141 162 233 125 140 129 182 178 141 173 125 151 60 70 130 204 124 203 208 111 214 207 93 136 196 126 180 130 150 208 132 172 120 116 130 134 95 86 154 100 167 145 139 128 152 94 61 112 138 75 172 146 192 78 143 84 47 160 160 163 141 90 88 166 176 169 148 168 131 63 138 86 72 142 117 175 152 85 189 125 132 156 98 84 56 162 148 151 134 129 150 105 104 135 201 174 189 158 175 94 93 118 152 111 194 133 108 89 79 150 76 171 105 117 76 174 140 114 164 116 66 149 62 59 150 90 61 147 132 108 67 88 81 121 114 130 140 116 87 57 53 75 151 88 74 160 87 255 94 127 167 73 167 82 172 119 170 148 97 71 170 123 189 169 128 109 140 165 164 84 113 154 184 174 71 95 135 52 151 131 137 108 123 121 102 88 65 55 107 93 108 155 173 196 180 148 169 137 65 66 86 97 153 140 146 107 144 49 150 50 150 142 131 120 63 160 75 55 151 158 65 181 183 171 153 133 64 115 103 133 81 163 55 55 49 55 40 76 121 130 102 125 140 142 145 46 153 155 171 172 139 184 152 183 172 145 112 128 142 42 130 28 100 126 155 79 58 98 61 119 89 98 181 133 143 109 100 131 143 220 194 133 194 79 74 119 110 157 95 125 129 144 116 82 149 184 114 85 172 168 172 162 124 74 73 83 149 89 56 135 74 161 130 164 118 111 87 182 190 97 102 108 150 95 141 63 70 181 165 169 159 163 112 70 56
175 169 157 150 150 147 135 140 143 146 155 160 167 166 176 165 157 143 136 130 154 166 195 215 210 219 207 189 163 161 157 176 184 183 175 173 164 174 179 182 189 192 195 198 194 191 175 193 193 217 184 134 127 100 126 150 173 150 137 150 119 157 159 123 145 147 112 150 169 203 170 89 80 111 169 108 100 154 113 83 102 111 132 157 115 100 153 92 113 88 71 70 63 116 75 80 84 73 96 102 41 39 68 102 109 107 101 103 133 106 132 101 96 131 168 134 100 26 39 135 150 57 84 110 32 124 27 37 61 104 134 47 61 77 143 79 95 75 30 44 62 56 104 39 149 161 80 176 181 66 165 94 162 129 107 182 178 183 139 100 166 108 119 87 97 84 78 88 110 186 90 172 153 119 185 130 173 106 226 202 130 217 102 140 133 96 94 180 168 58 68 172 140 100 97 182 185 181 183 110 132 139 195 119 222 114 185 104 164 144 127 111 147 167 185 74 69 82 68 108 56 87 132 150 115 161 68 154 113 76 161 85 82 104 152 161 164 131 93 129 104 163 76 167 124 62 51 53 76 85 125 67 70 78 169 191 176 182 109 135 51 154 167 93 122 81 173 186 179 95 151 125 117 164 101 92 81 157 182 96 168 167 150 143 158 91 97 113 73 61 80 85 127 141 96 88 158 100 60 142 61 62 150 126 135 97 71 54 159 133 179 204 217 164 190 163 96 58 66 98 165 138 87 161 84 114 162 89 73 174 172 102 179 67 86 48 131 79 105 102 135 157 61 166 156 174 127 73 85 170 118 126 51 45 123 68 163 108 188 197 183 193 109 170 176 99 131 121 200 127 107 185 135 187 118 175 176 141 139 172 138 117 49 54 81 134 127 162 65 148 60 144 137 59 53 67 61 166 138 183 111 133 96 116 95 75 65 72 68 156 127 163 152 48 118 130 152 155 113 91 139 66 112 56 147 106 107 133 105 172 137 79 128 125 117 143 78 130 19 24 99 54 164 86 110 114 144 175 72 90 213 175 116 121 159 204 214 115 189 188 159 77 114 67 71 53 255 89 65 145 85 86 176 174 163 79 62 64 122 148 69 127 75 123 141 86 91 141 60 69 89 112 161 175 113 124 197 130 121 103 87 138 153 155 92 144 202 130 218 127 159 71
171 167 158 157 161 163 150 145 155 160 162 150 151 160 173 178 174 161 153 153 157 182 197 228 220 218 203 186 172 168 163 174 180 183 187 184 191 185 186 190 172 192 191 199 201 203 255 167 217 187 192 179 103 130 128 98 137 143 136 159 102 124 181 135 139 114 98 157 133 96 97 163 151 133 102 134 96 128 63 87 85 108 163 196 115 107 85 76 78 80 73 116 115 66 66 87 80 63 88 80 33 41 66 74 77 122 120 133 142 117 142 115 153 144 103 58 59 114 123 54 63 52 49 44 30 37 35 141 55 57 53 56 168 175 79 134 142 117 121 36 45 154 142 132 51 86 189 98 160 87 117 173 140 158 176 147 127 114 145 165 135 144 128 113 127 105 147 163 159 117 199 177 175 137 148 159 144 138 203 142 225 153 159 101 117 147 128 145 156 60 69 179 107 112 124 123 175 221 207 218 163 194 203 210 148 144 132 187 191 90 128 199 93 125 183 146 73 130 146 56 122 144 152 75 65 166 92 166 132 140 153 56 73 138 154 160 115 144 170 201 203 178 107 105 75 133 89 162 103 169 104 64 132 137 156 71 87 130 97 176 109 183 160 160 143 129 86 119 119 79 128 193 172 109 121 111 113 176 165 82 255 133 113 152 156 100 131 98 84 60 61 167 117 131 151 115 79 129 92 129 162 165 79 154 36 40 37 44 113 102 93 155 171 166 195 82 123 57 172 84 89 98 151 103 151 69 67 176 84 78 146 107 144 79 130 124 140 69 156 81 149 55 154 162 158 107 171 82 74 155 161 68 136 48 98 163 75 74 178 181 171 169 103 206 96 150 169 176 104 185 160 142 100 157 178 190 140 120 181 145 136 77 139 145 68 157 168 117 94 66 142 62 160 152 129 87 58 52 66 85 78 150 41 59 65 95 75 73 156 111 121 89 78 144 80 54 72 87 116 123 164 101 139 116 71 94 186 139 204 122 195 190 173 83 154 158 110 52 73 67 42 108 157 186 154 177 74 160 130 154 204 117 192 207 193 130 111 111 192 145 151 127 154 126 112 119 30 129 109 178 90 100 80 69 135 144 105 161 111 109 67 170 81 80 114 41 128 151 163 136 184 129 193 84 110 161 91 192 100 116 126 153 133 176 106 125 114 148 126 86 132 109
147 147 145 154 159 158 156 154 156 173 169 151 145 152 168 179 180 169 175 171 178 193 216 228 220 202 190 189 182 182 169 168 177 183 194 200 204 200 193 196 193 192 193 181 176 185 189 184 209 172 184 145 116 123 121 115 113 94 134 126 92 88 113 182 185 146 129 131 151 92 90 129 80 153 90 108 77 109 149 124 82 145 114 111 101 167 151 122 124 132 126 71 83 99 55 59 70 51 48 57 44 97 68 105 88 117 86 93 122 124 152 143 135 255 112 60 41 37 71 51 82 143 50 64 124 126 141 160 174 71 127 164 167 182 168 60 138 28 76 84 47 112 33 117 54 144 177 84 169 112 157 130 169 178 158 159 115 134 116 159 170 102 42 96 141 106 82 163 179 126 158 171 134 112 106 163 115 199 179 126 125 116 142 113 99 91 183 120 77 92 69 68 167 71 158 71 202 195 227 222 145 176 172 126 103 164 73 109 91 143 99 159 102 111 107 80 52 65 56 76 47 153 125 103 151 165 108 76 173 160 56 81 34 38 62 63 156 144 77 197 194 203 143 66 108 144 53 157 96 161 153 64 107 78 67 149 141 128 154 161 136 93 119 123 175 99 105 113 114 161 124 182 130 134 188 124 95 93 98 123 161 200 139 160 187 118 114 137 167 119 163 75 97 115 69 80 78 175 174 117 77 69 136 75 59 41 88 57 166 71 72 98 173 130 189 130 100 97 95 181 99 110 151 69 132 86 68 150 143 90 176 83 125 79 120 51 74 121 142 150 50 118 143 155 173 75 89 66 96 78 83 154 124 66 171 104 186 92 144 200 177 192 147 206 128 175 121 160 95 201 161 199 89 151 107 102 111 150 187 162 146 131 161 137 173 184 169 97 118 158 167 56 87 116 168 137 132 146 46 57 45 37 140 95 166 90 127 184 105 115 137 195 198 144 86 180 99 206 210 125 203 169 130 78 117 147 106 173 106 199 170 99 133 157 66 68 176 165 93 158 68 86 99 94 163 145 79 80 168 133 186 194 181 101 107 202 88 83 67 60 156 76 108 32 42 107 42 150 75 160 196 123 177 182 142 147 80 128 177 77 85 158 109 139 139 73 64 67 98 154 144 177 95 180 161 124 107 102 169 207 155 212 161 85 125 90 188 138 94 83 65 115
118 124 129 142 154 160 155 155 154 169 161 157 133 145 154 186 189 187 193 189 192 206 200 205 194 172 167 180 190 190 188 173 171 176 188 200 203 202 198 193 194 185 194 177 183 191 168 161 195 187 154 169 132 155 165 166 107 123 102 118 109 114 161 178 111 173 127 123 113 118 78 165 83 101 184 134 118 78 95 72 150 134 107 101 123 91 97 73 126 67 78 66 59 41 46 39 96 68 50 52 80 85 96 105 138 71 69 129 86 143 150 116 156 90 87 121 127 47 49 54 94 131 125 99 56 72 71 90 165 189 195 95 89 177 140 75 132 45 121 121 49 89 33 35 146 167 178 180 172 74 81 75 148 137 64 135 150 99 195 182 91 255 84 127 130 164 107 163 138 178 198 149 134 79 154 91 193 116 109 115 108 122 193 111 80 161 184 155 160 96 68 150 141 105 115 126 124 161 132 216 139 159 134 120 174 117 165 121 72 86 103 188 151 90 85 63 69 133 71 92 65 157 152 112 87 163 155 90 160 69 68 125 120 35 50 47 51 69 183 182 122 104 184 179 97 64 111 158 168 164 103 134 109 152 76 148 67 77 189 177 179 102 180 194 105 108 169 150 166 109 158 126 195 140 163 207 100 79 67 142 120 176 153 193 98 193 192 118 116 144 113 100 70 174 156 69 72 85 148 88 81 78 92 66 47 134 71 74 148 71 79 85 115 128 183 124 204 136 77 107 149 103 111 84 63 123 104 63 110 88 113 77 129 161 58 52 101 69 71 144 105 40 43 69 166 84 182 114 175 153 190 175 144 84 185 113 123 123 176 193 187 189 173 204 227 213 158 187 152 141 126 194 127 112 109 88 150 158 68 101 71 61 115 100 91 90 140 81 154 92 70 102 163 76 141 66 85 94 135 47 135 82 34 76 160 76 107 172 135 197 118 149 211 110 134 115 107 134 154 217 162 104 171 103 78 98 103 129 93 107 199 152 134 100 173 114 110 95 117 82 130 190 190 162 170 82 173 71 89 76 180 193 151 255 110 184 116 158 61 50 85 62 68 127 70 33 100 101 166 127 166 195 211 113 86 177 161 81 74 92 189 108 65 150 68 164 131 61 164 88 122 93 118 157 79 93 149 97 142 127 183 205 159 85 99 99 84 144 96 153 124 89
99 106 121 137 158 169 162 159 161 162 166 141 128 134 159 171 192 191 188 192 179 193 198 189 179 156 162 171 185 195 199 183 164 166 174 177 187 182 185 184 168 175 189 194 195 178 158 183 168 143 181 168 132 157 121 159 168 121 74 127 66 143 87 164 155 192 166 155 156 150 113 111 152 192 181 122 132 86 120 65 76 85 87 97 158 117 92 84 75 62 64 85 47 40 47 32 59 77 50 90 122 123 149 151 93 80 78 58 82 98 191 126 133 112 141 98 115 100 71 144 136 75 54 74 80 102 87 78 86 149 107 201 168 168 166 101 125 161 91 65 80 147 42 144 145 120 140 65 71 78 79 178 132 136 148 59 156 75 88 126 130 113 168 121 154 159 102 121 118 184 116 129 143 65 145 106 121 118 186 96 116 194 178 104 152 142 81 104 71 114 156 108 159 98 56 72 115 195 135 205 156 170 159 200 185 122 162 166 80 162 73 91 101 198 80 151 149 50 90 94 153 149 167 184 124 165 135 150 72 150 76 143 43 138 42 153 106 147 85 188 120 94 157 140 176 141 175 167 161 86 72 74 165 75 160 99 172 125 182 185 147 193 133 153 146 85 178 97 148 143 153 114 165 184 184 113 95 89 97 61 89 67 92 99 184 152 147 85 169 84 86 177 96 104 105 84 81 186 196 114 188 160 60 61 59 83 155 122 153 128 88 97 105 123 121 122 202 182 75 166 78 92 129 78 136 103 94 139 62 58 63 43 102 68 139 161 134 132 86 69 148 148 88 161 175 194 191 80 100 147 103 191 176 79 138 160 186 155 127 107 132 172 103 150 117 184 198 199 191 197 134 126 125 145 134 121 137 46 93 40 82 100 174 168 138 124 83 186 146 68 60 88 163 175 93 161 115 55 155 63 93 40 38 41 154 76 135 189 194 155 100 192 157 100 207 193 151 219 229 175 203 103 155 114 79 86 131 94 88 92 200 185 131 115 120 171 110 182 157 80 131 179 204 191 202 98 186 115 168 100 145 120 102 193 168 97 57 142 46 109 138 81 94 39 135 98 173 120 202 133 166 190 179 197 111 118 96 104 75 189 174 186 80 80 110 84 176 87 161 87 85 99 142 130 130 175 159 95 101 189 108 202 93 166 150 134 80 69 84 67 66 87
93 103 120 146 167 173 168 154 151 163 153 134 133 129 145 175 183 187 178 179 185 186 173 172 159 162 154 161 187 201 205 189 167 153 152 161 163 154 164 157 150 154 178 168 199 171 189 174 166 173 172 177 124 135 173 156 181 163 134 95 128 154 126 198 137 155 176 135 166 90 120 134 116 196 176 134 150 103 101 140 108 151 152 111 155 91 93 90 125 94 50 50 47 49 36 95 101 64 50 89 64 108 118 116 100 71 67 52 77 127 143 122 170 84 61 75 116 98 82 46 43 54 74 80 140 125 106 119 176 184 134 189 79 161 86 83 255 71 139 75 138 68 60 154 168 64 132 165 81 180 192 166 161 178 66 81 129 156 128 177 183 92 99 164 105 171 113 170 153 100 76 140 146 130 102 135 168 109 167 100 103 187 67 83 157 77 255 76 152 162 125 71 165 68 62 168 115 91 165 201 155 88 100 153 142 180 121 156 126 127 101 191 132 190 81 63 58 54 145 154 89 98 153 83 155 154 78 140 103 165 157 120 92 54 99 78 74 66 69 95 84 178 88 190 83 85 79 75 56 157 163 142 107 160 161 150 183 175 139 138 108 186 131 187 136 140 135 179 84 70 66 150 149 197 174 102 148 189 147 157 138 115 136 75 157 61 87 51 101 179 106 153 65 156 54 55 82 82 139 107 96 141 55 135 144 51 92 108 122 114 119 116 125 107 117 173 88 157 80 142 162 85 127 160 119 154 72 82 97 110 19 11 42 30 49 157 169 147 111 78 63 161 66 92 192 97 136 188 117 195 164 94 95 175 90 164 172 200 100 127 87 108 185 112 191 136 170 145 113 144 161 185 158 158 154 106 27 33 56 139 53 109 155 189 171 199 159 82 172 108 170 173 126 173 73 126 126 125 138 154 73 105 40 131 69 64 164 110 192 165 130 126 177 99 97 103 193 103 180 100 177 176 156 109 81 172 115 141 119 163 163 120 186 166 106 199 206 206 124 98 62 108 121 162 149 171 137 117 74 140 149 109 115 198 148 177 100 102 152 65 171 135 94 128 66 153 181 113 128 102 177 134 205 156 119 117 131 149 124 176 152 119 148 182 160 190 106 108 139 97 150 154 129 174 152 78 83 161 105 150 165 113 185 143 116 136 73 166 60 159 94 146
91 106 127 156 174 178 171 149 147 144 140 131 125 128 147 172 179 170 174 171 171 164 160 159 156 157 164 173 190 207 208 201 176 158 150 154 152 143 138 133 136 146 164 156 196 176 204 255 180 163 175 182 136 137 178 144 182 170 126 76 134 165 190 122 197 156 123 165 179 113 116 120 142 150 166 186 95 160 75 149 78 83 90 96 78 77 144 138 69 104 79 60 59 109 58 75 52 85 46 58 77 120 92 148 148 85 60 82 106 86 96 114 131 64 53 59 138 123 128 51 146 113 73 114 79 83 77 158 84 127 90 80 80 136 69 169 180 121 115 83 153 96 101 67 109 155 78 169 159 175 104 120 165 124 184 184 182 114 168 185 165 170 83 156 151 141 171 170 147 156 132 166 121 185 126 211 193 182 173 124 181 161 162 135 80 83 140 84 136 110 157 69 175 93 115 95 63 165 114 189 99 175 177 192 179 168 195 131 196 96 172 202 208 101 131 160 83 137 133 142 78 151 127 140 160 72 84 138 165 171 66 60 147 124 61 78 85 125 128 170 126 112 189 119 180 163 81 169 138 45 142 185 159 152 146 182 110 91 98 152 159 106 170 135 129 165 84 147 94 166 128 140 111 165 121 99 111 155 143 72 81 46 131 131 71 61 92 101 167 83 116 173 97 97 58 70 100 129 158 117 171 167 53 44 46 52 100 79 148 162 134 156 121 174 105 159 111 71 63 105 141 119 97 123 78 92 79 111 60 50 38 16 67 255 78 79 139 148 125 173 170 87 77 116 156 203 191 126 168 187 189 181 130 133 175 124 221 115 108 167 125 83 147 196 167 169 142 167 121 121 174 149 88 106 63 148 40 40 129 52 130 120 86 129 133 112 196 173 84 143 106 76 181 90 123 164 62 100 72 139 93 133 136 67 153 88 154 67 170 90 183 62 163 164 145 138 80 146 162 102 85 99 157 85 107 62 134 150 137 112 93 89 194 101 203 201 146 202 173 150 147 59 123 172 189 101 255 189 110 103 191 142 202 168 121 80 110 164 150 168 83 157 101 128 114 89 186 184 142 129 172 172 179 124 184 177 165 183 132 144 169 192 91 106 177 130 185 149 100 125 92 135 84 184 159 135 129 150 172 97 95 188 184 104 167 135 167 71 85 60 137 68
91 108 136 159 172 170 163 160 147 144 146 133 135 135 140 161 167 174 168 160 147 154 142 151 155 168 163 182 197 206 225 213 191 170 165 162 158 145 132 127 123 132 129 151 167 196 205 178 163 150 164 166 165 129 139 155 148 156 150 106 102 128 115 160 150 131 145 138 178 121 119 141 131 201 190 86 159 118 104 69 152 108 97 63 58 126 79 76 64 93 48 69 99 63 71 63 57 97 42 70 65 80 86 125 131 116 106 66 74 109 128 104 65 53 130 85 76 102 96 52 69 62 109 116 76 175 70 80 72 118 186 88 85 170 76 75 116 81 186 92 145 185 167 172 172 172 177 110 88 132 192 202 180 94 187 175 168 85 181 113 120 140 114 151 61 91 91 117 93 147 137 78 108 99 179 214 211 214 157 186 110 142 164 107 87 147 82 153 55 68 150 153 180 160 119 118 166 141 83 120 156 144 150 101 101 113 195 160 106 208 213 216 115 195 140 83 99 123 151 73 153 154 50 132 103 63 173 182 190 94 114 94 169 76 63 115 150 158 158 86 79 148 168 152 168 80 181 119 57 145 152 111 91 114 129 194 197 166 144 166 120 134 186 113 171 179 171 149 107 187 124 151 90 175 100 201 103 108 162 54 70 128 129 58 125 48 27 111 170 117 114 109 108 93 66 104 91 92 176 143 184 99 63 142 120 86 162 164 96 195 95 119 158 87 88 114 151 86 87 72 177 188 104 92 153 111 161 179 169 141 82 20 105 93 113 63 65 85 150 113 185 128 136 183 165 199 184 178 136 138 179 145 117 219 131 208 233 234 214 190 121 170 131 190 178 123 190 76 153 86 102 175 96 118 103 151 94 120 134 124 82 87 164 93 199 173 114 199 97 128 158 103 86 144 158 146 73 158 76 128 105 64 146 68 149 149 113 85 100 111 122 69 157 161 143 79 158 159 48 110 130 159 99 76 78 60 156 53 67 95 136 119 90 197 106 104 96 140 179 106 101 79 126 73 89 116 194 89 112 94 110 197 200 176 156 97 107 95 176 74 92 97 208 113 205 190 93 173 161 166 95 65 72 80 89 111 110 113 166 108 202 172 94 184 91 153 104 177 107 118 151 160 179 190 119 136 97 98 117 205 100 95 155 138 173 179 156 168 83 81 93 88
99 116 139 159 168 168 161 158 154 152 137 126 135 132 148 142 154 156 154 140 143 131 140 145 151 158 174 185 198 222 236 229 211 189 180 174 170 160 148 138 130 127 133 167 184 185 195 193 176 186 204 192 158 179 164 125 100 129 140 148 135 177 149 131 181 112 180 255 160 112 159 186 103 121 157 108 75 69 69 150 73 111 58 131 47 55 139 77 92 51 51 51 116 116 75 67 69 56 58 61 53 99 72 89 104 109 106 122 72 122 56 87 101 61 64 56 138 72 77 109 94 71 128 126 255 169 73 74 152 82 103 95 131 187 188 132 190 111 138 108 192 174 167 79 165 80 124 94 105 149 195 88 88 103 156 170 164 167 100 158 178 107 69 97 96 140 193 183 149 76 109 102 178 147 119 157 172 180 203 150 161 175 139 78 103 65 73 162 170 76 107 139 87 77 92 179 176 154 78 83 168 156 155 120 108 117 169 109 213 188 221 217 180 86 119 125 132 50 59 141 97 53 75 93 76 126 84 92 165 168 192 105 179 63 118 46 103 159 171 179 95 166 177 152 142 114 170 172 162 53 153 164 162 168 184 168 148 180 120 163 113 145 132 107 177 121 178 128 129 171 101 171 158 111 255 128 180 179 165 92 129 50 48 47 97 40 43 112 169 194 108 121 160 81 73 159 82 122 131 140 181 77 99 123 51 102 88 99 127 96 107 95 123 141 139 78 61 119 61 133 90 145 160 104 155 127 135 80 76 138 114 70 120 119 150 156 130 113 128 89 153 123 86 135 88 131 165 63 64 158 148 126 137 136 239 234 235 132 215 202 172 104 173 175 163 157 137 92 57 108 103 171 93 184 155 56 48 137 123 147 108 62 166 94 118 127 113 100 103 95 187 104 79 80 177 139 79 183 89 90 130 160 113 156 128 155 117 76 86 101 95 149 117 148 69 172 165 89 139 57 46 168 181 74 75 149 94 58 122 168 180 187 156 88 178 181 102 123 59 148 153 95 138 119 170 118 181 107 100 198 203 211 141 194 109 125 110 139 183 139 157 142 174 156 195 185 157 86 101 163 106 71 183 105 182 188 102 182 105 110 146 132 193 163 186 131 120 193 76 139 162 110 141 186 124 153 184 106 124 199 110 114 187 173 150 83 98 86 78 155 95 113
120 132 146 157 162 154 159 160 156 142 128 136 134 145 149 149 154 138 149 145 143 141 146 149 148 167 180 170 197 215 235 234 224 202 192 185 181 182 166 162 158 156 161 168 159 164 166 148 194 202 206 155 187 147 151 143 82 77 94 149 164 160 166 152 164 175 145 74 165 94 117 108 99 169 121 161 69 148 68 78 108 135 93 61 121 55 51 63 44 51 81 74 62 101 57 66 92 70 89 102 87 75 89 91 95 92 80 93 65 101 48 50 64 70 147 132 91 90 93 126 130 122 87 85 166 80 145 76 78 165 83 90 188 143 98 152 129 183 175 186 89 124 173 141 177 99 125 202 189 206 180 88 117 152 67 144 156 57 116 83 173 174 173 96 184 129 140 187 170 99 168 115 142 122 180 114 194 146 207 113 119 127 100 166 103 120 92 71 120 72 78 128 81 137 176 91 159 144 108 146 139 182 191 173 166 170 144 166 190 126 213 171 103 176 55 44 127 91 91 148 64 59 166 162 73 128 179 136 122 166 194 160 101 179 74 153 80 76 145 172 128 80 76 173 113 165 158 176 175 162 64 63 103 81 165 103 161 192 172 76 148 88 167 202 112 175 125 164 112 180 188 163 94 188 176 140 211 98 153 30 43 127 121 131 65 77 104 174 109 116 145 98 94 124 162 162 159 66 86 86 202 197 176 72 64 70 107 147 188 205 136 123 191 89 85 59 76 69 149 73 179 194 112 97 138 87 74 178 111 75 53 104 102 56 65 102 62 144 184 170 188 85 178 152 77 168 73 157 58 121 91 119 138 135 224 224 216 125 214 133 121 94 129 165 151 105 78 156 155 100 127 71 123 172 86 53 76 151 168 77 104 81 180 105 144 181 104 100 206 199 171 86 162 92 164 75 122 174 171 144 144 66 63 83 127 153 174 88 115 181 194 170 185 102 174 90 158 80 61 58 113 164 172 143 149 59 167 65 161 133 124 147 80 137 75 104 68 52 77 151 59 156 61 151 89 74 170 169 81 118 176 213 108 192 205 139 197 124 187 80 177 83 144 149 92 178 147 75 73 135 176 103 158 151 113 109 184 94 199 141 172 180 185 108 124 174 83 165 123 72 44 62 84 141 163 176 123 112 136 189 131 101 200 125 87 120 117 89 86 141 149 218
144 149 157 154 152 146 155 160 162 140 135 138 148 149 154 149 137 145 150 134 141 154 157 156 175 167 181 172 185 202 222 228 215 204 185 185 189 187 201 200 192 184 179 179 151 154 168 175 188 205 209 179 157 157 140 100 125 110 100 86 163 142 186 194 97 159 111 64 128 165 142 129 108 83 124 75 134 99 70 107 49 44 45 73 121 52 92 43 42 52 57 58 44 35 72 66 97 77 130 125 106 87 76 97 137 88 80 110 80 112 75 73 74 66 118 87 132 97 133 105 144 198 116 151 142 79 126 118 90 70 105 120 183 196 94 104 129 185 100 90 167 167 184 117 144 185 96 143 185 204 187 166 143 72 127 156 145 161 164 119 81 124 134 133 197 131 143 167 153 102 193 207 179 196 185 175 113 169 130 158 113 118 65 153 81 178 187 117 120 182 176 169 130 205 195 108 132 175 131 174 180 111 159 189 101 152 117 103 98 145 189 78 150 55 145 61 65 26 129 134 152 131 179 88 116 95 122 146 115 182 157 202 104 185 169 78 150 63 173 73 81 180 150 165 150 104 141 72 188 128 187 143 133 122 140 63 171 76 171 104 122 85 184 180 131 100 140 177 148 173 98 192 188 213 134 221 215 195 159 125 68 67 158 161 146 183 97 161 188 124 98 166 174 176 105 55 50 86 255 168 109 134 177 95 133 138 164 174 108 122 185 142 104 80 172 78 178 156 170 99 164 191 126 156 144 161 123 119 87 77 90 94 155 156 58 73 87 156 127 102 71 158 82 137 138 75 74 104 156 75 156 75 105 217 207 209 211 170 148 81 178 89 170 162 164 120 129 93 173 141 179 179 186 113 134 114 128 167 160 86 93 167 98 138 208 201 207 197 120 129 99 91 166 128 104 183 160 164 155 92 174 174 106 176 168 106 194 165 194 183 117 124 95 190 118 171 80 163 48 58 64 63 168 141 81 145 138 72 72 158 150 120 112 161 161 152 75 127 92 142 82 87 129 166 169 124 80 163 67 189 206 212 210 122 213 197 117 209 106 176 106 144 173 82 72 69 154 135 84 131 105 109 210 165 101 105 203 203 126 145 195 158 207 144 202 197 180 135 103 84 85 94 73 79 186 162 71 157 158 92 93 137 135 149 100 142 112 135 141 161 198 120
161 165 168 163 153 142 138 153 154 145 146 147 152 158 159 159 144 134 147 162 155 170 180 178 197 202 184 187 180 185 206 211 209 198 185 182 185 198 204 193 189 194 186 187 177 174 145 150 165 203 206 157 176 154 98 88 83 93 122 123 171 172 184 190 151 96 71 127 137 114 139 168 96 102 72 111 145 66 97 64 60 127 56 63 66 129 50 44 101 57 62 114 72 98 48 93 90 73 112 97 103 103 111 94 83 75 58 59 59 150 102 154 93 124 135 73 88 98 112 114 107 110 200 84 65 51 132 60 126 153 66 69 173 151 159 99 188 193 161 182 91 80 169 77 183 177 183 150 114 142 116 146 162 80 70 72 93 122 83 99 161 160 76 116 114 180 123 96 106 156 162 132 126 116 145 114 116 86 178 168 76 154 163 172 103 158 190 181 149 187 180 138 108 135 121 130 140 81 170 129 73 68 85 161 187 136 160 191 130 81 104 101 56 48 145 135 112 142 155 167 120 72 178 108 172 107 167 113 102 146 87 204 141 102 167 66 154 149 121 172 182 176 88 178 130 112 61 181 149 108 167 108 147 52 45 57 86 144 182 92 180 176 89 172 173 97 124 135 81 127 144 91 101 192 209 125 130 155 171 152 97 94 135 173 109 176 83 187 180 162 93 105 84 94 66 88 148 155 178 96 150 166 208 114 80 60 98 88 130 124 131 117 92 140 94 100 85 124 103 113 97 118 123 77 92 74 78 174 98 100 96 114 172 108 76 124 137 84 149 77 68 138 54 71 39 36 47 97 70 145 135 92 87 200 196 194 180 151 174 133 162 141 255 86 63 150 175 151 112 91 195 198 128 111 138 105 94 108 132 129 163 135 128 112 192 201 178 124 157 81 165 172 187 188 169 184 147 82 172 97 184 127 175 109 118 195 132 192 139 119 187 97 115 105 184 185 85 141 105 116 115 122 145 69 155 148 176 72 106 92 124 96 92 173 125 137 140 154 60 68 167 150 175 73 133 95 169 65 132 187 107 112 109 111 168 132 157 128 118 76 161 75 84 166 88 106 157 179 187 118 186 126 208 149 189 166 174 187 112 98 96 152 140 180 190 172 79 101 110 51 105 160 91 165 172 103 93 68 72 160 183 141 160 84 181 125 170 80 94 120 173 173
170 173 179 172 156 144 132 138 149 150 144 145 162 167 180 178 161 161 154 175 181 186 194 194 207 219 208 202 185 190 197 204 192 191 178 181 184 184 188 195 189 198 188 198 192 184 155 146 186 178 199 195 153 125 105 137 87 122 132 153 145 180 144 142 147 97 131 80 143 68 126 128 112 106 127 51 49 118 63 86 120 97 61 63 139 54 125 85 72 138 255 57 57 70 59 81 84 113 99 79 87 72 78 104 96 70 93 89 88 89 141 126 113 94 81 74 163 100 146 97 100 126 150 68 57 63 80 85 48 51 100 101 141 79 172 182 82 88 95 192 185 169 68 179 176 172 185 164 85 175 152 75 83 161 138 186 153 148 116 110 106 158 166 169 138 119 90 91 109 172 172 119 178 114 163 81 173 148 60 114 65 148 72 156 166 152 86 177 114 120 123 218 130 237 157 137 199 148 130 81 116 137 164 165 126 178 122 152 139 140 44 116 131 83 53 64 165 84 103 116 75 101 95 125 103 174 174 144 42 154 172 104 133 183 176 103 153 173 148 173 124 97 179 77 144 151 156 162 140 200 100 184 117 130 119 101 53 151 95 171 105 91 81 131 91 138 160 76 139 123 90 147 92 147 194 191 148 99 144 150 57 97 123 148 142 127 155 146 90 130 105 80 69 115 111 106 141 162 78 189 109 134 201 130 136 73 116 68 82 118 85 103 75 82 116 142 158 187 176 95 97 71 72 145 101 71 70 87 189 88 119 93 196 122 190 184 184 108 97 97 159 82 151 108 69 92 94 136 47 146 129 149 147 151 94 103 130 75 71 61 57 76 87 65 59 143 178 165 205 208 114 203 189 77 156 100 116 160 176 159 130 155 157 198 174 169 203 107 170 174 135 183 91 179 103 153 183 77 171 101 156 71 113 160 202 104 105 106 118 142 96 123 105 202 102 133 163 100 79 69 125 138 75 156 117 96 92 83 68 71 162 193 106 172 79 71 169 90 61 119 63 125 94 164 158 183 79 97 167 187 200 146 134 182 196 126 205 195 175 159 68 61 154 134 151 61 87 148 142 104 155 113 202 123 214 152 131 206 117 112 173 80 127 97 194 91 167 117 139 84 73 134 94 59 78 132 152 92 166 176 158 148 113 146 126 156 87 94 139 130 116 127
173 179 183 181 166 140 127 124 137 146 154 160 160 174 192 187 183 187 182 186 179 190 198 202 224 223 225 209 208 205 206 202 191 191 192 188 184 181 187 184 184 184 172 195 170 187 165 152 175 197 183 149 192 173 183 111 112 97 151 155 132 106 124 101 170 154 143 73 58 129 83 71 58 119 106 54 46 85 105 101 102 155 76 86 88 55 78 56 82 82 78 98 57 58 117 116 73 82 80 111 83 109 99 91 118 65 98 110 114 138 157 128 136 90 64 85 87 87 93 110 129 139 77 112 96 49 48 69 150 81 148 101 108 73 73 74 148 91 129 109 104 100 165 169 178 115 179 183 170 78 147 135 179 201 150 138 186 186 184 113 161 90 125 95 130 165 157 147 95 158 58 151 155 156 158 183 159 176 81 69 54 133 110 127 177 76 136 124 132 100 204 202 245 203 217 164 183 168 86 91 93 85 163 67 82 190 146 198 111 64 103 130 68 102 113 149 96 90 144 180 121 89 102 198 193 144 140 102 94 39 151 169 105 164 92 153 69 107 108 181 197 102 193 83 73 174 184 186 86 189 169 140 105 173 87 67 74 104 138 124 126 138 58 151 70 116 136 180 74 163 89 97 121 86 111 170 88 83 122 70 72 66 153 84 180 87 63 65 149 175 95 108 84 145 79 153 92 89 135 82 185 191 107 100 107 100 78 142 181 79 95 73 170 144 136 184 118 170 122 121 87 129 118 179 96 74 149 102 127 158 200 106 108 185 131 206 162 84 69 65 56 67 67 162 165 107 66 67 119 97 120 61 165 255 170 156 163 112 68 112 144 151 133 76 158 95 66 151 148 104 205 120 97 120 102 162 101 92 152 163 101 169 179 167 202 104 182 158 176 74 78 82 200 206 111 198 139 171 163 85 137 56 132 184 139 131 158 162 192 188 165 96 104 143 97 185 148 192 183 102 70 172 88 169 87 183 76 118 168 95 193 141 133 132 105 100 82 98 91 146 107 120 155 163 111 84 163 77 83 83 88 202 158 190 95 198 199 153 149 139 118 140 73 123 97 179 184 176 101 103 110 151 189 121 151 207 225 143 149 97 101 162 109 153 187 154 113 85 122 52 153 170 67 64 117 123 57 147 98 97 126 55 65 68 166 145 153 61 76 113 185 125
170 175 179 181 166 149 126 124 131 145 154 158 151 164 189 190 194 191 192 188 184 193 197 208 213 215 228 223 216 208 202 195 197 196 202 201 190 193 185 184 183 167 172 190 189 164 174 151 181 181 177 206 194 197 148 169 136 150 168 103 131 93 158 163 154 159 75 60 119 96 104 135 64 45 115 41 69 89 153 161 169 159 84 72 63 60 108 255 69 70 117 63 76 80 67 82 78 73 78 90 96 121 110 108 101 85 72 94 74 115 137 76 124 114 85 57 72 162 143 169 99 73 73 143 67 105 145 121 161 62 169 150 172 97 70 109 147 183 88 154 73 67 102 181 191 188 86 168 166 113 68 169 201 137 118 182 78 190 129 182 116 125 161 162 129 144 162 61 56 122 92 111 115 97 119 174 75 110 164 54 83 115 130 137 87 162 80 175 178 186 173 203 138 212 186 168 144 95 88 170 176 163 67 93 189 210 162 160 106 103 123 145 140 60 169 76 120 109 128 119 113 166 105 199 150 153 139 29 111 128 112 131 74 179 153 106 122 90 91 85 97 151 192 175 72 77 97 187 186 183 180 85 79 133 161 129 137 50 97 141 167 49 102 68 87 127 107 172 174 128 56 92 105 131 103 133 189 122 185 107 154 74 155 76 74 148 136 128 73 141 255 165 113 81 148 143 255 85 143 98 99 192 102 122 96 149 174 183 80 116 80 157 107 149 89 151 188 169 123 100 105 80 180 76 182 175 71 69 174 94 110 150 89 114 109 200 201 152 159 136 50 70 74 143 114 188 78 93 170 101 159 175 158 70 162 85 136 132 145 128 114 56 161 69 63 133 126 175 187 138 106 186 116 48 52 90 147 68 170 145 92 121 99 195 162 125 172 181 193 188 98 191 104 196 198 178 113 165 128 132 133 58 145 76 89 129 90 91 76 117 98 179 194 88 186 106 154 93 104 160 135 142 151 155 157 156 157 84 71 71 185 116 199 128 145 172 166 196 197 255 65 125 105 67 74 180 143 110 88 66 83 100 175 104 84 91 127 176 78 167 131 111 72 175 168 91 145 157 102 177 212 154 108 193 126 165 181 115 139 94 161 136 64 155 177 87 90 121 147 75 125 148 172 166 155 91 99 165 85 76 132 63 137 61 62 156 68 88 75 119 190 183
163 169 175 255 171 150 134 127 139 151 153 150 147 153 174 183 181 182 186 185 189 194 191 190 203 209 219 206 204 199 179 181 188 196 208 204 201 195 255 183 190 180 187 177 159 166 161 160 181 167 201 186 181 141 179 143 165 103 132 167 108 101 117 163 154 128 98 59 66 124 95 107 141 108 134 115 76 115 156 87 113 130 104 114 73 67 115 55 60 134 126 70 76 81 133 88 87 115 85 107 94 122 121 110 111 105 76 83 73 115 86 76 56 41 26 49 103 102 190 173 92 67 109 55 51 70 134 69 255 184 98 165 107 194 181 66 96 158 161 179 77 80 146 132 141 138 183 159 152 152 167 154 168 200 185 166 171 185 154 141 199 192 136 106 170 111 115 159 106 122 84 81 139 153 109 106 133 172 164 106 49 83 133 80 159 137 178 146 192 91 94 109 171 226 126 184 203 152 156 110 58 163 124 103 80 180 207 130 85 94 66 128 78 94 70 119 94 197 108 185 104 173 169 179 184 116 83 133 35 38 80 146 96 150 151 77 77 156 167 146 95 185 184 72 171 102 172 182 176 116 141 72 76 162 150 140 34 35 152 154 124 86 33 150 65 192 111 118 199 76 150 102 130 78 175 111 157 116 189 99 80 82 75 81 87 119 64 107 91 69 69 59 96 156 66 79 121 126 163 106 169 151 108 97 118 98 100 87 122 74 64 69 83 181 84 182 87 186 164 108 202 191 159 163 82 163 98 129 94 133 117 96 148 77 192 165 182 87 93 133 58 115 144 195 167 212 190 118 164 149 185 194 177 182 108 144 168 141 186 117 108 161 103 172 107 110 54 162 114 182 146 93 132 48 90 125 151 78 181 180 107 174 199 179 207 120 181 120 200 122 189 106 106 172 212 136 90 115 114 135 141 132 166 176 165 157 104 122 69 115 116 170 85 134 75 98 111 172 105 163 105 116 152 145 165 186 162 105 127 160 124 107 192 104 174 190 123 101 98 187 70 57 121 152 105 91 135 71 159 66 88 116 91 149 181 182 118 182 155 146 76 70 65 77 181 154 146 130 110 163 207 178 141 112 102 189 162 191 190 192 136 100 71 76 125 175 110 76 68 81 168 167 185 107 165 73 84 181 98 176 62 89 126 71 71 99 121 129 73 127 171 77
151 160 168 175 169 152 143 145 151 155 158 144 148 138 158 157 167 172 191 199 199 184 188 186 186 199 207 210 203 177 168 157 171 188 205 202 192 189 191 191 192 195 180 170 174 155 169 153 176 152 186 179 182 158 139 119 114 105 134 122 115 175 137 182 132 161 65 82 34 106 78 108 63 92 110 64 147 161 95 131 178 179 117 89 95 140 107 119 124 64 71 130 74 91 89 93 108 92 85 112 108 102 103 94 91 114 88 75 113 82 117 97 52 89 34 99 78 81 95 106 168 158 81 112 88 135 77 158 157 168 120 196 181 93 92 145 168 174 177 104 74 151 196 113 107 114 78 132 136 113 86 138 185 85 175 150 155 89 178 213 188 123 189 140 76 83 94 116 77 127 129 141 167 87 83 141 162 164 125 154 80 88 115 138 137 169 199 208 171 152 185 82 132 108 171 201 198 149 142 125 74 149 107 96 173 145 91 175 76 169 129 157 148 64 164 88 97 103 134 81 181 94 185 180 131 145 159 55 152 58 148 161 159 79 163 62 57 94 148 138 137 179 72 73 170 91 184 115 163 139 144 154 118 74 151 39 125 121 87 115 56 130 110 88 60 161 122 94 184 79 168 152 116 155 168 87 179 175 181 74 116 111 162 169 141 71 144 124 172 88 105 126 137 79 119 88 130 81 165 146 164 140 107 147 110 162 143 103 118 75 163 108 154 82 73 122 77 120 152 116 123 153 193 185 104 108 90 85 78 173 117 82 152 162 110 118 98 97 95 160 172 179 181 168 202 201 184 193 187 187 95 95 182 184 158 111 163 133 116 163 139 151 157 133 161 79 88 151 64 170 104 176 95 123 66 92 94 183 115 133 205 189 213 164 160 174 222 221 144 128 213 198 180 120 141 184 176 138 37 140 108 81 172 73 162 118 71 89 137 88 68 71 131 181 168 60 69 162 85 129 191 98 108 105 94 196 185 188 171 105 93 89 139 172 104 89 140 123 179 101 175 84 167 161 99 170 113 170 168 91 170 175 95 185 179 139 95 142 171 168 129 164 85 178 174 86 107 184 187 120 203 191 133 170 185 136 144 101 182 89 177 165 60 128 136 150 65 104 162 145 116 145 109 166 169 95 83 72 113 78 111 37 70 55 59 72 81 178 88 82 84 72
138 147 157 161 161 152 152 157 172 167 170 156 145 140 151 155 159 173 166 193 185 182 160 156 166 187 185 205 199 172 160 154 164 187 200 189 189 185 185 188 187 193 174 172 159 170 169 151 147 168 173 145 160 126 149 146 81 142 88 135 174 170 190 128 174 148 143 71 120 81 52 156 115 121 93 141 147 131 142 124 108 127 119 87 94 49 97 93 78 118 94 82 101 111 99 145 101 88 75 77 78 128 123 86 125 101 112 97 89 131 116 82 66 81 56 27 41 83 97 127 98 127 80 167 81 118 151 145 112 100 128 128 105 125 180 93 101 78 164 119 94 174 188 110 115 199 76 149 31 119 98 154 158 170 142 176 164 203 217 125 160 175 193 96 168 184 82 140 137 128 119 89 160 141 77 172 167 124 159 153 128 136 91 94 137 184 210 205 129 109 175 90 169 83 184 98 109 94 120 128 43 117 81 111 148 166 174 162 142 173 87 180 99 103 71 109 152 174 173 128 171 181 177 176 183 111 176 125 69 64 167 124 102 111 51 154 145 81 83 159 72 115 93 136 91 74 176 148 158 161 54 144 59 92 49 147 133 74 152 65 117 116 108 74 153 152 175 81 98 73 130 72 148 55 129 146 158 186 99 108 150 64 89 124 78 173 125 165 129 184 149 150 120 75 94 170 66 68 117 195 115 124 164 142 89 144 101 88 101 102 60 75 120 64 173 79 66 99 109 104 105 103 185 133 95 177 165 167 172 183 155 97 75 68 73 168 163 170 166 105 106 110 87 76 192 211 212 127 200 90 114 183 124 192 163 74 127 137 158 142 72 92 127 60 116 141 114 54 160 135 130 141 172 177 172 125 92 145 76 188 129 213 222 140 210 179 116 172 230 146 215 184 93 86 96 141 61 140 66 130 86 118 174 76 170 67 87 177 98 195 100 190 87 161 154 147 141 126 152 202 106 154 106 84 95 117 184 123 167 187 127 97 77 170 76 187 94 112 124 178 165 113 95 166 67 114 172 145 89 179 163 196 206 178 89 87 97 171 190 170 169 62 168 177 119 176 110 179 89 197 122 199 86 86 87 102 172 182 73 79 155 127 122 83 118 110 103 76 103 173 98 163 125 118 174 115 182 178 65 160 115 76 60 85 71 65 118 131 115 83 118 62
119 127 136 137 138 133 146 158 176 190 182 156 149 142 155 159 148 168 175 184 178 160 159 147 142 167 181 196 203 184 160 147 163 182 192 192 192 189 183 181 177 183 180 184 179 149 163 148 171 176 125 126 161 124 142 90 144 112 117 168 131 186 197 137 202 147 87 60 123 126 56 66 105 153 167 95 179 144 138 151 125 151 104 133 104 87 42 64 86 111 106 107 92 110 144 120 87 77 75 54 89 72 120 131 85 81 97 72 86 101 98 161 65 51 121 66 74 79 119 120 113 101 153 86 125 114 180 84 92 119 104 100 91 78 125 52 44 87 45 53 153 57 171 83 194 197 164 64 114 89 113 92 174 154 108 189 197 190 167 210 198 146 186 100 147 105 153 162 148 57 105 142 107 170 172 102 155 131 158 59 149 66 114 99 133 106 216 227 117 135 189 181 70 159 137 99 113 100 164 74 35 94 135 73 89 107 174 160 78 119 88 188 93 127 134 138 57 147 102 101 181 186 119 165 183 144 104 186 129 146 102 130 71 118 114 87 153 148 163 167 169 162 112 75 71 125 92 63 59 65 158 150 47 37 136 160 160 98 124 180 138 114 158 176 184 83 81 102 145 119 60 141 123 59 131 109 190 119 191 84 68 119 132 47 57 68 111 197 185 193 110 112 190 91 120 165 82 141 96 202 116 154 122 89 115 65 64 80 156 81 110 128 66 90 90 129 167 81 163 146 137 92 97 103 181 114 113 156 173 176 166 68 85 134 86 108 80 73 151 149 172 104 70 140 171 197 215 204 136 144 131 106 101 120 185 153 64 157 63 133 30 99 95 140 116 63 104 72 156 140 142 170 180 89 84 93 144 160 171 81 92 214 136 134 177 169 97 119 107 131 189 123 143 176 105 82 66 158 153 53 122 93 106 87 76 117 168 197 219 203 205 102 200 104 116 148 46 116 103 145 206 148 196 92 175 188 170 114 221 194 103 169 105 69 161 172 191 164 142 73 121 167 56 87 145 132 96 137 117 90 116 196 119 173 81 168 159 206 105 171 111 116 131 70 174 169 174 150 165 167 173 93 101 128 185 82 100 169 113 72 126 133 39 100 84 15 77 60 152 137 147 111 121 151 190 210 200 138 159 130 45 39 140 126 67 78 145 139 122 192 135 101
97 102 108 109 108 113 139 164 178 193 181 171 154 158 151 158 167 159 166 174 173 156 138 137 119 140 174 181 189 178 159 154 165 179 192 201 198 192 188 177 167 159 152 162 179 166 154 188 167 154 193 186 158 108 148 137 128 163 186 180 148 205 148 190 169 164 151 146 92 85 119 74 70 147 100 96 102 207 149 171 149 124 115 143 68 50 105 75 92 116 109 104 141 103 104 96 115 56 44 47 56 106 87 126 81 90 55 96 72 95 118 134 141 78 89 75 60 79 108 125 135 85 179 122 102 93 86 164 92 124 202 190 185 169 55 102 88 61 47 153 47 124 70 111 182 95 192 83 90 55 61 128 127 192 169 186 194 135 175 181 150 152 144 179 84 107 136 179 164 150 58 126 158 149 183 184 96 146 130 164 123 97 83 134 201 151 255 123 111 159 139 159 103 157 188 193 188 103 175 165 121 101 92 175 127 164 161 79 95 104 182 147 163 97 150 50 161 66 168 114 81 132 141 178 92 192 199 127 140 156 56 151 90 120 136 54 76 100 180 125 73 164 183 150 164 95 142 144 92 63 67 81 74 150 141 175 196 180 197 100 179 90 103 146 121 104 120 136 101 60 120 80 59 127 150 142 114 179 191 181 156 71 89 66 139 75 167 160 172 115 101 105 189 167 115 162 97 205 102 172 107 122 107 85 80 158 142 154 119 80 63 75 59 146 75 147 67 73 255 113 136 157 122 90 192 89 145 169 73 87 122 152 104 91 150 64 106 163 144 71 76 175 159 55 168 86 103 188 211 207 213 195 116 156 154 87 79 90 111 130 125 129 80 142 143 104 58 60 164 117 179 87 95 96 153 159 101 184 91 177 181 206 180 217 102 147 111 114 87 191 81 155 71 155 78 181 123 152 162 57 61 161 137 83 140 146 96 113 174 211 188 111 199 99 73 122 106 110 123 132 162 223 164 168 165 91 199 125 212 118 102 158 154 168 91 106 128 188 80 113 164 56 131 48 120 61 80 79 107 87 79 174 151 185 180 133 126 217 154 201 93 182 69 92 163 149 106 151 116 95 136 174 183 168 85 148 76 124 57 89 87 131 104 43 41 112 22 139 115 181 169 205 192 128 120 213 99 88 72 63 72 47 38 145 80 142 195 104 204 143 82 96
86 93 97 99 100 109 135 164 183 188 183 181 167 176 170 176 164 169 158 167 170 148 137 120 127 134 152 181 179 166 160 162 167 190 195 197 199 197 182 175 143 148 125 136 171 182 169 175 205 207 195 193 164 184 111 144 141 194 194 139 183 154 203 194 105 151 102 134 67 92 44 77 90 76 173 94 113 133 142 135 178 133 112 164 136 110 69 101 175 108 112 105 116 129 119 98 75 66 85 103 107 79 105 126 73 62 80 70 79 91 148 110 109 126 92 100 64 169 103 110 134 91 130 102 108 95 159 89 104 174 90 85 162 73 114 39 33 146 76 166 55 122 106 98 190 144 186 94 176 85 182 166 159 200 96 194 186 184 123 129 143 151 116 168 125 109 189 90 141 112 139 103 95 107 114 101 131 168 175 137 72 84 145 120 172 226 173 216 179 156 163 84 128 161 98 101 181 175 120 63 87 169 173 79 162 73 81 76 103 76 87 88 151 97 169 142 61 177 157 91 87 165 161 167 164 194 166 171 181 165 149 146 128 139 49 149 171 94 105 181 105 164 167 99 153 109 138 140 96 143 163 80 147 68 169 184 195 164 161 156 169 89 108 196 126 128 163 179 124 91 162 129 176 83 66 128 77 84 185 148 131 74 67 96 149 152 109 118 150 143 159 126 148 136 168 109 131 206 184 94 91 114 79 85 77 90 61 52 56 88 57 95 155 138 136 92 145 169 115 87 90 123 115 102 156 95 172 130 95 82 75 77 58 139 59 161 146 170 171 159 68 149 133 108 135 89 90 153 134 135 198 194 123 184 154 103 145 64 78 111 132 89 175 190 127 178 84 165 149 154 159 149 104 94 157 92 206 144 100 106 170 171 145 116 167 197 102 139 85 159 177 163 76 181 97 82 100 150 164 169 92 143 68 116 55 170 95 107 183 104 109 209 205 174 147 67 101 112 153 151 181 236 215 114 178 190 150 120 192 196 197 168 107 85 78 96 165 188 82 157 149 127 157 141 139 54 99 140 104 98 52 64 73 112 113 184 150 110 112 198 141 193 82 161 60 152 116 154 145 113 107 157 171 128 89 85 128 140 47 42 132 97 83 63 125 38 117 53 140 92 178 116 182 160 195 169 108 81 138 172 62 99 144 150 152 81 165 98 118 108 183 104
98 104 106 107 110 116 142 161 179 182 181 185 181 185 173 179 162 169 173 170 171 173 155 140 130 159 170 175 170 161 167 172 183 193 198 200 193 197 191 177 145 117 131 116 154 186 193 205 184 181 222 193 224 158 142 132 177 203 182 209 207 178 141 125 112 107 77 50 123 85 74 129 127 98 113 92 155 165 148 149 107 113 98 133 81 76 147 153 141 121 103 124 101 107 136 98 117 71 70 82 88 95 88 68 86 60 45 69 106 124 73 148 78 145 101 74 103 70 144 115 82 104 121 141 115 102 140 89 92 133 178 136 100 159 43 61 38 131 176 185 180 97 118 178 103 202 105 181 92 91 92 80 162 197 199 145 109 130 149 108 100 54 88 68 78 125 153 143 166 99 80 80 145 196 99 108 139 139 160 86 88 81 91 114 208 232 212 163 160 87 60 133 96 154 140 169 89 146 163 67 104 105 178 148 153 62 100 43 65 170 86 163 112 79 154 170 176 134 105 106 171 78 114 82 171 156 196 149 136 179 155 72 153 141 150 134 182 129 188 136 172 147 78 164 109 94 140 116 61 172 176 186 81 111 189 197 154 114 102 104 192 183 185 102 159 157 201 208 158 177 172 108 168 91 147 63 150 124 150 165 78 68 126 92 167 94 157 104 103 85 156 73 94 101 130 96 97 119 180 100 72 87 74 170 71 151 166 73 119 68 75 152 110 86 108 87 75 169 147 141 255 82 158 96 68 69 167 76 106 119 153 159 60 154 93 60 172 70 74 105 58 155 96 159 172 98 99 87 108 137 161 211 185 201 209 168 143 171 51 126 140 144 130 196 134 90 171 130 157 122 174 89 121 144 135 101 213 217 204 149 150 105 143 209 205 193 122 151 81 101 133 158 84 185 178 136 180 99 126 80 165 106 97 63 160 122 108 81 175 99 120 139 86 86 172 112 102 78 191 150 201 160 135 175 154 136 159 98 172 144 112 86 158 122 190 187 185 109 186 178 99 75 117 62 156 147 122 63 103 87 126 151 140 124 137 186 175 138 98 151 105 107 123 113 91 82 157 105 64 68 74 148 69 122 91 140 144 122 143 50 141 49 82 80 88 41 126 126 66 171 76 99 132 146 180 130 70 127 125 79 90 82 137 62 155 136 178 109 130 159 184 148
130 132 133 134 137 145 160 171 171 162 156 169 166 181 173 166 169 175 173 183 184 176 155 158 155 178 186 173 176 173 176 184 203 208 200 190 186 192 182 178 158 140 107 132 151 148 198 179 208 184 235 235 175 205 184 176 121 174 187 215 203 118 150 173 120 152 84 113 101 86 139 93 151 160 127 97 179 191 98 90 140 99 104 73 127 73 162 107 136 150 150 97 134 126 95 84 72 90 93 127 103 90 81 96 56 57 110 100 84 93 81 67 72 103 116 157 90 89 141 81 74 152 120 160 109 155 130 193 87 153 74 71 168 58 97 76 37 116 178 198 97 198 173 184 206 211 204 181 160 163 74 70 168 128 181 138 89 158 131 150 158 161 96 74 138 110 150 176 117 160 156 176 176 195 143 198 151 177 181 185 103 101 172 90 189 158 194 165 96 137 54 110 172 159 167 102 187 62 153 55 67 178 116 85 94 93 45 127 121 121 74 171 149 120 175 106 89 170 148 151 203 91 96 126 76 151 198 188 184 111 103 142 96 163 145 91 190 126 118 100 147 51 60 164 99 119 126 149 156 86 87 184 169 197 192 192 98 189 130 151 199 138 193 190 95 182 163 142 153 211 138 122 113 115 176 129 122 81 172 109 168 69 97 79 95 101 145 151 121 79 90 135 116 73 72 175 75 84 142 139 81 133 99 93 148 154 87 112 120 112 150 63 73 150 144 95 104 116 86 169 80 119 72 93 74 179 104 169 143 163 173 176 81 135 175 165 73 63 53 132 109 97 155 170 78 184 84 153 166 195 125 125 199 195 207 121 117 150 154 78 62 145 115 143 201 189 127 115 136 163 162 184 179 149 190 189 151 155 152 110 80 149 187 195 208 193 198 155 169 165 176 189 154 133 82 174 94 134 144 79 77 139 152 70 80 91 80 110 120 115 121 98 89 66 61 154 82 93 98 124 207 228 162 154 189 105 105 170 153 90 132 152 185 179 143 164 120 132 182 143 144 115 152 84 88 83 80 73 89 74 136 147 163 171 155 168 161 104 126 104 116 152 154 179 145 74 78 148 146 115 73 129 152 62 78 116 84 33 68 99 113 127 88 120 92 51 165 162 77 81 123 70 180 137 185 178 72 96 177 111 184 90 156 89 92 115 117 123 222 155 130 114
158 155 152 154 159 171 173 162 158 144 141 147 162 164 162 164 165 178 189 180 183 187 180 173 185 199 190 181 174 175 182 193 208 204 200 189 185 186 193 180 162 148 139 133 141 166 188 166 203 222 203 200 211 147 138 167 167 118 130 142 175 147 182 136 135 157 121 116 85 143 152 125 110 101 177 93 89 86 81 133 105 130 56 128 70 131 94 105 132 168 93 86 123 92 110 87 69 67 116 119 112 87 70 53 82 78 63 108 91 119 91 103 77 75 72 79 79 74 119 99 75 153 73 185 96 108 109 109 92 185 123 74 157 136 151 141 142 152 151 94 206 214 127 211 189 202 194 159 165 58 57 128 139 53 70 166 111 78 169 125 111 130 105 162 89 136 104 135 149 93 89 102 106 120 154 104 134 133 181 255 190 124 100 103 162 157 175 123 54 40 65 115 143 88 99 115 86 92 97 152 84 78 181 137 87 142 126 133 152 115 62 63 150 104 131 101 210 99 106 178 186 134 140 76 131 171 177 185 157 190 161 127 153 125 123 112 199 122 187 74 105 45 103 127 127 85 134 114 167 68 170 106 176 93 126 140 82 169 157 194 200 173 133 111 134 118 104 154 200 201 133 188 214 107 80 147 160 80 130 133 112 141 159 142 121 134 115 82 186 129 148 125 40 69 144 63 158 131 125 130 77 59 86 70 132 119 95 116 95 41 46 62 164 73 85 174 72 127 103 112 93 175 185 148 181 194 102 101 61 136 178 187 83 96 192 87 73 154 109 137 139 94 166 97 177 190 162 110 133 166 98 193 143 105 215 177 127 175 154 106 142 139 99 112 194 136 126 75 157 64 132 159 94 103 210 134 161 110 196 81 119 177 147 203 165 134 165 182 81 96 83 150 155 144 76 59 117 160 125 72 140 137 99 107 151 115 94 149 161 120 81 116 49 61 74 142 143 97 203 164 120 107 105 133 127 179 206 94 166 174 175 172 171 173 121 92 185 152 124 98 125 181 179 178 73 152 192 198 85 170 92 173 172 143 89 169 118 181 117 130 116 122 167 105 165 73 78 46 137 53 97 78 39 144 76 75 85 39 66 66 83 38 28 17 82 46 164 159 65 95 122 158 167 160 133 171 146 173 90 134 82 90 85 188 121 190 140 186 212 179 111 185
161 157 155 156 171 176 178 157 151 141 137 142 141 150 168 174 170 173 174 181 193 191 184 199 201 184 187 174 168 170 181 193 211 210 194 182 177 181 186 183 182 166 149 126 152 168 191 192 175 216 179 190 188 169 152 114 138 167 179 144 147 178 121 108 183 180 99 149 81 161 135 117 164 180 134 104 89 98 69 104 112 88 101 103 94 158 158 109 139 103 92 103 78 86 94 125 117 70 104 120 76 76 72 88 65 52 69 82 146 118 92 155 126 141 95 102 118 90 143 157 90 120 158 144 123 172 117 98 189 186 90 95 143 73 68 150 44 56 172 156 118 209 187 200 184 94 134 170 65 83 126 96 97 100 151 72 74 166 103 92 122 131 154 141 160 150 87 94 103 173 82 84 69 117 80 146 207 179 185 175 197 134 97 111 160 115 77 148 147 78 112 101 137 95 200 168 124 113 111 116 131 103 129 156 138 81 84 147 82 65 62 115 166 171 109 161 215 105 185 80 135 141 117 119 132 114 157 168 129 151 113 189 171 103 164 178 195 103 111 107 112 49 73 117 152 55 167 133 161 165 165 169 170 68 69 100 74 169 116 98 168 169 167 81 72 126 93 120 206 212 140 105 128 137 100 93 128 126 103 98 70 146 80 139 75 80 91 144 79 66 85 72 123 47 58 66 43 255 32 117 107 142 67 58 47 91 43 114 127 36 43 61 69 167 78 74 99 90 156 197 104 102 96 96 131 104 192 175 153 88 85 192 98 110 92 85 147 46 129 124 136 92 114 172 125 180 76 161 64 82 170 209 144 187 122 155 82 169 136 114 166 125 100 183 159 181 161 128 118 105 101 117 122 110 165 209 201 207 121 122 158 166 165 130 149 197 184 166 171 178 89 205 109 182 126 156 150 70 149 109 171 163 169 66 77 96 142 179 109 92 175 145 44 102 149 136 94 164 128 99 201 124 174 99 181 99 180 172 145 177 162 169 151 78 159 141 89 165 191 186 199 193 172 177 179 199 201 148 215 194 77 81 179 98 206 147 135 153 115 182 117 94 153 181 94 137 169 112 145 158 128 139 142 152 157 120 141 65 121 20 49 28 67 97 78 85 133 75 119 159 141 140 171 75 75 86 120 139 61 91 165 151 179 143 137 158 93 179 147 201 101 182
143 140 141 145 159 167 166 152 144 148 139 136 131 151 158 163 160 156 175 179 190 197 206 208 194 188 176 154 159 158 176 194 211 217 205 189 172 175 177 184 170 172 157 124 136 180 169 203 208 206 201 190 132 121 147 95 161 163 106 157 133 130 107 135 117 147 102 121 169 87 78 79 155 96 93 121 63 54 134 78 67 98 60 55 93 148 157 151 90 108 158 123 79 79 81 78 86 71 56 78 106 109 124 76 58 107 79 100 127 96 91 146 70 86 97 100 171 102 124 156 145 93 65 70 84 113 101 137 88 73 180 128 87 89 79 83 58 159 145 165 89 178 187 172 169 81 62 126 144 131 122 9 51 31 118 147 84 142 75 120 145 118 110 166 182 134 121 120 176 128 172 112 100 98 75 170 193 154 136 214 159 106 96 159 85 165 63 151 150 138 38 102 96 180 96 186 132 171 150 149 169 172 157 102 91 70 73 131 147 47 48 153 166 75 156 219 132 168 111 104 131 65 133 110 144 167 173 103 74 173 172 170 143 160 147 161 144 195 99 143 169 160 150 69 70 159 172 177 177 146 140 71 169 73 121 110 137 116 105 189 196 162 85 156 173 180 190 155 196 144 107 153 109 137 108 123 116 175 156 77 101 71 176 126 143 143 132 129 166 62 59 149 102 59 80 111 32 44 114 46 66 64 49 72 64 71 58 57 86 136 98 60 76 176 80 77 133 67 151 200 198 130 108 162 181 195 177 143 101 129 195 103 204 145 158 79 56 66 57 116 48 167 148 90 101 138 89 108 71 110 105 158 155 204 138 94 150 72 150 164 123 115 96 171 72 163 124 111 137 76 99 125 202 210 203 114 140 181 173 181 127 165 167 202 137 175 106 189 109 187 156 203 132 84 63 122 38 127 53 60 104 102 133 81 123 89 175 85 156 77 144 135 94 62 169 85 130 103 130 94 113 135 68 135 70 148 105 183 185 165 166 115 59 94 82 99 148 159 193 200 181 85 179 156 135 153 226 200 165 155 125 172 187 195 191 198 116 168 209 194 177 85 172 173 117 94 126 75 90 91 136 52 51 75 169 73 147 60 130 98 46 141 86 66 93 154 109 70 75 135 97 110 173 162 95 106 110 167 70 69 70 97 100 93 114 100 97 143 119 158 101 97
112 116 124 129 143 156 160 150 150 153 141 125 130 140 154 146 152 159 163 169 186 205 211 212 190 170 161 149 153 151 171 195 215 225 209 186 173 166 162 171 171 148 148 139 167 188 203 196 203 203 202 189 153 125 119 155 135 145 127 132 99 151 144 121 172 199 158 141 93 64 154 94 146 92 88 77 118 103 83 48 75 55 42 64 77 87 145 79 88 121 100 155 85 98 68 73 48 76 48 62 71 105 120 125 100 110 86 66 89 80 82 129 79 74 79 130 117 98 129 117 104 101 151 57 57 84 140 74 93 65 173 186 87 92 101 167 162 69 74 101 90 178 161 69 110 157 156 138 151 143 53 92 20 70 32 145 142 121 169 69 97 146 172 185 164 131 166 112 102 91 83 126 86 77 120 73 85 119 200 179 180 197 114 112 93 133 149 129 149 44 67 52 149 106 143 72 83 54 160 127 153 106 136 177 182 105 145 52 136 147 68 174 84 96 164 152 110 87 152 144 136 65 112 122 132 170 104 184 170 64 162 62 74 156 92 56 163 154 173 166 66 70 62 83 65 63 106 170 75 172 173 88 136 90 134 116 99 80 102 157 121 182 176 98 141 116 114 166 184 110 160 113 180 158 100 107 177 196 122 78 159 156 155 118 157 146 46 95 105 132 57 56 128 74 71 110 43 130 106 35 147 127 160 107 54 58 70 65 57 72 53 49 93 79 181 83 59 66 180 148 194 123 135 100 165 112 162 170 165 137 163 185 201 92 174 108 74 155 140 150 54 80 181 179 97 101 66 80 60 179 160 140 205 88 170 64 52 107 100 171 200 98 181 122 127 48 129 109 158 178 140 156 121 165 152 149 136 152 194 149 147 166 98 172 95 89 161 169 94 96 188 136 197 95 157 118 87 120 147 79 146 155 77 119 157 156 107 168 75 88 145 54 108 72 164 162 99 159 144 162 140 77 129 139 102 176 151 126 111 147 141 44 47 89 73 82 181 183 94 97 176 128 165 103 154 121 125 118 117 137 87 65 71 81 90 200 127 104 106 142 157 131 82 97 174 144 159 155 132 127 138 163 107 79 122 101 131 171 151 40 101 67 68 97 154 101 84 118 103 137 82 73 145 98 110 92 101 168 164 67 172 106 192 81 78 79 176 127 151 142 140 106
92 101 114 124 137 150 152 153 156 158 153 142 125 127 148 143 159 154 148 157 190 200 215 210 183 156 145 147 153 156 167 184 211 222 216 196 180 171 167 154 166 157 150 155 168 199 180 188 194 154 188 170 173 148 156 121 159 160 169 127 133 134 158 117 190 155 110 161 147 130 102 64 87 142 136 104 83 65 100 102 97 60 88 94 102 72 73 61 79 143 100 118 122 88 84 114 56 86 73 65 90 100 118 67 108 47 55 57 90 88 108 67 72 88 79 86 111 82 151 79 148 67 49 44 96 55 152 50 136 136 86 104 162 173 175 168 100 74 180 134 105 127 99 61 115 47 62 134 153 164 112 143 130 128 88 73 123 133 183 180 108 133 107 114 117 179 148 173 175 109 122 80 74 163 119 104 174 185 133 136 208 100 94 142 72 127 47 129 79 126 112 154 165 175 148 68 113 124 148 172 172 98 116 92 166 113 59 123 79 148 99 100 174 197 206 114 194 161 136 46 79 142 117 86 136 171 129 127 160 127 88 96 56 142 49 126 73 139 115 115 255 165 73 158 100 100 164 100 77 92 190 139 198 169 170 160 98 49 65 72 90 82 130 181 79 145 147 93 79 161 118 144 99 89 178 146 126 167 174 191 132 159 160 173 83 146 45 140 112 85 164 139 123 98 70 150 48 105 92 150 82 122 143 78 164 160 164 127 90 59 78 73 89 87 146 124 128 96 72 119 88 161 135 107 192 79 131 145 149 189 107 212 196 175 182 96 128 78 119 144 128 110 87 179 118 128 155 125 113 92 153 120 180 89 117 138 87 145 173 108 108 135 117 126 148 54 78 138 96 171 111 175 109 193 150 125 187 159 172 130 155 177 174 133 127 89 105 81 186 117 167 138 111 140 66 133 147 126 64 111 164 102 126 130 72 137 135 48 136 74 38 79 107 54 83 76 120 65 142 122 148 155 181 73 174 105 109 255 97 102 104 134 60 105 119 181 148 160 84 180 105 110 158 88 171 111 99 98 195 129 68 136 162 171 170 162 123 98 203 188 138 96 170 181 146 179 144 120 85 110 184 177 116 147 158 135 122 155 159 148 120 137 116 106 77 117 96 48 54 92 87 147 61 162 126 93 139 179 162 140 66 119 163 142 73 157 128 174 79 91 82 97
82 96 116 129 140 151 157 154 153 153 141 137 128 141 147 155 157 156 167 165 200 224 227 206 178 158 139 157 154 159 167 176 196 204 194 185 177 175 174 173 165 156 135 153 156 202 199 181 188 190 151 176 159 185 163 158 167 126 175 120 160 158 194 204 128 107 140 100 58 45 48 86 73 115 89 122 74 86 107 30 33 33 45 126 62 88 92 104 120 100 148 160 181 97 87 80 73 69 110 113 79 95 59 99 51 71 111 66 142 75 74 78 74 96 83 139 80 59 127 92 56 89 44 132 75 161 127 51 70 48 59 101 132 183 172 103 110 169 182 139 174 119 164 100 101 99 119 153 77 177 168 151 38 85 141 156 168 173 174 122 179 159 90 93 165 168 175 86 122 164 149 111 127 140 148 161 179 106 175 177 201 96 108 145 93 43 72 113 86 104 152 70 181 103 168 171 119 49 60 180 146 136 200 194 195 174 145 104 189 188 166 176 108 130 208 129 120 72 29 109 36 93 100 59 121 74 174 106 65 71 161 64 112 140 154 104 143 72 81 111 122 152 174 139 182 163 167 152 51 93 158 204 195 213 108 115 86 156 105 45 85 153 191 181 100 115 100 71 72 138 68 164 118 134 127 158 152 199 198 99 149 111 189 91 158 90 114 71 46 122 150 178 141 175 100 63 147 76 55 64 121 157 110 85 76 72 75 177 167 118 89 143 66 124 74 78 60 94 69 184 79 136 123 88 99 110 132 51 134 169 176 189 90 138 163 105 192 167 169 174 171 172 85 95 76 105 109 70 139 160 74 108 83 183 88 150 136 81 70 133 197 132 171 62 119 146 118 157 98 118 180 135 148 187 193 168 222 142 132 82 114 104 89 96 122 101 184 169 75 77 180 142 82 133 84 52 127 166 81 203 112 135 122 138 62 155 53 146 92 79 73 92 129 135 33 83 84 78 80 152 82 129 151 154 194 205 206 193 192 174 156 143 131 69 79 156 177 86 168 157 192 157 190 198 86 137 178 134 87 178 111 146 107 72 168 73 119 168 87 173 159 153 108 211 145 165 98 134 179 125 171 172 92 179 180 100 190 163 184 147 174 82 136 65 73 109 64 103 134 135 70 128 46 67 89 157 181 80 80 102 97 122 147 176 95 86 187 164 182 162 198 116
89 104 125 140 154 158 157 151 148 151 140 136 135 138 149 169 178 168 171 184 205 208 218 194 175 166 148 159 150 153 169 176 185 185 180 176 172 180 186 175 171 163 153 143 180 201 206 171 169 188 190 169 210 163 165 128 184 177 172 167 132 176 125 130 148 119 154 143 63 49 125 73 142 131 104 81 112 92 69 31 51 88 35 91 100 154 101 97 107 141 166 127 150 157 104 91 90 92 139 92 90 71 50 59 48 58 126 90 157 116 110 74 73 109 87 155 145 75 49 67 30 80 29 137 60 69 147 68 109 69 160 181 94 186 78 70 88 130 188 137 171 73 168 88 61 51 135 72 116 86 144 126 108 115 51 140 118 105 160 142 142 118 171 171 122 81 121 149 113 156 147 127 78 121 162 81 131 174 172 114 181 134 142 54 65 145 124 36 31 103 64 99 89 104 104 170 97 46 143 179 153 172 118 114 184 128 127 204 118 191 126 101 99 127 109 177 177 45 126 80 32 41 135 101 123 171 177 102 255 123 95 174 128 82 71 147 60 67 130 133 60 165 177 84 90 181 183 104 46 150 126 176 179 187 212 182 183 75 44 131 61 181 102 158 93 78 93 31 105 76 68 114 163 149 106 220 200 152 121 128 114 146 172 102 99 84 73 169 110 136 65 122 207 119 190 149 138 79 62 81 94 107 78 70 99 157 81 132 185 160 97 59 95 96 107 61 73 73 77 85 113 108 137 88 187 68 146 106 137 119 168 101 82 96 106 181 112 169 173 174 115 102 182 194 190 184 112 84 169 102 134 179 77 168 77 111 132 124 172 93 112 80 162 55 123 83 144 154 164 172 85 114 85 158 105 202 159 162 105 126 148 149 101 118 112 122 142 173 142 109 110 154 151 96 138 145 160 165 200 122 222 205 177 149 76 78 99 134 79 40 124 103 36 71 28 93 102 51 64 73 125 77 68 160 177 201 210 116 105 116 144 180 84 162 178 125 85 71 65 119 191 163 198 188 80 82 110 113 186 121 158 156 65 86 67 131 144 148 64 77 135 184 116 211 132 150 188 91 85 94 178 195 120 155 172 111 131 96 172 182 99 57 65 163 178 158 153 134 37 126 133 62 33 143 71 106 84 75 149 143 69 163 174 179 185 98 88 133 96 192 229 185
101 114 135 148 159 158 155 151 149 145 138 128 118 142 156 165 172 194 189 195 208 209 222 201 185 176 161 170 168 158 165 179 179 168 167 158 159 163 182 176 181 181 156 172 180 196 202 173 177 147 197 183 217 184 149 162 164 194 149 198 157 141 182 125 187 136 172 150 81 131 88 137 123 115 149 135 70 105 110 51 47 122 40 43 59 140 126 110 148 161 119 135 141 111 121 126 122 131 106 112 88 105 67 57 100 64 90 87 104 166 106 85 93 149 130 88 120 134 44 108 42 90 74 66 126 84 95 92 87 68 172 133 200 103 170 181 194 193 151 195 172 170 129 81 170 164 145 90 80 118 168 153 91 113 60 138 169 195 202 210 187 126 94 159 101 161 91 135 65 71 97 170 115 156 82 172 151 170 84 178 85 159 92 52 107 142 70 85 124 113 60 80 149 188 165 74 143 65 111 101 145 216 124 194 153 110 208 118 179 178 125 104 106 198 196 169 78 74 122 33 52 79 80 105 93 140 173 135 89 146 88 190 203 145 185 93 82 101 196 134 110 132 86 92 122 201 186 166 62 152 138 123 170 177 92 187 165 147 159 57 127 187 117 214 130 170 110 23 84 114 128 64 162 86 162 197 122 125 196 142 202 164 220 185 210 200 131 77 72 116 83 183 130 191 97 82 161 82 129 92 166 63 88 93 182 111 114 175 133 80 61 103 56 145 156 55 126 129 136 72 80 94 178 187 92 171 162 82 141 100 72 74 175 193 213 218 113 155 93 158 75 82 191 96 102 166 120 179 97 86 129 167 173 77 104 62 67 77 133 93 112 88 149 90 44 47 53 154 68 96 138 142 99 172 91 120 192 222 197 89 140 87 155 116 194 204 122 133 78 102 88 136 86 165 102 122 123 147 212 228 132 172 103 154 157 68 84 135 39 149 61 63 85 36 24 28 131 148 104 84 120 72 156 145 158 167 133 109 121 124 198 99 195 114 196 183 161 172 91 138 106 136 190 188 77 174 154 153 169 170 115 143 77 180 155 148 90 106 131 145 195 172 146 152 168 101 84 177 74 80 91 172 102 195 169 152 154 146 136 82 130 159 113 255 90 103 175 153 116 71 124 21 97 120 71 142 179 89 135 64 63 160 109 135 187 79 112 154 78 176 234 192
115 125 140 152 152 155 145 141 141 140 131 122 129 145 142 164 176 194 194 201 200 210 215 204 208 193 183 176 177 176 170 174 179 168 160 154 156 164 173 176 191 192 189 185 172 176 183 145 169 131 178 197 209 221 212 191 173 161 170 155 156 155 118 169 196 139 127 132 131 99 111 60 72 134 93 132 138 58 61 59 103 107 64 37 54 71 113 170 139 112 123 134 146 111 161 108 96 95 99 90 86 88 58 49 72 61 68 142 83 130 96 108 110 133 100 62 56 134 57 147 140 64 156 63 83 93 148 104 167 125 176 192 208 212 203 101 104 206 105 160 157 171 116 94 98 158 146 126 161 163 116 171 164 60 91 172 102 113 190 202 153 118 162 120 165 153 105 111 116 96 81 137 180 96 162 70 120 160 99 91 139 165 110 56 124 86 90 146 93 119 158 83 94 194 87 92 70 59 90 139 165 206 117 140 127 179 106 158 109 119 84 140 155 114 103 165 168 164 132 126 141 75 139 105 165 173 104 158 158 82 151 185 199 135 129 181 178 203 208 204 131 160 132 189 197 177 124 145 163 73 166 116 123 136 93 98 82 116 106 171 138 95 214 150 188 137 52 106 136 51 80 133 97 137 137 121 122 211 215 145 125 207 157 175 112 103 181 136 125 148 92 94 185 139 153 159 122 147 78 88 91 173 185 175 191 131 139 81 168 75 86 50 65 123 112 133 94 57 163 110 126 146 138 95 122 83 115 164 103 118 135 125 181 149 164 129 208 152 172 151 133 81 170 91 145 91 79 81 84 120 156 157 106 169 169 73 163 100 146 172 80 155 152 47 57 137 49 64 162 183 115 126 125 134 117 201 202 213 104 163 127 107 161 136 123 103 192 136 117 148 174 158 143 80 75 122 157 149 207 119 176 141 142 62 154 142 52 95 106 83 255 76 105 38 29 89 107 107 152 181 81 77 102 110 146 68 170 171 96 198 99 195 175 93 151 196 185 101 104 129 86 142 80 157 150 148 105 87 151 151 169 171 130 133 132 121 159 55 155 135 89 167 155 206 157 173 184 156 152 142 188 112 89 91 94 128 98 190 189 133 130 64 135 135 184 150 91 137 136 23 33 73 119 117 148 159 173 74 156 56 67 144 182 174 178 73 142 60 63 82 181 145
122 134 146 154 147 145 128 135 129 138 139 142 135 138 157 158 182 194 202 188 200 199 201 212 196 188 186 185 178 182 183 186 183 171 163 153 147 155 164 172 183 192 197 177 198 171 187 163 146 148 153 206 215 190 195 148 140 199 129 134 101 88 177 136 176 180 125 144 151 94 118 39 36 60 81 50 60 64 135 108 65 63 46 107 96 114 139 154 94 95 129 104 123 105 116 95 105 93 72 120 70 88 62 55 62 89 91 82 69 95 123 121 116 102 79 103 121 72 60 96 59 109 69 67 165 69 195 145 209 104 86 177 208 217 167 174 139 138 213 165 93 165 104 64 180 79 176 100 61 59 75 174 82 164 99 158 74 159 104 172 93 129 114 119 86 142 88 147 148 115 143 177 189 125 183 174 99 159 91 123 123 126 167 63 159 155 59 92 110 141 139 159 96 77 70 71 136 112 150 208 115 148 162 210 191 99 123 128 204 202 176 135 165 156 131 112 186 113 90 161 155 100 184 183 163 224 114 193 70 93 185 103 212 197 204 108 199 140 196 125 176 171 182 150 200 109 154 77 144 169 124 171 163 129 99 97 140 173 131 83 193 132 125 121 152 87 94 113 148 145 162 131 100 200 112 110 193 212 197 184 115 116 213 255 134 114 135 145 117 173 163 153 93 122 156 132 130 73 135 84 132 162 169 137 194 106 80 168 146 146 51 48 65 73 97 136 101 64 106 162 122 188 87 90 169 188 146 104 149 144 117 131 88 210 115 202 196 142 86 88 83 76 80 176 77 76 106 116 84 82 130 65 59 163 68 81 163 125 190 168 189 165 112 120 44 59 151 96 128 157 171 78 144 177 175 142 189 185 132 107 103 107 179 104 176 184 203 193 162 183 92 109 184 89 77 172 147 186 96 164 111 187 131 51 55 104 50 59 158 160 150 84 156 42 110 44 70 54 57 125 185 157 164 153 53 152 136 77 74 155 171 71 75 155 190 152 101 202 102 157 187 145 105 101 117 178 132 183 164 112 178 109 126 201 196 188 109 147 82 129 91 129 185 200 132 164 99 82 164 72 104 74 140 191 195 147 109 101 157 73 72 132 120 192 211 169 108 154 39 127 109 94 19 40 155 160 140 84 85 158 65 126 116 169 90 119 66 77 57 150 172 222
124 137 152 157 143 131 116 121 135 145 150 151 148 156 167 171 175 173 184 175 182 200 202 199 187 183 184 192 197 196 184 180 185 173 158 154 155 149 161 169 177 186 201 209 181 196 187 173 144 168 149 185 201 164 189 165 147 169 144 100 136 156 139 134 191 184 116 155 69 95 71 130 86 85 49 65 114 109 103 133 76 66 110 55 59 84 121 129 140 138 103 100 104 141 102 108 84 83 61 77 87 80 103 81 48 56 68 58 83 89 100 78 86 77 60 79 108 92 83 56 51 58 71 69 83 100 145 121 149 191 84 143 131 187 121 128 174 202 175 116 179 96 172 158 177 185 158 92 125 137 137 162 78 144 113 117 138 95 179 200 198 191 169 110 170 146 88 104 131 69 154 140 199 203 153 125 67 109 155 66 82 117 181 115 177 105 107 54 38 40 50 151 162 122 149 138 124 132 125 207 199 195 209 122 178 192 101 125 145 114 186 178 73 90 125 93 127 145 158 162 79 92 98 132 222 176 211 208 88 123 193 205 135 148 158 195 100 137 200 181 120 174 116 191 98 182 93 177 111 165 130 184 161 111 76 154 103 79 94 153 154 213 223 134 126 66 43 117 80 152 166 111 153 202 140 214 123 197 107 177 140 190 202 104 109 140 87 82 97 83 173 150 135 187 116 85 101 79 180 127 113 82 136 111 88 92 145 68 64 121 120 51 55 80 66 87 132 100 75 97 92 186 170 97 159 182 180 96 88 83 142 87 113 168 116 136 144 104 157 69 66 65 86 144 107 62 132 176 98 138 144 91 100 51 116 179 185 142 94 165 193 185 73 156 131 69 153 124 153 150 95 133 129 179 187 199 93 146 138 156 108 69 80 174 104 143 155 211 184 184 203 193 107 175 190 82 121 190 173 101 151 86 85 62 114 131 134 56 71 87 126 91 171 149 132 84 31 128 45 136 157 189 71 66 156 72 102 146 149 147 137 112 166 180 99 179 145 160 116 213 102 76 153 100 96 94 98 86 98 183 94 193 162 207 135 149 182 76 169 174 179 154 115 184 118 119 185 113 81 172 143 85 165 186 182 94 134 193 128 168 56 76 70 166 131 202 85 109 47 101 33 110 130 46 47 73 152 111 101 255 44 112 141 82 84 97 55 57 98 141 122 105
124 140 154 158 147 129 111 114 122 149 148 160 163 165 162 173 169 177 164 174 192 197 201 193 174 171 181 188 202 204 196 189 186 180 173 167 167 164 161 170 163 185 197 209 207 163 163 166 163 126 129 162 136 178 178 173 127 150 148 79 128 102 127 168 102 116 168 98 128 123 80 92 58 45 54 48 61 74 129 91 166 83 82 126 85 47 62 79 89 114 96 146 141 85 88 78 77 116 94 88 68 96 99 64 60 45 50 96 88 69 133 79 62 57 53 91 112 127 87 75 61 73 45 45 94 164 192 162 120 198 114 164 175 164 95 197 91 177 100 181 185 96 81 76 180 144 71 140 83 72 120 179 180 125 130 119 32 140 131 117 210 165 189 153 159 164 182 97 68 128 118 172 131 131 149 133 106 153 72 113 69 125 159 190 186 77 170 59 143 81 51 140 156 141 156 85 147 108 92 200 168 186 145 127 114 154 143 211 233 204 107 113 163 170 184 99 202 134 89 176 123 103 131 120 219 219 226 122 146 185 120 207 159 211 121 100 100 150 179 180 115 129 97 187 94 158 98 122 172 107 199 89 122 126 40 132 66 82 125 190 137 132 175 116 191 146 90 118 124 179 175 107 150 222 233 166 118 216 199 180 102 176 104 118 162 132 115 177 147 85 133 103 168 114 101 174 198 190 73 129 60 166 93 76 152 52 158 54 58 81 35 84 120 121 64 89 130 75 72 182 121 81 118 153 139 78 85 81 70 134 105 174 179 96 182 101 79 163 67 122 70 157 71 163 102 85 98 129 98 171 78 169 61 49 154 145 188 130 195 91 105 190 123 80 156 64 117 173 182 161 171 171 105 181 124 188 134 120 139 148 59 169 96 106 143 130 115 202 205 115 210 106 123 199 172 95 159 193 198 121 136 183 73 162 59 109 154 143 104 182 199 114 80 101 46 40 135 108 110 81 81 185 84 85 125 85 167 113 52 137 37 110 114 76 186 189 124 114 218 204 195 142 163 133 146 157 79 81 192 113 118 202 183 211 128 196 145 87 115 124 180 114 181 173 190 163 120 199 150 78 119 92 73 188 175 93 144 107 180 167 150 63 108 157 106 133 86 70 126 53 89 147 82 55 62 86 125 189 116 72 104 44 78 161 132 73 89 94 184 150 126 100
124 139 154 159 148 137 115 116 131 155 167 168 161 169 164 171 153 160 166 157 183 176 189 168 169 173 181 192 206 200 193 190 179 177 176 174 177 175 171 171 172 183 192 182 190 161 166 151 156 143 156 182 137 180 181 165 124 138 111 99 83 97 95 142 150 126 128 92 95 128 137 65 72 85 86 119 145 71 142 167 93 95 93 155 148 75 88 120 137 121 126 157 116 80 110 105 104 82 76 64 61 60 64 103 69 56 119 121 111 71 85 92 52 50 127 141 157 92 95 78 127 89 49 47 58 87 108 168 125 100 115 148 156 167 137 78 84 188 159 179 155 200 145 169 151 73 114 104 64 74 177 91 120 153 80 99 62 162 126 156 213 199 184 128 191 187 178 149 139 139 125 79 89 179 148 163 113 121 108 160 136 93 180 181 137 82 62 108 91 127 99 255 151 101 62 154 50 48 89 159 92 187 85 75 92 182 152 219 163 112 87 98 123 56 74 93 104 151 105 179 102 195 188 131 166 209 118 109 210 207 125 193 111 119 180 195 177 167 169 172 178 173 93 186 177 122 180 79 84 98 152 95 126 45 110 148 68 185 145 154 158 139 188 193 91 59 109 118 120 167 141 166 170 178 184 164 112 149 183 86 116 85 128 101 154 84 79 146 66 68 140 156 107 157 170 145 123 154 77 73 60 79 67 141 42 255 56 74 126 57 72 31 34 131 45 97 162 83 116 182 128 153 144 58 99 63 99 166 76 71 87 175 77 131 185 174 165 96 57 144 129 58 70 160 154 66 176 86 177 128 176 131 66 92 56 161 81 107 198 110 195 179 164 183 73 109 154 120 72 128 171 116 94 210 120 126 135 54 60 91 154 83 70 82 96 189 141 101 123 200 129 125 142 116 168 198 132 180 165 89 100 159 75 157 82 71 137 67 74 134 126 149 96 155 89 65 148 130 62 80 152 181 98 140 72 172 129 137 44 77 62 49 164 160 187 123 177 198 104 97 188 75 151 87 152 255 91 120 146 153 154 206 171 172 111 188 116 185 162 147 136 156 101 159 112 187 159 190 126 167 68 168 93 87 84 167 69 70 168 167 165 64 146 106 192 96 145 100 162 137 185 162 156 74 156 162 74 98 131 99 58 68 49 77 157 112 180 143 126 88 131 47
129 141 155 162 158 140 121 116 126 147 164 170 166 163 169 154 153 149 141 163 174 184 172 165 159 171 180 178 199 203 197 182 178 176 185 185 185 183 178 172 174 180 182 189 157 169 160 147 133 155 171 174 145 172 159 183 117 165 122 156 117 114 86 105 116 123 91 138 119 156 159 160 146 126 148 126 153 75 68 139 139 169 112 128 103 156 124 96 120 103 108 130 71 57 55 73 98 132 106 106 66 63 63 69 61 69 125 124 122 91 90 132 66 120 68 140 85 178 92 76 166 73 140 118 161 98 106 133 123 103 122 97 62 154 134 116 165 178 104 197 198 205 192 168 153 178 175 101 65 111 158 111 167 125 174 50 149 102 191 134 102 153 198 193 173 97 155 171 108 103 84 159 163 107 90 86 170 91 149 142 140 82 130 193 183 88 133 70 95 64 104 131 84 153 161 159 131 41 138 157 160 139 163 148 98 93 131 172 206 95 75 107 111 52 146 134 142 160 199 189 193 109 112 190 198 120 97 100 206 164 111 191 200 207 193 198 185 141 141 124 90 189 123 137 196 169 171 157 133 210 207 167 91 105 74 119 110 183 215 221 206 245 240 217 195 124 102 127 138 169 112 116 167 206 211 104 255 115 118 171 79 78 98 175 104 132 161 123 132 130 94 81 108 173 193 133 115 142 133 68 97 161 68 74 65 159 84 124 102 89 84 66 67 53 147 63 72 175 90 112 74 165 169 114 162 112 80 184 93 151 85 112 79 99 89 141 59 159 128 255 62 101 166 71 159 75 140 65 103 65 172 157 155 68 163 108 91 175 176 199 197 128 135 182 172 144 131 71 142 144 144 122 198 194 209 207 150 100 76 140 142 75 81 78 67 175 112 139 125 155 161 111 217 180 155 195 85 156 174 70 169 144 151 70 172 112 147 156 164 107 166 149 169 126 146 124 123 87 147 77 142 185 110 108 180 127 139 57 53 120 141 123 127 65 169 96 139 141 86 193 185 84 83 182 81 175 167 172 174 144 218 216 161 214 179 107 199 99 89 81 89 255 166 161 161 125 140 154 166 134 115 94 137 127 142 55 129 147 96 115 172 172 94 175 184 82 154 78 78 156 128 112 118 149 119 112 72 134 131 189 100 96 54 60 87 174 183 191 108 160 135 92
138 148 159 165 162 157 144 132 141 144 148 160 167 158 144 140 126 133 152 155 166 173 175 165 155 167 175 171 180 187 180 180 182 177 187 190 200 190 189 184 182 184 183 157 171 163 164 145 159 160 170 180 190 173 190 143 168 191 176 150 143 171 134 76 145 145 93 88 119 117 89 158 107 128 90 118 156 62 136 152 79 85 167 129 104 90 111 85 80 77 67 59 59 47 51 57 122 84 138 79 71 78 81 68 72 93 121 120 96 91 100 141 79 71 129 102 167 88 86 168 83 184 156 137 172 101 204 176 107 204 168 134 56 35 62 152 163 74 170 194 122 190 98 105 93 75 178 181 161 180 181 185 215 197 154 90 158 105 163 177 123 194 202 169 122 153 131 127 131 126 91 165 149 67 148 69 86 91 65 157 155 187 190 189 104 158 122 147 133 73 180 139 147 79 168 156 156 126 147 66 118 87 126 87 117 129 160 81 181 102 146 102 42 70 137 151 185 161 127 180 98 106 137 190 190 117 183 185 203 194 211 110 208 201 93 179 177 166 140 84 172 153 157 212 88 79 122 187 173 158 204 182 186 148 76 118 165 201 122 194 187 230 158 190 113 122 100 52 62 160 120 189 101 165 168 174 180 131 153 129 102 165 149 73 72 132 174 151 170 129 64 178 210 127 131 149 200 144 171 86 67 79 95 180 114 97 144 112 207 95 103 55 56 93 146 127 101 111 103 74 72 149 72 76 79 99 197 189 113 84 68 101 142 127 123 119 91 106 154 154 130 162 81 125 151 103 58 134 101 59 66 177 172 145 143 108 148 84 181 93 193 112 119 129 112 105 56 147 96 144 103 115 115 145 141 167 94 57 97 152 86 100 95 80 255 78 72 174 71 183 143 140 201 105 99 186 168 120 157 60 66 119 105 69 131 75 122 104 116 156 64 157 80 156 95 71 117 151 63 65 100 152 159 167 183 131 162 64 83 133 59 150 77 124 150 100 155 146 116 185 89 144 161 177 109 105 96 184 192 150 216 122 107 188 145 125 151 186 179 77 135 113 172 81 129 203 215 184 189 162 99 179 134 73 146 130 131 72 69 166 170 94 165 106 142 131 75 78 77 92 170 164 129 81 84 173 142 111 110 145 92 168 135 132 164 169 132 173 116 149 64 24
152 158 164 167 165 162 148 140 138 129 132 142 157 147 129 128 128 138 160 161 159 157 167 171 165 175 161 165 161 173 188 189 191 186 198 202 209 207 200 189 182 184 183 174 154 154 169 157 168 173 148 174 190 151 160 174 145 174 130 203 130 137 169 162 109 157 147 128 97 156 172 156 118 104 152 129 170 88 87 158 134 94 123 158 158 86 149 121 82 52 101 46 36 44 60 71 98 149 125 90 75 102 58 69 114 119 102 134 99 136 82 90 82 89 118 97 161 185 181 117 154 92 86 95 103 115 86 183 122 99 85 148 145 137 116 90 102 77 85 101 138 121 146 164 126 144 127 103 115 191 134 210 172 176 149 74 159 173 109 178 165 148 189 130 106 183 105 188 194 138 126 101 179 147 176 70 68 149 72 117 163 197 98 174 159 133 94 138 52 152 91 117 181 77 127 169 122 97 89 170 170 99 210 199 101 84 56 174 156 180 158 152 88 51 142 68 154 76 116 78 93 119 156 95 95 184 192 174 178 117 212 128 186 160 153 157 162 147 156 174 156 103 110 210 190 91 89 114 189 91 184 190 138 197 100 130 155 203 220 223 207 221 183 178 199 109 91 44 76 134 68 93 92 193 180 181 123 162 163 86 146 106 150 172 81 73 167 172 123 82 124 150 109 209 137 135 141 158 140 137 128 180 84 96 91 151 134 94 196 117 61 124 85 152 63 102 118 163 69 162 70 153 65 108 125 204 107 163 177 98 147 96 106 177 166 84 39 128 53 101 92 180 177 68 63 57 49 72 81 65 76 171 62 163 73 143 116 177 174 88 188 169 90 156 155 114 132 118 35 34 141 167 158 154 215 152 96 160 138 152 145 58 62 62 131 69 65 64 161 122 147 178 181 153 148 174 60 116 58 140 95 57 157 152 145 169 173 168 86 100 164 113 85 92 78 58 122 34 117 107 135 163 150 182 180 149 71 158 170 105 136 105 90 56 102 95 54 69 131 187 191 189 191 85 255 116 160 80 114 161 229 207 181 96 138 121 76 124 163 179 121 143 183 167 187 98 164 209 178 178 163 174 175 171 82 148 122 86 153 137 170 71 174 150 164 68 94 182 185 122 97 175 128 83 127 177 179 118 207 148 177 85 129 61 150 134 193 118 119 123 71 30
162 162 161 165 162 163 164 158 137 128 120 128 141 133 137 131 149 156 158 166 158 153 142 154 161 162 156 151 155 162 183 189 197 197 200 207 210 212 197 195 193 174 190 183 172 149 152 128 167 139 180 168 214 205 184 188 161 179 190 169 167 197 146 186 169 163 156 135 133 137 151 99 93 170 144 138 96 179 114 177 96 170 96 114 130 82 83 87 49 106 39 34 86 74 122 154 147 111 95 90 105 65 62 116 126 99 168 110 130 92 95 95 98 111 117 133 176 151 97 89 127 81 107 183 84 131 72 148 82 119 198 183 61 118 92 66 71 187 157 197 188 75 125 158 89 160 83 91 76 162 89 88 149 88 90 121 140 83 165 170 96 135 164 145 144 136 104 103 199 205 134 129 98 172 166 169 89 156 111 198 194 165 205 88 117 131 111 77 131 75 156 131 83 128 84 129 94 101 100 87 88 187 147 115 143 88 98 180 98 134 163 120 103 115 153 90 141 160 136 110 181 191 164 186 191 122 101 100 201 185 98 125 160 93 177 154 159 61 50 158 160 106 186 206 181 81 85 94 181 93 167 132 87 107 174 167 202 136 114 206 122 205 208 190 116 145 64 153 71 139 145 182 192 201 130 92 76 96 148 50 157 183 116 107 130 153 137 132 108 157 98 176 118 165 205 149 67 50 51 80 86 97 84 169 90 136 156 175 184 64 50 143 101 125 126 83 115 74 59 68 70 85 114 84 177 160 151 94 177 137 143 87 185 96 116 62 59 29 39 56 174 147 87 86 128 74 80 48 160 170 129 255 142 60 145 58 90 125 141 191 187 158 58 159 124 148 129 86 44 102 99 177 106 160 206 129 167 113 84 170 90 122 168 68 163 85 123 161 121 100 175 135 89 147 80 157 158 154 116 98 66 87 165 95 142 142 176 81 93 94 143 88 108 206 177 85 121 68 95 47 69 124 71 127 70 75 69 79 139 75 66 132 94 60 49 105 55 176 188 118 97 185 119 178 102 97 155 130 111 204 127 137 126 157 166 71 151 105 176 170 163 184 118 89 137 101 194 100 118 184 152 185 122 77 70 54 58 123 113 129 87 155 88 172 85 68 182 186 158 86 82 85 189 185 117 115 105 121 175 188 198 182 122 168 76 160 95 199 121 117 88 33
158 155 152 154 159 164 160 154 139 124 116 104 127 130 151 139 159 177 173 148 148 134 136 141 161 170 161 146 153 169 182 192 204 204 210 210 208 208 201 197 191 191 197 191 178 175 137 147 154 176 152 158 194 190 156 171 127 120 134 192 152 137 178 177 190 162 165 70 74 145 152 76 155 116 173 110 122 152 116 153 108 163 180 152 105 91 100 45 39 26 48 106 102 65 110 138 150 129 95 83 53 61 96 93 101 97 116 105 112 167 160 140 131 188 113 141 118 110 135 173 75 146 137 120 131 150 72 136 135 207 201 184 85 56 160 157 130 165 196 94 90 134 73 96 146 62 126 95 161 142 169 141 163 88 186 163 174 73 66 110 157 163 100 168 201 135 157 191 192 108 184 126 180 156 162 173 167 164 123 148 212 204 126 98 147 41 97 114 107 70 78 84 188 86 86 102 173 123 107 151 179 177 131 91 100 75 142 150 154 177 128 71 103 119 113 90 157 117 146 81 67 154 176 88 191 185 133 212 168 181 174 101 91 84 177 84 134 80 155 123 102 101 95 197 93 129 183 118 162 167 94 158 141 155 108 138 198 112 204 175 174 109 122 160 94 118 77 93 119 95 81 105 115 193 173 166 160 114 40 45 70 72 105 155 122 162 201 195 88 113 188 200 113 129 172 149 154 139 39 65 94 67 173 67 87 98 148 74 72 76 150 54 107 87 143 72 55 56 82 81 108 80 138 94 90 182 93 157 168 102 171 128 133 117 165 133 125 23 33 143 113 156 126 167 148 73 113 107 59 181 131 183 182 154 68 70 80 131 97 203 138 162 175 106 76 167 159 140 156 133 139 103 158 194 113 158 182 175 109 169 123 122 141 99 133 115 168 167 72 172 76 167 165 133 84 157 128 145 93 170 106 66 162 69 169 63 171 105 122 173 190 159 146 168 146 156 178 113 148 120 68 104 134 62 100 128 53 54 158 98 59 36 51 127 135 42 155 107 209 110 201 176 172 59 133 89 52 68 197 201 221 109 103 151 162 131 120 182 86 190 93 178 86 89 81 187 141 142 110 150 87 102 175 179 175 173 76 169 164 110 164 139 93 151 167 186 174 149 104 173 145 104 183 197 95 128 118 104 95 86 94 151 170 146 126 145 87 114 107 94 66 78
144 141 139 143 151 152 153 141 127 111 104 99 114 143 143 147 169 161 161 147 121 118 131 148 168 170 153 147 146 170 188 194 203 204 205 202 203 191 195 186 198 208 192 203 195 166 169 162 132 128 174 140 173 136 129 155 132 106 175 190 195 191 200 148 173 103 137 118 93 51 73 77 71 102 97 107 180 198 112 192 114 178 107 105 146 74 121 75 34 37 42 59 95 77 83 118 158 127 97 85 67 59 90 76 96 80 86 150 163 115 126 131 210 138 196 203 156 103 105 165 72 143 70 160 162 128 139 127 124 188 113 111 115 76 78 182 185 84 188 184 85 179 61 56 84 62 148 114 139 137 133 155 165 77 188 134 86 68 167 95 119 97 182 141 158 100 142 102 123 128 157 129 143 199 154 131 176 103 153 100 114 110 123 91 167 47 102 144 146 126 169 163 140 173 160 131 129 214 190 222 109 98 179 74 110 186 164 96 96 92 173 172 178 79 124 152 145 68 150 133 66 158 150 77 93 203 194 112 157 189 176 127 170 94 166 145 112 79 162 171 80 167 184 186 195 197 173 108 125 167 156 160 79 150 135 102 95 122 168 183 200 191 116 69 103 79 54 82 122 125 166 176 113 105 98 125 69 118 152 43 130 171 182 108 150 102 101 175 107 174 114 189 176 114 209 79 144 90 65 57 159 162 54 107 140 58 93 68 71 86 97 69 86 121 144 110 94 102 135 108 84 105 146 126 123 183 70 163 161 107 120 102 98 188 98 158 31 55 59 42 75 79 190 171 188 162 118 142 64 93 127 118 167 175 185 71 173 92 205 207 163 180 188 124 165 151 130 88 115 185 115 153 145 160 125 176 86 94 171 156 168 159 185 195 143 96 91 155 85 174 131 86 104 156 186 155 162 73 83 91 163 125 180 112 89 134 59 156 126 149 122 117 94 212 171 144 107 183 137 90 150 125 152 127 137 73 72 132 76 163 147 58 136 125 63 111 169 159 107 116 204 175 159 57 50 117 153 175 199 214 174 201 152 94 165 133 95 130 105 111 162 100 155 138 156 104 124 190 179 137 129 177 125 82 159 147 74 87 107 55 75 101 70 102 187 187 96 147 99 92 92 183 90 164 190 86 162 73 61 102 70 137 92 158 132 103 108 153 90 88 83 170
125 125 128 131 143 139 140 135 127 107 93 95 115 122 144 155 156 164 155 128 124 119 126 142 160 166 152 145 154 170 178 180 192 193 199 195 188 185 186 194 194 198 216 197 188 188 197 175 167 157 123 113 167 131 115 118 85 152 143 145 142 133 159 175 193 143 92 59 88 39 66 103 122 84 150 100 130 143 96 102 109 118 113 110 80 103 69 45 84 72 65 79 87 121 138 132 95 79 85 56 96 52 40 39 40 76 73 90 98 130 115 155 119 114 173 115 122 101 84 75 74 142 71 139 92 104 116 144 176 116 119 197 207 111 104 155 105 171 78 183 79 176 167 70 60 165 80 93 137 119 57 159 174 84 139 92 180 76 165 168 166 173 83 182 141 127 149 101 158 121 117 129 134 177 106 121 115 109 148 86 189 151 197 135 75 155 124 117 48 53 163 75 140 82 129 147 209 171 203 122 117 100 150 154 106 192 144 205 184 84 128 160 87 184 179 173 94 161 122 152 85 60 54 87 83 98 143 112 168 188 148 106 165 76 158 54 49 99 140 181 80 147 132 168 141 158 196 209 180 172 63 157 141 125 203 96 75 152 137 179 185 144 102 95 121 55 62 105 105 120 172 125 102 138 142 255 117 130 87 145 162 177 109 96 89 190 154 86 144 89 171 95 169 125 106 146 52 56 107 52 109 75 67 99 74 100 65 104 157 67 77 91 93 109 112 86 174 132 78 152 255 167 158 144 163 135 167 59 59 82 113 84 177 94 136 104 114 61 29 98 137 141 112 199 89 84 45 141 159 149 165 203 163 201 102 121 186 186 219 227 142 148 199 98 184 176 130 94 74 121 90 137 191 180 155 95 93 138 69 82 150 128 109 183 201 208 170 207 205 185 187 195 128 110 96 111 153 80 162 136 159 102 186 99 111 169 82 135 155 167 79 92 85 151 217 204 218 122 184 146 53 64 41 107 77 59 102 116 100 161 134 159 78 50 65 75 176 173 106 220 187 90 150 141 76 73 93 84 101 102 133 110 210 103 94 92 73 94 140 67 98 97 109 60 176 109 84 94 92 76 78 174 129 168 170 164 94 118 58 119 125 143 73 77 189 204 171 163 183 187 191 87 157 155 159 167 57 122 80 73 120 63 104 83 90 77 94 179 125 164 105 144
115 112 112 110 119 129 127 126 121 109 104 94 107 130 139 139 158 155 161 136 119 126 132 150 166 163 153 142 153 166 168 162 162 174 175 177 174 180 181 192 206 202 214 217 215 209 213 202 144 161 151 140 122 154 127 107 142 116 170 188 165 130 142 172 193 183 107 96 117 43 112 111 58 92 139 94 141 113 85 102 177 104 158 97 112 66 97 125 63 61 73 84 102 74 98 131 126 72 102 73 89 63 57 27 47 45 109 99 84 150 146 162 129 129 107 158 160 162 87 80 62 98 153 127 117 92 172 107 126 161 131 110 147 105 205 188 187 76 162 83 176 96 80 65 90 90 111 159 146 148 148 122 190 151 198 174 174 183 70 116 143 167 188 122 179 168 154 100 159 130 157 142 156 89 107 188 190 137 92 152 192 116 149 165 180 149 160 58 156 129 53 158 62 141 96 152 187 191 107 205 134 211 170 114 177 106 151 122 139 128 81 86 134 84 102 73 181 126 105 139 103 91 106 168 192 100 184 122 160 162 85 125 136 158 61 153 61 169 123 186 176 124 91 59 175 94 206 112 128 170 174 76 181 189 186 145 145 69 121 70 111 175 99 194 181 102 156 89 255 174 219 216 113 147 100 75 92 130 185 177 120 181 182 105 105 93 120 107 100 76 125 83 159 215 162 80 102 129 78 156 96 161 66 85 54 102 87 135 180 78 88 94 144 167 99 187 102 148 149 101 70 91 80 137 70 64 81 65 90 130 94 84 99 199 174 133 140 53 135 142 93 182 176 95 185 86 162 62 77 196 116 219 149 189 98 160 164 113 170 125 157 210 144 95 177 178 121 82 168 118 117 176 142 157 124 140 62 80 134 138 89 168 176 188 209 155 160 176 116 197 194 162 205 147 182 193 176 166 72 92 145 191 182 88 121 174 68 162 101 159 159 170 80 82 160 210 180 121 127 93 73 45 144 146 138 149 54 163 181 94 151 102 137 98 172 185 109 166 177 117 190 112 144 176 87 118 78 160 96 126 184 111 146 108 168 74 166 106 64 119 138 158 137 143 57 133 136 63 91 95 150 154 118 179 171 168 182 167 117 117 150 95 121 92 170 121 116 208 108 171 113 87 149 137 179 85 51 100 47 161 80 99 123 133 111 117 133 146 122 146 156 158
112 106 101 96 102 110 118 122 121 121 108 109 108 124 125 134 152 161 168 163 143 133 152 153 158 153 157 153 156 162 255 155 157 159 166 171 174 170 176 177 179 173 197 199 219 226 195 213 183 162 149 110 129 144 148 132 126 137 179 146 196 171 176 133 174 117 102 146 129 55 74 139 122 54 143 150 88 64 134 158 111 126 81 69 70 95 68 120 144 94 105 113 111 93 122 140 90 82 81 67 86 51 46 41 74 79 76 76 102 129 103 100 164 109 173 115 191 103 99 120 61 88 49 132 81 165 107 184 121 144 219 112 142 115 179 196 174 112 149 76 183 159 181 74 135 141 89 70 71 116 164 151 197 182 124 188 192 175 176 122 152 141 190 135 110 156 88 158 176 183 98 165 140 159 142 192 203 125 188 114 115 99 121 169 82 84 161 146 60 136 136 164 76 78 93 112 155 108 132 170 207 210 107 202 120 192 194 196 99 75 159 153 77 124 170 178 80 138 166 71 157 162 142 182 157 172 141 133 167 163 160 116 59 100 131 60 71 142 183 86 100 162 149 126 55 180 195 200 191 157 94 78 171 156 135 149 255 153 70 111 169 89 193 164 107 105 167 99 114 185 174 219 177 183 134 165 185 163 93 179 77 73 73 151 122 112 140 171 90 133 67 127 121 116 146 116 169 93 79 115 157 79 82 75 96 83 88 103 117 86 154 130 190 96 192 122 119 76 71 147 93 75 176 163 146 59 167 112 88 74 88 99 141 100 92 111 40 46 134 138 70 176 187 186 99 119 164 146 137 107 161 111 152 185 116 108 138 151 157 194 196 88 183 143 72 161 156 122 150 149 70 158 77 148 149 97 164 145 165 120 157 164 142 175 152 118 206 151 107 149 166 124 117 130 180 121 116 170 173 181 143 81 77 172 154 154 169 73 85 104 153 156 167 173 101 178 171 195 196 135 104 124 82 64 110 78 63 71 133 186 210 152 159 139 188 93 184 109 169 108 107 86 86 161 195 132 185 168 110 169 169 98 94 184 167 160 148 165 106 62 60 68 98 143 42 107 51 162 74 86 108 119 107 168 180 189 140 168 118 153 155 120 80 53 128 110 102 145 116 132 77 86 156 134 87 147 109 53 82 78 136 72 177 144 105 195 84 185 86 186 191 239
110 104 97 92 101 111 121 131 124 128 121 108 110 128 128 147 162 162 186 185 173 158 152 155 165 161 159 143 145 158 163 158 151 148 157 167 172 167 174 175 176 156 171 189 206 186 219 189 187 141 155 126 152 156 154 107 133 158 161 131 145 150 150 111 157 162 98 129 101 107 69 55 103 112 118 121 52 103 79 73 122 84 73 83 81 77 131 97 175 149 146 134 125 125 111 132 137 97 93 128 85 70 63 59 61 48 66 64 73 92 74 85 122 165 86 92 110 171 177 151 62 126 66 68 77 184 112 151 125 140 128 184 197 98 190 75 159 160 168 156 82 179 115 76 163 76 116 76 161 134 103 135 182 190 116 152 186 109 123 57 170 183 132 172 163 87 117 57 123 181 143 140 159 81 163 141 207 132 117 146 186 102 124 149 133 168 174 151 67 63 162 139 123 140 194 141 189 108 180 186 186 114 102 130 111 193 128 103 161 118 64 64 170 157 73 74 91 115 157 73 165 130 111 208 208 199 189 168 121 106 83 70 166 124 85 158 163 174 124 137 70 122 63 70 51 164 97 116 91 154 89 78 69 157 193 157 122 64 95 134 95 153 161 111 190 175 130 175 139 163 151 141 109 161 86 153 96 134 73 144 108 129 96 75 72 100 104 153 59 60 95 103 144 148 198 74 77 76 86 171 168 81 89 170 84 92 159 138 142 162 76 105 168 183 186 80 68 70 78 68 135 135 93 116 174 94 79 148 170 183 123 161 201 167 193 153 48 65 108 161 67 163 120 84 112 146 89 97 99 121 177 193 123 194 140 102 199 175 107 152 140 144 94 159 107 177 181 98 177 124 159 66 86 80 92 65 133 97 189 103 116 70 159 103 108 193 164 169 61 153 72 114 103 103 104 92 165 107 125 78 123 122 68 141 168 190 85 85 182 86 126 160 50 71 90 126 189 153 105 112 116 192 103 80 87 142 94 75 85 100 105 152 138 95 134 100 126 162 130 213 199 156 199 141 122 98 152 69 119 57 98 169 186 168 139 72 164 61 154 147 89 156 144 71 129 134 73 90 149 156 102 97 177 109 172 117 111 72 107 158 114 143 140 52 137 60 113 76 85 173 112 114 139 77 54 115 152 73 165 172 178 97 163 86 85 141 172 100 96 89 111 217
100 101 104 110 121 133 135 136 128 133 120 113 114 121 140 132 147 175 176 190 189 174 154 156 151 153 154 151 154 163 168 172 156 151 155 168 173 171 166 155 153 161 166 178 189 202 195 207 186 184 147 137 158 159 168 167 147 174 115 182 145 120 180 102 136 166 148 99 147 139 135 131 62 64 89 53 81 49 123 142 158 82 82 145 87 67 99 97 117 128 146 188 149 188 136 179 135 127 128 94 116 133 130 101 62 76 100 76 79 56 68 99 95 98 91 102 112 88 126 82 157 51 118 129 131 96 116 128 229 160 216 162 214 121 174 137 63 61 147 61 155 179 170 179 179 164 77 174 119 76 154 140 165 145 179 81 157 60 87 102 122 104 141 122 171 88 126 120 55 161 146 98 189 194 192 115 148 203 118 76 174 78 168 177 171 141 77 66 166 155 90 100 133 197 171 105 177 116 181 103 133 92 166 183 102 178 201 98 156 187 182 139 168 124 94 91 180 108 189 130 64 117 144 206 125 170 87 166 151 161 72 81 154 120 136 146 120 77 157 67 171 123 88 173 89 145 162 74 144 111 144 117 94 93 195 176 74 78 162 173 174 107 110 182 179 127 118 115 68 131 111 200 127 203 125 158 118 172 129 133 161 61 98 147 71 169 94 162 54 125 86 88 202 164 175 170 65 92 105 171 58 58 65 142 66 84 86 106 121 82 149 97 172 105 136 126 134 119 163 107 152 136 112 106 114 132 112 117 54 107 135 217 211 139 95 122 135 97 130 82 159 104 175 72 94 178 101 106 171 134 184 91 165 182 154 194 195 111 160 59 94 132 112 55 165 111 183 130 139 69 66 67 63 137 161 132 92 106 163 103 192 114 158 150 92 164 159 151 111 109 122 181 78 112 185 148 88 92 139 160 132 82 87 83 174 184 142 137 180 113 119 65 147 61 135 162 161 85 162 115 215 123 135 184 107 92 110 71 178 94 93 195 197 198 173 151 155 120 120 200 171 189 197 113 191 178 159 54 132 70 71 150 159 169 107 170 96 89 125 168 67 166 101 35 134 140 84 128 100 172 255 141 63 74 76 141 73 140 165 125 140 73 51 101 81 128 62 118 77 151 64 151 39 107 97 39 61 90 141 97 98 129 123 82 111 84 113 92 97 157 82 113
85 96 117 136 146 153 148 141 131 124 114 114 132 125 144 141 158 173 182 196 187 162 163 148 166 169 160 148 159 172 176 183 166 152 155 166 169 158 155 156 154 158 178 185 202 194 170 195 167 158 151 184 155 135 141 160 114 159 114 123 177 173 117 123 154 94 170 154 125 117 170 80 255 56 56 51 130 67 114 92 100 84 79 63 59 103 113 90 117 138 145 128 154 131 159 141 149 123 117 97 93 140 108 106 117 84 72 59 93 70 84 104 107 112 150 94 120 82 150 73 71 52 49 78 77 97 165 213 229 191 200 127 179 88 52 138 113 120 130 79 128 162 70 81 72 73 168 152 142 71 150 40 142 129 163 121 115 142 136 88 119 121 141 181 116 76 135 131 108 86 77 130 119 200 193 126 168 112 178 92 159 65 91 181 167 95 78 155 52 54 113 89 163 101 134 105 182 141 193 153 163 75 107 83 87 88 94 144 166 108 145 135 176 81 173 90 128 98 175 75 140 163 192 161 200 108 189 159 85 78 183 180 80 166 99 162 188 179 116 179 182 98 104 151 116 175 73 149 138 92 123 96 168 83 157 171 89 109 75 105 118 150 171 158 74 157 166 107 155 92 180 123 125 175 183 102 94 125 142 161 128 152 72 168 101 110 116 60 141 158 80 116 96 112 197 188 177 87 168 164 52 51 55 74 118 83 169 113 92 97 123 160 154 99 129 181 83 92 90 62 146 63 79 171 77 59 80 25 36 157 136 210 171 111 162 183 116 74 79 74 90 164 87 148 76 81 199 112 115 90 145 173 182 101 134 200 123 143 104 49 90 29 130 255 74 160 182 77 106 70 161 56 91 133 73 164 163 116 143 159 121 111 183 134 99 133 139 71 141 80 130 173 168 88 162 181 194 187 91 80 149 156 68 84 99 115 138 132 160 63 145 92 101 86 76 88 163 138 84 180 123 200 127 122 106 94 78 167 84 173 172 178 99 82 135 163 197 146 165 209 193 179 87 192 110 170 148 34 101 50 147 187 95 150 109 122 166 151 118 151 152 133 129 145 97 120 155 109 112 149 66 139 71 108 101 108 132 95 145 105 68 66 149 101 147 43 141 87 84 70 142 97 65 117 129 29 80 171 107 101 109 107 189 169 181 121 90 80 162 77 90 142
74 92 123 149 168 164 155 145 133 124 121 134 132 139 137 135 150 163 175 173 172 177 169 155 170 166 166 162 171 187 196 186 174 163 169 169 163 149 146 144 164 174 181 199 195 206 183 191 185 167 196 157 206 183 191 183 180 135 132 143 100 141 162 101 148 110 130 201 189 150 127 148 104 62 71 95 61 121 67 73 104 70 64 61 59 57 132 104 94 118 103 150 154 135 135 135 124 147 108 90 112 99 87 95 120 98 83 85 49 43 46 83 100 121 120 182 118 166 164 81 145 93 52 84 72 138 103 194 116 157 222 160 111 78 100 134 22 20 22 126 77 66 139 143 120 165 130 149 118 158 109 87 140 136 120 128 132 121 136 133 144 155 169 145 123 162 75 126 144 76 165 177 133 116 194 169 159 82 73 81 131 102 170 185 151 193 129 131 157 79 158 153 190 102 119 98 111 188 172 184 184 169 75 156 123 174 92 202 129 136 189 130 160 92 183 177 157 175 180 174 67 168 81 196 123 184 181 113 185 98 189 83 71 163 116 80 191 203 193 86 125 168 112 188 173 120 71 162 167 162 134 130 159 127 182 135 66 90 255 91 191 91 172 85 138 180 176 88 166 64 126 112 132 184 91 76 110 141 132 146 158 71 84 72 155 150 57 161 96 136 108 103 89 156 96 184 91 166 104 164 63 60 50 84 94 96 167 110 146 106 125 160 191 122 96 143 185 108 154 70 128 155 148 87 101 149 70 83 81 146 144 158 92 92 106 176 83 86 144 86 175 147 133 168 172 193 123 205 172 90 161 85 143 141 92 92 172 255 126 109 122 88 54 64 92 67 170 158 175 143 157 82 79 132 93 167 127 98 127 130 91 95 134 83 84 40 100 40 111 48 89 172 125 105 69 153 136 124 105 96 74 139 143 68 127 166 177 172 149 64 121 60 152 91 159 80 105 171 95 167 183 202 195 115 85 60 68 141 83 170 95 161 168 81 142 180 104 127 199 153 119 155 163 77 94 90 38 92 55 55 137 184 110 135 120 137 57 45 130 142 138 157 129 47 140 154 156 145 77 152 137 63 44 111 165 178 90 90 148 82 133 76 95 82 90 42 64 60 152 86 98 103 98 175 69 71 51 73 120 102 194 205 145 178 96 91 119 101 163 151 36 32
79 96 123 148 159 155 152 145 132 130 132 134 137 156 149 142 155 156 171 164 177 165 168 167 181 255 169 163 183 196 198 185 181 179 187 182 177 153 153 162 182 193 194 217 209 196 162 162 182 176 174 205 188 191 173 133 177 138 181 119 117 95 154 153 124 95 127 120 157 180 123 106 113 96 82 138 95 80 154 141 66 95 126 80 74 95 117 71 88 81 112 126 127 153 174 132 119 151 77 114 60 99 111 100 140 115 135 76 47 42 30 53 84 117 129 107 119 86 127 92 91 121 88 52 132 79 101 102 184 104 106 206 124 181 129 102 134 33 123 36 135 105 138 68 156 146 140 127 72 157 129 109 143 172 80 172 163 149 146 102 60 59 58 135 67 123 116 113 142 160 107 143 172 105 89 167 178 142 90 124 107 167 124 86 186 144 170 120 81 94 154 182 111 99 124 92 80 183 98 165 156 70 154 53 65 112 182 178 97 167 85 96 196 130 111 105 87 89 136 76 75 81 138 167 161 76 174 86 180 156 97 184 139 128 59 153 93 205 98 184 79 171 194 86 182 163 130 140 164 161 101 167 179 139 102 167 142 76 147 179 175 179 80 170 82 175 125 82 132 165 140 195 202 91 129 65 174 116 125 142 77 140 116 77 57 142 161 75 141 120 98 183 125 176 99 163 177 132 83 159 107 150 69 138 42 58 94 139 135 81 72 77 187 99 108 108 166 188 133 133 108 56 111 87 101 162 62 53 127 47 55 60 80 184 84 184 146 128 99 115 163 162 128 168 92 116 140 120 150 172 98 198 87 134 141 170 91 65 125 68 111 143 144 135 113 100 66 153 94 155 179 157 172 158 155 136 171 179 92 155 179 135 78 171 106 75 75 38 78 140 149 66 156 161 63 73 158 173 115 170 165 98 97 151 65 129 172 125 96 106 110 77 141 77 149 179 110 131 76 80 190 168 92 89 80 155 117 145 144 135 163 104 152 134 66 79 142 185 146 159 120 130 170 175 175 120 47 131 139 147 136 89 123 194 105 73 68 146 78 68 68 153 144 107 67 173 132 126 177 187 77 114 69 61 146 169 196 110 166 164 138 185 167 120 124 126 84 135 191 141 226 129 205 130 148 65 84 160 136 108 184 131 106 111 204 136 170 174 129 96 66 35
92 104 128 142 149 147 133 136 132 138 139 141 140 161 152 145 157 164 171 173 178 181 172 181 182 160 171 166 186 185 190 187 188 192 203 206 197 177 165 179 185 208 216 208 177 177 161 137 178 162 195 191 195 188 173 141 170 191 127 99 152 132 93 111 145 110 137 109 181 153 216 130 181 168 186 163 95 113 89 112 151 127 121 67 110 67 70 83 69 82 92 89 151 117 114 108 122 93 80 102 53 46 71 106 109 161 96 101 66 41 51 75 93 158 121 186 113 115 88 186 154 159 71 106 73 124 100 91 88 159 158 87 188 69 57 99 62 152 108 51 147 139 105 147 160 129 63 166 182 180 147 189 184 162 194 88 179 154 131 123 127 119 163 135 124 153 74 87 93 157 188 144 179 82 149 99 168 201 186 119 77 174 73 174 174 144 73 79 85 173 98 79 170 69 172 85 148 91 255 191 160 107 59 93 147 88 111 121 179 75 155 177 166 141 166 114 76 133 77 147 79 96 93 149 157 123 65 82 116 97 144 168 95 156 137 115 191 194 85 87 174 172 70 74 167 106 135 160 80 158 160 134 107 140 90 168 64 96 93 106 128 179 79 158 139 87 147 171 97 183 95 197 109 89 114 150 135 86 91 152 170 79 160 157 155 75 179 174 171 107 159 153 195 170 107 179 154 164 102 83 109 93 143 78 67 86 86 93 116 149 81 78 80 95 162 142 159 173 154 89 129 89 81 122 82 125 67 152 134 112 128 151 152 168 118 162 75 106 135 114 97 128 121 186 182 188 199 98 98 210 200 204 112 171 113 145 132 102 143 54 120 87 88 129 163 152 162 151 94 56 73 167 116 111 148 92 132 48 86 112 81 78 178 135 73 65 44 79 136 31 75 138 58 159 131 99 115 125 214 163 140 109 186 83 163 153 143 166 107 137 111 162 123 80 131 150 85 130 95 94 176 182 138 148 80 120 135 131 58 93 144 126 167 153 134 113 144 90 186 113 173 120 87 136 153 89 113 142 56 110 160 132 155 180 99 166 72 135 135 61 151 62 117 56 102 80 172 198 156 111 84 114 55 106 106 177 119 131 114 184 136 107 107 77 255 89 165 73 156 130 167 233 121 101 101 151 143 158 165 137 105 118 107 156 107 137 193 115 161 139 60 131
103 115 134 146 142 136 128 133 139 142 141 147 163 163 169 151 147 162 150 160 175 182 183 190 175 171 170 172 179 176 181 179 189 201 211 219 208 194 185 181 186 213 211 195 162 147 139 148 168 180 152 163 181 161 159 140 169 188 162 168 130 154 160 153 76 156 136 135 122 194 124 139 118 193 150 197 152 128 141 85 96 102 84 57 141 101 117 124 92 125 76 89 88 115 111 122 84 74 65 41 78 43 62 84 139 153 112 97 50 43 58 56 149 115 162 107 160 93 174 153 107 94 83 79 72 176 142 144 86 124 174 174 152 63 150 95 152 57 154 158 151 50 143 163 147 103 122 115 90 182 191 106 196 129 176 130 101 137 147 170 190 146 82 85 98 62 67 125 99 100 158 169 187 171 154 125 187 203 196 201 91 178 138 141 119 163 122 185 94 175 172 105 57 119 60 106 154 104 75 144 69 71 62 133 138 74 97 81 79 160 125 140 91 58 81 155 94 98 158 85 117 93 102 209 202 173 89 143 120 103 53 63 124 89 96 156 89 186 147 85 108 152 159 151 55 107 142 151 79 81 191 186 154 143 159 128 110 136 189 96 182 171 173 118 86 167 93 151 194 193 202 145 151 133 137 132 164 175 255 137 175 92 186 194 194 110 115 124 114 208 214 213 114 206 102 149 117 138 160 97 145 142 82 104 116 134 75 185 152 132 110 77 90 82 98 111 109 161 197 125 83 100 120 143 173 178 125 95 127 75 135 85 61 116 131 147 151 115 166 134 139 104 170 137 157 187 125 127 174 206 109 96 178 61 145 137 43 99 141 151 133 182 157 181 155 66 141 153 111 138 147 100 172 171 69 44 105 65 103 127 110 98 103 173 160 99 83 100 131 69 37 33 103 82 54 112 103 155 105 124 208 208 136 165 168 60 114 80 75 177 128 153 174 182 176 152 120 68 75 131 149 151 115 189 185 97 40 129 124 145 162 72 91 149 134 131 52 167 189 96 95 141 97 74 99 172 133 152 63 97 67 146 156 167 177 185 178 107 64 162 152 108 89 132 170 148 190 179 205 158 118 103 158 165 86 185 172 166 166 177 76 175 79 83 84 100 95 79 96 194 214 210 144 183 108 99 96 92 90 143 87 156 64 126 166 184 94 156 71 116 80 65
102 116 138 150 150 142 134 132 136 140 148 145 154 163 175 165 160 160 161 163 161 181 189 192 188 175 157 160 172 176 180 183 191 195 217 219 215 203 185 188 199 209 204 163 158 151 120 161 172 255 143 171 177 158 188 154 190 133 179 159 172 125 155 85 158 75 127 126 76 103 137 171 199 175 115 110 118 173 183 108 86 113 145 118 74 154 77 93 149 92 101 93 140 118 84 107 95 84 78 50 50 52 100 81 108 93 101 68 86 53 87 75 136 133 134 123 160 90 113 177 198 93 108 113 92 169 102 162 178 83 170 58 124 52 148 102 139 45 134 145 99 155 148 124 157 64 115 95 125 194 212 147 220 143 199 164 158 167 182 119 132 207 196 102 84 255 98 149 143 134 130 116 127 74 136 141 112 210 210 160 100 136 175 164 114 131 104 98 178 187 112 69 57 46 59 78 167 173 127 152 133 97 61 67 168 159 161 157 168 87 64 139 113 92 164 123 145 112 124 171 196 210 132 224 221 186 140 112 142 141 124 66 162 151 154 193 190 107 181 80 177 116 160 81 76 147 145 145 51 171 114 136 204 193 178 163 172 76 116 79 173 132 69 110 116 119 170 197 188 113 109 134 99 168 87 79 73 152 170 185 112 89 198 143 100 130 138 112 128 124 171 168 205 188 143 181 199 98 174 99 93 82 96 37 138 73 94 89 91 86 86 137 99 169 185 100 140 169 89 187 142 169 94 175 173 88 100 105 145 105 175 81 78 162 188 109 136 134 171 139 108 143 120 152 105 92 83 92 153 175 106 133 67 144 90 52 86 56 119 119 175 188 141 95 190 110 98 112 100 103 148 86 168 170 121 79 121 88 111 145 110 95 171 124 94 79 56 116 133 104 117 49 84 134 112 91 96 125 199 212 126 160 88 159 137 73 83 94 124 120 159 157 79 107 161 156 143 132 108 118 162 165 130 110 194 108 149 139 58 155 72 168 167 152 54 45 34 139 67 139 91 155 131 78 176 83 132 65 77 143 100 110 140 127 92 104 186 91 159 136 141 63 138 100 63 69 113 109 136 167 127 178 186 165 114 197 174 73 122 72 137 153 171 79 154 106 81 161 126 128 106 188 159 183 136 102 100 197 90 83 165 154 52 43 77 50 148 88 63 61 125 102
95 110 133 146 155 154 149 137 137 137 141 146 165 183 180 177 170 145 151 153 163 175 178 182 191 184 180 177 178 177 185 193 202 204 211 212 217 201 189 181 193 199 191 182 167 136 145 155 151 159 171 151 187 151 188 208 194 178 158 132 175 149 153 146 139 145 103 126 68 139 160 110 116 145 129 195 104 144 182 178 94 87 85 166 165 105 89 82 119 119 83 87 130 76 76 94 80 82 66 55 66 83 62 74 92 76 77 75 123 65 89 109 165 160 128 85 90 119 117 183 106 143 117 151 76 102 88 99 144 92 158 94 149 126 102 149 49 46 46 126 136 94 68 177 94 165 73 162 84 114 109 213 150 158 181 106 154 178 157 213 123 222 154 145 159 155 161 165 163 120 161 169 83 147 158 255 108 196 110 136 120 176 172 167 126 69 122 141 124 78 162 42 64 90 140 68 150 73 61 94 145 155 124 69 104 168 106 164 149 100 142 118 140 148 142 166 162 90 162 107 125 206 170 236 214 98 114 111 147 83 106 150 125 119 174 91 181 90 144 105 179 139 157 175 174 172 165 148 67 155 194 173 182 103 86 177 115 75 166 77 63 97 135 168 178 139 96 172 200 110 214 123 99 168 118 125 94 99 172 80 85 131 85 152 100 191 87 166 77 179 211 197 130 148 162 194 137 87 155 199 102 90 117 102 54 99 65 80 99 142 75 67 150 91 115 120 190 179 193 186 197 103 121 133 92 80 73 150 194 196 116 155 110 199 199 100 168 52 145 126 123 152 107 201 172 87 188 165 93 161 72 114 133 56 40 137 107 66 88 170 134 167 183 210 184 194 87 82 172 111 148 172 142 169 156 106 144 87 37 71 65 175 115 77 106 89 133 108 101 107 92 128 77 40 42 48 155 132 97 178 168 197 86 103 55 45 73 139 135 53 99 116 131 182 118 113 175 114 185 182 170 152 176 180 122 192 94 86 157 181 98 95 82 123 122 122 107 99 159 179 113 184 138 157 179 129 172 153 100 176 69 162 56 142 149 156 176 88 99 161 160 64 135 153 56 126 62 91 145 98 150 132 95 134 105 163 196 89 133 149 134 73 161 161 69 133 110 124 193 126 100 148 92 166 187 211 118 135 191 87 84 85 144 26 42 138 81 99 92 81 173 182
94 105 127 145 162 161 158 141 138 127 133 139 161 179 186 183 172 157 153 153 164 173 165 182 185 180 186 188 189 191 194 204 206 201 201 199 207 195 190 168 181 183 170 181 176 172 145 179 172 164 159 172 189 200 221 187 167 195 210 193 166 175 169 108 110 145 145 139 53 154 168 107 192 191 187 92 118 98 165 100 178 126 103 164 104 105 86 130 118 83 73 86 79 135 116 103 79 68 69 50 67 86 63 92 65 90 74 62 80 75 83 94 103 112 101 124 81 50 96 76 83 179 108 84 107 170 164 109 198 163 163 84 55 89 44 46 150 68 72 39 144 119 89 160 167 132 78 120 138 176 139 197 166 108 190 167 190 152 95 209 175 131 216 165 175 152 93 182 174 153 149 148 141 154 165 145 140 179 121 97 170 63 101 151 160 119 167 173 172 115 80 145 112 96 151 152 130 144 52 123 145 100 117 170 78 153 54 159 167 177 111 100 128 76 163 185 157 83 115 185 184 108 214 140 127 200 154 156 82 66 87 151 89 104 188 81 87 171 71 74 93 78 81 185 183 85 115 172 157 141 191 124 118 96 176 114 44 42 109 89 55 95 127 148 151 196 165 108 165 208 216 195 159 119 184 160 152 97 73 79 157 82 94 181 87 87 139 131 154 106 90 204 192 184 142 165 98 69 74 108 99 117 84 64 155 67 152 142 120 83 105 95 153 113 130 183 160 99 174 203 124 139 90 89 65 70 120 194 189 151 106 88 197 116 188 135 172 54 109 128 78 92 153 188 188 187 121 142 62 159 68 172 84 65 145 128 125 141 111 179 192 153 109 106 149 189 165 108 135 89 177 113 173 85 68 171 74 90 106 146 84 132 89 88 150 173 128 90 73 66 61 149 116 150 118 148 81 70 85 96 143 207 184 88 98 92 57 42 117 43 54 137 153 86 103 168 145 133 96 91 175 97 126 76 180 176 135 153 255 105 168 218 197 179 63 105 30 114 152 139 109 100 90 159 184 172 184 158 173 163 122 162 165 69 148 76 75 87 105 156 136 129 67 148 61 87 82 24 128 38 75 89 109 108 123 148 165 199 168 172 56 73 131 179 113 95 128 143 155 176 113 111 175 139 99 199 108 208 207 132 188 101 50 73 125 73 142 173 201 109 100 146
100 107 121 141 167 179 173 152 129 128 130 143 150 169 185 183 177 163 166 177 190 173 162 176 184 181 186 196 198 198 200 201 197 193 186 185 189 184 185 175 169 147 169 151 178 178 177 170 156 137 110 163 159 217 227 209 222 220 202 208 193 165 125 104 161 171 118 79 109 104 168 149 140 119 147 82 86 114 116 109 94 174 99 113 179 117 125 97 60 104 116 110 88 112 68 70 118 122 107 68 52 51 58 95 63 80 66 70 66 54 99 109 134 89 86 89 117 88 46 55 128 169 152 176 92 102 135 109 93 94 127 167 132 122 116 105 165 55 44 43 147 97 81 90 198 138 127 173 125 164 67 181 178 198 134 141 156 109 174 193 166 131 135 179 180 160 198 187 174 74 84 104 169 71 93 83 108 161 163 114 166 145 83 95 62 95 132 135 136 134 169 155 70 124 61 77 145 136 153 149 94 147 149 171 68 96 69 79 180 192 97 187 154 146 96 80 156 111 79 114 91 92 129 181 98 128 110 148 145 126 158 170 87 154 198 84 95 170 137 173 166 130 78 122 97 203 118 166 74 74 123 93 181 153 89 136 46 80 147 109 113 44 146 129 137 181 150 128 153 132 200 135 196 105 169 83 114 174 98 135 72 119 140 86 72 165 146 139 45 71 81 93 94 145 187 175 140 126 166 126 101 145 96 130 89 60 158 70 68 79 79 144 167 83 90 180 99 123 112 173 153 110 179 64 106 151 144 184 100 124 169 178 151 142 192 151 177 170 60 80 100 81 163 172 178 175 139 103 170 68 107 110 102 156 117 109 105 139 152 116 184 167 100 100 129 81 183 109 168 148 99 152 123 159 132 169 131 112 157 152 151 143 82 107 109 75 118 170 82 93 108 155 165 157 134 152 171 182 91 205 210 139 143 74 120 54 72 133 131 102 139 60 76 192 210 124 102 118 192 205 129 96 188 186 89 121 101 91 107 155 205 133 163 132 104 87 63 152 113 144 137 125 135 187 190 191 192 89 115 93 113 147 160 92 166 172 131 165 103 76 116 167 133 43 86 138 126 63 135 132 46 167 143 99 163 137 208 181 201 124 171 116 116 170 178 94 87 84 124 191 114 172 210 133 176 140 190 191 182 178 211 106 173 85 97 78 139 197 187 197 118 113
103 109 120 143 166 183 180 151 134 130 128 143 152 173 173 172 165 162 158 183 189 189 255 156 157 172 185 190 195 192 190 191 189 177 170 164 173 175 173 168 157 147 158 174 187 184 164 158 140 93 133 113 142 170 195 188 182 186 193 146 169 162 166 97 120 158 162 75 93 164 151 109 122 156 80 74 73 65 70 79 86 86 123 104 125 172 83 112 126 86 97 155 118 94 79 137 92 139 133 106 109 113 70 107 71 64 54 103 58 99 99 77 108 92 90 147 72 49 72 47 76 151 179 107 162 216 190 139 96 112 175 79 143 105 163 130 176 144 104 44 125 126 132 76 104 187 113 144 168 160 151 160 170 76 96 131 95 111 185 152 131 127 117 153 209 114 154 153 82 157 152 126 145 170 165 176 105 166 164 153 70 115 151 153 155 68 163 78 70 117 160 80 66 54 67 79 123 134 77 138 91 65 137 77 74 135 174 171 183 103 201 203 157 191 151 63 160 155 104 137 62 158 99 131 82 73 51 116 41 64 60 161 194 147 99 141 177 163 151 106 122 62 111 133 95 198 199 144 166 85 109 131 163 67 140 49 56 141 155 54 62 148 156 121 116 184 137 177 150 194 211 196 106 192 167 181 78 100 69 85 139 64 72 180 182 88 65 70 120 125 89 170 78 80 71 116 80 146 145 70 74 115 125 167 68 78 171 132 128 91 62 70 69 180 180 147 192 101 189 120 116 164 102 149 134 168 112 139 191 169 158 108 108 126 186 199 89 188 155 102 80 180 91 67 104 170 188 76 91 175 107 118 131 85 139 98 80 64 109 123 134 169 174 68 140 133 126 141 186 105 87 130 110 87 119 165 144 131 158 66 64 174 177 98 167 101 152 129 184 157 183 107 104 151 68 131 176 122 115 114 118 185 131 77 108 128 82 157 86 71 95 131 183 187 116 101 180 196 203 119 119 204 183 187 185 158 147 152 164 108 218 213 202 185 165 153 54 158 67 76 90 187 97 189 193 195 154 134 188 203 104 187 188 166 175 129 80 119 169 159 129 103 168 56 107 146 97 44 133 119 160 155 97 203 146 165 117 107 167 109 169 97 83 107 105 114 96 105 74 110 145 146 215 141 139 163 107 63 124 208 122 136 117 66 59 67 181 197 131 201 108 183
94 101 118 141 164 171 170 157 143 137 150 151 158 170 175 160 150 146 167 183 195 195 170 157 156 167 170 182 177 183 176 182 174 163 159 150 160 167 173 167 147 132 154 167 175 195 145 133 123 72 124 143 175 183 205 167 198 171 195 160 187 115 118 122 157 121 162 86 111 143 96 103 153 84 78 129 71 103 85 69 117 161 149 90 92 110 68 51 54 75 97 138 96 105 148 94 148 112 92 90 83 73 82 105 118 91 50 62 52 106 68 117 97 111 101 99 73 70 67 159 79 93 154 124 206 129 137 190 68 60 94 102 101 199 98 165 163 184 65 51 129 150 58 167 103 173 113 97 135 64 81 107 112 138 72 162 174 155 153 84 160 161 171 140 100 200 196 184 83 126 149 171 106 105 101 185 98 168 80 117 134 179 150 152 108 143 166 112 156 123 181 159 143 123 108 119 116 162 93 122 170 78 131 82 172 81 198 193 140 118 209 105 198 181 87 133 62 119 51 52 130 77 67 153 163 57 146 82 123 64 173 141 158 98 162 138 179 100 176 147 68 51 144 134 139 185 203 203 191 129 184 148 87 155 56 118 129 159 123 148 73 141 69 71 69 159 142 118 165 115 168 201 106 160 159 140 102 61 63 122 50 68 163 94 171 144 68 82 110 76 99 63 147 79 99 55 116 38 71 146 85 71 63 72 99 95 80 78 74 74 85 109 66 70 164 171 146 178 132 139 177 139 81 165 129 112 166 218 155 109 171 170 87 151 131 191 160 93 103 150 93 190 154 104 130 80 139 132 80 166 147 206 192 140 57 158 157 146 106 159 168 162 64 139 60 66 105 108 151 155 90 173 93 85 168 191 136 112 130 97 171 145 119 173 145 187 187 145 131 79 159 79 97 100 144 68 134 157 113 185 172 199 98 148 119 168 103 129 167 120 94 121 79 112 180 151 177 87 126 207 147 127 129 188 107 105 67 133 132 186 199 122 176 174 160 92 150 74 72 175 171 119 142 184 83 175 177 174 165 135 190 162 155 76 96 103 86 165 120 89 171 164 112 88 53 141 74 143 109 97 107 96 181 131 95 104 148 138 201 144 147 129 89 96 95 183 161 172 80 104 159 130 125 164 100 101 79 133 62 191 178 187 114 164 77 159 166 181 147 180 155 148
74 86 107 127 143 149 158 151 145 149 152 168 178 180 165 155 160 158 181 199 201 197 163 159 154 161 157 164 176 174 167 175 175 169 158 153 160 169 170 166 145 120 151 152 180 195 181 159 126 88 115 131 137 150 146 154 182 126 119 175 126 106 158 119 122 91 119 149 139 80 95 88 153 141 80 73 109 57 126 93 114 134 83 71 111 64 102 37 66 57 76 105 78 80 106 121 136 113 93 125 109 126 115 89 93 66 59 74 128 64 72 73 98 152 90 96 122 95 91 171 120 202 139 109 203 94 75 103 134 42 43 120 180 193 105 111 201 177 69 48 43 150 155 89 177 160 187 190 91 174 116 165 162 117 94 166 158 151 135 143 107 152 104 121 172 179 170 190 188 130 156 160 176 89 90 106 174 77 96 110 76 151 182 183 103 167 152 84 152 159 136 170 122 185 189 186 125 114 111 153 140 149 142 156 179 191 210 160 211 134 112 98 101 107 144 65 141 50 89 57 142 125 167 93 66 102 112 124 89 122 191 127 202 199 190 130 174 167 81 168 77 154 117 76 156 175 178 202 108 120 90 91 189 177 133 70 134 163 73 102 87 148 81 165 120 110 108 65 100 169 177 166 75 64 163 150 158 63 43 51 131 166 115 174 178 101 86 53 122 60 49 41 146 48 71 70 95 113 86 108 50 135 48 58 106 165 77 176 123 100 148 89 68 89 83 164 86 177 160 94 91 160 80 170 166 168 142 215 100 102 73 94 145 117 195 160 131 148 102 201 112 103 90 149 75 163 85 169 176 187 189 195 172 116 156 89 158 154 159 131 65 161 76 101 71 115 98 164 111 95 92 81 181 193 213 120 135 205 112 185 124 77 176 81 96 185 136 197 102 168 112 76 85 76 75 148 138 111 207 109 207 133 158 115 147 167 176 173 123 74 104 176 159 138 162 153 84 66 80 135 114 134 208 222 188 84 180 179 154 187 160 121 86 179 131 80 125 98 134 171 125 85 134 70 174 114 175 172 155 199 145 168 70 153 101 177 181 179 180 184 134 191 159 144 75 145 143 162 87 147 188 209 199 179 170 95 104 201 93 128 177 148 82 97 166 196 149 83 129 120 127 210 204 126 55 41 139 143 55 173 202 143 198 112 85 66 78 120 178 177 77 119
58 73 93 114 126 134 136 142 156 161 169 172 170 171 173 157 167 159 184 197 186 179 162 160 157 164 176 173 176 172 168 169 176 171 161 158 164 179 182 164 138 138 132 175 184 201 188 138 129 127 130 132 119 147 153 162 162 120 132 109 174 163 152 101 86 156 156 80 148 89 139 77 112 108 156 123 79 106 96 144 76 101 70 68 131 112 85 92 42 60 74 110 61 91 80 93 110 98 92 74 103 117 99 92 99 138 124 75 87 98 98 67 114 79 76 114 175 98 171 190 117 138 209 116 116 69 143 50 102 30 125 141 165 109 169 210 197 186 163 160 120 55 150 166 185 189 149 132 134 81 173 169 168 156 111 146 110 181 149 109 166 129 173 137 179 90 119 192 101 167 151 87 116 158 140 165 164 142 114 110 106 133 186 147 59 77 47 77 139 51 117 170 124 194 195 203 177 167 123 214 177 114 158 181 192 206 146 130 131 213 124 198 103 150 65 65 137 134 151 66 116 86 66 73 149 165 161 86 122 205 134 103 167 133 149 83 181 109 168 95 175 113 145 138 97 112 196 200 186 98 100 196 79 174 82 100 125 138 62 177 106 148 147 172 156 57 142 62 103 72 77 255 62 65 55 141 74 88 41 54 142 165 124 149 67 88 71 107 69 109 113 95 68 97 75 52 128 40 81 150 74 155 83 100 74 119 70 65 126 109 159 128 153 138 74 81 97 95 82 148 125 69 143 67 118 179 192 175 170 90 185 177 107 110 152 67 116 72 164 189 109 207 173 177 149 107 73 121 170 151 82 153 177 165 162 59 162 171 72 152 116 77 91 159 74 171 144 76 76 165 168 174 116 127 225 169 210 132 193 113 178 89 82 144 70 146 78 183 164 185 178 80 119 99 105 127 176 99 119 196 191 107 207 118 193 135 154 62 110 102 95 104 58 105 101 86 147 58 157 144 138 168 220 123 148 157 115 103 96 168 87 161 128 191 120 86 67 156 161 159 139 151 163 166 109 62 75 180 80 85 158 72 108 169 94 122 87 164 102 96 153 120 140 155 181 86 175 168 155 85 189 125 100 98 119 142 89 114 145 178 166 87 107 146 156 185 169 165 95 108 170 176 195 120 71 124 62 56 71 174 100 117 101 111 158 87 144 119 97 87 63 97
51 68 91 110 126 125 132 134 145 152 161 165 161 169 160 169 158 161 173 179 165 161 162 160 160 160 184 187 181 177 162 159 161 166 161 155 171 179 182 172 153 129 159 183 206 216 184 190 170 157 148 162 153 143 137 149 107 134 115 105 152 131 168 154 100 88 161 87 142 58 61 117 86 137 78 153 65 61 63 80 104 71 108 88 90 60 45 52 53 86 79 71 50 71 55 129 116 98 109 75 71 111 136 134 104 101 124 113 79 69 78 70 106 70 91 135 83 132 111 158 189 152 119 197 127 96 131 114 157 89 112 63 145 85 181 91 179 178 109 157 152 152 110 159 169 110 201 196 142 188 143 66 168 171 156 116 141 146 180 136 115 135 89 112 83 165 107 186 188 174 144 150 102 108 78 99 65 152 126 72 112 145 82 153 97 72 88 65 92 125 133 63 180 190 161 183 156 210 141 219 186 132 170 84 116 208 142 207 185 204 148 133 86 163 145 143 41 47 125 65 63 153 169 94 114 95 86 97 213 124 217 212 108 180 205 188 112 101 178 77 70 135 64 150 129 77 127 210 210 202 199 141 86 130 154 133 135 151 117 169 164 195 198 157 146 120 169 119 84 157 151 98 136 158 136 142 108 84 147 65 156 60 87 129 113 63 61 68 70 40 121 151 124 166 97 124 86 146 60 70 65 98 150 168 171 70 96 107 139 67 146 96 198 200 196 140 124 153 75 99 72 114 154 55 50 102 53 106 73 131 93 124 119 148 98 168 95 87 120 81 102 187 107 151 86 159 172 138 154 151 106 79 175 174 115 152 108 146 176 168 60 66 115 175 114 124 124 190 184 83 78 139 121 100 228 185 237 162 107 77 152 128 74 169 165 92 146 146 181 157 112 175 109 113 126 137 83 180 109 89 190 111 202 200 204 138 63 54 67 84 58 67 73 46 97 57 166 72 171 151 96 206 177 141 121 194 209 132 145 82 152 94 126 115 141 161 72 150 152 48 97 155 144 57 106 66 138 136 122 137 164 154 151 158 166 158 106 150 255 83 155 78 97 140 194 194 179 162 148 112 112 145 174 61 140 134 89 162 94 139 85 91 174 167 174 83 80 104 137 139 100 123 163 168 90 102 79 168 144 85 79 184 98 106 91 120 134 255 48 137 65 162
56 74 98 118 135 140 141 139 150 153 161 163 163 163 172 169 171 171 160 156 161 153 155 165 155 173 188 198 188 178 163 154 150 156 153 148 167 183 192 177 159 151 166 179 215 224 224 200 166 186 164 127 147 121 165 151 81 124 141 101 107 137 167 85 137 126 134 149 160 151 114 122 158 106 120 123 113 109 116 93 79 71 104 88 82 66 127 56 72 85 79 60 61 30 40 74 88 83 112 67 101 57 100 126 125 127 139 122 79 113 76 96 71 131 56 131 107 132 125 182 136 130 117 86 109 53 124 148 74 96 77 131 93 52 64 106 178 167 108 62 60 152 135 152 58 73 94 190 219 156 128 84 110 83 82 80 162 171 89 98 53 145 169 123 78 94 154 151 101 94 182 163 155 129 95 114 46 68 125 126 156 98 135 43 125 107 133 92 255 125 53 109 66 163 186 159 195 112 114 156 126 106 191 114 174 201 173 122 139 179 206 125 165 130 107 104 141 147 138 69 112 69 168 142 60 60 112 176 189 111 210 198 114 203 157 195 197 79 67 73 70 108 49 162 171 130 202 151 140 105 203 159 167 131 156 156 91 124 145 124 88 99 99 102 127 173 87 136 88 145 70 75 64 168 175 72 109 142 58 65 53 56 49 91 57 81 103 124 119 255 143 110 109 70 161 127 50 56 62 88 73 105 85 170 153 82 177 137 55 50 135 82 204 193 195 102 96 160 97 79 69 97 62 37 126 106 38 53 142 165 115 151 113 133 107 172 149 146 143 74 94 175 153 190 99 99 130 160 143 88 118 152 86 133 89 161 189 166 109 104 140 139 65 87 181 161 171 179 200 123 149 158 186 200 147 189 206 184 200 179 134 160 133 87 165 99 168 70 144 75 102 139 168 120 168 73 84 165 128 176 87 192 222 118 184 165 97 162 54 73 80 99 56 148 150 112 73 76 177 170 82 118 159 106 166 213 140 173 192 107 184 84 98 188 191 115 181 125 55 39 119 45 146 70 167 72 133 174 140 121 57 171 116 178 63 155 167 73 112 103 76 175 82 93 186 204 101 100 140 151 60 116 158 103 144 32 143 161 147 65 101 67 160 99 172 80 85 140 90 137 110 88 99 91 149 140 191 147 165 84 101 83 114 123 65 52 145 82 152 61 66 126
69 83 107 129 147 157 155 153 158 155 160 156 148 162 172 176 182 166 146 145 132 148 150 156 147 160 175 189 187 183 166 140 139 135 133 143 158 181 179 169 155 134 159 171 182 204 190 218 204 194 190 146 154 177 175 119 116 126 64 145 160 152 134 125 117 156 144 109 85 137 139 84 96 83 122 170 119 102 72 76 86 120 85 78 87 90 83 123 117 80 135 69 55 35 48 34 76 118 119 53 50 51 118 121 131 129 87 136 100 75 96 71 81 72 57 47 104 89 190 209 211 126 184 129 133 95 119 99 106 175 69 43 37 143 60 66 91 69 115 159 154 155 57 153 142 167 167 140 121 193 184 167 117 86 74 101 168 164 128 133 144 152 158 98 152 86 153 165 90 142 123 138 118 97 157 97 88 78 88 172 144 129 103 145 43 45 128 116 53 163 168 61 65 128 77 116 92 105 188 104 212 202 174 194 199 94 125 167 64 71 195 156 189 62 55 48 131 130 142 108 129 73 118 72 162 163 94 172 86 194 102 137 205 212 214 182 206 166 68 85 113 85 44 159 67 124 157 113 123 255 146 109 161 81 164 133 176 70 154 78 139 156 80 117 181 119 173 197 91 151 162 108 180 175 98 157 80 169 105 164 113 105 125 52 122 139 76 92 92 119 177 85 185 135 171 79 56 151 75 121 145 118 173 74 112 91 125 158 61 103 62 163 135 120 179 109 186 106 70 69 60 143 40 115 38 11 115 71 46 121 89 152 200 139 180 76 160 79 125 70 183 176 143 86 126 96 143 164 147 187 112 104 92 160 97 77 89 78 119 155 147 99 59 125 163 91 186 115 186 165 191 125 178 112 127 223 255 213 140 89 148 186 86 136 179 102 181 78 153 125 190 103 85 176 68 83 99 115 87 170 155 152 169 165 202 144 169 79 59 111 79 74 62 153 54 91 131 117 98 88 90 89 137 164 196 107 139 144 95 178 83 185 94 201 112 99 87 174 70 62 42 120 138 89 175 159 152 80 166 53 57 174 82 79 168 54 122 128 166 171 162 113 89 139 199 103 168 151 102 77 57 63 81 68 84 103 144 152 75 56 143 156 61 82 90 162 94 165 175 90 110 185 176 79 188 97 142 116 160 181 138 127 100 82 92 104 159 77 85 85 170 109
86 93 110 125 147 155 159 159 156 157 149 152 154 163 174 194 194 184 171 166 151 130 138 139 146 150 167 173 175 175 160 135 133 121 122 128 149 170 185 185 172 161 162 175 255 193 213 217 185 206 143 171 145 151 170 171 153 134 80 126 162 179 121 140 168 163 73 141 155 147 97 49 98 103 75 140 150 80 124 148 131 113 73 89 76 111 94 62 69 97 91 71 63 37 35 35 35 66 59 57 95 102 81 115 122 85 75 111 77 100 100 63 65 58 125 69 93 111 160 130 147 152 173 84 111 171 163 209 187 92 97 148 101 145 64 129 155 78 118 175 96 171 70 85 59 120 154 95 172 207 164 186 132 163 148 185 131 193 181 163 113 125 147 119 133 155 110 167 152 174 90 111 133 155 66 169 75 102 98 181 127 188 120 108 123 42 42 46 80 170 86 172 63 69 73 139 96 104 87 121 127 215 121 139 204 174 107 103 85 146 177 156 84 166 120 61 38 68 65 150 145 133 73 94 118 154 112 78 121 84 186 183 199 210 121 148 216 173 64 141 115 88 61 129 78 140 167 148 153 160 161 182 170 146 101 167 197 141 166 93 57 102 113 180 87 139 193 176 195 115 131 175 188 162 172 156 194 109 137 125 173 109 130 118 154 144 81 123 109 179 151 104 150 134 119 87 101 83 167 90 87 110 172 101 65 121 154 108 76 113 76 91 186 121 116 215 113 144 168 105 96 37 27 29 55 57 24 107 69 57 78 82 189 110 85 157 147 163 67 152 179 155 142 185 131 177 174 82 185 92 172 196 94 85 134 157 97 142 119 114 129 139 60 157 95 85 200 106 213 115 158 124 172 126 132 123 208 174 99 177 149 102 95 178 110 169 189 173 159 158 93 173 179 163 89 122 113 135 93 162 71 88 149 216 139 240 140 95 133 177 167 82 174 137 46 108 110 109 121 102 117 109 119 129 82 162 117 196 148 98 145 127 126 148 198 193 118 160 71 86 27 44 135 162 182 85 157 107 66 154 76 180 148 135 96 162 111 159 166 88 98 173 113 84 189 201 166 166 196 80 143 162 156 171 130 94 57 49 52 158 119 135 173 82 132 87 138 182 170 92 97 136 166 82 76 98 155 128 156 100 182 185 130 76 74 81 121 183 94 190 104 104
101 101 107 124 139 150 156 152 153 154 153 155 166 165 194 206 188 186 190 172 161 133 126 126 138 143 146 149 165 157 140 138 127 119 117 125 144 173 187 180 177 176 159 169 179 165 192 201 211 173 133 116 160 144 175 156 142 153 151 101 111 142 154 106 99 117 157 126 106 160 61 103 29 85 61 64 94 92 168 84 140 123 85 70 77 32 37 51 124 85 131 78 53 62 49 23 60 58 86 77 76 85 92 135 91 114 80 80 79 83 70 63 79 87 89 74 77 98 212 126 155 190 81 101 152 79 184 162 168 94 60 145 41 98 92 123 92 179 95 157 176 160 162 74 169 171 72 82 92 196 211 208 196 91 190 170 189 174 98 144 78 117 160 133 89 143 140 160 163 94 126 130 166 164 134 148 171 144 117 105 121 121 150 77 171 54 154 51 108 169 179 103 75 163 173 92 177 176 159 119 89 131 199 110 170 125 153 70 96 141 83 95 107 74 152 123 52 99 54 142 141 77 148 172 120 121 163 152 83 64 163 145 193 210 130 213 214 101 64 123 124 104 121 16 111 141 112 90 158 78 176 99 147 71 83 115 197 156 74 156 141 140 161 73 80 173 200 195 150 164 114 180 182 87 160 137 115 112 135 134 204 197 100 88 163 94 94 96 190 133 147 103 87 124 70 74 68 84 90 98 95 88 179 77 72 120 73 149 108 73 77 89 96 101 169 200 201 110 75 161 115 47 60 152 155 145 55 120 62 61 74 179 104 169 161 78 120 173 176 179 162 99 163 117 177 160 63 91 132 94 134 182 193 179 138 148 155 73 73 73 130 100 106 87 173 132 144 192 155 113 87 142 186 112 143 188 211 211 198 98 114 98 184 198 112 177 150 186 224 183 95 174 169 62 148 67 51 152 79 66 89 80 118 223 159 136 186 193 190 135 191 194 78 51 139 46 52 97 49 108 187 119 94 171 186 113 148 182 167 95 78 82 123 189 186 98 123 198 179 47 74 20 96 90 80 182 181 139 157 169 124 173 161 86 172 163 137 133 168 147 107 92 164 82 169 146 115 188 188 140 171 118 162 178 123 170 116 85 110 133 96 123 86 125 177 123 147 124 157 136 193 79 136 86 89 165 125 175 97 170 94 132 75 174 164 124 111 97 104 120 143 135
116 113 112 120 134 140 140 142 139 153 147 152 162 183 186 194 190 185 179 174 169 143 141 133 140 141 135 145 141 134 135 133 135 131 130 132 150 172 187 199 198 186 178 168 172 186 200 184 196 179 122 104 123 127 158 146 194 193 152 121 181 178 102 169 102 164 126 110 165 163 79 52 44 78 57 122 117 84 136 85 123 97 154 115 104 30 37 98 64 92 61 70 56 50 36 87 71 75 95 115 75 75 73 100 103 99 86 81 100 94 78 99 129 65 74 80 75 170 114 148 146 142 96 162 77 116 160 110 99 131 39 134 123 55 156 88 200 202 166 156 95 80 99 88 180 94 146 151 135 162 205 216 191 104 165 186 145 92 121 152 108 163 157 137 75 114 144 134 136 109 180 153 113 100 145 143 166 142 168 125 150 168 106 177 130 149 72 154 173 177 152 119 108 120 85 183 128 185 70 67 73 92 166 198 181 149 97 89 117 118 67 95 190 106 165 147 169 158 114 97 68 62 57 68 156 171 172 85 80 79 89 154 83 140 212 174 166 104 74 59 142 63 41 110 17 121 162 134 164 78 110 83 148 112 142 79 89 177 168 137 142 159 151 73 122 102 175 131 143 141 92 139 145 95 105 146 140 215 126 218 138 184 122 147 95 178 106 90 120 159 117 154 110 106 156 66 71 77 88 108 193 165 85 145 104 56 85 62 104 99 100 195 105 102 190 176 90 179 105 104 125 81 113 143 94 180 177 76 57 62 79 175 88 93 124 133 91 194 161 93 176 186 151 90 123 123 154 157 74 130 131 80 143 156 161 66 65 84 162 90 178 172 88 145 135 139 186 97 101 95 149 114 92 166 115 97 153 153 198 189 127 169 113 80 182 123 183 159 151 148 105 169 173 119 71 115 108 125 79 150 110 144 179 178 133 188 221 114 96 194 206 157 126 127 98 123 34 26 73 176 156 187 130 122 96 94 101 138 176 133 177 78 74 173 191 148 216 207 120 49 70 128 134 57 99 90 185 99 165 169 88 98 170 149 177 154 97 170 174 100 188 92 130 138 85 90 165 107 174 103 180 95 155 123 137 129 182 168 83 177 114 167 157 139 181 139 172 158 94 125 146 114 83 152 111 86 153 180 181 89 103 88 89 255 101 102 202 107 201 213 191 209
128 127 124 129 129 131 132 137 138 153 161 162 163 171 178 184 162 174 173 162 169 153 155 151 141 143 141 135 131 129 124 125 141 142 145 146 151 169 183 193 255 195 198 187 191 196 184 155 160 135 166 151 148 164 142 153 146 192 175 130 108 158 172 166 131 154 140 137 101 111 67 97 109 40 112 141 75 79 76 144 126 98 141 94 102 63 27 38 41 66 47 62 88 91 51 62 60 79 99 128 87 107 83 76 80 86 87 88 151 122 97 95 84 100 92 122 78 125 92 97 100 94 109 100 169 87 92 144 165 54 57 127 44 83 176 84 88 103 131 111 99 167 117 127 108 67 147 140 148 127 98 199 127 186 178 102 130 79 126 181 140 105 131 88 181 164 156 141 179 86 106 99 128 106 87 71 143 130 121 112 146 140 116 84 92 137 142 160 172 148 168 185 109 97 160 147 91 104 134 132 100 157 188 162 255 67 110 68 150 108 173 184 117 158 143 70 173 75 86 134 71 147 105 69 62 65 161 96 75 92 173 123 184 101 205 191 93 156 94 132 68 75 54 23 77 97 146 100 188 142 78 89 83 67 139 124 73 143 144 158 141 84 127 68 162 140 145 184 121 106 92 81 123 93 173 108 79 92 135 154 199 157 102 172 176 77 72 163 118 95 98 98 67 101 168 111 73 149 97 134 151 158 155 123 142 156 104 59 61 87 133 203 202 105 114 100 115 102 133 76 82 79 160 95 185 192 103 98 105 174 87 204 205 184 125 106 124 211 121 171 205 187 74 174 170 160 49 145 35 114 61 124 154 158 66 153 103 136 175 131 92 173 112 81 60 162 142 109 98 172 73 62 160 164 125 113 179 130 121 146 201 107 171 65 137 105 176 122 207 185 186 82 173 159 136 53 128 143 76 104 116 86 66 181 175 155 111 134 98 97 130 93 121 73 86 26 131 141 90 188 155 147 184 126 153 163 103 178 150 133 67 71 111 178 186 107 175 149 110 125 94 54 47 163 81 77 167 113 69 100 182 156 77 168 98 151 190 122 178 102 182 164 154 174 127 137 180 183 143 180 169 141 125 144 129 147 171 170 130 171 92 112 77 146 90 159 77 112 72 151 61 97 156 121 101 67 255 105 89 140 161 139 95 140 166 197 130 164 113 217 154 188
134 138 141 133 128 116 122 136 149 164 175 172 166 180 179 164 158 157 169 160 172 168 167 165 164 152 144 136 140 134 131 130 143 148 153 150 149 154 152 175 183 194 200 201 203 194 186 135 137 144 171 164 155 164 174 183 177 176 154 188 128 171 160 113 136 115 161 80 116 150 153 143 130 97 114 110 107 83 68 140 131 88 155 142 61 110 24 30 26 35 35 62 64 72 56 81 111 68 119 106 85 95 84 94 106 96 77 120 90 125 136 130 152 97 140 69 134 53 150 75 83 126 180 117 170 130 158 194 178 161 33 92 125 158 72 71 154 93 114 123 204 163 127 177 150 167 154 152 58 165 80 165 156 161 172 140 173 81 180 101 168 116 153 132 122 136 86 103 114 79 161 152 152 88 86 161 157 144 76 113 169 109 85 95 159 109 68 84 110 71 163 68 161 136 180 85 165 164 170 169 70 77 178 81 156 156 87 97 170 184 132 165 82 105 148 115 148 120 80 108 163 63 150 53 159 67 74 177 98 176 153 182 150 84 192 158 85 79 163 181 142 96 142 38 62 49 166 159 131 153 95 188 146 176 67 154 147 173 139 160 87 139 93 101 147 146 180 192 124 89 68 81 59 141 84 71 172 95 184 151 81 83 167 144 184 170 144 143 74 85 130 97 76 103 125 134 77 126 125 90 117 196 99 154 132 130 143 78 131 173 110 193 163 195 83 74 76 155 91 79 114 134 86 91 164 161 99 103 77 83 141 111 128 142 201 123 214 230 221 133 210 152 255 151 165 55 39 123 48 91 34 138 69 98 70 134 149 182 91 99 106 69 113 37 54 155 93 169 149 159 164 89 66 60 162 143 77 118 177 153 210 105 158 82 61 147 128 191 205 175 157 181 148 157 113 116 114 84 101 91 71 162 63 114 183 97 150 189 164 92 128 150 98 64 82 51 110 64 187 199 154 86 108 127 163 169 83 138 71 144 174 143 170 143 102 201 216 143 176 139 151 152 155 73 183 187 153 97 76 170 170 103 158 64 143 163 93 101 101 101 94 95 102 200 94 119 104 88 123 100 86 151 57 56 114 135 131 84 105 188 185 93 82 134 106 57 145 156 68 142 125 67 148 115 64 86 104 132 98 83 162 115 57 53 90 112 211 160 152 120 140 187
127 136 144 140 128 119 125 151 170 178 180 174 177 180 177 165 166 150 156 154 176 162 184 178 160 149 150 145 145 145 135 132 138 141 151 145 146 145 149 159 171 178 170 194 195 153 153 165 160 161 166 134 158 144 173 146 130 170 141 173 107 119 147 108 135 121 160 152 104 106 126 135 172 123 163 110 100 82 93 65 66 83 95 121 59 33 41 54 34 68 88 121 84 90 142 103 77 71 90 83 86 83 103 132 105 100 66 137 102 140 101 117 131 99 95 87 73 79 120 126 144 84 114 117 130 103 86 193 145 165 157 47 146 53 62 121 135 193 203 184 191 154 152 136 170 164 119 80 158 142 128 168 128 163 129 181 81 181 116 60 133 160 68 166 73 176 161 179 99 72 66 142 153 109 97 92 182 172 188 170 102 129 113 179 166 153 95 135 131 97 153 58 43 47 63 86 184 146 97 149 102 83 117 165 68 91 74 116 125 182 73 59 71 147 92 76 115 76 92 134 83 100 58 54 61 166 137 154 177 181 83 87 119 84 137 116 170 119 169 186 181 164 60 159 153 51 168 139 191 195 177 185 186 163 172 167 138 169 175 160 148 105 95 83 107 146 78 97 144 153 46 59 106 150 118 140 107 77 124 124 69 180 176 180 91 77 75 159 170 137 104 90 153 177 147 165 101 77 91 170 109 99 100 185 73 172 78 124 103 167 83 88 142 95 91 90 151 55 66 84 76 103 84 170 92 174 136 98 182 104 111 204 193 145 126 125 231 225 227 197 109 184 108 162 57 50 106 47 10 50 114 30 127 104 81 78 115 86 164 154 169 132 69 135 50 84 80 174 75 114 67 74 74 70 92 81 78 90 146 156 105 194 77 75 123 150 124 92 75 160 79 111 167 146 49 113 91 122 122 180 167 129 102 168 79 75 169 177 127 86 126 87 165 151 55 154 155 178 186 132 104 182 79 159 86 158 75 155 87 180 91 74 90 147 184 190 140 93 97 97 149 90 69 101 81 100 160 119 148 76 90 116 50 132 138 68 96 205 153 138 106 164 152 119 108 172 185 103 114 88 179 144 159 104 76 191 169 157 123 180 161 63 80 142 57 56 125 100 152 64 99 151 73 145 176 142 104 107 98 97 85 71 105 64 101 192 182 130 109 212 116 158
111 125 139 141 131 127 131 162 179 188 183 176 170 180 169 177 167 178 182 172 175 191 178 182 176 159 150 153 163 157 148 137 130 141 151 152 147 137 150 159 169 161 182 184 180 161 167 137 175 154 180 187 183 154 184 173 137 166 110 145 105 163 104 149 136 140 115 144 67 90 142 141 171 192 168 195 126 132 59 50 59 70 101 80 68 69 102 78 56 40 56 115 105 95 91 78 88 100 96 97 80 85 108 107 106 75 77 74 117 116 139 81 87 96 132 115 95 127 70 71 175 86 132 98 187 96 108 97 178 184 68 84 121 152 158 167 82 80 173 126 140 84 106 92 177 177 139 169 60 151 66 154 54 159 142 131 147 153 108 148 145 116 141 106 133 177 191 154 93 90 132 79 125 74 179 156 128 143 188 173 181 161 166 187 145 154 56 30 131 73 98 135 127 38 141 174 147 176 173 95 83 72 74 161 66 69 180 94 111 106 95 114 75 101 70 168 124 145 81 177 183 170 64 128 145 160 160 143 166 133 179 164 170 171 167 118 170 171 137 165 68 162 163 93 176 91 72 170 180 159 84 90 167 97 175 145 89 109 95 174 153 89 67 91 104 153 174 178 101 162 128 131 170 190 193 101 126 112 63 147 97 119 191 189 93 154 166 142 163 121 169 123 177 82 136 84 113 176 97 92 158 117 106 193 125 136 96 86 147 59 62 53 57 75 152 81 104 142 69 99 179 82 81 189 88 89 87 94 169 115 116 171 140 150 152 110 159 164 221 159 174 150 80 171 110 132 94 77 102 86 105 110 15 135 153 78 136 172 75 84 93 107 59 116 65 110 90 176 131 178 117 177 181 99 110 179 133 98 106 160 100 195 171 93 164 118 154 126 64 74 88 112 145 81 146 98 65 71 170 182 123 161 153 56 152 108 94 119 166 141 84 132 51 51 147 108 167 176 104 187 154 166 127 124 127 164 171 176 150 146 92 165 172 129 79 178 179 141 145 169 81 78 172 176 142 180 124 91 118 69 115 157 122 40 117 162 191 157 132 211 121 124 211 183 203 190 94 98 165 167 134 67 74 148 188 196 155 184 102 137 72 90 55 103 139 94 44 98 63 120 117 81 130 177 159 174 103 117 197 172 158 185 92 113 95 92 168 152 120 154 114 151
103 114 129 131 133 132 142 162 170 173 172 171 165 171 176 190 199 185 205 201 203 201 200 177 175 171 164 166 172 167 159 148 145 147 159 157 163 164 163 167 167 186 184 168 148 158 156 156 164 204 199 180 187 186 136 190 147 101 98 134 136 134 121 100 158 78 109 98 70 91 144 120 90 140 99 99 156 130 106 74 131 48 87 116 89 91 109 73 55 83 90 84 92 114 90 98 147 117 94 116 73 85 141 137 139 109 89 88 94 82 77 90 155 130 111 128 181 101 135 80 143 117 111 137 131 96 147 83 97 188 127 71 123 51 154 132 159 117 181 176 126 78 76 176 159 187 147 180 124 126 111 100 136 133 167 165 126 65 134 70 48 82 98 120 130 180 115 158 73 120 45 141 115 118 172 186 158 193 168 193 108 182 90 196 133 71 114 113 135 36 99 74 38 142 87 69 147 97 133 159 84 181 80 75 101 168 151 176 104 129 101 171 172 77 145 144 140 115 139 95 138 161 79 82 133 142 150 61 73 75 185 187 96 93 166 119 80 157 171 163 56 127 178 192 178 145 132 81 80 148 116 186 135 109 152 137 163 202 108 168 90 168 90 69 143 99 170 76 140 149 98 128 95 201 104 98 98 107 60 144 159 149 166 96 125 83 69 112 115 99 155 83 131 71 62 70 68 84 141 118 121 161 119 119 114 97 107 179 171 94 150 126 52 153 145 65 162 71 98 180 82 182 108 174 89 176 181 83 83 172 108 120 111 93 135 168 115 220 156 134 214 134 159 146 134 42 115 124 69 113 110 81 20 44 52 155 107 65 74 173 189 172 100 119 110 159 112 98 169 127 123 102 91 173 105 82 131 189 200 183 147 90 120 165 98 158 153 135 97 46 104 71 63 121 54 169 151 116 158 88 93 173 146 89 87 119 132 85 137 112 115 142 121 90 111 152 146 128 118 180 130 69 109 96 66 163 174 146 182 176 173 176 97 89 85 74 81 132 94 191 167 149 80 161 128 211 161 90 164 96 79 162 78 105 108 142 190 197 161 174 139 134 188 223 124 179 144 157 99 171 163 172 79 153 126 148 124 144 181 76 154 108 142 56 55 150 89 160 86 90 147 172 172 138 182 99 119 115 122 108 149 81 78 93 97 154 130 122 192 159 152 108
104 113 123 126 126 130 138 149 159 162 166 169 163 163 158 179 185 203 203 255 205 195 186 193 180 181 183 182 183 177 169 160 155 163 171 176 177 179 180 179 192 196 190 181 164 145 178 194 200 212 186 187 169 198 192 154 151 156 103 103 91 101 146 142 164 92 168 129 174 157 126 113 83 145 85 78 119 110 148 133 81 64 54 64 48 122 65 105 146 81 82 97 75 89 83 92 117 115 132 86 81 74 91 164 124 141 112 90 97 71 72 95 84 104 111 99 108 88 77 137 128 183 92 127 106 124 63 78 77 71 97 62 162 89 69 155 69 175 177 157 129 164 180 137 95 181 109 166 65 153 132 86 77 149 167 170 124 153 74 129 160 70 90 162 149 111 178 132 134 155 57 136 97 154 160 125 203 180 124 191 172 87 170 151 144 122 167 88 148 146 97 138 76 109 73 56 116 129 144 147 189 102 188 110 171 129 170 79 186 136 86 115 135 83 98 170 88 146 84 79 141 103 107 172 174 99 160 94 78 122 123 196 91 160 92 167 122 54 55 143 156 144 194 108 188 105 84 139 100 148 84 135 181 162 109 126 210 200 123 152 157 156 171 92 148 71 74 166 79 112 116 194 139 210 214 126 118 129 163 103 108 126 162 181 147 98 96 87 83 119 85 75 76 63 157 125 146 137 102 116 162 236 174 107 121 92 105 91 153 170 160 80 78 161 154 147 75 114 121 73 167 104 101 102 88 173 125 132 124 128 181 177 100 71 165 166 200 220 127 124 155 174 189 72 147 129 70 101 33 67 255 130 41 154 116 155 156 153 86 159 96 84 62 69 168 138 182 124 191 144 85 101 114 158 180 113 197 151 199 167 190 105 81 76 112 139 44 57 31 132 89 145 157 152 74 171 179 168 86 81 138 103 115 75 114 62 59 78 68 101 122 103 95 142 127 60 141 166 175 100 175 102 142 112 128 86 79 162 161 98 99 141 125 128 167 186 136 160 97 103 181 79 118 148 101 120 221 92 151 152 94 128 112 144 106 99 103 137 93 122 213 236 191 204 88 140 119 151 175 129 176 104 152 170 180 185 228 197 161 96 66 93 122 120 167 160 79 83 141 198 151 90 108 92 164 108 84 56 107 172 128 124 163 125 172 133 95 117 131 93 206 167
119 124 126 122 119 122 132 139 153 164 176 173 165 165 151 154 180 199 200 195 189 177 181 188 188 187 190 195 195 181 174 159 169 170 181 190 191 191 190 178 188 190 188 161 170 156 175 190 203 189 181 157 182 203 160 147 173 154 108 85 111 124 152 86 134 123 154 129 100 156 179 153 116 82 164 140 145 149 103 83 84 64 61 60 78 90 94 84 136 90 81 88 93 56 80 80 147 131 127 103 109 69 111 140 123 114 106 130 133 107 87 96 101 127 115 118 140 128 107 91 131 103 146 88 134 71 46 88 44 64 164 76 130 88 71 68 130 168 135 124 153 84 138 73 155 82 97 172 180 161 147 133 119 70 165 128 99 61 154 172 127 133 130 181 156 98 154 92 255 113 102 141 77 81 149 193 130 197 107 123 126 152 94 100 212 107 86 120 101 123 79 98 92 156 128 105 78 79 161 93 154 187 95 165 176 103 151 139 179 197 157 170 100 139 77 70 136 131 53 84 64 162 70 74 130 168 171 147 80 86 178 196 106 94 98 173 101 64 123 149 141 168 204 172 128 108 136 103 185 181 113 199 158 142 160 170 187 139 67 130 151 108 137 151 164 86 88 188 195 191 160 176 181 118 203 105 153 59 115 159 89 156 86 134 64 132 62 73 136 137 89 91 93 66 151 65 147 98 152 128 134 150 134 162 174 156 124 113 121 78 163 126 90 95 110 114 168 67 129 99 132 89 154 112 165 106 84 89 133 199 202 98 174 82 102 64 99 183 150 204 174 116 176 134 53 76 62 96 125 115 105 45 146 163 164 107 162 170 190 124 196 126 161 135 138 172 135 200 153 188 130 67 142 164 82 159 118 163 132 255 162 90 176 165 165 131 109 53 135 121 146 149 152 91 64 183 155 176 141 135 84 60 144 66 52 68 145 115 55 104 57 135 75 91 69 58 124 173 142 150 119 77 154 148 173 183 133 131 146 151 171 128 94 69 178 173 120 219 215 194 179 133 70 189 145 202 140 87 106 134 164 134 89 126 75 116 161 125 180 186 162 191 136 110 181 175 165 71 168 181 163 74 81 108 161 161 146 184 132 146 89 156 178 158 126 163 172 152 157 174 121 87 128 156 43 66 78 61 105 165 113 161 67 143 151 114 107 170 132 130 198 186
135 137 136 131 126 124 131 146 148 157 172 164 168 161 141 155 170 181 191 176 157 155 167 176 184 181 203 205 203 183 174 169 163 171 186 183 187 193 195 186 176 168 177 148 152 153 184 202 214 184 193 194 202 202 183 162 152 128 78 87 119 159 161 179 155 152 158 126 196 154 179 134 123 162 153 182 90 72 74 77 70 116 92 134 83 89 77 76 154 106 126 103 103 43 52 87 88 113 95 84 78 62 82 84 127 98 155 96 117 75 81 126 119 112 99 140 110 93 90 184 123 133 163 87 66 52 127 38 107 43 128 80 123 180 75 80 97 78 172 169 132 78 73 112 102 108 192 169 84 170 158 126 122 71 160 152 125 127 178 127 168 161 142 192 118 132 167 125 136 82 181 137 73 154 192 182 148 167 198 138 78 98 120 189 209 191 120 118 100 80 35 48 130 133 90 133 99 163 69 165 181 158 167 106 69 142 152 79 124 130 130 82 124 140 144 139 55 125 67 149 150 89 63 69 87 88 68 68 154 180 104 167 179 206 184 98 159 152 155 117 147 196 161 177 124 101 154 151 109 199 98 138 157 149 112 122 113 101 82 158 114 166 137 185 91 85 103 118 105 100 164 210 194 123 173 65 64 62 101 161 166 105 94 167 168 108 79 123 89 81 65 97 95 145 76 70 186 203 141 130 170 151 195 100 155 166 130 133 75 68 70 126 89 172 84 86 65 99 153 77 70 139 77 89 97 107 143 122 123 151 116 105 120 113 126 164 88 156 127 112 208 130 87 127 128 59 145 74 180 178 122 71 174 179 94 127 176 132 190 183 152 94 159 74 87 91 197 175 178 104 132 109 129 173 113 173 109 122 116 95 90 79 170 74 115 144 76 85 98 63 119 145 136 126 97 69 123 201 168 189 157 133 50 54 75 120 161 137 119 162 130 122 111 118 148 133 111 127 95 90 182 107 145 155 143 210 120 93 125 191 193 167 83 85 175 185 135 139 224 183 141 175 184 191 161 197 108 92 111 163 170 167 91 128 182 81 66 118 127 111 198 112 193 108 201 126 109 107 124 131 143 154 169 180 133 225 176 163 104 151 71 132 85 193 121 149 200 129 106 153 98 81 119 30 120 62 52 91 85 137 79 54 115 34 137 160 151 108 145 99 191 190
156 154 147 138 130 130 139 150 160 152 148 159 159 165 158 159 182 179 178 161 143 154 169 179 181 187 209 211 205 188 183 171 172 176 181 178 188 194 195 190 185 175 151 152 163 162 143 183 203 183 176 194 162 176 202 160 128 151 126 146 160 175 177 123 168 198 172 209 156 197 255 165 83 114 191 146 143 74 64 86 83 81 105 70 71 72 72 128 120 128 113 56 81 73 71 73 106 97 77 83 63 65 68 78 126 107 125 81 123 119 85 160 106 106 154 186 118 111 192 187 109 105 185 79 70 63 53 135 138 54 70 154 77 112 84 96 73 87 171 69 86 74 150 66 175 188 114 197 181 181 147 46 121 100 128 115 55 152 169 156 155 217 161 122 169 109 114 179 103 121 130 104 86 95 156 143 197 101 172 139 149 160 174 183 170 171 176 117 88 87 98 119 141 108 100 139 91 82 64 123 177 155 109 84 102 60 89 104 154 89 98 96 69 139 91 162 66 94 165 165 142 153 93 164 91 80 148 77 132 93 80 125 153 118 196 188 92 157 151 162 159 112 205 125 176 191 93 178 169 160 93 203 106 200 204 191 148 124 176 112 146 181 128 160 172 188 131 192 122 147 188 195 156 151 177 158 80 128 150 139 148 136 137 106 123 82 166 133 60 63 52 105 34 73 53 79 94 164 225 148 132 118 118 124 120 71 64 91 122 150 134 140 138 126 152 172 68 71 136 64 95 131 85 114 111 70 172 122 94 142 93 191 164 136 60 154 149 136 150 117 163 109 169 127 93 114 141 180 181 128 145 184 186 131 197 196 106 124 124 180 82 124 93 123 88 198 170 144 208 140 114 121 161 123 196 198 181 81 143 87 120 56 88 66 67 156 165 81 116 77 146 155 139 70 108 91 175 151 183 164 110 144 77 180 151 111 159 168 106 66 72 94 189 175 95 187 102 122 123 198 101 89 78 165 104 121 150 105 203 139 97 142 64 127 122 98 183 161 223 199 72 97 187 174 102 191 184 83 70 167 174 180 180 84 164 74 156 147 171 140 146 95 161 111 119 188 87 76 111 79 174 118 145 174 150 178 127 135 116 196 89 85 77 87 179 102 131 193 120 153 136 109 95 131 255 51 127 193 206 169 104 111 92 49 85 46 63 111 182 87 99 97
169 163 151 145 143 140 137 143 149 150 132 133 143 164 179 180 192 189 177 158 148 139 160 169 172 185 215 216 203 198 180 184 182 176 176 174 180 189 201 200 186 174 150 157 159 154 155 181 188 159 162 171 210 186 174 133 126 149 92 142 104 130 165 164 153 174 131 194 208 196 175 169 128 125 158 180 166 66 116 75 68 77 108 71 134 71 61 127 91 87 81 75 103 59 71 70 78 86 67 71 87 108 84 120 86 110 72 64 97 73 93 127 158 136 119 142 120 117 106 148 189 185 79 103 163 81 59 110 47 64 153 160 95 180 78 125 136 149 167 63 130 87 45 53 87 95 192 155 107 185 66 69 109 36 144 42 149 65 128 185 158 170 222 135 197 215 170 209 160 180 168 131 88 86 133 157 188 106 140 205 121 141 119 148 192 82 70 45 131 110 68 69 120 78 66 146 94 160 62 106 83 81 87 164 81 68 74 117 169 88 78 152 95 120 60 63 116 69 164 166 83 66 158 95 55 127 145 116 76 160 75 190 182 213 114 188 122 127 59 157 183 127 95 174 124 187 105 171 126 184 183 185 118 148 199 198 99 162 90 125 134 148 184 194 196 126 161 194 92 106 155 137 128 185 131 98 133 151 96 81 179 85 126 140 93 80 80 83 58 113 104 137 91 78 91 112 132 113 126 116 162 117 106 105 99 83 127 141 94 38 55 127 62 172 89 101 120 108 78 84 128 188 177 171 162 64 68 89 190 178 100 160 108 71 94 155 146 83 198 104 186 91 179 170 199 147 209 213 207 115 103 194 98 192 208 123 150 145 121 180 116 81 181 75 134 173 165 207 102 192 119 150 182 95 130 144 88 168 154 116 101 136 139 143 61 115 103 173 181 190 138 80 98 77 72 84 114 184 95 162 186 186 80 105 184 121 139 105 164 61 118 189 145 139 96 200 116 111 195 191 159 178 63 92 133 180 110 184 181 183 147 84 161 124 69 122 120 223 117 195 169 80 79 194 112 145 107 152 74 86 80 177 159 101 130 134 73 164 137 157 142 105 192 191 180 208 92 85 94 176 99 170 139 92 193 132 107 119 198 175 114 94 170 117 177 104 192 189 139 130 105 162 103 39 32 67 173 203 146 125 98 149 77 43 59 72 85 67 68 85 89 181
170 164 155 153 149 138 137 144 142 140 132 135 150 168 188 205 203 187 169 164 157 159 156 161 172 185 211 224 214 203 196 195 188 175 172 168 176 187 198 200 196 165 173 135 152 140 158 136 166 146 138 173 194 164 207 140 149 160 101 101 122 159 147 136 148 173 146 174 163 157 175 91 128 73 86 144 161 62 76 104 38 41 55 89 91 112 92 145 94 154 135 95 97 77 68 126 79 81 92 88 65 62 67 61 103 102 70 110 60 82 100 106 116 171 141 130 119 141 109 91 255 129 156 68 83 86 86 64 153 76 85 107 71 142 74 150 158 73 72 67 60 73 141 127 115 154 185 79 151 176 170 148 136 99 49 58 75 167 137 112 191 212 208 228 160 190 194 114 136 156 135 134 135 96 92 112 121 137 212 212 124 104 191 136 152 90 57 147 124 103 107 30 102 43 100 49 59 155 144 84 78 193 108 117 133 147 174 182 187 123 91 169 156 105 68 160 162 145 151 92 114 66 161 123 137 78 90 128 30 54 74 192 213 213 216 114 98 62 158 64 127 172 156 66 177 190 208 156 100 162 167 85 118 145 87 195 102 207 198 152 163 128 231 195 186 213 163 192 193 92 158 170 108 102 92 90 163 177 148 135 177 155 102 81 108 138 166 98 64 63 104 57 140 57 128 141 122 160 105 149 115 112 125 193 136 125 85 105 94 39 44 112 60 172 152 89 107 163 89 192 94 86 137 155 60 57 140 82 102 131 121 188 170 165 88 101 158 162 85 82 187 81 177 128 117 211 222 131 223 197 137 174 127 210 215 211 159 98 167 149 172 162 140 165 141 171 194 200 180 85 108 155 104 196 209 210 196 132 84 98 119 94 103 105 73 63 159 125 105 97 99 179 148 157 84 140 108 111 88 199 201 99 181 89 137 114 116 160 144 92 98 106 90 83 112 117 190 149 129 94 139 176 103 102 148 95 126 209 188 183 167 131 120 146 77 179 217 203 197 134 109 74 73 127 63 120 163 71 117 184 138 82 86 82 113 156 73 61 157 129 68 147 119 106 206 159 185 153 199 190 108 86 168 105 186 90 94 179 165 129 135 138 62 134 146 169 137 133 163 117 173 106 72 56 112 158 155 98 196 186 107 139 134 97 101 75 169 128 129 154 78 65
161 158 155 157 150 147 142 142 146 137 142 140 151 181 176 181 191 186 170 159 154 154 151 139 159 190 210 231 221 202 192 195 180 174 169 163 170 180 192 203 191 191 176 145 123 110 155 154 177 149 163 175 172 212 189 156 180 175 148 172 161 168 201 184 213 113 159 184 96 154 150 105 132 81 85 122 82 56 66 60 101 48 106 93 94 132 151 106 151 136 80 126 64 64 135 96 140 73 74 75 46 91 64 58 61 51 59 98 88 81 92 104 112 112 124 135 121 117 141 119 58 58 160 73 106 83 163 140 142 144 160 55 133 84 131 171 150 175 174 174 90 144 117 120 177 150 122 134 159 154 137 149 144 105 169 166 131 183 89 187 186 210 213 196 180 182 129 208 200 171 145 96 136 76 107 163 165 177 224 138 194 163 105 173 142 167 82 142 129 137 84 119 138 93 147 41 121 104 68 158 127 196 97 103 203 147 97 78 78 73 128 70 71 109 61 94 111 165 49 106 72 113 93 48 100 124 132 121 66 152 189 104 133 141 151 101 182 164 85 69 154 70 77 255 77 145 156 161 188 145 137 167 117 178 173 86 198 197 120 208 224 237 199 231 164 189 116 202 103 202 180 142 108 162 163 91 93 136 194 140 92 164 116 95 77 132 134 141 45 153 127 102 84 93 180 93 180 134 145 130 102 171 205 134 114 196 73 94 101 74 62 93 166 81 88 110 204 109 134 144 193 109 162 125 59 156 63 147 99 159 112 194 167 173 92 106 156 102 126 158 171 89 114 113 90 208 221 220 225 199 101 205 147 133 154 147 136 137 90 188 202 187 177 127 112 166 71 154 186 98 164 114 111 192 203 199 200 146 179 155 133 122 133 81 70 58 45 148 66 174 196 189 182 148 61 91 108 169 79 180 150 85 74 89 106 167 212 140 77 160 103 95 167 86 85 95 205 108 157 200 90 183 104 77 160 124 137 189 116 186 181 138 146 149 184 94 207 126 94 85 161 164 137 155 149 46 160 168 82 177 80 165 193 130 125 89 120 103 150 89 161 70 119 121 195 203 150 153 108 160 99 151 185 107 133 77 70 111 154 138 76 162 167 65 99 115 95 179 187 131 190 140 141 111 90 79 78 180 137 182 132 196 96 95 149 171 79 88 63 164 149 78
148 151 153 157 144 141 137 149 154 146 149 158 167 163 173 178 166 175 171 181 174 152 138 147 153 179 218 226 221 207 197 189 177 167 157 159 160 163 167 192 206 199 177 154 131 128 159 179 156 188 185 179 197 210 209 210 176 134 104 173 142 202 175 147 214 159 131 121 149 120 152 123 101 104 86 55 142 125 71 63 61 110 65 74 78 95 183 128 103 137 122 87 83 75 103 121 115 108 71 46 56 89 93 61 71 100 52 48 64 90 88 114 125 106 131 109 126 134 96 103 115 100 74 117 183 187 74 115 85 109 146 146 67 68 139 138 64 157 167 154 162 255 165 95 129 176 84 94 147 142 159 94 153 77 123 116 191 106 175 109 182 163 211 187 193 175 150 190 127 201 168 171 113 127 80 116 210 185 225 130 219 111 165 124 114 73 153 112 82 48 108 117 72 53 55 37 73 53 63 144 133 88 164 179 143 214 171 98 159 161 135 158 65 93 175 189 181 165 129 83 158 61 93 151 66 116 118 50 128 177 124 143 184 126 118 151 187 183 158 156 156 150 134 137 139 91 190 135 68 131 154 133 178 162 164 85 106 89 136 193 225 201 131 192 140 130 168 215 139 117 150 203 170 112 104 192 118 179 174 78 80 132 129 100 164 126 79 118 115 54 146 166 75 109 139 168 182 152 173 113 176 120 124 215 129 126 91 141 116 75 178 162 89 130 129 78 150 90 157 92 77 75 146 96 164 86 151 80 201 209 188 120 151 176 170 77 168 158 153 59 170 113 178 167 110 96 217 223 222 205 116 193 206 195 209 213 212 135 158 123 128 197 143 77 124 132 132 79 130 117 184 187 176 203 164 175 80 106 157 87 119 156 151 77 39 116 149 103 158 67 118 134 89 85 98 122 155 116 83 105 176 172 67 126 167 118 131 102 98 159 156 165 135 101 131 139 97 170 104 130 109 183 126 101 148 181 91 145 173 97 123 145 189 89 90 119 108 184 186 180 151 64 142 140 78 44 116 158 176 92 174 179 190 113 129 61 55 113 129 157 179 78 80 160 207 112 255 156 143 184 174 151 144 104 137 178 137 103 162 119 177 84 78 80 140 76 139 159 255 184 125 150 139 103 163 72 61 141 68 102 120 113 140 154 95 181 116 69 73 151 112 133
146 152 155 155 146 135 136 143 152 153 162 165 167 167 168 166 165 185 182 179 181 160 161 150 155 196 214 222 209 196 187 181 171 160 153 144 142 153 169 189 186 184 172 156 117 119 170 187 182 163 185 180 192 190 158 197 179 113 150 102 126 202 171 193 167 145 138 143 114 100 121 89 132 51 133 41 52 133 119 93 81 83 80 96 73 136 117 119 153 110 84 64 96 82 118 128 102 112 72 82 53 47 92 54 48 44 58 59 72 93 84 113 119 104 172 97 106 108 92 74 46 77 77 145 116 146 167 135 46 78 63 151 171 122 71 122 151 129 84 163 164 71 160 192 186 130 156 128 45 115 83 122 41 154 169 167 184 130 164 142 182 202 170 163 177 127 79 79 102 200 194 168 93 138 165 187 131 115 203 139 198 198 163 173 131 188 101 156 122 103 75 100 144 72 99 135 96 48 164 161 157 64 178 139 192 118 96 166 60 70 109 77 105 135 113 117 195 102 156 123 132 59 66 53 52 55 152 160 163 126 119 199 101 109 107 213 189 201 112 177 131 143 55 120 93 178 96 132 75 55 125 141 180 179 95 188 117 95 172 189 205 200 114 108 122 114 181 144 136 204 187 210 111 210 115 190 184 152 92 74 151 86 83 112 165 119 101 64 55 138 60 63 86 169 144 134 114 138 169 95 155 168 144 201 103 190 119 180 153 105 129 188 91 170 64 118 161 140 121 137 59 148 52 124 68 157 175 99 153 146 166 107 168 179 99 177 145 134 168 177 152 170 82 155 81 89 205 205 201 104 144 130 123 213 112 197 166 188 84 106 112 104 184 166 165 65 114 156 148 68 104 152 182 125 188 130 128 133 53 149 87 113 165 67 166 154 106 88 86 88 73 184 170 89 155 112 90 152 155 62 128 95 117 115 148 88 96 187 152 184 151 62 54 152 137 152 175 182 154 126 92 88 179 141 95 142 80 173 70 92 178 185 136 182 76 141 71 77 122 162 71 47 104 136 152 84 60 90 136 82 154 100 169 188 147 51 138 156 181 89 183 77 105 191 116 199 201 212 199 210 220 232 204 140 94 105 127 172 129 112 76 65 160 140 131 141 76 104 162 137 124 136 97 80 149 65 117 34 72 108 109 144 89 95 185 96 132 101 44 128 103 140
147 151 154 152 138 126 126 130 146 154 156 169 163 170 171 158 178 185 191 180 183 175 169 175 182 193 213 213 198 184 174 165 168 161 151 143 131 145 163 174 185 204 189 170 152 138 178 188 195 201 175 184 185 181 137 154 160 160 134 157 127 198 186 173 133 151 88 115 62 65 55 80 88 138 100 69 125 63 129 144 103 177 142 109 105 90 138 107 97 85 79 72 140 92 95 102 143 96 86 94 53 63 60 108 94 55 72 64 99 93 84 139 101 112 96 89 117 121 69 86 57 137 178 198 101 174 117 101 45 91 105 88 173 71 173 56 50 50 154 159 140 182 86 188 168 165 163 51 148 119 148 73 50 134 83 117 135 197 188 169 199 181 209 197 157 159 78 149 101 187 118 174 82 155 163 158 173 119 152 171 199 186 166 156 136 129 76 160 135 94 129 104 138 138 34 29 130 92 101 76 56 144 72 88 126 142 98 115 126 62 155 149 204 154 214 131 124 140 121 144 67 139 130 99 69 62 167 110 142 128 90 93 96 129 98 125 212 213 103 78 95 43 40 113 85 184 175 156 114 150 78 183 97 126 193 115 187 126 162 79 163 193 200 158 102 143 195 191 185 151 145 178 184 129 117 199 141 115 175 80 89 169 172 84 185 128 105 150 65 74 57 63 75 141 115 169 90 54 60 52 66 128 76 146 91 95 151 119 93 198 196 89 182 164 112 50 86 142 139 133 55 59 49 78 82 92 100 176 104 107 157 95 91 180 88 122 84 122 78 153 164 96 132 96 168 140 96 102 202 196 122 111 197 91 197 161 151 70 150 80 194 175 157 145 62 55 56 155 85 169 97 101 120 121 94 145 80 148 94 54 118 80 113 154 172 120 128 67 89 114 148 183 152 191 143 124 86 140 68 80 122 101 59 143 130 98 178 120 137 114 190 84 156 52 50 64 128 206 124 196 108 192 158 101 99 157 131 169 134 61 135 140 177 105 56 164 157 157 106 49 137 132 152 155 97 132 68 72 58 160 92 140 80 89 148 147 144 102 129 177 78 75 151 114 190 83 169 131 185 241 202 192 124 151 168 94 114 166 184 144 61 143 71 116 85 81 186 171 130 178 169 97 82 127 172 59 33 49 28 108 171 110 93 125 170 64 161 137 144 39 39 60
152 151 151 150 139 128 129 127 140 148 155 149 148 154 160 166 163 184 180 186 191 194 183 191 182 214 207 211 196 179 158 161 167 167 160 150 145 148 164 186 203 207 180 178 169 170 180 163 160 183 172 160 152 149 94 95 142 88 148 162 144 179 165 172 95 128 141 142 80 149 78 120 127 76 86 94 88 125 81 105 125 116 105 122 103 85 126 167 88 93 87 134 121 90 117 96 110 129 65 54 51 110 68 72 73 78 81 111 102 99 77 88 91 89 86 93 72 91 73 63 79 76 118 99 105 198 92 176 70 49 46 98 77 167 66 54 104 153 152 72 175 175 151 183 144 157 68 109 154 162 143 43 84 140 157 66 95 167 195 180 94 98 201 190 138 90 164 168 112 131 161 182 173 118 157 125 174 131 89 184 112 173 91 161 188 200 103 129 122 62 54 82 122 143 120 127 74 87 154 122 79 63 157 95 166 161 186 115 79 159 108 137 255 169 231 178 186 161 71 75 93 58 147 101 121 135 112 109 181 186 101 86 73 84 156 119 128 143 162 111 165 132 52 84 128 175 182 172 77 59 172 126 158 156 132 118 94 172 166 141 163 180 192 104 187 186 172 197 147 136 65 112 184 203 171 117 212 168 119 95 95 128 103 165 157 115 122 193 160 64 61 152 153 168 129 99 76 57 156 61 81 137 88 142 154 89 131 84 112 171 187 131 84 86 46 46 32 68 38 48 127 52 123 162 144 188 205 122 221 140 209 123 176 90 86 76 167 147 192 134 183 196 67 146 255 109 186 116 199 188 131 97 105 120 170 116 90 150 149 161 192 188 177 67 150 90 120 91 168 132 136 184 188 144 176 169 146 147 99 47 119 148 97 170 179 130 190 175 156 158 100 120 107 111 189 171 123 78 164 74 137 154 172 117 205 144 96 149 191 202 125 74 155 67 68 176 88 106 210 102 149 159 158 154 114 157 108 83 69 155 175 156 149 134 52 146 87 163 52 45 41 137 61 163 118 162 67 69 55 137 136 152 150 73 127 134 71 89 173 171 155 158 137 104 82 134 100 162 213 235 157 251 209 102 79 180 152 153 127 102 255 56 95 103 81 105 192 135 164 94 119 137 144 183 68 119 111 49 138 75 69 86 59 50 71 89 96 60 75 91 49 57
146 144 141 140 136 130 129 123 125 130 133 142 153 160 164 175 167 169 176 180 192 200 183 198 208 223 220 221 202 174 151 145 160 170 172 163 163 160 159 191 203 205 190 172 180 190 171 186 149 181 181 185 168 151 101 127 145 147 137 79 100 110 149 156 162 162 118 61 108 117 76 165 137 111 129 74 69 75 144 114 135 108 134 152 81 70 71 76 86 81 88 78 83 107 111 91 90 107 74 82 59 69 74 85 83 84 86 113 119 93 81 88 70 79 87 99 83 65 67 61 121 92 111 126 99 121 191 92 166 71 163 166 119 74 62 93 41 148 69 130 172 100 167 131 165 129 146 134 89 172 167 63 109 121 136 163 93 201 161 129 185 89 163 150 157 141 128 158 159 166 177 190 194 110 105 115 134 79 132 60 71 149 106 162 149 189 99 180 168 117 155 68 120 83 123 118 35 45 154 155 162 148 157 183 192 186 89 160 160 144 128 132 111 133 125 209 190 193 172 69 74 126 137 107 98 173 184 165 119 136 113 160 156 63 143 193 190 132 186 193 157 156 146 140 130 78 104 87 118 106 118 109 212 210 160 128 178 68 114 140 100 111 182 153 167 174 212 160 176 151 80 136 84 141 152 114 108 208 106 130 89 132 141 138 133 112 113 183 163 147 148 107 163 144 88 162 82 68 68 87 141 68 56 146 130 95 173 124 182 123 174 182 150 66 50 103 38 71 92 128 63 127 167 181 160 214 136 141 202 144 198 136 116 200 153 93 85 180 143 195 197 162 79 119 159 91 98 161 161 84 164 171 168 168 142 97 66 164 169 172 181 158 143 114 57 164 88 122 144 122 184 140 184 168 107 119 123 105 138 31 73 30 51 148 100 166 84 80 167 121 74 99 115 172 214 164 78 158 142 158 165 171 150 191 196 218 131 116 104 145 185 117 71 108 97 181 193 104 141 203 105 125 104 129 152 157 93 176 167 78 169 125 136 113 54 152 58 133 70 163 133 91 81 117 187 176 132 146 142 119 45 44 72 96 114 116 54 153 150 137 54 94 159 172 159 175 107 168 179 126 241 229 190 88 100 108 160 109 89 140 65 74 78 156 184 117 115 190 118 147 177 255 118 144 72 57 119 48 92 111 121 107 47 44 46 149 54 71 148 72 92 137
142 138 133 132 129 126 120 127 122 123 131 133 146 149 170 171 160 165 173 173 179 184 208 219 218 228 235 231 202 177 144 146 161 177 192 189 184 175 169 182 195 194 183 189 187 185 178 169 164 136 148 179 166 164 99 133 149 144 73 75 111 153 113 135 97 105 153 120 98 126 119 85 169 149 152 72 70 72 119 89 124 160 129 95 83 64 71 100 119 114 75 69 128 107 89 136 107 88 62 87 96 85 86 94 131 99 118 147 142 105 83 98 116 63 106 55 101 128 89 60 130 84 95 96 140 97 166 200 91 73 147 153 182 75 164 98 41 84 158 205 166 122 141 160 124 61 139 103 164 152 175 63 111 71 76 127 98 206 96 156 73 134 90 113 128 162 185 156 166 91 179 183 190 183 139 167 89 140 149 54 61 145 80 140 87 197 205 208 99 127 186 67 91 59 59 112 128 51 97 147 132 58 72 154 178 173 132 164 143 66 126 123 192 119 100 86 87 177 181 168 161 140 92 84 147 255 161 90 188 83 142 147 152 141 103 176 98 202 125 114 84 59 61 77 165 151 167 148 146 148 184 169 204 201 176 68 140 155 154 127 80 160 91 116 143 210 202 171 156 66 60 86 107 174 108 127 198 104 161 133 93 98 122 79 162 104 217 149 96 199 183 103 107 195 90 131 82 169 113 53 106 56 60 85 131 77 76 74 82 185 111 91 95 72 255 106 70 82 59 99 174 91 108 136 148 135 136 168 208 187 111 141 214 171 113 131 102 93 158 182 164 90 98 136 103 187 87 87 80 165 101 73 103 177 137 143 102 170 150 92 73 142 124 160 141 112 102 122 179 117 88 183 89 145 141 53 147 147 37 109 54 67 66 55 114 115 148 169 163 64 124 200 175 148 188 109 187 155 169 172 138 180 127 140 182 135 121 167 174 110 156 98 117 179 165 89 82 179 81 101 95 122 128 135 71 80 155 76 190 164 176 185 74 141 167 169 153 144 126 88 191 145 203 203 96 59 116 57 60 141 139 42 131 50 110 139 60 126 121 153 129 62 58 150 68 93 118 168 178 196 109 213 112 129 108 61 97 71 78 104 126 126 166 137 138 126 109 189 107 149 96 110 175 168 72 85 45 80 120 160 76 67 76 130 42 41 45 136 68 48 97 100
132 128 122 118 119 121 122 119 120 122 130 133 159 168 182 173 168 177 163 168 167 182 200 223 228 224 224 213 185 162 153 148 162 180 199 200 186 185 181 182 185 177 162 163 172 175 167 134 143 172 162 158 143 170 149 122 136 117 127 81 86 79 113 129 173 132 157 176 111 125 147 121 106 70 136 79 140 109 105 97 97 124 98 90 107 137 123 62 120 77 61 67 66 119 81 91 70 70 120 79 102 97 103 108 116 151 124 144 145 129 102 52 39 44 70 52 65 95 114 148 121 112 195 100 87 94 187 183 195 95 177 137 255 79 63 48 55 151 92 220 246 169 154 193 72 134 140 44 159 78 100 78 58 47 143 131 157 190 147 95 135 127 105 91 136 124 191 97 140 146 158 176 154 179 162 115 126 123 133 99 54 149 55 153 163 92 192 193 107 118 99 75 110 137 107 98 139 40 132 45 149 157 140 154 161 170 102 149 154 153 90 131 96 90 161 161 154 64 169 88 152 86 46 115 130 148 94 181 109 167 151 166 133 168 71 112 185 208 175 125 193 85 154 159 162 163 141 62 154 136 172 103 195 90 77 145 54 50 74 151 116 176 188 116 201 106 117 188 106 113 86 146 101 97 146 89 111 122 72 158 127 51 65 57 112 159 127 97 163 133 101 125 125 104 93 92 97 163 156 71 119 73 84 176 139 179 86 90 171 134 154 74 86 63 142 63 101 176 133 81 83 109 151 141 153 140 229 160 118 161 120 186 116 182 138 229 134 171 190 156 115 50 153 60 89 77 93 125 92 100 69 138 160 181 195 91 180 154 96 137 137 75 78 118 158 98 177 78 179 77 156 164 139 121 41 98 147 139 63 114 93 97 55 151 146 173 168 172 161 126 70 140 192 223 136 101 97 153 126 85 182 128 205 155 212 126 174 198 144 200 193 93 166 179 173 119 170 60 93 68 101 130 143 165 79 86 64 70 191 199 96 126 178 91 185 108 89 255 88 101 177 139 215 114 123 94 144 134 145 147 48 56 130 51 62 158 171 119 178 159 80 53 109 91 162 172 135 139 163 82 86 186 84 170 56 100 57 61 70 167 75 92 88 169 130 169 106 159 138 74 82 165 94 128 158 95 47 63 90 79 184 139 117 157 149 61 49 113 99 86 156 85
132 129 121 116 110 114 113 117 127 130 137 154 162 182 197 178 169 161 170 170 167 169 187 209 240 234 226 195 184 158 163 162 171 176 184 194 188 177 179 178 178 159 165 174 193 186 165 129 165 129 176 142 175 177 158 127 136 174 130 148 120 147 138 170 114 160 157 98 189 139 159 128 125 68 64 119 88 114 97 62 60 120 92 91 139 101 54 77 68 82 65 74 51 88 68 115 70 100 97 81 118 96 103 113 135 115 139 139 154 157 145 70 39 32 57 143 74 71 64 133 111 187 141 191 140 131 153 190 93 157 174 118 102 170 157 86 47 62 99 235 216 161 189 107 74 45 36 94 100 63 161 171 157 64 65 148 188 96 182 121 75 149 74 99 64 117 189 128 175 183 95 120 206 204 113 78 115 40 129 108 129 134 103 177 83 177 155 120 195 150 86 170 74 101 48 59 152 131 149 57 125 123 147 162 255 73 116 154 152 136 151 75 98 83 102 141 155 59 103 105 151 90 50 133 148 93 119 112 110 72 150 105 176 165 115 65 181 177 219 192 97 73 58 154 139 60 109 155 72 151 151 162 178 180 95 156 162 84 88 143 106 144 152 108 91 88 142 151 107 130 150 76 96 168 102 167 108 145 142 74 88 82 56 71 82 122 132 79 104 170 192 114 98 120 117 89 191 132 85 128 121 120 102 169 90 133 107 105 171 175 79 173 61 70 57 70 91 190 168 166 147 107 172 94 178 138 180 172 180 152 130 126 181 183 116 119 224 120 186 171 63 154 123 106 79 72 160 73 83 115 66 78 170 95 151 205 131 96 71 144 48 155 60 154 166 128 178 133 63 65 136 150 58 140 130 120 107 92 145 55 79 54 69 129 181 107 78 92 93 89 158 106 196 168 162 204 101 120 110 131 92 123 222 227 153 152 199 99 179 192 187 196 145 103 178 97 104 38 111 128 72 30 143 80 57 97 71 153 151 176 193 184 96 123 163 193 184 121 100 168 155 233 235 255 157 81 41 139 63 156 171 167 133 65 116 156 126 101 182 178 116 48 50 149 119 165 82 122 176 133 139 179 170 171 144 132 94 154 145 109 161 163 65 94 98 116 184 108 103 141 169 68 177 81 74 136 63 88 142 174 191 180 173 71 62 54 98 56 153 114 145 104
131 130 121 113 105 108 110 113 130 138 147 162 183 193 205 181 180 159 154 151 157 155 180 214 227 228 212 186 163 154 162 165 167 156 165 169 180 179 172 164 171 181 187 195 179 161 172 169 174 158 175 132 175 125 177 149 177 161 176 118 157 96 125 120 146 97 169 133 114 123 209 97 134 68 118 111 113 69 107 91 100 127 156 124 128 74 66 71 101 78 71 54 33 46 61 104 67 84 72 83 103 95 94 105 117 143 114 134 124 99 84 89 77 97 63 77 117 91 117 76 98 101 117 140 76 119 115 125 77 126 124 187 88 83 145 58 150 69 185 144 224 135 154 112 66 150 44 23 134 61 155 163 88 151 163 173 93 109 133 132 68 154 140 103 159 66 92 156 125 144 97 137 203 200 93 149 57 54 91 129 48 158 129 93 171 153 106 112 201 194 180 64 58 121 71 62 55 81 171 100 55 93 74 55 163 74 72 137 174 124 106 101 138 142 181 59 63 93 95 156 91 73 69 82 111 65 155 89 162 95 153 188 97 162 165 62 60 85 158 118 103 184 167 162 167 173 145 53 59 153 160 88 69 78 83 177 157 164 79 96 112 161 140 152 86 89 163 80 92 141 114 93 91 150 153 144 139 159 132 74 79 43 93 68 88 90 134 150 154 95 93 140 119 109 94 96 189 111 119 105 133 117 102 109 131 93 85 172 143 75 100 161 120 86 92 65 103 96 198 196 202 107 150 91 74 188 102 203 190 96 167 111 113 85 186 203 144 145 194 85 167 53 151 64 67 125 60 104 113 148 153 91 161 144 182 136 153 110 120 79 98 151 84 109 164 108 76 64 156 37 86 46 66 104 62 24 98 96 157 156 169 111 87 97 193 194 169 170 125 42 148 123 105 149 174 193 113 136 110 165 195 205 229 226 115 199 99 91 100 104 157 144 89 115 159 166 123 131 29 82 119 115 27 126 125 127 153 115 124 163 108 89 169 144 108 76 93 164 138 138 110 227 129 215 201 74 160 46 46 63 83 121 203 160 77 173 175 81 111 180 90 101 157 49 56 87 83 138 122 180 175 121 78 152 76 114 130 117 152 85 91 97 154 105 169 134 194 180 213 183 139 140 129 162 183 89 84 177 91 115 194 96 195 90 59 56 56 73 185 151 193 98
134 131 123 113 105 107 117 119 135 151 154 164 182 182 186 172 161 158 157 164 156 165 189 204 220 205 192 180 173 177 179 171 164 151 147 157 162 172 167 169 165 178 167 190 186 178 162 177 166 182 133 176 177 175 173 176 161 209 138 170 118 100 91 161 106 153 178 107 156 125 181 179 87 68 59 80 112 80 121 86 82 135 91 82 92 105 65 127 87 89 109 42 35 67 26 44 90 73 92 83 103 127 112 90 129 110 142 94 82 78 101 108 104 95 105 94 106 100 87 158 139 110 127 110 171 159 117 161 156 178 95 194 195 171 175 160 154 178 185 96 103 200 146 78 169 133 109 74 117 156 168 122 162 132 118 166 138 176 174 151 167 157 137 158 156 165 148 95 163 160 70 101 162 143 96 71 65 82 122 50 50 163 101 175 83 110 161 170 137 111 115 107 64 53 49 58 138 107 94 178 101 76 150 161 182 176 83 81 83 82 88 105 143 180 70 139 137 138 71 170 174 133 164 163 121 98 115 64 159 180 171 96 131 126 56 135 150 176 127 146 101 144 150 117 190 129 160 142 156 107 138 145 136 149 154 192 89 186 183 80 186 196 200 144 91 181 84 88 127 106 135 165 168 84 90 57 138 171 172 80 93 127 147 57 102 60 65 114 151 118 124 172 203 114 174 131 88 92 115 115 123 120 189 106 130 188 141 77 111 88 89 194 90 74 65 126 81 161 197 184 192 148 97 171 74 68 170 181 81 112 102 71 163 101 155 91 102 110 100 177 71 70 98 69 160 170 170 132 79 169 72 159 158 171 171 162 142 107 55 81 71 129 86 173 184 183 159 111 151 111 119 109 125 124 122 49 17 76 149 117 138 180 129 154 118 102 83 112 54 85 74 185 161 90 86 173 129 178 127 181 124 114 213 217 101 174 117 106 174 110 185 192 188 95 79 166 51 132 60 117 15 95 94 64 144 126 152 110 160 79 169 96 119 177 151 54 91 54 80 118 206 113 207 122 96 88 169 149 58 73 135 117 212 143 147 98 97 173 83 72 176 98 81 56 147 128 116 88 112 152 106 158 116 185 88 72 100 100 97 69 162 160 73 147 83 84 200 206 214 126 171 156 100 150 153 135 119 202 101 173 99 168 191 187 119 107 57 163 132 197 98 131
122 120 112 105 106 108 115 128 134 155 160 179 177 177 169 173 157 172 167 160 169 183 203 221 218 193 188 179 185 189 179 176 161 151 149 148 155 165 171 164 169 174 160 179 152 158 143 146 172 172 185 157 183 175 166 185 186 135 148 173 180 120 105 169 147 146 151 118 156 139 145 110 86 129 52 46 80 116 73 67 65 63 64 64 57 113 54 62 104 119 83 78 55 38 69 44 72 62 108 93 95 97 99 83 133 149 122 85 124 63 71 143 145 118 114 155 109 112 79 84 97 134 118 80 152 138 118 150 179 127 94 144 166 92 96 130 79 110 187 183 172 152 163 94 144 140 145 128 137 168 161 65 126 116 52 155 169 138 171 76 149 127 100 82 162 72 163 84 135 119 65 97 179 190 175 92 84 162 115 91 127 58 160 71 145 124 208 172 159 146 112 71 62 77 96 137 96 146 215 101 191 103 74 145 155 182 145 192 140 168 130 60 148 79 145 87 57 72 127 77 118 176 101 77 59 120 121 124 76 182 187 94 160 171 51 105 88 165 110 132 193 158 104 136 178 191 95 185 79 153 65 96 109 173 93 163 166 109 171 114 177 120 102 192 172 147 175 72 88 70 148 157 77 171 116 114 155 133 169 91 143 122 45 70 66 62 139 164 90 159 74 177 199 98 157 95 116 98 98 83 95 103 194 175 77 112 82 106 82 81 135 101 110 109 105 92 154 190 95 113 170 104 152 180 142 77 72 178 70 123 149 75 177 144 145 133 183 92 180 181 171 136 168 79 129 102 191 158 175 120 72 136 96 154 110 187 85 119 63 45 46 138 122 187 151 120 96 133 164 60 123 105 30 123 59 56 14 122 118 124 68 164 134 193 196 184 184 72 72 65 85 116 144 198 90 194 111 188 137 129 121 128 102 111 177 160 66 76 83 164 104 105 91 137 160 120 58 43 118 124 102 134 50 52 76 147 157 59 155 76 108 72 161 169 65 146 88 150 113 124 174 193 174 118 183 161 140 137 153 82 157 111 114 188 113 187 169 156 102 125 60 62 130 49 114 148 73 81 107 158 173 102 171 93 185 68 77 144 70 177 79 78 59 146 63 135 153 116 156 98 87 44 121 114 172 207 126 104 124 182 113 103 99 157 131 72 86 189 97 136 113 155
104 103 99 96 101 106 118 131 136 160 183 183 168 161 149 153 154 162 184 192 185 180 192 204 201 197 173 183 192 201 195 181 170 164 158 151 159 167 170 171 169 148 161 142 139 148 121 142 141 134 193 169 173 195 186 183 141 186 130 145 130 130 179 172 156 193 184 140 161 135 195 120 162 71 138 99 64 58 78 114 95 85 60 59 52 42 75 48 97 74 108 255 31 23 18 43 54 82 92 78 116 112 103 134 142 102 91 102 80 74 88 127 109 129 97 173 119 116 120 100 101 97 145 133 50 101 161 76 177 130 86 85 176 75 76 89 120 95 141 123 132 164 51 123 138 173 175 121 163 134 137 146 48 62 112 136 123 161 184 146 156 93 58 83 64 178 125 114 70 93 143 160 92 189 199 93 173 178 112 133 156 160 108 153 175 96 125 154 109 105 142 174 161 50 151 164 106 162 156 185 212 188 112 202 217 190 192 112 102 101 147 47 57 144 69 104 115 28 72 116 177 100 93 183 135 149 135 171 191 88 148 175 75 66 126 135 71 66 70 82 191 105 186 121 89 198 126 171 101 63 62 58 147 91 174 157 180 117 133 134 164 97 137 103 192 151 142 153 56 62 120 147 107 113 155 108 83 178 120 142 166 52 84 92 136 66 97 65 74 127 95 161 192 152 130 87 96 135 66 69 159 85 108 185 160 79 153 169 77 96 87 135 139 112 179 139 163 195 173 99 181 146 113 102 154 74 89 141 131 55 163 83 148 95 185 153 75 98 93 78 172 69 82 162 189 91 181 191 185 74 150 177 93 189 184 169 137 127 136 108 123 151 135 171 187 210 159 188 102 105 138 122 103 28 126 23 25 138 122 160 157 163 74 86 165 109 159 170 96 151 78 115 203 200 189 97 211 215 161 233 130 140 182 180 157 142 126 178 77 119 98 188 191 183 115 154 59 54 117 55 113 134 133 124 110 76 92 115 127 171 89 111 80 148 157 49 63 137 94 156 173 181 181 95 74 175 139 176 74 138 124 142 198 122 190 99 141 112 62 50 122 72 84 50 134 141 54 144 117 164 58 90 172 191 191 73 117 141 66 77 126 180 69 99 63 107 193 171 112 109 160 129 75 126 152 150 146 161 93 95 187 201 98 169 95 88 110 129 149 79 70 63
90 91 93 95 102 108 113 122 148 170 179 185 167 154 148 147 152 177 178 193 204 196 198 201 197 190 177 183 190 196 187 171 164 169 167 162 166 166 177 174 164 158 155 153 146 129 106 132 122 169 180 212 217 178 200 185 130 120 105 131 156 106 149 122 161 159 103 154 117 90 154 125 156 140 54 106 54 59 71 87 72 79 100 128 110 110 68 52 97 74 119 71 38 27 54 73 83 127 104 81 133 132 107 144 123 116 122 114 102 112 93 118 93 111 89 143 102 89 139 76 167 94 74 85 51 62 78 81 103 186 176 166 161 153 141 203 119 150 98 189 172 61 151 56 152 154 184 178 88 103 78 82 52 121 119 145 84 134 145 195 146 132 125 111 119 177 174 125 110 106 157 68 79 125 127 185 139 190 163 103 150 135 112 88 164 122 123 149 145 108 186 110 145 121 58 166 176 170 195 119 126 184 105 205 211 116 124 154 110 82 134 93 81 152 104 77 72 91 127 110 166 208 107 194 185 173 93 165 117 202 191 144 137 152 165 47 54 106 68 182 191 181 92 135 190 188 196 179 172 155 51 150 117 136 101 82 150 136 62 86 139 130 184 147 169 114 137 134 160 155 76 134 61 100 169 91 161 177 157 165 60 53 46 67 129 97 144 173 72 135 105 132 128 100 177 117 73 163 52 85 164 112 94 76 170 165 100 161 92 182 183 93 200 194 121 223 217 106 203 106 225 183 218 116 163 90 144 63 48 86 108 96 111 116 108 169 153 164 71 107 76 92 126 128 130 193 105 162 132 65 83 85 191 103 97 169 181 142 129 162 145 40 76 171 153 105 205 154 170 131 62 117 19 47 33 98 117 77 159 164 149 116 174 110 71 171 116 120 104 82 125 133 203 104 174 194 119 120 220 202 225 109 189 178 77 83 108 74 72 183 189 146 145 163 134 143 93 66 114 177 70 157 140 152 148 89 166 166 67 79 82 180 137 133 163 150 65 96 89 255 118 198 88 171 73 142 95 101 100 192 138 103 168 92 127 90 95 143 149 71 93 94 136 138 98 146 150 109 52 51 154 132 187 194 83 60 118 108 98 180 155 81 162 109 69 100 101 121 151 174 56 68 113 114 96 102 108 120 102 159 198 148 207 114 80 131 120 87 93 166 146 79
102 103 104 107 112 116 124 132 154 169 173 169 168 149 126 121 139 153 173 185 191 191 172 172 166 182 173 176 180 178 173 168 163 163 168 162 171 172 186 177 164 141 145 153 143 119 105 107 119 153 188 190 172 219 187 195 179 162 156 128 111 94 162 127 118 143 105 104 97 168 106 163 169 113 134 138 128 118 255 93 76 137 136 76 134 54 49 108 62 65 95 68 68 99 121 73 108 93 101 136 98 144 119 92 111 83 138 107 107 145 84 128 86 141 115 179 113 79 117 75 175 187 86 127 53 168 178 87 105 74 160 47 44 167 130 165 135 185 116 182 65 53 107 102 128 171 101 188 109 183 149 100 45 120 97 31 96 158 95 192 153 192 144 182 85 126 171 109 181 149 175 81 152 98 178 156 165 197 141 83 132 188 147 126 213 208 185 152 127 129 85 119 125 133 74 147 195 158 170 186 197 194 192 129 143 199 195 151 85 30 53 75 153 140 157 57 71 101 152 151 103 151 201 131 92 88 185 177 206 205 195 178 124 164 77 122 153 50 130 178 94 78 128 165 185 94 198 182 141 148 131 169 156 134 148 109 63 125 171 108 105 181 105 193 126 160 164 158 153 106 168 148 90 142 83 131 141 164 146 65 75 56 67 124 64 176 147 90 179 163 165 166 91 190 94 83 123 150 154 155 67 178 133 134 66 93 120 165 135 130 131 152 90 153 157 220 162 123 141 114 158 141 132 146 108 93 151 153 133 85 150 182 112 166 176 140 119 65 77 67 99 131 123 94 172 164 167 100 159 124 156 164 78 188 100 96 79 120 143 66 66 34 123 82 176 94 95 131 138 79 84 103 105 106 91 80 174 85 164 107 136 181 176 89 164 165 155 116 147 106 154 131 150 201 131 130 206 203 207 211 186 103 103 181 102 171 90 155 74 95 162 104 220 221 211 168 103 147 172 94 154 108 91 134 88 155 66 83 156 161 94 79 160 75 79 161 62 164 91 171 157 173 120 90 119 89 167 116 88 94 109 190 135 184 99 72 66 103 113 48 124 80 151 77 126 143 142 65 42 54 79 69 145 102 84 164 153 110 132 106 187 162 86 180 81 114 86 127 84 149 64 69 178 94 173 196 87 153 141 95 108 173 153 84 74 95 93 186 73 58 58 152
132 127 122 117 123 133 138 141 150 152 167 172 167 147 121 119 122 146 157 194 194 189 163 157 152 163 168 174 166 169 162 158 157 152 160 167 182 187 187 171 164 156 159 157 163 153 105 107 92 118 165 150 198 215 202 151 160 135 131 142 116 158 101 142 103 137 167 142 159 102 86 144 160 119 83 71 54 75 133 119 83 77 94 114 108 72 65 56 58 126 131 80 91 73 137 105 107 120 109 152 110 99 107 105 128 73 116 75 89 90 100 96 91 150 106 93 126 107 89 114 102 168 101 71 63 121 81 127 89 164 88 110 36 108 103 164 166 156 206 165 168 150 147 86 138 96 114 162 182 173 169 86 48 134 95 130 73 162 140 96 198 209 130 172 176 104 187 177 166 144 121 93 144 54 153 166 176 124 109 185 194 185 206 211 184 106 191 98 139 62 73 156 151 112 109 99 182 147 85 181 72 81 147 79 176 105 181 175 82 119 124 141 167 185 98 60 101 97 159 72 173 189 101 194 188 180 180 178 160 180 119 155 156 177 193 118 130 157 160 172 179 129 163 157 179 108 145 128 119 163 107 85 124 184 114 157 67 60 141 82 104 186 166 98 185 68 169 174 167 98 185 113 161 81 187 176 71 53 68 71 65 148 79 101 76 101 153 99 89 135 135 113 186 91 112 147 165 114 154 123 117 92 168 68 81 117 125 71 119 128 116 88 75 84 123 218 116 200 187 118 176 118 149 221 177 128 152 81 82 155 73 74 119 129 154 155 126 63 152 91 152 158 178 97 154 119 70 156 58 153 49 147 102 97 182 77 171 139 141 127 137 68 127 46 139 149 140 98 116 156 86 138 66 59 84 144 177 158 171 84 137 139 120 91 112 107 63 169 155 163 200 157 118 114 149 169 196 115 209 211 125 107 181 208 115 103 84 115 146 146 125 204 213 207 203 111 186 156 86 81 78 179 78 150 132 148 140 57 59 146 85 114 176 178 110 164 166 115 173 86 117 142 189 82 87 182 105 106 188 189 255 126 121 95 158 164 64 128 81 45 87 168 113 74 132 93 50 132 119 146 101 80 178 84 93 113 146 119 137 122 80 121 170 91 118 142 92 146 172 134 162 73 120 72 139 137 157 123 152 87 196 112 168 77 67 87 88 177 134 110 100 89
160 151 139 136 143 147 154 158 153 150 157 165 164 157 131 128 136 146 159 185 186 171 173 156 159 178 187 184 170 154 162 159 155 151 152 165 185 192 190 187 169 172 150 178 160 164 138 125 90 129 129 163 192 196 201 131 162 125 135 133 100 128 160 172 185 168 171 144 158 139 97 177 166 138 125 55 102 136 96 142 162 80 72 88 70 140 67 65 74 109 118 90 78 85 96 94 110 107 152 124 94 92 96 85 87 100 77 72 71 74 99 82 78 101 121 166 104 93 131 114 157 90 178 124 67 102 185 167 162 126 120 140 147 83 201 128 229 119 185 112 61 73 152 174 106 112 208 144 102 157 160 118 57 89 123 102 64 138 148 164 153 143 194 156 209 140 96 175 125 130 133 118 85 147 57 255 102 179 122 171 176 137 199 121 162 95 89 120 119 54 156 125 143 141 96 195 93 193 109 168 104 126 71 80 172 155 62 75 143 70 65 164 82 142 189 156 71 142 65 72 77 98 102 168 88 55 147 106 111 163 193 98 213 161 195 154 169 77 131 125 142 105 65 171 127 155 199 94 91 165 88 101 99 169 157 132 103 114 83 150 138 164 122 116 94 91 155 95 182 169 102 158 87 176 152 78 125 138 53 118 79 163 164 138 81 164 81 151 91 64 95 135 152 119 154 85 182 176 154 88 80 161 122 75 81 99 111 165 120 112 197 161 172 141 112 106 215 177 124 195 103 97 109 176 176 137 135 187 101 101 106 79 132 156 141 147 116 101 165 104 161 169 192 113 136 185 80 74 154 64 150 159 143 170 91 101 155 151 144 89 104 118 58 100 90 99 113 158 90 72 153 85 107 183 114 202 106 183 136 98 146 135 198 160 172 89 65 160 89 103 199 175 218 194 85 154 136 99 101 104 150 157 138 157 178 123 194 159 165 112 186 173 196 131 171 123 136 72 72 55 141 131 182 163 129 85 39 69 124 84 183 133 179 175 145 153 81 121 147 145 119 114 106 77 185 180 93 176 166 75 182 171 165 90 64 90 86 134 142 141 110 84 151 112 159 126 111 119 51 145 119 138 198 128 121 189 185 91 140 119 128 193 123 145 132 139 151 103 78 177 102 181 140 72 161 79 141 46 88 120 182 128 168 68 77 81 170 166 76 91 181 191
165 152 139 143 155 164 165 157 158 160 155 161 175 156 147 138 138 165 179 174 176 178 187 185 172 179 194 192 172 168 160 169 169 161 154 160 180 189 180 187 185 183 182 197 187 163 142 122 121 100 134 138 134 157 176 157 159 151 157 121 151 158 101 115 112 118 163 140 76 112 68 146 93 94 67 59 109 158 79 89 158 128 89 144 76 114 65 70 119 75 70 129 86 79 85 102 117 99 120 98 84 87 117 79 98 70 124 74 77 77 95 95 99 145 96 138 90 103 74 79 79 92 156 120 174 93 136 143 178 160 145 59 152 85 164 197 227 135 145 169 68 177 81 91 196 223 199 213 166 122 145 119 101 68 94 68 116 145 151 86 90 116 199 204 205 187 182 164 166 170 167 107 100 143 89 126 72 106 169 125 184 115 200 185 190 176 177 71 68 83 45 77 58 82 188 175 196 120 130 130 155 115 77 182 149 85 160 147 124 130 72 131 81 112 84 99 62 138 73 129 90 113 114 67 54 98 118 109 182 176 184 194 189 155 141 181 147 186 96 185 75 176 84 73 89 96 175 174 70 116 67 146 85 183 119 158 82 99 133 83 102 156 142 156 105 161 125 184 180 136 156 103 108 80 88 158 153 37 141 56 180 109 179 100 85 80 172 95 88 126 122 47 146 66 64 60 151 113 177 93 157 133 119 85 97 106 154 140 136 126 118 112 134 81 113 130 127 173 104 162 100 99 160 91 94 98 116 207 124 194 170 135 141 94 124 106 69 73 84 172 113 129 80 129 88 188 97 87 73 160 63 134 141 174 95 143 55 112 129 55 53 89 153 107 85 94 116 67 118 75 120 176 190 169 125 190 206 186 124 168 95 188 163 108 87 183 89 78 148 117 92 206 211 158 90 184 193 186 159 179 79 137 199 220 202 155 116 156 119 182 92 86 158 108 181 162 73 64 53 55 147 169 180 106 78 141 99 107 145 150 82 178 181 108 65 104 119 154 122 84 139 108 57 170 104 128 169 168 60 114 168 143 68 125 75 164 104 140 169 181 147 147 101 107 200 175 147 63 150 86 171 119 204 163 124 201 193 181 67 96 107 81 105 192 158 121 110 184 91 145 124 164 91 163 158 152 43 58 82 80 180 152 181 94 157 122 123 109 95 189 131 90
150 140 134 147 162 170 171 158 152 166 167 181 176 177 158 157 156 174 191 188 182 181 187 203 204 201 197 188 179 174 170 174 174 167 167 173 181 187 187 191 177 193 183 206 207 176 121 124 120 93 113 113 108 139 137 174 147 143 173 124 173 172 100 166 108 192 120 91 129 131 74 147 140 161 95 124 167 81 127 103 117 126 115 85 133 69 73 57 79 74 73 87 78 82 114 95 93 100 87 106 78 82 87 108 77 110 64 60 72 112 65 89 83 91 128 101 101 92 155 163 109 60 41 74 83 97 170 114 181 111 180 126 89 201 188 138 116 197 96 106 169 132 196 200 202 226 133 220 102 148 136 40 137 142 81 152 158 71 107 153 187 199 198 108 134 196 86 101 167 119 155 94 69 143 153 154 110 83 117 98 147 180 172 93 176 124 138 162 158 158 53 37 56 49 128 79 153 160 156 167 200 111 192 88 132 66 70 53 81 174 178 106 102 140 99 122 113 164 255 123 60 122 161 54 105 118 142 159 157 189 90 174 102 197 136 120 200 145 95 191 151 183 186 97 162 141 89 113 165 91 121 162 182 166 87 162 145 167 91 180 110 133 108 202 195 89 189 187 166 216 125 145 148 83 71 138 125 102 134 139 112 199 135 162 184 187 148 82 98 85 54 116 53 47 255 78 60 83 171 131 149 192 106 124 107 179 86 107 114 134 111 198 179 100 90 182 103 184 183 100 103 104 176 91 100 174 140 126 120 112 147 129 151 91 64 66 159 149 81 73 146 109 165 161 127 184 95 120 102 62 100 150 124 175 175 83 73 89 67 146 55 152 175 105 180 167 103 157 160 113 184 212 196 158 193 117 156 172 180 75 79 180 193 177 104 157 144 85 126 75 149 111 122 170 137 180 103 170 154 124 115 77 101 175 213 208 109 129 101 80 168 110 151 68 54 163 161 147 58 133 80 157 144 201 186 85 90 81 35 87 181 109 146 177 152 84 130 109 147 73 114 27 148 159 191 127 174 165 149 116 70 71 70 113 184 179 177 153 144 103 181 158 202 148 179 154 129 145 110 187 207 189 187 212 186 158 150 189 171 135 66 105 101 132 124 180 180 165 142 114 98 117 175 85 69 122 83 152 119 77 97 158 106 105 91 78 169 177 130 143 167 154
127 125 129 147 167 175 161 150 150 156 177 181 178 172 172 162 169 176 184 192 192 180 190 202 206 197 182 173 178 179 187 192 187 177 170 179 183 192 187 194 194 190 207 216 201 192 163 127 133 101 112 130 138 162 184 193 177 142 148 176 160 168 154 155 180 133 169 119 86 138 114 154 174 105 162 178 169 118 110 104 97 104 92 157 154 70 127 119 107 79 98 152 95 118 138 112 102 145 85 110 68 66 72 75 89 70 82 80 57 76 79 86 106 83 82 87 89 92 83 73 146 114 112 135 168 95 201 107 106 136 151 103 135 110 214 111 98 83 80 157 172 109 209 124 156 119 146 140 192 107 145 132 140 150 162 167 148 169 169 168 128 155 130 91 149 105 147 170 166 164 78 93 110 49 63 150 91 169 138 111 131 124 103 100 147 158 110 62 128 97 149 100 138 142 45 107 78 110 207 204 96 91 192 195 84 174 115 62 160 143 144 90 139 100 119 205 176 172 172 107 159 158 161 57 50 122 96 81 172 115 214 165 209 158 196 101 116 190 171 173 146 190 119 88 87 181 153 161 125 160 80 159 178 180 151 186 92 195 117 135 115 164 200 190 136 94 172 157 180 103 167 164 181 69 61 136 98 179 132 115 165 96 113 189 160 199 165 157 168 94 72 140 56 48 69 44 68 84 86 133 97 169 130 186 113 117 97 191 105 137 137 132 133 158 85 91 186 143 191 156 186 83 111 139 83 89 118 124 185 144 156 62 154 137 74 160 181 90 138 79 171 120 99 120 90 179 93 97 75 68 156 155 127 171 103 165 127 164 91 97 103 176 101 211 194 158 81 157 123 166 89 208 171 216 143 176 155 77 68 120 100 138 150 157 97 108 149 163 96 71 82 123 202 196 165 91 98 95 98 170 116 169 182 186 200 197 154 255 89 137 175 79 152 67 146 63 78 135 92 87 135 125 138 172 126 105 36 38 142 132 189 204 198 170 174 121 183 99 111 50 22 114 55 110 95 190 172 164 154 150 121 67 147 139 191 85 83 177 203 117 156 182 120 207 133 91 159 95 159 97 135 118 190 226 122 196 209 165 122 43 117 61 61 123 103 161 202 187 74 109 179 146 98 91 188 175 129 152 65 77 103 220 221 196 111 191 104 100 83 102 121 81
109 115 134 158 179 174 153 147 144 162 165 172 184 174 169 179 173 171 169 172 172 175 193 197 197 188 188 171 162 176 182 189 183 171 175 183 199 204 200 191 192 182 175 185 206 196 168 159 111 133 131 94 85 110 186 203 207 190 180 195 179 120 161 178 147 167 161 95 130 74 104 165 159 118 184 188 158 180 130 133 162 122 160 111 107 67 140 73 93 97 130 99 93 97 111 108 103 101 122 84 98 96 92 89 121 76 48 43 43 59 82 81 88 161 84 157 104 117 69 89 54 65 98 66 71 97 96 185 143 123 126 218 178 174 187 204 190 90 103 75 180 109 215 164 191 131 187 108 183 159 123 145 153 165 108 85 184 175 134 189 165 170 181 86 160 131 151 87 104 88 152 143 83 133 147 148 160 150 164 161 128 93 67 169 59 136 160 111 70 142 46 104 46 125 107 113 144 141 89 104 79 167 178 106 158 109 166 89 151 140 93 184 126 133 205 178 191 123 112 96 157 166 155 151 58 133 78 94 83 112 227 191 125 136 196 198 178 166 145 143 159 186 110 191 83 92 164 78 58 166 138 68 104 71 181 185 96 99 101 200 102 134 183 81 95 68 169 79 65 154 85 134 131 94 70 153 88 200 102 136 169 84 85 129 140 206 113 102 179 103 96 181 173 170 120 103 103 67 153 119 157 94 130 85 72 115 67 182 116 105 121 94 74 70 53 108 151 137 83 88 82 90 87 108 173 175 162 101 169 136 155 85 110 111 82 165 173 78 95 184 123 96 202 112 78 89 63 80 104 159 101 164 148 195 109 132 107 132 93 51 73 150 124 231 225 159 99 67 167 78 131 145 139 103 141 91 126 72 70 156 140 98 101 141 205 101 194 107 187 160 100 208 208 134 183 162 171 153 174 121 131 176 153 167 188 189 92 96 71 105 97 86 118 58 49 146 170 101 123 51 88 146 186 165 162 150 71 31 143 170 197 159 134 171 110 148 115 86 101 94 121 102 65 169 185 185 181 76 137 148 53 143 137 190 127 169 171 78 120 205 171 203 100 104 176 92 189 86 187 188 165 166 209 213 133 215 116 107 81 61 51 42 51 163 174 160 194 100 130 83 92 110 214 126 164 79 58 108 117 143 125 153 216 183 130 191 191 102 107 85 94 63
109 121 149 172 186 169 146 132 134 152 158 170 158 162 168 182 187 173 180 182 184 188 186 185 192 188 172 180 182 186 180 183 168 162 176 191 202 200 213 202 188 167 177 163 174 183 186 144 141 132 127 119 103 143 123 170 201 171 134 173 151 141 175 166 98 93 82 145 137 79 115 114 106 145 149 179 131 170 140 153 163 75 127 106 66 94 70 84 92 130 103 119 110 118 115 152 134 137 120 127 99 92 122 102 68 73 73 101 49 134 89 123 98 144 81 77 146 64 138 136 68 68 76 160 79 88 102 104 184 162 187 119 210 97 177 191 82 82 174 156 86 199 109 105 151 177 190 200 174 176 78 89 159 174 87 167 96 175 141 159 196 190 162 166 69 152 164 119 84 63 74 156 148 115 93 159 153 100 72 95 166 85 80 66 151 144 115 145 70 164 60 124 108 50 156 158 50 76 118 255 166 152 164 101 187 85 160 114 86 74 179 186 84 190 86 93 146 171 109 172 171 133 163 153 65 150 131 105 164 170 228 158 187 105 116 123 77 100 70 156 128 169 182 132 175 100 161 56 114 106 159 61 157 154 170 180 83 193 113 95 118 110 183 116 157 63 100 128 59 81 79 71 185 88 180 167 195 171 195 150 136 163 82 148 92 109 116 115 117 121 148 196 146 78 84 69 255 165 107 121 97 128 93 137 108 135 101 155 156 163 172 88 171 117 133 87 124 109 71 87 116 110 163 83 87 81 98 164 151 78 66 118 92 149 178 78 93 75 80 175 108 98 105 174 100 91 133 166 167 130 96 71 101 193 101 180 86 70 129 140 188 205 232 218 138 117 120 131 181 114 155 175 95 152 96 187 179 178 67 80 187 141 211 154 153 202 156 123 111 103 184 212 118 111 88 93 89 170 114 179 192 158 149 129 193 255 173 169 69 138 151 66 179 67 146 110 140 72 168 137 59 141 82 84 159 70 93 101 116 77 85 178 174 119 80 81 127 173 177 157 135 156 79 125 111 94 86 174 162 138 65 160 80 86 183 177 122 175 90 176 134 104 180 180 165 173 187 189 136 97 104 157 204 116 197 196 113 183 136 107 131 127 121 129 175 174 84 151 137 151 207 127 134 151 99 81 60 123 81 95 123 142 117 132 156 109 119 107 183 157 78 113
119 136 166 186 195 163 134 127 128 151 157 153 150 157 165 194 203 191 186 204 196 195 190 171 173 173 174 177 184 186 177 158 155 155 170 185 195 208 210 195 188 176 172 178 172 192 195 160 165 163 144 102 132 150 157 171 157 180 166 147 130 115 151 173 131 169 85 67 136 98 117 124 139 168 154 80 79 178 106 88 90 58 65 47 105 70 75 108 134 100 137 145 128 189 124 131 132 115 106 113 91 127 105 100 85 41 39 69 88 145 120 171 100 96 92 141 136 82 155 70 70 168 168 86 94 168 174 75 103 109 131 184 163 171 100 154 154 156 110 184 196 204 176 206 192 176 189 197 87 73 85 69 60 154 157 188 165 173 183 100 146 172 155 163 175 158 165 97 155 170 145 85 77 142 64 147 86 163 78 168 82 108 107 77 78 164 86 175 147 140 81 155 163 116 77 56 74 82 46 150 142 66 158 175 189 146 161 91 163 165 184 158 91 178 66 165 71 60 96 82 183 66 143 49 103 150 74 163 188 103 216 195 155 201 131 94 52 46 143 141 51 61 81 82 67 149 153 55 146 71 87 140 146 145 76 130 124 107 175 79 141 77 123 156 102 130 127 130 77 115 84 153 98 107 126 140 145 161 120 200 112 106 105 192 160 176 106 113 221 147 172 160 105 191 129 153 63 176 196 122 116 97 100 167 124 127 74 91 166 94 105 183 75 102 84 137 153 82 67 76 185 100 83 95 74 162 155 182 92 156 141 126 119 135 82 127 173 139 72 167 136 88 186 193 102 102 73 85 70 106 145 70 113 142 85 133 87 96 183 110 192 204 215 194 172 153 200 96 175 153 101 167 179 83 138 128 94 170 174 186 177 214 176 221 114 206 134 84 168 95 123 187 104 158 87 91 172 73 148 189 120 154 115 137 128 121 73 131 58 132 102 139 85 128 113 166 150 178 80 176 75 167 80 133 151 157 107 41 70 96 96 135 186 176 70 168 173 155 85 167 68 138 158 156 106 172 100 172 98 59 84 166 149 148 168 166 78 173 77 92 101 149 105 122 81 90 140 174 98 177 137 151 185 182 110 141 100 85 113 81 61 101 126 107 76 139 63 164 135 203 224 200 208 228 191 144 141 142 96 155 132 86 115 120 85 126 134 153 180 159 47 34
139 155 180 194 190 161 132 122 130 156 152 142 147 147 175 189 199 213 205 218 208 200 176 169 142 136 145 162 181 183 169 150 144 156 164 177 185 192 190 178 168 166 160 172 180 171 174 167 186 178 147 160 133 129 145 163 115 144 181 129 143 168 123 117 178 100 100 63 53 61 122 113 82 94 111 141 160 80 82 141 70 83 91 49 118 76 83 105 100 165 113 147 130 146 113 121 128 102 132 133 113 77 85 107 66 65 72 100 82 166 125 150 112 114 85 115 64 122 75 161 83 168 164 145 190 134 176 92 191 109 163 191 164 79 108 75 106 185 180 82 187 188 102 104 80 158 167 125 176 146 123 75 52 168 88 177 159 205 198 166 178 124 177 175 178 163 195 180 161 140 159 101 120 98 157 161 86 141 148 178 125 165 188 111 84 108 158 100 154 169 108 167 108 161 80 118 73 98 95 153 255 176 126 169 149 94 188 123 202 136 186 107 189 138 123 70 47 68 83 183 101 166 153 132 115 162 112 177 173 151 99 190 182 129 113 156 45 146 45 128 59 154 182 166 177 157 151 130 124 107 109 124 111 161 61 69 57 156 64 170 156 137 59 86 78 126 145 255 57 96 94 64 125 93 188 92 177 154 180 113 177 167 187 134 182 98 163 160 198 213 203 184 115 95 141 130 137 108 105 167 204 188 129 160 67 157 124 159 78 161 93 115 168 122 179 82 125 121 73 75 153 165 106 82 152 97 128 80 157 173 65 149 56 165 103 180 98 191 131 106 152 109 161 111 157 165 92 177 145 62 152 127 143 110 171 97 162 91 157 141 187 198 171 169 220 154 170 168 192 113 171 143 153 116 84 101 141 187 152 165 112 128 221 213 134 106 162 72 164 171 158 199 168 174 78 95 172 185 133 183 105 202 221 226 122 191 85 156 136 39 89 46 168 116 187 136 86 134 195 84 178 147 255 143 76 65 138 155 59 139 71 152 72 74 164 82 92 160 83 108 66 132 193 123 122 203 96 150 137 85 93 105 160 142 69 179 82 186 184 139 105 111 114 142 113 149 131 116 145 157 178 194 155 137 154 195 90 63 149 56 165 107 109 153 77 116 98 62 79 185 212 137 133 159 101 98 103 69 99 120 104 89 103 95 84 139 86 173 66 55 106 144
145 156 173 183 179 152 135 136 137 157 152 145 151 156 176 196 198 211 211 223 204 181 175 158 144 138 142 159 174 175 159 152 156 162 164 163 167 174 172 164 148 148 146 169 166 186 181 214 201 171 182 151 142 157 156 134 162 126 163 131 120 115 111 185 115 166 102 62 97 60 126 59 35 36 56 106 102 157 86 111 61 116 59 46 88 68 81 149 128 112 140 133 188 146 121 79 91 96 120 89 98 123 70 100 95 81 125 90 91 97 100 131 153 93 77 151 82 91 82 255 97 143 109 89 138 127 88 102 89 169 135 178 192 180 69 160 137 134 167 62 85 177 82 188 152 185 91 83 153 149 117 38 153 157 102 156 200 177 182 190 144 176 78 181 95 103 193 121 151 121 123 119 170 151 127 186 180 182 92 116 205 128 146 135 185 80 168 128 73 81 171 122 178 170 162 67 60 115 102 112 169 106 177 195 97 119 174 100 102 105 210 158 185 117 77 147 129 142 109 181 173 68 69 48 89 63 65 71 115 191 193 212 211 202 81 144 132 142 100 141 63 181 99 97 97 148 92 91 144 66 78 127 160 152 152 140 111 153 166 144 79 119 75 87 147 50 79 59 137 139 74 163 125 152 87 107 138 97 119 99 121 158 197 198 102 108 88 89 121 145 97 86 173 191 136 92 142 107 134 204 104 194 77 60 145 82 70 67 72 111 174 91 147 139 201 199 141 157 78 71 105 175 166 178 183 93 142 142 139 124 158 161 116 160 178 106 169 103 183 75 63 55 165 153 118 174 202 180 116 114 125 128 132 149 79 98 130 124 162 123 117 171 116 138 175 195 126 177 191 187 144 184 111 151 121 106 188 118 80 184 203 212 114 162 119 162 144 63 72 183 88 83 139 70 139 185 145 103 198 98 111 114 213 179 193 199 172 49 28 24 64 130 140 135 174 89 127 167 173 169 111 58 153 153 67 140 163 163 65 141 156 73 111 142 106 106 167 93 71 123 134 128 165 111 157 155 178 150 72 134 85 108 100 160 180 177 117 121 97 193 138 74 86 158 128 176 105 111 85 78 170 132 146 185 119 154 79 104 149 60 172 190 184 105 176 171 98 162 75 175 123 166 122 103 100 178 173 135 94 153 62 69 88 93 169 67 135 57 147 71 48 64
147 151 157 162 157 147 149 148 151 159 152 146 145 159 171 181 186 188 195 209 201 169 167 162 149 123 134 141 168 171 159 165 161 165 167 167 167 167 155 141 141 141 151 166 178 199 200 204 189 187 196 166 177 166 106 174 184 181 186 199 172 174 184 143 138 144 77 129 129 134 66 40 255 43 62 69 104 81 131 150 130 73 108 102 73 140 153 91 119 91 111 103 141 144 79 71 99 75 75 76 74 102 78 84 107 89 133 143 95 105 157 134 97 93 118 95 66 124 117 97 115 118 186 255 159 102 159 108 95 94 101 95 196 180 78 166 153 138 56 144 147 146 160 157 181 255 85 102 139 122 133 77 65 76 177 132 115 197 175 143 156 114 163 164 131 112 191 162 134 140 216 171 176 150 204 138 144 135 131 191 201 176 163 166 95 183 113 79 160 137 167 173 86 186 76 169 85 121 108 125 71 87 186 143 103 163 98 180 97 150 120 142 98 115 139 146 93 59 83 145 175 68 162 64 49 54 158 63 133 175 185 106 108 180 84 152 83 76 141 172 174 93 132 198 151 103 62 141 138 113 82 121 195 143 156 112 129 165 146 154 90 115 84 141 111 139 106 65 69 136 142 145 84 81 83 177 172 176 184 192 137 142 117 105 179 89 80 118 123 178 79 183 90 106 126 156 106 117 143 195 130 197 173 63 51 73 73 140 100 99 201 119 191 196 205 168 209 177 81 91 160 79 69 79 184 162 105 106 106 129 83 135 180 88 145 192 148 189 82 168 155 82 158 70 141 105 107 172 174 115 140 143 93 64 156 106 131 110 137 84 160 100 187 101 161 191 197 123 184 202 140 181 199 132 133 87 91 127 94 98 150 131 158 215 105 161 115 91 137 128 187 80 165 170 116 79 87 173 181 86 101 109 135 123 157 130 161 77 34 83 47 92 77 179 186 105 99 124 159 121 139 129 135 92 123 173 173 163 181 85 167 159 93 168 181 176 99 85 150 62 92 181 187 194 107 186 121 91 61 37 119 99 133 88 159 175 188 121 199 101 173 92 129 82 67 168 137 170 75 172 94 103 217 209 186 200 150 59 138 156 73 90 128 167 150 160 137 173 172 116 118 191 103 150 111 85 125 190 159 76 143 79 83 156 78 74 56 109 46 144 77 91
142 144 147 152 149 154 156 159 160 158 143 152 152 170 186 184 169 158 157 166 180 176 165 165 164 151 143 162 170 178 172 170 172 174 173 175 180 183 163 154 141 143 144 166 153 195 209 180 174 171 203 173 186 170 122 147 200 167 204 137 195 213 139 178 88 86 76 86 92 161 139 138 148 72 142 114 111 163 131 76 140 116 78 124 125 87 133 146 81 84 127 153 99 95 124 80 101 101 117 122 89 105 105 77 111 89 149 118 139 100 101 106 116 86 86 90 126 85 96 62 152 96 132 107 135 125 174 185 70 98 162 177 88 89 70 152 112 110 40 88 39 78 151 130 190 145 129 176 151 68 141 85 169 182 156 165 166 131 106 173 101 143 137 152 101 182 189 107 122 195 167 135 213 137 171 118 108 194 121 111 132 200 165 137 131 184 174 159 124 145 176 188 120 81 82 109 156 184 137 147 63 146 95 125 167 100 138 144 80 138 153 180 92 134 150 179 167 75 175 83 167 114 95 96 140 129 136 97 132 199 154 210 139 109 95 180 166 86 122 79 75 98 103 97 134 171 152 146 126 70 98 198 102 153 186 166 151 99 113 110 132 126 129 144 104 168 106 123 139 155 108 178 162 68 161 152 150 162 170 71 124 123 186 141 92 105 72 68 95 88 86 169 164 82 81 92 101 113 208 215 125 204 103 156 73 99 100 198 115 156 214 113 125 169 112 111 167 86 136 174 174 100 65 179 105 146 212 178 162 182 124 191 95 155 100 151 109 106 185 137 128 103 166 65 170 104 121 114 209 129 95 74 89 79 82 187 78 138 89 141 120 178 109 155 150 200 98 154 143 169 123 175 181 108 194 184 87 144 151 181 95 198 206 187 160 182 180 86 160 110 153 155 146 65 159 159 126 109 77 85 171 83 93 132 137 177 100 154 45 140 137 71 71 139 81 102 137 92 160 146 112 76 68 152 109 107 114 150 124 170 98 187 119 182 101 162 79 159 82 162 131 167 79 93 183 177 100 56 82 47 110 130 83 187 93 110 185 132 182 145 115 141 175 77 80 139 160 116 133 160 160 87 172 122 133 139 154 68 154 83 111 86 188 121 191 87 87 123 171 195 135 184 187 92 117 150 147 164 149 162 69 186 97 119 141 131 83 54 94 126 168 148
140 141 146 148 153 146 150 155 154 164 158 163 179 179 255 174 159 139 131 156 155 183 187 182 178 167 163 169 181 183 177 167 169 167 175 177 190 190 171 158 146 151 162 166 154 172 199 204 185 208 181 198 200 178 179 165 148 183 185 162 187 209 136 158 104 85 135 133 86 79 142 110 94 149 114 72 120 95 162 121 103 82 82 108 121 101 81 134 65 62 134 97 81 83 112 92 95 82 80 85 112 120 85 91 97 92 116 126 73 89 116 193 131 120 97 77 75 131 87 135 75 100 161 114 196 111 145 150 71 53 96 147 113 82 179 168 117 94 153 53 135 108 139 89 186 183 185 97 89 167 118 171 178 199 152 197 173 195 150 151 53 86 42 71 164 119 184 178 126 151 124 170 146 156 149 128 210 123 119 193 199 91 188 185 156 94 110 117 144 113 160 132 172 171 153 202 106 168 113 180 146 121 188 208 205 159 74 110 151 67 68 109 81 148 164 105 167 66 70 142 81 179 156 186 173 150 150 88 97 126 189 168 174 191 86 94 90 125 110 82 181 191 190 188 178 148 107 60 59 167 177 147 186 183 91 117 70 101 140 135 118 122 84 65 165 82 126 129 173 137 157 83 159 156 59 107 52 129 76 125 167 85 164 116 91 145 167 110 98 76 162 92 181 91 101 98 82 118 206 110 118 205 105 90 117 162 89 116 216 222 209 105 197 113 145 138 118 119 130 94 104 73 168 84 111 119 107 195 122 189 87 145 141 134 120 206 140 206 212 149 180 193 160 85 171 95 103 151 211 197 188 163 121 138 189 157 131 157 133 135 164 182 105 188 126 131 153 186 158 180 109 199 106 166 187 78 86 103 158 105 175 115 186 195 209 97 158 90 116 135 100 180 170 88 59 160 176 73 64 155 56 122 171 202 201 122 93 117 125 145 151 96 179 90 79 182 80 120 186 88 91 121 116 67 49 60 157 129 130 181 101 91 177 130 102 170 87 118 94 146 77 79 185 179 123 159 50 52 116 78 153 76 162 114 131 156 87 182 113 86 179 146 84 181 163 86 143 83 154 61 55 175 153 148 216 100 109 159 78 62 100 81 108 170 140 124 190 175 187 122 125 152 119 88 62 122 124 136 86 88 170 115 119 164 116 102 152 77 123 72 125 167
131 136 141 150 147 146 144 149 159 162 174 182 193 192 194 170 138 116 121 143 169 186 203 200 191 179 171 175 178 175 172 164 160 169 178 184 188 192 187 175 159 164 162 161 176 164 164 195 200 183 197 190 190 148 185 175 157 193 175 146 208 178 140 177 139 79 107 114 152 99 161 122 107 70 64 101 77 85 152 112 147 126 80 91 89 82 137 81 101 67 98 113 108 81 118 111 83 78 87 91 93 100 89 115 119 107 73 85 60 94 109 154 117 109 97 86 86 125 94 85 89 151 90 168 146 98 136 159 70 147 144 47 70 114 82 140 81 113 83 132 65 67 95 97 191 183 184 202 86 186 175 210 157 172 141 106 143 171 131 150 66 52 127 158 117 175 89 168 164 191 103 121 200 161 176 168 119 123 182 102 184 133 86 91 117 123 146 171 184 87 94 184 108 110 138 141 96 151 193 108 167 96 178 176 112 121 171 64 75 72 85 106 161 76 77 124 170 138 77 70 139 108 192 199 195 85 155 163 93 97 112 174 76 132 114 201 129 193 184 162 83 146 154 107 143 103 143 47 148 172 194 180 167 184 85 172 129 65 73 153 80 59 93 124 87 140 89 72 70 142 110 161 67 129 138 38 132 116 102 80 129 88 85 81 98 70 86 95 156 108 92 148 78 73 73 160 154 112 120 190 130 164 164 177 163 171 97 184 205 186 142 113 109 110 125 184 145 172 174 121 94 100 113 89 101 159 203 129 166 148 80 71 126 185 208 152 135 122 118 125 160 143 100 100 82 196 155 185 170 137 84 152 140 95 126 137 67 171 168 85 82 162 157 102 148 172 172 126 166 189 116 174 195 180 172 118 105 105 90 112 180 126 111 151 180 96 152 80 69 170 71 149 74 57 128 59 172 149 158 43 144 167 186 204 147 113 165 166 79 159 99 157 145 78 167 69 109 88 111 172 56 88 146 150 86 67 158 175 77 116 159 183 109 73 91 99 174 76 158 169 84 117 188 182 139 55 125 71 113 135 76 98 178 77 183 192 178 175 160 100 74 179 110 87 131 111 130 168 62 146 146 98 169 192 145 97 142 120 140 58 98 141 74 124 137 77 100 106 147 92 186 206 150 167 59 142 89 103 122 82 99 129 120 191 180 205 79 171 163 126 152 157
112 117 126 138 144 145 150 148 161 186 197 201 216 205 174 161 130 126 134 157 183 197 209 197 189 181 175 175 176 172 169 160 157 161 174 180 190 186 185 175 173 172 159 178 180 162 184 208 198 214 175 199 195 191 170 175 191 140 171 130 165 190 207 127 129 155 91 137 144 140 89 80 149 64 139 123 72 159 165 139 81 69 115 80 107 101 91 88 108 61 63 73 83 86 124 72 75 96 98 115 115 85 83 87 76 72 77 33 79 71 169 122 100 111 86 90 109 189 117 89 62 49 120 54 71 87 102 163 178 122 108 118 160 85 93 129 93 83 68 164 175 179 190 93 95 199 192 95 141 189 118 223 234 229 213 170 211 182 181 71 80 167 97 112 185 170 122 176 171 97 164 108 98 102 92 85 88 172 189 92 69 129 99 89 120 174 128 179 178 84 156 135 158 141 163 103 128 79 154 192 182 181 199 133 121 197 137 117 61 177 126 97 152 136 109 124 133 171 67 55 136 168 171 155 203 110 163 171 134 81 105 76 150 137 183 120 116 90 176 176 124 155 171 103 118 147 47 131 89 164 179 166 176 172 159 123 79 131 178 80 148 126 71 111 123 45 84 157 154 155 77 44 44 141 69 41 154 159 86 81 175 160 145 123 37 47 68 166 93 172 77 124 69 116 174 91 156 122 139 99 83 104 190 88 190 92 155 106 156 170 101 113 121 192 186 100 103 78 78 179 81 182 92 82 199 137 117 95 141 80 84 74 165 116 211 153 123 110 120 127 210 137 179 193 193 99 207 118 153 200 112 71 169 144 142 84 131 102 167 104 129 177 85 89 146 175 166 186 131 107 175 201 158 80 95 183 155 172 93 185 186 150 105 179 171 189 181 161 114 156 128 132 163 152 96 105 82 82 103 125 89 74 179 205 209 198 105 185 185 149 68 106 176 174 160 98 56 136 154 142 128 101 119 155 158 69 164 77 77 68 163 169 130 156 154 168 90 80 81 169 90 175 161 111 181 70 49 60 89 140 135 189 114 174 183 192 89 180 160 46 93 179 91 104 100 97 141 158 95 164 166 160 113 139 186 82 172 135 65 82 55 108 128 163 126 101 155 86 118 111 192 139 148 66 145 64 80 79 152 136 164 113 82 139 90 122 140 171 86 193 197 133
88 95 108 126 142 153 151 165 167 189 212 218 211 187 163 154 140 144 153 174 184 206 211 195 192 180 180 177 172 168 165 160 168 163 167 176 185 181 185 176 156 163 176 186 196 192 175 201 213 207 198 194 192 192 131 169 193 169 175 131 199 202 163 189 131 195 181 134 134 156 90 83 79 88 63 82 138 89 123 136 83 114 72 160 132 91 92 94 151 89 102 75 64 54 56 66 116 75 90 80 90 104 75 99 72 45 71 28 35 83 83 148 86 141 165 179 104 107 118 85 77 46 39 53 93 80 96 190 181 91 143 107 120 170 187 182 95 86 174 76 135 193 186 125 199 89 135 164 119 185 206 207 205 201 160 217 210 122 105 186 101 138 87 174 136 194 150 190 150 106 124 78 150 134 172 183 153 187 191 112 168 113 159 117 145 120 174 71 69 145 107 183 156 86 133 162 57 160 83 91 133 102 196 153 195 149 179 76 107 111 193 156 97 61 69 61 162 71 147 48 135 145 147 169 121 205 186 177 185 180 82 69 171 67 174 168 179 68 168 64 175 112 173 171 89 161 69 80 121 67 85 163 160 174 86 200 197 170 163 119 112 99 102 139 138 107 98 133 148 89 129 46 69 86 89 70 108 59 141 167 103 113 153 121 46 94 116 172 100 93 136 68 67 180 188 146 165 168 170 103 80 181 97 86 163 153 170 98 54 131 165 106 103 106 153 101 111 181 101 90 145 88 177 180 193 132 133 205 116 162 158 137 173 141 213 133 128 158 139 211 167 105 114 87 169 154 167 195 120 143 110 87 152 118 181 147 81 138 85 125 92 53 120 115 114 130 175 179 124 105 176 180 88 158 169 95 83 90 89 134 162 115 157 86 189 169 175 60 48 78 166 84 133 122 93 82 81 81 150 57 166 73 152 179 130 123 194 210 108 122 171 107 78 66 142 103 131 68 112 61 87 91 93 155 128 62 64 99 59 71 164 69 126 57 122 178 188 179 117 95 183 124 140 187 96 129 114 107 68 78 186 178 163 136 179 86 90 95 147 154 158 95 180 161 110 171 79 109 144 158 133 130 124 125 181 162 85 166 153 153 136 60 140 114 73 154 105 147 75 183 129 98 78 155 99 156 90 104 114 146 101 84 151 80 73 81 83 72 179 187 204 128
72 82 102 124 146 159 167 169 185 191 202 198 194 183 167 154 152 155 162 171 193 205 205 208 206 198 191 183 182 167 165 162 164 169 171 172 186 193 191 175 160 162 157 192 182 191 168 198 197 157 172 139 170 184 172 137 159 139 185 171 157 202 157 129 131 148 212 116 140 146 60 140 60 85 62 50 143 88 98 111 162 123 78 89 139 100 169 164 98 95 89 60 114 64 51 64 82 87 90 110 95 85 74 66 93 35 39 38 42 47 62 109 143 118 86 94 186 118 87 104 170 87 48 108 150 78 175 75 87 85 78 85 83 108 89 96 96 79 145 74 108 96 106 176 149 166 150 74 158 176 220 201 223 140 119 189 227 229 198 129 95 150 150 194 198 176 152 163 206 130 86 108 139 148 179 100 160 164 158 169 87 151 143 102 64 111 139 73 148 134 67 99 123 126 145 140 82 80 65 171 76 141 148 103 98 182 121 82 92 114 142 112 185 95 155 74 156 185 136 143 92 117 56 168 123 126 193 93 95 180 104 178 169 146 135 167 63 155 69 122 131 129 200 112 160 171 152 47 150 48 58 150 61 176 110 213 227 204 255 162 186 157 50 107 145 44 55 93 93 101 153 154 157 167 81 88 149 106 153 83 117 145 123 81 67 149 148 92 122 146 185 80 82 73 155 100 106 140 114 154 100 169 105 129 114 112 96 56 104 67 97 113 83 170 199 101 115 87 108 185 122 87 75 83 159 127 212 108 116 185 167 115 99 179 210 178 166 125 192 109 131 189 104 142 107 198 114 139 202 95 91 98 180 154 147 137 151 136 145 51 151 143 43 54 136 68 152 163 163 185 176 78 156 128 147 72 159 173 171 177 172 162 168 84 151 188 170 108 115 53 166 151 193 199 88 180 110 124 157 125 90 174 123 148 160 132 153 168 171 107 167 101 77 173 126 117 130 113 130 109 68 128 78 70 144 105 163 101 118 103 169 77 155 57 72 169 88 179 118 127 92 184 93 99 97 190 108 98 170 136 92 186 86 177 179 165 74 172 71 57 70 86 151 77 109 105 155 167 177 137 206 209 128 106 124 82 152 90 92 91 158 116 148 108 68 81 136 87 164 93 120 94 177 133 49 52 42 47 149 78 84 76 61 160 152 143 134 157 129 126 108 118
75 90 112 136 154 169 179 178 190 193 198 183 182 162 154 158 156 161 155 172 185 196 207 213 209 211 201 199 191 187 178 170 172 176 180 180 192 199 188 178 150 163 175 181 196 191 179 176 153 176 140 163 168 176 150 173 150 139 118 148 177 136 189 190 151 158 186 183 133 126 76 148 116 111 145 134 159 138 151 157 73 105 114 93 155 149 134 102 107 131 67 54 46 67 53 67 110 109 129 115 93 102 101 85 54 48 28 57 29 47 52 53 62 72 85 95 100 79 83 116 95 77 80 51 55 113 55 74 118 181 100 152 151 154 85 81 177 169 57 121 77 117 116 208 186 101 163 82 128 106 187 193 136 126 117 183 229 135 215 185 160 181 187 172 165 105 134 166 140 150 124 141 149 96 146 167 181 160 152 209 186 162 138 74 65 178 150 64 76 121 127 165 78 149 192 84 77 140 69 163 147 74 177 173 71 67 114 115 201 194 224 169 175 173 85 95 150 170 80 81 37 120 153 136 110 186 105 171 95 81 100 160 173 77 169 149 73 146 147 85 152 162 157 114 156 169 144 121 139 143 74 39 55 138 187 162 131 180 221 191 171 140 56 131 92 100 81 105 131 154 123 149 127 184 183 164 67 93 135 94 69 34 65 83 104 46 68 123 127 144 170 137 82 133 139 126 88 199 167 175 165 185 87 74 138 68 86 72 79 140 47 113 84 99 120 194 93 113 90 94 156 80 171 152 195 180 190 112 123 105 150 169 103 120 205 199 108 166 162 181 172 164 86 192 165 119 211 177 100 162 182 190 146 92 161 170 110 57 148 121 158 70 108 113 71 107 86 147 76 117 144 94 101 135 92 166 173 166 83 140 156 166 136 68 166 136 77 95 143 155 123 146 105 200 116 178 95 107 176 87 160 133 98 151 133 208 243 156 194 209 103 87 122 179 101 69 88 141 128 150 157 144 153 95 62 129 154 91 110 188 157 184 92 136 176 195 107 164 166 87 138 255 181 197 208 113 123 98 118 175 100 150 173 169 83 149 67 57 125 65 100 93 169 134 59 140 164 124 203 145 211 122 184 166 154 58 156 155 105 52 49 150 67 155 119 65 130 133 61 163 173 165 113 66 94 33 29 92 44 93 149 170 119 173 62 152 119 86 98 111 124 201
101 114 136 152 167 181 185 183 187 178 183 165 150 142 141 141 152 160 149 159 171 168 191 199 203 209 207 199 195 189 170 156 167 170 181 184 191 199 204 186 170 170 167 188 185 177 142 121 150 155 170 168 177 145 186 186 126 140 167 168 157 152 167 163 120 197 137 170 156 127 132 92 129 162 138 157 75 150 255 65 88 141 116 85 151 86 98 154 86 87 106 92 70 122 62 74 99 95 102 85 75 87 81 65 87 57 76 61 71 47 52 71 78 101 69 102 98 66 67 122 79 124 106 138 69 154 106 88 140 193 124 227 124 94 126 172 151 138 152 134 157 138 83 86 182 126 71 160 81 198 122 193 108 111 198 121 209 200 212 188 176 103 83 92 176 130 177 168 214 172 106 153 76 71 185 204 136 191 231 149 106 121 86 94 168 182 173 64 140 137 116 67 170 126 162 194 197 172 84 94 157 75 149 134 160 119 78 187 181 218 224 206 155 189 208 149 121 159 167 56 62 46 143 89 89 104 92 172 172 138 148 96 147 119 115 123 130 167 70 52 151 70 98 195 185 123 131 33 136 66 64 71 145 135 124 99 220 166 240 222 177 189 103 163 95 171 142 77 106 121 141 113 179 132 101 66 62 101 103 136 82 42 48 53 78 51 48 89 84 163 101 186 146 172 157 64 134 118 125 148 99 92 78 64 67 128 49 85 118 44 111 97 109 82 192 101 193 101 187 96 81 171 80 179 98 203 120 131 205 178 152 171 108 140 179 189 92 160 77 130 132 155 99 199 153 204 192 179 83 116 105 93 84 129 68 112 111 118 128 153 64 162 159 63 132 165 181 132 105 168 77 170 111 113 106 150 82 181 115 87 145 74 105 71 116 148 88 147 55 153 163 190 198 143 169 170 109 199 116 88 187 126 162 138 134 129 141 179 142 163 199 196 183 156 109 190 172 175 164 88 146 82 68 122 94 132 137 77 103 193 201 199 172 98 152 157 175 116 174 175 160 163 178 179 119 155 110 135 79 66 89 162 75 89 93 159 59 129 67 132 99 162 161 108 146 146 58 136 192 189 109 157 143 138 162 71 146 141 99 49 140 137 73 55 90 100 68 83 135 100 118 159 129 159 120 43 34 76 74 152 81 119 100 130 137 110 87 158 128 200 133 114
139 150 162 168 175 176 176 177 180 173 170 149 151 144 144 134 148 138 151 145 139 147 169 170 188 196 201 198 190 187 173 164 163 172 179 183 187 203 211 197 185 175 167 183 176 142 124 144 160 165 175 176 172 162 180 187 123 158 114 150 108 103 151 88 148 164 153 161 172 112 130 67 101 104 114 100 112 128 89 75 62 145 107 66 123 64 102 76 88 70 112 67 109 74 69 71 98 121 80 80 92 63 97 55 54 76 96 59 130 69 60 72 63 80 76 255 136 45 80 54 69 83 170 179 175 55 138 133 74 200 157 227 120 194 77 161 147 96 130 44 94 68 152 160 162 70 109 56 83 116 164 174 149 129 157 166 214 201 150 139 177 179 183 163 174 107 115 204 214 177 187 164 101 131 183 209 181 226 179 135 207 174 118 102 162 85 146 143 147 55 45 169 137 110 188 196 171 195 89 143 83 82 82 68 155 138 123 193 191 110 151 205 146 185 222 132 107 120 128 159 83 159 164 154 67 111 81 113 172 131 189 121 173 150 193 204 178 194 92 167 148 170 87 188 88 67 50 128 99 82 125 101 81 83 183 159 117 199 186 227 215 93 116 80 119 103 94 83 126 78 126 167 165 125 74 163 90 49 130 59 86 140 61 165 159 125 122 158 137 137 142 190 138 102 137 67 137 156 186 126 121 125 147 129 81 61 57 121 67 102 89 98 83 120 97 116 156 77 108 75 172 87 111 166 147 202 115 169 98 177 190 107 151 104 154 97 87 180 189 177 149 166 105 108 216 212 206 102 171 165 84 185 113 191 178 59 145 118 154 57 80 56 99 160 122 182 156 160 86 155 144 172 84 137 120 85 173 136 93 84 75 81 130 179 89 184 75 146 85 137 87 193 101 156 74 145 131 202 154 112 192 127 104 202 108 207 203 193 228 150 171 186 93 179 206 184 196 169 182 85 174 108 152 144 115 161 77 87 117 172 196 205 89 148 142 190 183 142 108 141 178 91 180 187 104 220 112 200 171 116 152 155 158 159 59 156 134 52 75 152 143 176 102 171 135 145 154 164 159 145 148 163 157 98 100 97 72 124 67 56 115 120 55 138 148 110 109 136 168 139 119 110 130 145 137 60 153 96 95 106 165 84 125 111 105 68 66 176 118 120 174 178
170 175 183 183 178 165 166 165 157 155 149 147 140 124 138 139 130 141 149 153 158 155 148 160 181 194 196 192 182 174 167 159 159 165 168 171 191 203 201 202 175 168 159 166 165 164 155 161 174 185 161 171 171 180 201 166 143 159 161 161 130 146 81 144 174 191 114 103 110 145 112 95 100 151 119 146 82 143 92 88 120 55 68 53 42 49 59 70 70 138 88 83 85 109 79 97 99 66 78 105 73 115 67 91 58 121 75 92 90 87 151 138 142 126 64 85 51 74 59 47 109 84 124 154 86 161 63 95 78 131 199 184 104 97 84 61 44 134 53 42 49 155 142 142 144 157 162 75 78 158 86 82 163 174 158 185 179 115 193 159 158 83 145 162 147 168 187 155 154 219 154 128 144 159 186 193 197 128 230 212 211 110 184 201 98 108 177 135 82 51 112 121 159 87 189 182 121 137 114 108 86 184 179 73 91 135 117 94 185 152 213 171 112 195 188 212 157 156 121 141 109 180 126 149 100 150 166 180 184 86 170 101 121 141 100 180 193 202 100 90 165 160 173 118 78 95 139 91 47 70 92 131 67 73 144 172 92 167 174 110 163 160 83 168 178 160 98 161 176 104 118 192 192 89 165 161 131 154 166 71 75 66 90 167 100 177 136 64 71 112 123 145 195 146 81 93 115 89 162 108 203 121 186 167 62 92 164 172 124 107 155 104 100 151 73 80 177 116 102 71 171 106 111 125 211 111 105 113 173 142 106 98 88 84 94 83 93 124 90 80 181 80 171 190 179 155 106 126 136 130 66 99 192 160 122 139 70 87 73 126 68 71 155 128 176 195 183 149 153 85 99 140 126 123 189 111 176 178 181 82 133 92 155 184 103 143 78 132 154 95 93 75 174 142 71 104 131 106 194 168 98 97 93 113 189 173 104 196 196 202 125 107 205 135 128 210 146 190 88 135 188 147 156 145 105 99 178 180 192 127 209 135 146 147 175 168 87 156 64 78 89 195 178 153 198 204 136 134 60 149 144 49 142 83 53 73 81 101 110 96 108 149 201 157 128 164 163 80 130 106 148 101 73 103 70 149 65 88 62 123 107 108 105 111 101 134 106 99 84 114 186 183 89 88 171 93 167 64 156 53 162 168 184 195 109 150 91 129 103 203 233 145
178 183 189 187 174 158 147 137 143 134 132 142 129 131 130 125 126 137 145 161 151 153 169 169 180 196 197 179 176 161 161 167 164 158 162 169 185 195 198 184 177 164 163 163 158 167 167 176 174 182 194 178 190 201 204 179 122 159 119 157 161 97 145 90 123 184 140 126 158 165 172 93 145 145 175 94 81 128 79 61 65 96 45 109 84 58 69 99 84 90 120 105 104 106 91 72 59 67 59 94 96 97 124 104 80 99 94 142 112 137 111 93 131 74 112 72 93 57 90 54 152 95 88 92 121 157 162 74 180 92 100 169 83 134 88 100 148 141 75 43 155 151 86 129 54 62 169 179 88 75 87 151 74 100 179 161 149 135 133 178 140 174 188 128 196 190 138 192 109 186 214 171 153 185 105 177 204 205 169 142 191 134 109 105 107 121 134 147 103 166 120 157 173 176 122 129 125 81 165 97 87 142 106 75 68 64 255 196 139 211 179 135 90 195 196 169 78 90 148 117 159 93 168 64 121 178 114 98 131 134 101 189 86 181 182 127 102 129 180 107 199 106 179 106 133 60 40 81 153 52 159 136 156 93 167 182 151 77 85 190 177 200 171 71 169 101 90 101 137 93 98 127 200 97 98 145 140 155 81 185 164 102 125 84 112 198 148 126 124 87 122 142 104 165 180 109 170 94 196 104 204 129 106 82 175 125 150 89 84 81 79 178 81 136 86 86 108 105 131 51 93 68 90 111 176 108 196 96 96 105 91 82 83 71 130 177 170 122 174 187 167 172 94 95 198 120 192 171 79 121 164 189 196 91 185 137 139 155 59 46 134 132 92 83 182 165 159 76 56 129 95 87 154 97 172 188 94 176 180 121 174 187 160 157 178 93 117 131 153 160 167 124 113 154 169 166 94 155 98 90 151 126 85 164 108 102 146 167 113 95 148 181 136 217 225 205 198 87 79 79 174 181 163 63 95 119 158 162 147 87 92 112 94 116 169 92 172 71 165 154 177 134 86 100 166 200 106 83 166 88 152 147 55 78 132 81 153 102 72 103 194 153 133 204 156 148 160 64 145 163 131 159 112 86 113 119 119 64 91 81 12 17 108 78 106 69 71 83 114 111 197 204 110 187 103 90 99 74 66 70 114 128 142 168 89 68 121 168 159 122 186 169
167 175 185 187 174 152 130 116 120 133 125 132 138 129 132 132 133 133 152 164 172 183 177 193 194 197 183 174 160 161 157 161 159 150 150 159 177 183 178 171 159 152 147 166 178 181 172 178 191 187 179 176 135 152 151 187 197 157 125 132 151 91 109 135 156 110 174 108 142 192 177 126 191 117 156 176 78 87 129 48 43 104 47 84 132 113 124 92 93 88 94 94 100 86 92 73 85 66 74 91 145 120 128 95 101 94 130 118 112 150 143 115 150 80 76 74 93 74 107 66 99 104 108 96 69 158 159 151 160 65 161 84 104 142 134 129 140 88 148 128 165 171 176 171 176 96 190 202 182 151 139 102 77 179 128 134 124 207 154 166 162 164 208 208 153 185 96 133 148 210 131 168 104 101 192 186 188 184 140 161 149 177 131 97 133 185 180 118 158 138 167 73 157 128 143 94 78 98 118 168 152 187 145 136 145 168 96 172 107 199 156 181 157 143 76 171 149 131 84 177 86 147 162 139 65 163 205 118 193 187 103 185 155 115 160 169 195 211 171 215 151 172 177 114 151 143 67 141 160 164 172 128 148 169 177 153 100 58 63 152 141 136 186 170 106 154 157 94 80 142 99 148 116 140 150 77 80 145 116 82 78 168 110 116 192 196 196 87 81 157 151 158 140 101 107 110 77 92 197 211 105 184 186 179 162 139 177 199 106 90 183 139 70 122 112 88 84 151 58 58 91 74 74 149 142 163 113 143 198 93 183 138 144 81 91 171 110 160 173 182 104 179 203 93 123 128 185 166 117 73 168 92 115 153 184 178 63 157 58 103 142 122 94 62 144 185 127 144 152 86 84 157 122 163 160 130 83 76 147 108 81 80 141 172 103 111 122 103 78 71 92 119 58 63 166 117 161 162 141 128 74 170 115 152 48 51 41 158 177 175 169 112 153 135 128 211 183 71 67 166 171 134 76 147 104 95 72 173 167 173 80 167 103 70 178 123 82 176 84 95 90 157 158 116 104 165 195 139 119 66 67 176 160 111 64 116 66 111 127 96 188 199 111 178 81 163 79 138 70 175 94 176 157 161 156 160 156 91 86 124 32 35 96 66 51 73 118 138 111 198 140 126 160 137 146 124 87 89 162 116 82 107 103 170 187 121 91 115 111 174 217 192
160 169 180 182 169 144 125 110 119 116 130 132 128 141 150 139 140 146 144 162 174 194 199 198 205 191 177 173 161 161 164 163 152 148 152 159 168 179 172 158 143 144 160 180 190 164 155 156 183 174 173 159 162 161 179 193 137 199 183 156 167 131 75 100 121 189 184 127 172 190 192 131 204 121 118 92 79 66 49 88 76 116 101 62 89 88 172 125 111 107 137 81 116 123 79 79 83 66 81 97 128 130 170 110 120 119 109 109 139 117 142 157 78 119 64 133 124 86 75 121 93 176 86 77 99 66 55 49 117 101 46 144 133 69 140 136 141 105 163 171 184 177 183 111 90 197 179 199 199 187 172 122 141 138 150 192 196 206 196 207 201 178 153 183 87 178 90 138 162 201 185 196 153 117 104 94 104 191 185 193 96 94 128 123 121 130 130 114 191 93 180 99 52 144 107 86 135 93 78 140 172 117 154 185 133 124 152 124 179 208 210 164 79 165 168 167 119 59 151 140 176 65 136 60 137 175 158 131 146 139 118 96 55 50 106 163 181 191 111 125 125 175 119 123 87 106 68 67 174 178 183 108 200 190 188 99 59 146 100 175 173 102 168 88 91 94 107 65 89 186 180 187 154 181 68 134 63 170 152 181 124 171 105 166 145 210 101 100 128 131 66 67 123 69 79 158 96 106 141 103 121 120 123 176 95 95 118 202 96 120 100 134 129 68 96 77 120 79 60 141 35 74 69 76 52 145 100 173 172 107 194 74 159 48 65 124 74 146 189 117 183 125 185 166 74 128 115 81 80 96 189 190 188 88 172 99 89 176 69 125 133 105 94 113 91 182 102 163 185 79 169 159 164 102 125 177 114 115 80 165 72 160 166 155 159 127 164 170 123 132 163 169 112 154 121 124 255 148 105 170 172 68 116 110 105 65 60 57 176 155 105 106 133 137 196 187 161 84 115 74 102 101 165 92 149 127 115 166 89 175 143 177 86 139 179 94 166 168 96 97 146 211 103 186 196 196 176 168 105 82 183 194 84 149 86 161 100 116 168 183 191 190 204 98 75 77 149 92 131 124 179 202 162 101 101 151 166 130 94 133 132 146 87 143 93 121 159 180 187 138 203 166 208 145 179 102 149 150 153 102 121 76 163 179 175 153 168 168 136 110 224 131
167 171 173 167 159 144 136 130 128 126 127 135 144 153 160 154 161 156 164 174 176 206 210 219 215 198 172 169 165 166 166 164 159 153 159 165 179 178 172 150 159 167 178 192 184 171 153 179 183 187 158 174 166 126 167 175 168 196 178 118 148 101 103 151 172 172 177 97 98 140 193 128 115 105 188 141 110 87 112 134 126 98 58 109 69 89 114 145 168 103 120 86 81 83 75 115 87 99 78 90 107 119 116 113 143 121 106 107 96 98 126 83 82 55 53 60 74 98 102 156 99 178 109 82 170 140 139 46 126 34 32 40 47 147 45 76 149 163 127 89 187 188 105 165 187 136 96 99 118 123 111 73 155 164 182 185 195 159 201 99 131 179 145 160 124 67 93 134 186 102 117 111 176 113 194 97 116 141 169 158 99 110 164 107 64 128 141 78 192 95 176 60 144 42 59 50 157 58 78 93 103 177 179 176 135 133 104 184 188 176 203 126 68 113 111 95 167 180 156 103 147 137 107 110 88 165 123 219 129 173 97 166 49 120 124 132 142 74 178 81 127 148 155 136 187 190 163 81 127 126 162 192 138 96 101 53 67 129 52 81 87 188 175 108 124 124 110 178 190 186 176 107 112 113 96 106 85 180 163 135 161 68 127 189 155 156 138 116 183 73 66 79 106 124 133 82 170 121 154 100 153 97 150 104 96 106 205 115 169 105 132 121 84 122 172 78 106 148 151 66 91 80 82 132 49 51 78 171 120 201 154 161 67 46 103 53 129 84 111 138 141 86 109 101 105 174 188 103 124 198 133 90 115 172 168 123 109 148 125 111 107 148 139 81 69 127 142 110 90 177 172 87 167 154 72 65 142 62 71 138 170 74 132 124 46 158 169 184 182 101 132 187 123 153 118 91 156 178 73 126 137 109 93 102 128 140 132 144 76 186 115 208 194 161 134 68 157 110 112 150 91 179 95 128 155 172 140 195 189 141 190 83 148 184 171 163 94 105 102 107 213 130 144 194 199 100 203 197 116 100 166 95 112 82 71 165 160 89 90 151 129 89 173 123 166 160 149 175 95 180 134 196 209 149 134 177 183 109 131 97 116 97 120 171 120 164 97 85 92 177 115 195 124 156 192 127 194 110 116 60 110 61 159 169 179 68 171 137 106 132 189 157
184 179 171 157 150 143 139 137 134 128 132 143 140 159 167 176 174 177 168 177 168 192 208 223 209 208 183 177 174 177 174 170 167 166 172 182 188 189 182 177 177 188 179 184 177 168 144 153 146 192 176 173 118 118 131 121 192 166 138 139 126 133 154 119 125 161 173 81 76 148 91 100 173 174 100 175 87 78 74 85 66 127 57 60 119 80 158 183 169 116 108 73 113 96 92 112 114 83 123 112 126 111 153 112 125 154 121 93 133 118 78 93 58 109 70 79 65 87 167 112 131 122 103 108 86 151 93 125 46 22 46 129 89 87 71 97 59 170 79 186 193 94 183 91 87 186 181 123 86 174 95 159 158 112 143 133 96 255 178 89 102 170 129 146 71 150 125 158 164 86 171 166 155 100 93 174 162 175 106 151 151 64 133 83 83 138 70 144 199 124 180 153 87 38 157 143 145 142 98 173 170 97 79 136 76 66 101 139 102 160 172 120 154 179 197 214 216 151 96 81 89 83 80 137 87 200 177 121 109 145 89 169 75 34 86 133 122 128 147 140 68 160 84 152 151 153 196 112 150 162 150 132 152 156 163 135 71 80 142 53 151 113 150 109 72 163 182 113 99 162 175 94 130 119 57 56 74 79 100 130 171 90 165 88 194 179 114 112 96 189 93 125 183 188 176 193 201 120 128 88 89 169 72 86 97 163 142 103 199 140 219 110 192 109 76 181 111 82 126 69 61 130 64 73 118 55 62 117 133 93 167 84 72 107 129 51 64 70 64 96 145 88 162 59 171 171 177 122 184 180 139 190 145 174 108 207 196 164 149 90 189 99 154 180 66 156 102 172 93 94 180 120 146 95 146 137 60 95 149 124 71 68 78 141 38 79 170 183 143 130 84 187 99 200 179 157 197 187 90 121 84 168 146 175 169 125 69 84 81 141 199 105 119 147 94 141 159 137 119 108 75 121 130 191 137 97 96 148 155 141 95 190 165 132 178 75 154 93 138 157 144 221 205 209 105 168 192 95 107 141 145 193 184 79 125 94 74 54 130 155 176 121 141 148 167 171 172 131 177 136 210 184 220 146 185 197 185 90 93 101 157 130 143 105 77 165 167 84 90 111 213 146 226 124 164 164 128 92 106 60 117 146 110 160 156 106 167 98 218 154 142 185
188 179 165 145 133 134 144 142 146 140 126 145 148 155 164 186 203 193 196 181 177 174 192 210 219 204 189 184 185 184 188 182 179 177 191 198 203 204 202 192 196 181 177 189 181 165 166 174 149 170 176 147 154 150 159 126 150 151 165 139 98 144 155 157 165 128 139 78 63 116 84 102 152 168 135 155 181 106 121 87 71 67 127 57 97 72 84 113 103 92 101 68 64 90 98 90 93 91 83 110 102 120 99 110 146 155 100 113 122 133 142 67 58 90 62 84 133 100 116 204 120 117 185 97 83 138 96 116 32 107 42 53 61 116 122 175 173 168 111 184 83 86 96 182 165 178 80 184 185 172 73 64 177 72 141 172 135 168 119 62 152 168 110 111 53 54 85 126 139 98 166 191 130 120 111 128 86 74 92 136 152 76 169 90 165 165 164 85 194 122 102 152 115 89 157 146 83 104 120 108 112 114 105 144 91 158 63 83 108 193 173 144 90 126 147 132 217 156 177 78 165 163 68 92 179 207 129 106 184 178 173 76 70 107 22 36 71 131 131 135 150 81 87 142 98 191 106 204 105 255 62 168 62 130 81 136 27 115 72 95 95 71 97 182 88 132 100 140 135 151 175 135 52 65 74 77 130 179 137 140 74 172 158 131 95 115 181 208 176 111 155 122 99 203 100 180 153 185 102 132 73 70 74 109 89 107 157 122 108 218 129 156 150 135 129 85 121 163 108 124 167 132 142 40 49 75 63 97 90 145 183 160 176 168 151 92 95 78 57 79 95 133 80 148 157 115 99 196 96 115 100 81 171 186 181 99 195 84 147 135 181 164 128 89 147 163 166 102 99 102 161 181 162 147 136 141 146 68 167 104 81 97 151 46 62 152 124 77 175 76 107 194 183 215 188 196 158 155 178 185 186 91 92 121 69 144 68 71 136 194 123 203 181 133 99 145 94 169 108 136 160 82 154 187 189 142 203 188 112 210 159 208 201 144 151 94 136 136 103 171 128 221 137 97 92 106 127 148 74 155 184 118 72 117 103 114 100 68 56 55 157 178 159 85 70 86 186 180 194 137 151 173 151 125 194 117 164 101 150 137 130 202 135 117 123 68 126 169 85 255 207 210 154 226 135 113 175 182 90 134 89 128 82 89 159 72 85 169 156 165 164 223
176 169 154 138 124 128 135 148 141 144 142 146 141 156 171 189 209 210 199 165 157 158 166 192 203 205 186 190 176 191 182 188 181 184 194 204 212 209 207 200 199 193 175 168 181 181 180 171 170 148 152 151 125 167 147 179 127 133 109 142 126 87 159 171 96 101 159 154 71 79 103 161 75 82 167 181 137 94 83 88 141 108 116 67 114 94 255 154 153 93 71 121 71 66 80 98 97 135 140 86 98 90 117 129 142 124 125 101 92 125 81 97 97 90 138 90 102 106 108 210 142 209 141 106 174 105 151 155 62 64 165 73 84 86 179 92 175 165 74 129 83 187 83 77 158 169 174 139 142 178 84 160 122 186 84 78 86 155 45 129 121 65 90 152 140 144 71 65 102 128 94 148 201 113 113 113 106 154 177 79 150 96 176 195 96 66 130 173 89 163 102 92 105 148 154 86 176 193 166 136 99 98 92 85 81 124 93 97 106 101 142 151 62 116 91 118 204 212 192 144 106 149 141 160 147 122 171 98 99 139 85 150 76 133 27 140 128 65 102 38 42 146 72 173 110 202 206 171 169 63 77 124 150 36 56 108 143 49 85 153 139 135 183 172 177 84 78 112 203 203 197 186 93 141 65 160 172 85 93 133 173 133 73 155 105 70 115 119 194 181 119 161 112 115 100 95 174 115 110 154 57 153 66 169 95 199 124 142 118 107 108 201 96 109 130 193 109 114 86 255 79 61 60 144 158 83 149 64 164 61 133 87 141 121 67 118 70 77 59 53 129 114 90 116 121 72 170 149 94 175 129 154 109 160 111 93 80 76 129 91 163 148 101 135 142 82 72 109 126 198 171 136 78 184 177 144 141 136 131 131 169 135 143 133 89 139 152 149 53 163 108 111 187 161 212 213 105 175 105 150 143 88 77 181 147 177 187 133 167 138 102 132 190 197 218 121 89 83 170 67 129 120 166 153 164 174 94 198 130 193 116 211 175 139 158 134 44 65 139 85 105 210 189 119 95 166 94 163 158 166 180 140 119 108 172 163 55 144 141 59 96 183 103 158 98 173 177 179 118 209 162 192 132 189 166 84 130 134 115 200 100 192 198 188 116 89 70 165 81 91 93 88 174 150 118 218 155 186 69 96 79 30 147 91 165 118 105 127 216 117 155 119
146 146 144 138 131 135 147 153 150 152 142 136 144 154 172 199 220 221 204 178 151 148 152 157 170 185 183 169 181 179 188 186 184 187 191 201 213 219 217 211 204 197 178 165 180 166 187 179 169 154 155 131 130 167 135 135 128 120 111 135 153 127 159 170 92 111 138 90 137 91 128 75 155 75 98 122 93 91 125 174 175 102 84 136 82 80 131 91 86 87 145 110 79 83 93 96 88 99 102 81 109 100 118 147 142 99 135 93 98 137 112 111 101 119 88 69 68 145 123 165 157 142 180 139 98 97 99 85 87 179 181 194 116 154 129 133 170 118 84 167 107 141 84 163 171 70 85 156 129 184 180 92 184 198 161 191 168 156 124 106 148 107 150 167 98 90 167 172 137 142 102 121 201 104 98 111 76 157 173 202 139 174 174 201 103 138 51 92 144 120 101 164 69 125 71 177 145 85 140 97 152 95 122 183 174 143 174 77 166 157 163 84 94 90 103 183 98 129 149 109 75 142 140 82 101 173 95 186 85 68 159 153 66 108 88 125 107 92 113 147 159 173 127 185 111 124 97 103 125 101 85 81 38 137 29 112 154 57 162 67 120 86 194 140 129 154 176 183 153 176 103 104 118 77 127 86 98 97 149 182 143 161 99 145 154 137 83 181 136 199 135 191 172 115 162 89 187 97 143 81 157 53 164 167 193 217 236 216 108 103 198 188 137 146 77 165 141 84 80 135 59 76 144 141 154 179 106 64 48 56 127 154 164 105 156 94 62 111 91 100 73 61 85 153 143 160 61 110 63 130 192 189 146 86 162 137 168 152 58 45 63 80 148 60 141 97 117 192 97 179 108 103 115 125 175 184 83 149 115 183 78 87 81 73 67 35 133 126 124 129 106 132 135 129 186 189 98 193 111 189 155 86 147 82 109 99 99 191 144 121 192 206 161 211 118 176 102 95 180 175 122 94 114 59 65 179 137 189 143 203 219 186 105 188 143 136 115 148 168 190 117 137 157 171 159 67 152 54 64 173 180 77 162 86 126 173 174 164 120 116 75 143 127 102 144 180 111 215 221 123 121 161 90 188 117 182 123 96 115 160 178 201 144 182 110 127 62 64 127 149 142 69 77 255 106 175 102 174 53 50 31 39 97 156 67 75 91 101 142 127 147 207
119 126 135 142 151 159 166 170 179 166 158 143 137 155 172 204 212 197 181 170 151 152 155 151 167 173 172 164 173 181 185 178 181 181 184 198 205 205 195 201 193 204 202 181 203 203 204 196 158 154 149 151 152 166 138 180 165 140 130 142 95 132 106 158 165 156 161 120 134 184 164 89 86 122 69 146 71 161 151 164 106 100 122 88 91 79 82 108 88 91 148 119 158 99 98 146 97 128 147 112 125 92 110 145 141 167 108 132 113 104 81 134 110 115 140 67 62 161 154 182 134 201 113 162 97 179 73 135 93 192 100 189 118 191 181 131 80 176 200 200 100 119 181 97 141 165 69 75 102 176 119 191 119 171 179 171 152 73 155 146 130 162 172 156 185 128 180 173 106 186 152 125 126 183 162 125 100 113 134 167 222 121 165 174 147 158 145 120 35 127 58 122 124 167 171 163 96 171 86 134 89 177 196 186 92 183 111 163 84 137 80 135 145 136 117 160 75 162 139 133 104 122 91 174 189 187 79 169 169 59 57 149 114 100 48 144 100 149 49 59 162 84 139 189 188 157 186 165 50 72 44 115 114 52 131 81 156 154 66 147 99 144 199 123 161 75 115 89 172 155 107 179 131 116 126 112 155 94 81 176 82 163 60 60 140 67 59 84 112 218 168 161 161 82 125 74 84 169 85 155 56 135 90 198 119 139 167 188 153 90 82 65 95 166 172 105 88 98 60 65 36 75 61 60 121 111 164 140 136 51 57 142 77 172 76 150 79 121 115 114 139 145 116 144 68 83 41 41 50 175 89 198 130 189 180 132 125 151 104 137 76 61 62 68 117 181 106 193 197 117 164 130 172 172 180 153 167 139 139 158 98 80 152 63 71 43 28 37 138 152 165 174 102 120 196 151 192 171 157 129 113 170 82 117 103 210 172 174 90 178 102 116 175 116 140 191 94 150 98 119 155 186 81 169 124 156 255 90 175 128 121 207 198 96 188 169 109 168 180 172 108 193 94 98 139 130 138 102 67 73 77 114 88 104 181 131 92 163 178 172 180 136 77 155 170 179 117 211 219 199 146 212 181 124 93 119 91 163 173 174 80 109 204 205 189 74 66 140 84 166 179 62 166 71 105 150 108 64 104 39 35 59 86 85 173 183 105 176 176 201 124 141
105 117 132 149 160 163 174 178 187 184 172 156 142 163 178 197 192 198 175 171 159 149 147 152 144 156 150 157 169 179 190 191 185 187 184 189 191 194 195 200 198 214 215 205 207 196 206 209 200 174 167 155 165 130 131 186 187 168 159 135 129 159 182 187 113 128 167 119 191 199 178 159 138 134 148 108 115 94 107 111 106 156 86 75 84 77 131 150 147 88 109 126 146 169 101 138 122 92 108 104 126 112 151 150 137 123 115 125 151 105 88 97 126 91 48 44 64 124 118 189 184 114 168 107 121 105 174 142 107 150 193 117 221 202 142 93 83 123 201 192 178 212 199 144 64 146 82 117 92 99 176 202 165 107 146 113 79 173 108 58 92 100 94 122 175 117 194 197 130 137 186 150 134 149 62 77 116 104 125 120 120 178 133 71 85 147 147 133 45 47 65 149 61 61 116 149 167 83 70 84 103 98 108 147 192 106 170 199 167 90 175 172 109 176 71 118 72 54 92 62 99 98 83 189 102 170 188 148 60 69 66 48 102 146 64 150 104 62 161 159 92 95 116 109 192 143 177 158 135 47 49 52 117 54 140 157 117 149 128 151 158 125 213 163 185 74 73 87 148 165 77 106 166 150 108 98 177 135 146 86 177 171 61 58 140 111 123 88 140 200 132 173 84 151 145 63 170 121 146 76 160 134 107 197 118 136 236 131 116 119 142 158 65 69 110 97 177 123 61 134 65 111 52 67 167 135 62 160 106 125 129 130 158 104 65 64 50 66 45 144 180 154 196 181 84 169 58 162 88 86 142 121 192 85 98 165 107 155 158 115 122 103 168 163 80 125 104 134 137 98 106 103 102 149 96 190 170 72 134 76 76 149 90 142 124 37 63 29 85 101 72 119 88 99 105 165 89 97 153 159 64 95 126 190 125 179 113 183 143 77 99 146 168 118 195 181 170 114 187 175 107 108 112 102 80 110 180 186 94 192 170 134 107 129 180 145 112 130 182 175 180 89 121 33 54 118 80 90 117 174 73 164 98 131 100 187 106 197 148 179 149 74 164 90 90 73 124 124 110 130 221 183 104 128 169 102 97 104 114 90 150 138 106 113 139 157 95 119 147 187 86 106 81 130 185 90 151 76 111 44 101 60 86 111 93 171 150 153 145 186 99 188
114 125 141 151 158 166 164 178 179 182 160 160 153 166 170 180 191 183 162 162 163 157 159 160 146 155 144 146 168 182 196 200 198 188 176 175 179 181 192 197 193 213 213 204 201 184 212 194 180 152 150 169 132 181 135 171 159 164 173 170 174 161 173 182 171 158 103 104 160 192 104 128 126 150 155 131 130 191 116 197 185 157 78 105 96 70 71 103 104 150 168 117 122 129 111 94 117 97 82 79 118 131 119 114 161 179 115 121 150 154 72 61 109 61 92 40 74 56 108 95 93 85 144 100 74 164 91 100 90 81 196 138 172 193 106 177 170 186 130 208 114 109 200 152 87 143 83 182 147 180 88 194 86 150 71 164 134 76 83 166 104 84 78 126 190 201 168 199 123 193 142 182 170 76 97 78 176 146 183 131 213 213 179 135 159 156 70 58 69 99 158 159 85 96 155 92 99 165 182 138 162 145 85 115 176 153 186 133 183 170 91 88 143 187 167 176 95 59 140 42 36 90 167 159 212 215 201 145 64 142 47 46 92 137 165 175 171 166 79 83 129 91 97 138 78 136 93 165 140 45 98 160 64 62 110 69 60 136 72 115 214 212 141 150 97 129 76 155 53 87 66 85 104 206 215 118 144 146 106 111 142 63 49 131 43 53 141 59 113 138 136 138 88 171 65 126 153 74 108 118 81 71 93 124 112 191 149 172 94 87 111 51 50 127 122 99 175 67 104 57 136 156 156 140 154 63 62 52 101 84 145 109 157 77 72 107 61 138 98 156 187 199 97 91 109 145 121 174 98 152 83 188 95 159 169 94 184 177 155 154 90 193 132 151 192 190 189 206 195 127 142 138 175 113 93 90 100 119 169 97 157 145 113 129 59 135 90 144 138 66 167 139 188 144 143 173 104 106 161 68 155 162 93 131 98 189 190 160 77 140 178 93 104 93 195 170 111 185 172 173 138 209 203 108 115 172 160 203 208 207 112 136 162 162 202 192 173 195 92 176 173 61 127 94 107 25 45 101 104 122 170 91 170 166 194 197 120 111 128 173 118 140 104 147 160 72 92 91 143 114 143 121 145 130 197 188 109 199 97 165 120 173 149 99 155 190 87 119 112 150 159 78 73 74 140 145 197 186 82 68 126 100 165 96 156 134 173 125 101 89 93 99
133 140 146 149 147 152 150 157 154 161 160 148 142 157 166 170 173 153 144 146 146 151 168 159 157 149 134 153 164 179 202 208 209 190 180 167 170 178 188 198 198 201 204 197 190 189 202 205 216 170 157 142 171 155 179 160 127 131 124 179 133 139 133 166 110 160 110 148 173 110 123 182 169 86 108 166 103 131 172 109 168 85 118 158 139 143 70 58 88 128 104 120 114 105 158 107 101 80 124 113 135 109 131 145 148 153 97 102 140 87 81 107 97 128 64 59 73 52 77 160 129 126 118 72 74 171 74 161 80 124 76 97 130 204 117 183 166 155 150 194 208 146 203 75 60 161 169 176 77 147 163 186 182 75 115 58 151 136 113 142 186 165 129 109 150 123 159 209 134 125 136 100 165 136 67 94 149 188 111 151 152 180 166 120 102 178 188 187 104 101 167 155 153 133 101 167 99 173 87 113 125 157 157 179 129 123 135 182 117 69 72 145 159 156 167 132 119 152 109 115 111 71 62 120 188 207 183 77 155 105 92 255 58 84 116 108 179 87 171 187 176 189 83 172 124 102 130 166 158 58 148 137 60 175 92 77 163 111 128 201 109 153 163 173 148 153 168 156 71 141 89 174 152 164 125 133 129 123 103 114 149 132 48 136 66 114 98 154 137 141 153 75 181 106 151 149 67 122 164 61 69 171 101 113 183 166 112 166 125 73 108 120 150 62 67 71 168 87 131 92 56 70 139 165 154 118 132 57 163 77 96 79 94 97 147 102 144 64 166 87 162 153 102 180 137 145 186 170 114 135 94 133 91 129 62 98 128 179 178 95 181 189 179 181 151 140 182 130 101 167 187 118 141 192 184 131 121 170 103 140 49 72 64 117 67 79 160 82 67 164 98 186 148 126 136 132 105 80 158 69 125 77 101 99 117 103 104 109 150 170 118 146 105 132 170 191 118 142 201 124 197 161 198 204 175 102 186 177 144 186 108 164 124 183 114 142 90 100 79 97 139 51 126 53 52 96 141 91 127 69 166 63 66 118 167 194 187 175 175 101 159 60 41 137 156 132 145 129 183 190 180 133 191 198 185 118 210 135 178 160 103 152 92 180 145 93 187 127 167 132 179 81 69 85 169 148 204 143 137 97 147 193 128 191 102 73 106 86 132 81 125 100
143 147 149 146 146 146 143 138 135 145 139 142 133 142 149 163 165 137 143 144 142 158 176 180 165 148 150 147 155 185 199 200 205 189 173 155 156 159 173 183 188 186 189 168 167 155 163 178 202 187 192 162 185 131 136 149 143 138 141 118 186 141 99 95 109 142 126 156 134 121 108 93 176 117 96 107 124 105 149 91 104 135 123 79 140 82 80 71 75 86 105 109 143 100 116 140 81 101 81 88 99 132 98 127 99 84 93 96 91 89 87 83 122 139 108 85 145 60 99 77 102 169 64 125 97 108 70 163 163 89 139 81 204 112 190 158 115 75 156 175 145 121 193 178 60 56 167 172 158 127 176 84 116 148 113 147 149 148 149 175 151 111 174 117 157 182 208 181 204 155 112 108 164 152 147 149 162 200 137 206 205 191 185 97 140 188 110 182 133 143 83 66 100 89 155 148 139 203 189 66 52 54 68 118 80 109 150 101 167 92 138 133 164 157 163 198 126 183 148 58 38 118 151 162 159 119 158 70 154 130 131 113 63 82 128 191 169 109 128 116 195 193 180 70 123 72 78 75 81 164 149 162 135 179 189 109 107 122 155 107 116 194 97 205 182 197 158 116 167 133 105 110 149 187 180 151 105 108 42 146 66 61 52 43 55 86 78 90 113 171 76 81 96 206 147 154 97 73 71 174 171 102 189 162 104 89 95 94 82 83 84 63 72 92 118 163 170 147 93 86 89 148 67 73 176 106 117 74 75 185 193 92 95 141 180 117 116 66 170 134 122 183 116 175 75 77 68 76 175 71 83 57 110 119 121 73 135 184 151 177 138 221 137 194 164 129 141 185 172 128 190 133 95 151 123 147 96 136 114 134 126 152 139 156 117 68 106 170 176 68 95 88 128 217 157 186 160 114 106 142 163 136 180 74 134 43 54 145 66 148 71 122 108 90 72 195 182 161 207 203 125 95 119 196 147 108 194 90 164 152 164 128 183 105 102 130 80 151 65 76 56 111 32 133 72 103 151 54 93 62 139 175 123 125 96 207 112 192 93 103 164 156 143 83 154 80 185 124 147 175 153 173 200 139 98 106 144 121 75 168 83 45 126 152 104 184 92 95 194 160 112 78 66 68 95 159 135 202 108 192 149 173 164 119 112 91 154 149 59 173 182 105
133 137 142 144 148 144 141 128 130 135 133 137 120 134 139 148 155 134 130 141 146 164 177 197 180 172 154 155 166 193 201 203 199 185 169 159 140 145 139 162 173 169 178 156 152 164 178 197 190 214 197 199 189 131 152 108 163 143 117 151 160 174 129 117 108 114 132 124 116 81 136 166 165 145 120 121 126 122 92 103 80 151 99 155 95 92 101 79 79 148 102 123 115 99 148 126 107 150 108 112 116 103 104 100 97 84 71 93 103 157 147 96 111 161 136 137 89 118 94 179 149 69 114 62 67 62 114 64 66 163 168 152 185 120 193 104 126 90 87 54 73 98 82 174 162 67 71 145 151 108 92 108 138 187 140 157 62 150 112 138 156 173 160 144 100 196 195 217 153 136 132 85 151 84 181 205 127 149 216 120 132 137 124 135 180 166 131 161 199 196 78 126 110 113 75 88 138 101 115 78 81 56 61 65 169 86 135 144 71 61 82 115 60 138 85 103 113 110 161 156 139 53 139 71 88 78 70 73 67 158 115 132 115 159 160 84 134 150 177 94 100 158 135 121 147 165 175 88 161 81 103 60 170 81 172 181 136 98 151 175 142 172 112 184 167 150 160 185 181 117 80 81 160 147 172 173 100 50 99 86 91 158 98 93 44 157 160 174 113 94 88 128 186 105 115 113 111 126 103 120 137 217 116 110 172 77 108 75 94 107 81 132 142 131 170 174 188 94 99 122 125 137 57 61 161 71 179 140 139 136 163 129 151 186 134 149 150 150 103 132 160 78 174 148 106 100 146 164 73 169 79 56 137 40 96 174 82 89 183 174 192 207 211 105 157 184 87 131 160 92 75 72 175 82 126 135 135 117 99 131 110 46 96 99 151 126 81 99 90 102 181 188 183 196 134 221 136 91 190 191 162 86 127 73 149 99 26 110 152 69 168 118 166 61 123 131 129 220 186 165 80 118 145 179 178 189 107 143 135 74 107 112 139 69 153 87 168 153 82 159 151 136 40 145 74 76 92 102 158 171 173 174 174 137 146 203 106 81 177 166 169 107 118 161 158 108 131 184 134 127 146 215 112 81 155 78 107 120 132 66 82 124 113 87 145 151 95 121 101 110 89 147 49 96 42 77 115 175 110 113 80 146 141 194 170 163 104 69 120 98 98 110
110 121 138 147 152 147 139 123 117 131 135 125 112 123 138 146 157 150 140 138 148 172 196 202 208 182 178 176 186 203 205 200 193 182 171 154 149 137 129 124 144 162 155 159 141 124 168 178 216 220 189 198 188 121 127 136 104 138 118 175 146 124 151 164 144 141 87 124 136 166 152 163 175 119 143 159 135 119 101 61 91 67 141 91 94 96 117 87 116 118 83 130 98 146 94 83 115 116 142 124 139 133 105 110 70 105 79 112 116 94 90 97 137 134 99 168 109 126 108 185 83 142 60 58 112 89 46 120 127 109 70 171 81 184 91 175 162 61 37 136 52 143 149 91 72 63 168 81 93 78 95 101 170 128 197 202 187 106 150 131 73 125 100 111 104 144 155 135 112 156 58 131 146 115 201 193 153 176 115 109 96 147 133 100 181 107 112 196 145 147 149 154 146 58 149 83 180 90 183 139 162 79 66 95 76 70 175 157 73 99 104 93 167 145 137 101 168 114 192 93 182 87 172 151 170 114 156 67 163 72 52 150 76 76 119 179 149 168 175 124 198 255 150 65 49 54 171 179 154 172 153 153 109 181 155 87 113 202 107 171 115 190 136 188 97 168 108 81 190 183 91 160 94 187 119 177 158 65 117 152 91 157 142 80 49 103 140 189 183 121 74 154 141 149 165 101 166 210 108 221 226 135 111 111 176 89 68 93 151 106 110 169 69 86 101 110 181 118 106 93 90 72 50 50 57 65 89 85 130 190 207 185 110 86 77 153 65 59 154 80 144 170 164 163 149 144 38 72 76 139 118 39 140 46 128 75 160 153 100 159 145 173 174 96 136 98 119 146 116 148 104 62 112 85 155 181 95 98 180 124 129 111 67 45 100 95 81 125 184 207 107 157 194 148 180 204 196 107 96 180 201 101 171 104 158 95 128 86 142 157 82 105 107 151 53 100 135 101 155 129 174 152 150 127 177 179 102 195 158 162 50 85 167 168 76 146 64 76 63 121 119 66 155 61 141 90 48 53 108 74 171 86 178 172 124 190 159 140 155 162 174 88 90 169 139 121 191 95 124 202 225 198 90 157 64 115 159 154 146 176 165 57 109 92 124 146 156 87 180 81 78 136 64 136 34 58 70 69 58 58 67 83 91 190 103 164 60 153 69 81 99 173
95 112 135 150 153 142 130 118 114 128 130 130 118 130 140 169 176 162 164 151 156 181 188 200 213 205 182 196 202 201 210 199 189 178 175 169 159 154 140 137 140 149 148 152 133 131 142 160 209 228 225 213 185 130 122 105 157 166 117 107 166 93 145 132 122 106 91 255 167 108 188 124 150 101 105 113 167 113 65 109 74 142 103 73 84 120 77 132 66 62 72 72 95 145 138 86 90 95 124 168 112 75 67 55 56 77 129 122 132 110 106 79 78 98 119 193 137 119 102 173 108 79 57 78 45 92 40 69 76 53 160 54 55 61 60 104 54 100 147 130 68 70 173 136 132 61 90 166 73 115 202 215 209 229 167 124 197 200 143 152 109 158 132 180 144 143 107 191 183 159 116 43 137 173 126 149 203 183 129 129 183 174 132 70 177 89 94 172 134 198 120 90 175 106 151 166 124 79 161 159 169 100 179 113 110 103 85 146 186 139 107 183 174 108 183 88 115 96 195 128 101 201 138 71 161 79 160 157 151 160 129 138 65 147 106 168 99 76 171 180 171 130 171 80 147 73 77 154 171 107 65 126 173 164 115 177 184 169 154 201 106 120 105 155 167 161 155 127 167 88 198 157 178 142 147 157 87 155 167 149 128 67 151 54 119 93 143 129 181 128 64 114 87 119 71 186 184 200 203 255 205 123 89 150 55 53 95 162 140 111 128 80 105 79 73 184 177 85 162 138 108 72 115 139 103 83 85 93 96 199 103 105 139 153 74 104 161 142 30 118 134 160 80 82 162 49 38 42 129 91 108 65 137 136 145 97 183 156 78 116 121 122 177 186 103 76 99 70 116 78 145 82 140 192 92 117 123 168 136 80 106 160 134 66 60 109 166 190 220 218 128 125 204 165 136 173 132 167 148 190 112 112 125 97 186 77 127 150 111 89 197 182 143 84 67 165 126 188 151 180 187 177 97 107 169 101 192 142 110 160 108 118 90 170 69 72 158 153 110 65 164 120 111 110 64 147 132 99 171 88 91 106 107 147 150 135 180 176 138 102 124 88 83 80 94 158 129 140 208 142 228 202 112 59 86 153 57 92 165 192 144 84 53 130 44 137 63 156 111 85 67 74 43 39 89 104 152 114 80 122 72 102 93 105 106 142 133 114 66 175 122 108
97 114 135 148 148 133 119 109 109 120 132 126 124 141 161 184 181 188 179 152 166 165 189 194 196 187 195 189 190 205 205 189 184 173 174 179 183 173 159 139 146 137 138 142 139 141 118 176 203 214 224 183 182 146 139 146 112 178 148 157 113 152 93 157 146 155 132 85 115 161 111 148 145 149 143 126 117 115 75 73 108 152 156 76 70 112 58 62 56 58 62 80 83 72 75 118 65 113 123 100 96 59 50 52 75 102 130 101 110 77 78 128 73 97 142 211 171 113 96 74 136 70 60 151 55 51 53 60 63 149 132 117 106 85 113 55 155 72 56 62 110 96 158 181 68 136 151 133 169 113 114 122 227 135 237 125 195 199 192 88 64 142 127 86 94 97 148 122 165 103 79 103 103 102 110 162 217 120 167 110 153 110 139 149 147 105 186 193 138 108 180 155 71 90 107 132 63 69 159 122 145 168 131 191 198 120 201 117 152 178 99 169 191 76 149 102 123 176 180 194 133 128 136 106 62 95 142 100 177 188 77 124 93 177 71 153 113 52 102 167 157 68 160 90 144 133 92 83 67 73 163 120 188 169 88 177 130 159 117 182 124 125 159 146 131 60 115 120 168 165 158 208 120 114 104 112 168 137 114 169 114 90 112 150 58 81 150 120 142 128 65 41 81 145 151 154 72 178 188 105 162 188 112 89 53 74 65 125 100 195 195 89 68 158 66 64 66 85 85 92 156 165 105 80 95 153 173 175 98 157 82 101 130 139 168 115 140 24 72 79 31 59 90 172 75 72 128 109 114 57 73 138 69 90 182 78 141 109 167 154 139 98 128 176 92 182 114 155 59 77 165 91 104 101 197 141 102 198 196 186 93 73 71 98 69 109 255 204 180 200 207 103 187 104 189 159 129 122 148 117 150 130 210 204 132 122 87 129 142 163 101 135 102 190 171 69 129 180 182 109 101 149 150 95 173 149 139 191 82 72 156 55 170 149 159 73 51 255 130 82 90 114 162 148 69 62 85 168 93 74 131 69 156 142 139 63 108 163 147 79 183 98 137 171 85 195 129 182 215 192 124 110 109 108 87 94 164 164 93 127 200 160 72 165 81 78 129 65 121 185 147 168 122 76 103 59 62 51 90 47 45 128 156 118 77 116 83 169 178 110 99 138
113 125 139 147 139 131 120 115 109 130 129 131 129 142 160 184 183 179 169 163 159 161 162 187 176 182 172 178 180 188 196 199 190 184 179 187 189 194 180 173 151 147 134 147 122 147 149 142 174 200 212 183 178 160 165 162 117 160 201 177 129 120 75 94 135 102 155 143 98 189 138 156 99 85 80 81 118 103 166 82 87 157 128 175 120 72 82 88 73 109 77 68 68 90 97 96 124 78 103 118 71 98 53 102 101 93 93 105 129 63 98 142 142 112 128 149 134 140 104 65 145 62 159 160 66 84 73 95 105 123 104 41 74 139 63 108 151 64 70 175 184 126 84 94 164 127 52 110 175 194 132 192 232 141 192 129 159 210 181 183 166 111 153 168 170 72 133 162 169 164 94 31 50 113 163 153 150 193 151 185 167 115 143 104 109 187 119 194 187 176 109 99 155 63 110 117 168 154 125 102 128 197 202 111 143 210 210 116 202 124 117 164 97 177 170 71 70 58 163 183 205 122 171 84 113 99 152 137 180 170 129 168 90 144 95 39 137 144 74 153 93 89 146 108 36 147 123 126 89 72 166 131 133 173 169 165 141 141 62 118 131 71 59 148 73 115 125 59 86 110 109 129 131 125 194 178 163 137 164 102 105 106 156 92 172 187 192 76 58 77 127 42 75 91 49 81 135 75 111 80 102 77 97 90 107 45 59 77 87 110 90 158 78 104 49 69 107 85 78 177 168 89 202 166 200 187 148 138 167 171 61 137 73 107 67 139 39 40 16 85 84 108 66 72 95 67 111 148 128 127 163 120 177 127 149 137 168 153 86 51 142 125 155 105 82 186 141 82 93 106 170 137 206 109 99 150 196 98 133 173 125 183 151 130 119 169 139 190 155 110 186 181 88 88 177 144 85 72 147 100 79 105 135 114 124 123 100 132 133 169 203 115 218 175 86 127 170 105 152 93 124 172 119 181 151 183 161 155 106 144 57 140 166 68 84 148 146 161 174 99 194 111 146 157 42 90 94 169 112 67 145 156 75 99 68 61 74 166 150 181 166 151 149 121 78 104 198 186 196 181 145 164 78 124 159 170 162 96 109 202 134 216 109 97 96 87 143 113 120 86 79 88 167 90 73 177 100 168 62 56 88 86 60 117 65 67 85 68 88 106 112 120
128 136 145 149 140 128 119 115 119 126 128 140 141 152 150 166 182 168 170 181 173 170 167 153 153 147 157 159 160 171 186 190 194 192 185 187 187 194 180 186 170 154 148 150 155 141 151 167 182 203 206 159 181 159 177 185 174 201 138 193 152 151 96 124 71 156 115 103 142 118 95 107 86 155 56 55 109 119 159 112 96 108 105 110 128 123 157 110 136 83 116 67 114 81 73 95 71 106 109 109 60 113 82 73 78 132 127 112 70 58 101 103 100 108 112 99 161 63 56 58 47 141 81 108 94 143 195 189 141 80 69 144 38 39 43 164 77 77 178 83 184 157 180 175 79 155 110 94 122 179 163 191 116 203 116 149 195 131 167 199 191 174 155 65 157 162 72 89 128 77 54 100 33 109 96 163 165 201 178 143 157 74 114 47 128 154 106 99 145 73 55 107 93 51 147 110 129 88 203 104 210 163 136 111 108 105 197 100 134 104 198 212 99 187 171 129 111 67 120 179 91 96 87 121 158 110 70 136 161 179 194 124 164 125 73 62 35 71 136 151 57 61 36 28 138 99 139 94 65 68 116 115 184 104 200 111 134 88 158 167 117 146 155 156 143 127 123 152 133 104 186 176 113 138 134 172 91 94 141 185 108 192 99 72 75 173 85 147 73 97 99 62 120 59 68 78 73 68 112 92 131 93 47 63 52 59 77 111 110 84 85 101 66 143 104 156 80 128 145 82 83 113 194 201 123 148 215 104 141 163 140 51 161 169 65 149 135 19 48 23 136 43 93 166 157 172 113 164 60 170 124 185 160 160 90 169 142 52 119 117 54 37 141 150 181 202 112 138 202 121 146 128 197 92 111 123 97 164 95 193 92 194 106 194 184 181 80 168 143 155 95 124 131 161 168 141 100 145 109 174 159 180 103 90 111 159 202 158 84 153 127 211 175 144 114 111 64 65 255 100 187 168 173 153 186 179 85 140 52 66 63 61 144 126 56 52 78 171 104 116 110 162 80 104 142 83 68 115 80 144 62 39 69 114 145 93 116 102 126 132 81 63 153 70 180 187 155 174 75 183 197 187 85 93 164 113 130 117 88 100 177 196 173 130 149 89 73 99 164 68 177 113 98 81 126 184 136 98 95 111 129 173 105 71 157 172 183 172 84 106 137 221
133 141 147 152 145 136 123 117 118 121 128 138 141 153 149 140 161 171 185 178 166 177 160 151 149 138 149 148 155 169 175 178 192 191 188 180 182 186 191 188 166 160 154 157 153 139 136 141 179 156 255 190 144 137 168 157 147 139 200 183 118 107 86 100 81 100 101 164 93 120 156 161 80 132 119 69 64 148 95 84 155 151 111 202 124 112 117 95 100 123 106 80 64 105 69 74 123 97 86 78 107 75 71 115 83 96 125 82 94 128 133 90 109 188 107 146 86 88 59 150 53 69 105 163 92 127 103 192 85 84 72 35 38 54 54 135 188 94 178 108 117 168 170 73 145 55 73 41 138 121 149 83 169 204 151 111 186 193 117 189 198 120 177 120 87 65 150 127 168 138 121 128 80 103 100 86 135 157 183 62 117 57 129 86 143 89 165 101 79 73 154 115 133 123 139 129 92 197 215 192 212 141 159 129 202 163 98 150 186 187 108 98 199 137 171 130 118 60 111 71 151 131 142 179 126 154 173 90 101 176 196 182 149 185 166 56 82 128 124 60 152 120 113 102 129 64 140 84 79 117 58 60 96 108 185 98 178 133 61 115 144 151 79 153 160 204 134 93 110 180 176 170 172 216 148 144 148 117 117 201 198 158 160 95 186 123 167 75 93 93 120 143 93 156 127 74 64 68 59 161 83 96 54 52 58 171 81 110 82 130 61 140 50 52 72 162 72 85 128 159 166 138 160 107 129 122 171 158 157 158 119 53 154 86 67 152 153 114 56 145 57 52 166 74 88 156 150 80 184 165 96 99 118 177 132 169 133 44 111 61 35 126 60 147 168 140 159 214 206 201 106 205 191 110 127 171 99 176 172 138 84 118 170 182 195 125 92 164 80 89 96 178 187 171 150 144 144 83 164 91 122 86 74 117 169 119 182 140 180 93 177 114 105 88 152 164 123 81 165 78 179 90 166 191 184 165 137 139 91 54 105 145 147 120 155 162 161 190 117 198 114 204 114 89 62 148 71 74 106 125 68 33 21 126 135 141 41 148 68 130 183 88 141 143 160 146 111 65 125 181 83 123 65 150 55 140 84 177 85 192 120 171 126 214 183 199 166 157 139 150 89 68 115 135 160 127 86 90 83 87 131 70 60 65 138 93 91 88 174 186 100 101
133 137 141 143 145 255 135 129 115 113 122 141 149 139 149 136 157 159 188 191 185 189 177 156 155 141 147 149 157 159 163 169 173 175 171 167 170 174 183 189 182 152 167 143 174 173 176 179 165 192 210 174 193 145 123 164 178 142 182 176 169 98 104 146 172 167 129 150 183 87 144 78 132 111 89 66 132 110 83 85 152 96 186 163 137 118 106 156 140 127 120 95 78 111 73 79 129 79 95 91 87 123 86 91 96 116 101 118 69 74 86 108 108 102 141 93 68 64 67 83 85 69 119 96 86 94 176 75 118 72 57 140 35 138 171 102 180 99 91 122 155 66 118 63 39 43 147 140 133 134 106 155 175 114 193 141 156 188 169 185 192 99 152 170 170 99 88 135 62 91 57 47 111 77 81 93 80 158 86 148 61 135 51 77 56 78 112 174 109 162 171 64 116 160 97 170 179 92 113 218 222 111 200 191 102 79 108 73 181 98 178 114 94 165 79 121 56 48 135 137 88 189 195 105 169 178 164 97 130 139 116 179 200 107 120 166 48 33 74 145 57 57 45 38 136 121 116 112 177 255 104 52 110 186 199 184 123 169 92 173 94 104 93 155 114 133 114 128 142 147 176 82 123 136 151 103 105 134 130 211 206 207 108 179 187 169 191 88 168 171 55 87 87 81 172 75 79 138 149 142 159 106 93 81 69 118 171 84 150 72 140 60 154 144 146 171 79 87 119 135 80 64 142 170 184 140 139 193 152 75 140 126 91 75 90 176 160 93 169 163 167 149 168 109 188 190 183 165 134 112 185 87 84 110 182 170 93 52 74 30 42 82 155 76 142 102 207 163 161 159 189 106 86 96 144 100 188 156 90 115 162 116 188 141 188 171 155 130 85 159 118 171 137 86 86 90 193 136 175 146 95 187 168 171 175 99 123 115 107 98 86 142 111 122 134 72 107 125 167 76 81 82 161 141 150 192 131 135 63 168 168 153 146 118 139 146 123 149 167 190 205 196 183 146 141 82 77 82 178 158 146 127 23 120 119 52 69 139 56 148 183 174 168 87 188 172 165 161 161 160 87 137 130 155 167 74 92 178 137 186 115 112 128 219 118 184 169 76 163 127 131 169 175 182 82 168 168 92 91 126 87 70 168 73 183 101 200 196 88 89 140 115
130 131 135 138 142 146 148 134 125 116 122 134 149 161 144 155 155 159 176 185 189 182 172 166 167 158 157 159 155 152 155 156 156 155 150 155 164 176 178 190 186 176 177 155 139 157 155 173 158 182 194 183 178 154 135 183 177 182 196 188 178 128 107 160 127 186 151 161 106 132 110 140 127 109 91 75 69 103 100 125 99 93 106 122 122 183 98 94 110 115 96 86 91 87 95 132 117 102 77 87 145 107 105 98 133 105 100 95 133 81 91 99 109 138 101 91 149 100 75 156 150 68 78 80 89 143 56 138 48 160 72 54 157 60 180 195 104 123 177 158 150 44 145 139 80 158 159 139 121 135 73 115 138 142 173 170 132 171 143 109 166 92 76 152 80 130 85 119 90 126 115 122 122 84 95 149 77 90 111 61 141 156 163 83 120 158 121 180 75 172 155 73 110 141 59 61 65 97 138 223 122 191 169 169 169 167 82 158 128 77 68 78 140 107 43 144 83 97 151 155 149 121 146 157 183 131 129 91 104 184 98 206 109 154 83 72 116 107 44 77 158 51 137 67 82 108 159 128 164 125 110 149 64 166 146 179 176 171 135 82 179 98 201 109 115 179 203 197 153 153 73 121 160 199 115 101 151 86 95 197 181 113 217 103 160 96 97 113 90 79 88 55 152 83 168 171 77 67 153 86 89 77 180 179 179 127 169 114 86 110 83 154 124 101 164 72 110 110 104 77 105 159 64 101 173 187 140 109 146 67 107 95 159 181 153 172 94 178 121 179 123 76 167 136 180 181 181 125 104 204 103 114 96 114 165 196 183 161 57 72 156 118 97 139 182 150 103 143 176 183 166 107 161 117 132 113 101 144 96 135 79 154 105 179 108 154 156 83 159 164 181 177 86 160 147 199 117 185 118 184 201 131 191 138 169 163 177 169 181 96 182 171 104 68 144 79 148 157 166 153 99 159 94 153 148 224 189 117 182 148 125 137 159 146 58 59 179 97 200 117 175 143 178 160 157 172 166 101 179 165 119 105 100 122 128 91 77 50 70 95 161 181 171 175 90 162 165 190 132 162 198 173 177 149 164 99 183 116 147 85 144 140 165 198 102 162 90 177 135 115 91 106 79 142 107 113 170 140 103 114 175 80 170 80 143 99 168 94 81 72 105 77
125 124 125 126 138 146 149 141 131 122 129 255 164 169 161 171 161 168 175 172 188 195 188 188 166 178 171 161 157 153 155 157 153 143 141 154 161 177 177 185 195 192 167 171 149 144 156 162 179 190 200 172 150 177 168 255 151 152 163 199 186 173 168 157 176 168 173 206 180 171 80 153 67 147 136 72 156 126 137 94 158 127 105 134 193 109 86 79 141 86 87 76 83 156 125 123 111 140 92 98 103 102 142 127 142 128 107 134 94 62 52 116 82 86 162 97 90 117 80 123 75 63 63 151 66 65 132 81 52 56 75 147 176 92 80 177 193 185 169 154 45 41 129 51 127 86 77 150 69 61 88 136 158 146 166 147 86 120 153 201 156 79 168 175 170 189 104 169 75 51 63 131 63 144 178 121 120 130 134 126 182 152 157 107 102 188 188 94 174 106 140 165 62 74 119 77 157 86 164 177 111 87 70 71 102 91 174 154 179 184 136 74 42 35 45 137 51 152 66 64 99 95 106 145 193 140 122 184 122 112 104 181 202 179 156 146 64 85 145 53 80 156 156 98 72 142 150 67 98 111 87 138 85 61 161 82 157 117 118 84 170 202 121 203 105 169 179 147 82 94 105 75 188 91 189 74 126 91 171 90 101 211 117 165 148 148 123 102 111 169 58 55 55 150 151 113 97 152 154 74 137 76 107 96 195 164 197 102 95 94 100 83 139 196 116 98 100 119 187 71 133 82 157 72 100 81 116 174 90 96 70 158 141 187 193 172 196 114 99 82 88 158 63 109 116 181 190 108 204 114 102 151 179 133 109 108 183 172 174 165 188 118 146 89 78 112 126 141 191 88 108 104 165 105 92 199 112 145 124 139 179 186 138 168 143 90 77 170 153 61 63 174 109 91 129 106 118 189 199 173 199 136 187 176 107 130 185 212 209 94 140 170 85 130 129 137 38 138 132 113 164 93 118 131 205 211 108 98 169 98 188 167 167 121 152 117 98 178 131 178 91 146 172 172 199 189 190 137 89 164 81 96 19 29 45 62 143 94 138 60 147 92 158 125 187 206 110 152 140 123 97 117 97 103 91 125 206 169 170 170 88 172 159 143 171 193 169 185 141 159 81 81 78 176 87 200 212 219 150 115 115 88 142 109 145 180 105 112 146 144 75 81
114 118 122 128 135 140 145 147 133 131 134 151 161 170 174 189 178 167 180 180 178 180 193 199 188 197 193 176 171 164 168 168 160 156 159 165 174 180 179 194 198 194 182 168 146 133 149 155 163 136 184 181 177 147 190 137 199 203 193 159 210 161 190 148 168 111 186 129 205 147 152 104 146 64 139 67 79 93 124 125 123 90 187 189 197 166 79 130 94 76 76 81 90 115 122 117 132 105 123 136 135 104 107 143 91 123 84 57 42 79 54 52 62 78 98 89 125 126 86 94 113 63 125 139 60 130 39 35 47 61 76 187 119 85 169 82 170 152 175 157 62 151 156 161 172 156 197 94 176 79 175 136 55 106 114 154 162 181 199 131 134 154 87 181 159 152 115 94 88 157 58 88 133 79 184 128 104 189 108 185 98 180 197 101 116 130 139 85 174 88 164 99 93 113 125 151 134 100 125 109 137 95 75 83 82 106 149 146 109 146 178 131 91 114 130 69 65 66 90 83 141 190 91 153 81 181 144 100 155 118 183 110 128 139 157 180 78 129 53 139 95 101 170 255 100 112 65 42 158 153 179 174 154 111 85 175 158 182 95 186 106 202 101 199 163 135 158 152 168 173 135 112 190 112 128 88 63 123 157 148 107 139 118 107 90 103 144 142 127 72 146 62 100 68 73 100 133 56 80 162 67 75 129 125 99 203 182 205 84 70 69 185 97 149 179 102 181 171 83 66 138 78 100 133 125 101 184 95 178 90 167 181 81 115 103 135 137 193 120 135 77 122 149 159 68 101 153 164 199 188 148 85 85 95 127 201 159 80 84 183 155 110 192 138 111 104 168 124 131 142 162 183 107 193 198 194 185 193 177 96 86 183 165 154 92 171 87 90 140 95 90 122 74 182 117 107 207 97 141 200 141 219 135 123 92 207 109 197 107 151 138 82 126 63 149 96 104 50 162 150 180 178 193 163 216 109 196 105 147 126 159 151 140 106 169 151 172 144 80 91 157 60 150 178 106 90 177 173 119 67 145 131 59 135 142 144 76 146 151 58 47 91 162 74 174 210 211 110 189 76 101 144 180 140 104 187 209 165 178 157 126 137 170 183 165 94 118 78 155 132 175 83 144 141 113 107 214 153 210 117 107 99 90 84 185 129 141 92 77 134 96 81
108 113 120 127 135 139 139 139 133 144 141 151 153 174 182 196 182 174 179 181 174 182 198 206 210 214 210 203 186 187 185 189 188 178 183 177 179 180 192 202 206 198 189 176 141 162 144 130 160 147 170 164 135 124 184 178 149 192 145 140 166 182 166 116 110 173 125 195 154 118 132 173 139 91 147 77 89 142 103 93 130 168 106 114 119 105 92 144 68 73 115 126 100 146 121 122 140 141 127 143 140 139 123 97 100 88 80 42 97 39 56 54 80 95 87 82 79 175 86 74 110 69 160 78 61 140 49 146 95 70 82 96 115 73 68 178 158 132 128 167 91 63 172 133 166 121 93 171 155 196 190 80 79 154 135 68 68 93 130 114 156 172 93 176 97 174 152 182 178 103 160 73 135 186 132 146 185 194 107 212 156 150 186 142 170 147 132 147 172 130 96 62 63 165 108 146 90 102 178 196 117 121 134 153 185 151 172 169 180 143 168 91 67 77 98 151 152 169 81 119 135 181 181 77 83 124 168 156 89 172 181 206 140 108 137 92 47 36 46 131 148 159 163 157 138 54 131 148 155 163 125 165 103 118 157 153 168 187 78 76 178 188 126 195 154 100 118 158 174 85 106 180 208 123 182 152 142 136 76 134 117 136 149 103 168 145 168 68 59 146 53 161 129 171 104 70 105 124 120 72 82 125 102 91 164 137 118 153 88 105 60 123 122 95 178 134 164 86 176 78 71 127 79 117 103 81 182 169 166 159 141 69 77 136 197 157 120 199 206 145 101 82 147 127 100 152 154 184 101 79 171 96 139 185 103 191 114 187 85 90 86 139 65 59 146 147 80 176 143 119 188 113 156 155 205 102 94 154 145 96 164 96 181 174 101 159 204 116 127 165 164 108 126 169 186 192 187 193 160 119 151 127 105 207 110 107 155 119 126 82 92 188 93 83 61 41 68 60 165 119 187 85 99 88 132 168 172 185 194 127 106 186 148 168 170 171 163 174 79 84 83 114 94 104 93 133 161 90 59 49 121 115 78 101 53 73 52 153 84 60 66 132 89 148 145 214 220 124 97 147 91 75 124 143 105 144 103 102 165 84 146 148 120 78 186 188 81 180 158 86 85 90 108 222 195 116 111 167 194 145 161 97 106 182 83 138 91 163 176 66 60 143
115 120 124 128 132 139 144 144 147 150 139 147 151 167 180 192 185 188 179 171 189 179 195 191 204 216 215 222 221 215 205 209 198 198 197 195 189 188 196 206 209 209 187 186 156 168 155 128 146 161 154 131 145 157 133 124 178 168 203 162 178 118 165 180 177 145 143 144 156 189 152 166 98 106 82 145 150 79 103 186 99 168 142 157 191 102 151 77 100 58 96 74 96 111 149 113 126 131 151 104 102 120 101 94 83 99 49 57 45 81 56 61 90 92 149 117 80 135 82 80 82 91 108 142 139 114 98 110 186 186 172 96 107 120 129 180 156 186 68 75 168 74 78 182 75 96 184 82 174 172 189 119 157 106 157 156 171 102 164 202 173 147 135 146 134 173 82 141 110 147 171 155 177 124 111 202 206 191 210 210 178 209 149 93 124 84 89 94 180 74 123 124 105 80 175 114 106 195 200 178 102 189 91 108 139 97 101 179 124 188 93 147 127 92 203 181 129 159 92 115 185 199 175 77 127 139 144 146 125 81 141 189 190 207 90 152 68 39 98 66 166 73 156 88 60 54 106 61 172 100 197 98 82 112 171 122 196 95 184 122 160 156 169 144 97 149 166 167 177 107 115 142 133 207 130 176 82 156 65 151 58 103 81 188 149 96 136 161 148 163 133 125 67 75 158 172 82 112 65 126 183 193 90 131 211 132 118 124 135 78 75 157 103 77 99 81 184 185 255 83 70 175 101 140 116 194 85 179 72 49 109 148 174 114 165 214 178 114 205 96 185 165 181 181 179 173 158 76 78 127 162 89 173 167 177 87 169 181 191 86 162 109 84 96 131 84 97 118 179 121 174 141 157 113 144 151 123 165 187 190 137 109 146 109 197 205 139 129 87 121 103 131 132 59 90 165 90 176 178 166 111 145 205 132 133 99 87 97 69 164 103 137 160 90 112 75 86 158 117 74 170 124 89 136 94 138 88 179 115 83 100 159 79 72 133 79 88 158 175 106 77 181 89 124 177 65 144 91 147 152 83 89 78 102 99 73 63 104 132 40 76 25 126 72 146 181 134 139 182 109 104 162 173 182 135 170 143 174 57 46 46 49 111 117 81 177 143 141 138 89 157 172 213 215 132 120 106 114 103 118 189 193 184 144 80 80 166 96 168 99 52 106
130 129 126 122 132 140 149 154 159 160 146 153 143 162 163 176 179 196 192 173 171 178 169 190 188 201 211 226 232 237 233 219 212 209 205 206 193 195 203 214 222 218 206 191 158 150 166 140 163 159 156 131 135 130 106 165 136 166 186 131 166 170 115 170 137 147 132 181 177 185 114 106 114 110 162 142 136 86 106 191 106 164 106 112 141 100 114 91 51 73 81 74 111 100 136 145 124 116 113 119 78 84 122 113 114 79 82 122 86 121 65 91 103 92 113 124 147 92 92 81 90 119 120 96 184 151 86 116 92 96 78 78 151 120 56 68 73 136 142 99 105 169 179 178 92 171 168 78 142 165 181 178 168 82 174 156 168 218 189 201 181 160 162 149 86 127 129 95 151 152 153 193 192 136 113 203 99 99 153 198 142 172 130 158 118 178 86 87 127 140 121 71 186 186 106 116 177 198 108 157 166 153 159 191 192 85 100 163 65 79 167 88 90 92 158 173 104 192 193 187 179 109 188 164 71 37 75 137 57 60 65 183 102 100 112 165 81 136 53 91 141 178 164 166 174 70 166 163 196 104 210 127 156 83 110 208 187 187 112 63 164 89 197 168 185 139 105 142 102 129 154 129 209 122 125 168 163 135 125 149 60 155 142 133 95 87 79 61 58 146 87 94 171 189 96 72 78 137 68 156 133 163 98 187 168 165 203 145 213 180 164 111 107 69 97 178 83 100 99 88 75 129 189 184 154 107 201 166 146 45 147 91 175 133 118 223 214 168 207 176 79 92 111 94 106 118 77 65 164 171 161 93 123 148 90 149 185 203 194 151 153 137 34 87 105 255 143 136 102 178 167 152 112 194 160 188 162 96 149 83 107 82 171 143 108 118 192 176 135 115 148 75 66 152 144 128 128 72 76 88 94 133 135 94 142 148 126 166 61 164 178 92 99 147 188 171 150 137 137 180 181 80 80 156 74 70 155 154 178 180 127 69 159 68 139 129 190 84 118 178 175 169 112 175 162 140 136 106 60 156 137 146 138 159 155 165 84 115 140 130 95 123 116 105 179 138 132 88 79 73 60 73 149 157 130 172 187 69 131 138 72 68 136 133 161 70 76 106 174 175 183 105 198 126 133 156 169 161 85 150 134 102 152 180 177 85 75 72 91 98 61 50
141 136 129 119 125 136 147 157 166 174 165 157 158 160 162 173 167 172 172 171 163 163 170 180 184 194 207 214 236 247 242 234 214 212 210 211 202 198 204 212 218 215 201 198 188 184 179 185 180 173 162 135 102 148 141 132 137 178 151 123 91 86 99 143 177 169 165 145 83 120 164 131 155 98 84 145 154 174 109 165 111 175 113 109 184 137 75 68 41 97 109 56 105 91 136 162 103 110 87 79 84 78 128 81 119 88 82 77 137 135 81 103 71 78 110 171 178 173 100 138 173 112 197 203 103 142 81 163 119 101 182 100 137 152 154 165 112 56 113 166 138 76 179 118 75 164 128 93 171 146 84 82 137 179 87 136 213 224 181 201 162 126 142 101 57 86 153 140 175 171 150 206 169 180 158 184 120 191 164 147 117 138 161 108 122 136 114 174 156 123 150 71 95 191 204 198 119 92 194 114 155 192 129 211 119 81 66 119 93 75 165 112 156 110 99 132 84 165 162 207 161 195 183 156 136 124 48 59 29 140 153 135 176 189 94 98 99 92 68 87 152 76 188 90 155 157 78 100 127 210 198 200 94 166 198 190 117 201 71 63 91 166 147 210 188 142 107 105 155 117 194 116 189 172 164 90 70 88 140 107 36 148 55 151 55 86 48 150 136 178 92 110 115 113 103 113 156 130 82 90 200 93 93 192 124 110 166 121 158 113 98 175 108 111 158 138 129 101 145 114 86 153 96 103 157 167 104 97 149 146 66 73 90 149 132 180 215 124 174 203 167 162 156 93 69 56 151 122 98 159 64 75 164 68 78 157 191 106 180 103 48 85 65 133 44 100 133 142 127 191 154 198 192 118 155 155 112 81 85 80 132 165 161 117 102 130 180 165 96 184 87 84 75 135 123 84 60 56 105 184 170 169 132 149 91 91 154 85 137 180 166 188 103 151 130 196 140 76 125 83 150 90 62 149 123 112 147 64 177 91 75 157 164 100 146 75 183 85 179 73 142 182 71 63 158 125 46 119 117 158 108 145 61 132 100 157 94 163 79 65 25 49 104 71 136 83 127 176 74 82 83 127 119 105 78 132 165 141 84 52 130 49 123 45 82 96 143 103 186 138 90 141 162 172 215 205 143 187 103 90 153 164 118 194 112 164 160 178 147 194 84 114
138 137 129 118 120 128 143 151 162 175 175 174 177 176 166 177 170 175 187 184 176 176 175 175 184 191 189 213 220 232 232 227 211 204 201 203 199 191 204 206 214 213 202 193 190 170 168 172 191 182 181 150 108 156 113 118 106 150 154 166 168 168 169 184 166 108 109 84 110 83 176 186 119 171 124 90 87 105 109 170 184 121 106 106 102 147 85 88 39 37 99 111 67 96 142 98 96 125 84 90 82 117 79 125 111 155 103 102 144 98 110 104 108 89 97 119 117 186 158 162 86 95 189 98 184 146 89 155 255 82 146 101 63 81 156 63 123 52 255 142 91 106 66 157 159 71 77 173 156 156 80 90 96 142 176 161 109 178 181 98 123 176 165 91 146 133 84 163 128 208 131 156 210 115 155 111 160 82 176 88 151 60 138 75 57 167 163 91 103 70 65 80 103 163 107 178 143 144 88 110 140 184 152 111 163 75 100 78 255 41 156 100 165 153 138 90 171 159 178 175 149 168 106 142 138 85 78 118 22 128 42 89 167 74 188 192 182 179 160 75 132 73 116 182 184 157 156 214 219 221 219 200 168 95 121 199 122 115 77 94 61 170 153 136 119 210 188 110 190 105 166 145 206 219 173 165 173 149 125 52 42 40 55 121 83 130 31 71 57 88 204 157 127 227 193 176 50 156 78 186 140 173 118 192 176 180 183 129 128 141 146 94 98 105 60 64 131 180 107 157 175 167 183 171 133 135 104 140 140 75 68 113 175 103 206 206 172 181 121 204 184 79 115 95 61 57 124 145 69 119 137 121 160 159 93 81 168 122 90 143 144 89 120 61 127 79 151 100 178 114 98 151 166 91 128 163 111 80 109 145 170 172 62 106 90 146 158 149 79 175 193 255 169 90 165 73 145 159 128 71 150 109 78 190 171 115 94 198 134 193 119 178 106 196 95 197 141 178 184 95 93 84 91 51 148 52 77 166 152 143 99 79 152 165 175 121 157 172 82 177 164 106 69 159 74 101 83 185 98 178 155 160 158 146 77 154 188 103 80 146 49 99 61 161 77 133 114 77 57 55 79 59 154 67 161 128 120 52 98 68 147 52 73 74 136 133 170 134 128 98 78 173 140 184 91 191 173 135 158 151 93 125 153 128 184 93 171 190 165 195 113 140
131 138 139 128 120 129 138 143 152 166 181 182 176 170 161 166 174 177 190 187 176 185 187 190 185 195 197 202 192 204 202 209 200 196 186 194 196 192 194 196 203 203 191 174 191 190 182 196 189 203 151 180 181 157 180 164 115 145 142 157 160 142 120 142 171 107 138 124 83 86 114 197 107 166 86 95 80 113 90 86 134 93 92 155 147 93 87 76 99 42 97 56 67 74 99 112 93 97 76 97 133 124 110 125 117 120 114 126 93 90 107 143 146 95 126 102 97 103 102 70 74 139 178 84 171 158 110 50 70 80 117 82 79 77 72 169 60 94 82 193 189 70 151 74 168 158 165 181 199 116 147 199 182 98 177 85 148 187 181 114 149 181 185 154 75 96 88 82 158 140 140 133 140 113 167 169 88 107 103 102 148 86 78 126 68 171 85 102 173 107 187 177 195 174 93 159 136 130 68 182 186 221 137 107 195 81 162 44 55 133 97 160 182 100 89 146 110 163 55 150 193 101 202 173 174 109 32 119 80 35 145 146 145 97 99 143 100 170 106 93 185 81 184 189 183 185 135 210 116 152 202 121 151 98 107 113 191 96 119 60 152 165 156 205 205 212 145 110 165 89 114 170 188 134 199 197 122 124 76 149 146 46 122 141 110 126 24 90 143 129 165 122 205 186 150 156 56 53 60 114 106 106 206 193 122 116 98 194 148 156 100 99 201 166 74 80 80 98 120 165 169 132 93 198 140 86 172 109 77 151 99 73 89 155 113 124 118 140 163 195 86 104 108 164 88 130 127 143 92 150 85 74 162 110 79 184 137 90 89 76 68 31 41 93 90 160 184 81 192 111 191 180 85 67 144 97 42 150 81 94 187 180 175 165 163 174 154 108 79 183 87 184 190 175 175 93 106 100 89 104 161 92 84 126 87 193 96 205 187 170 199 110 100 196 184 149 99 199 156 203 179 131 155 72 71 176 176 75 168 150 54 147 61 117 82 95 86 75 100 86 186 169 106 173 118 183 179 98 105 211 199 136 62 120 122 152 109 74 67 68 49 110 139 81 75 165 160 86 142 56 115 86 149 60 57 160 71 55 77 84 151 135 61 74 84 183 141 200 127 111 99 144 108 88 101 144 175 72 90 95 196 147 135 174 108 177 164 176 226 125 124 126
132 141 145 137 127 133 134 138 151 171 186 187 184 173 162 175 175 192 187 184 188 185 189 190 185 201 200 186 179 175 176 179 178 175 170 181 196 203 190 191 192 181 188 186 184 179 168 184 197 173 167 199 191 200 174 159 180 155 146 181 190 207 207 149 204 195 160 117 117 120 195 118 190 178 75 112 164 111 106 70 150 130 95 150 146 92 148 158 81 71 105 60 86 82 76 81 87 111 117 83 109 95 93 116 117 131 126 143 109 112 88 92 89 128 86 107 90 163 160 85 111 81 179 91 72 124 105 49 81 112 141 189 86 89 177 75 111 184 196 201 179 180 163 128 63 163 204 215 217 131 200 116 113 191 87 112 136 66 167 172 180 126 188 175 190 96 154 85 103 199 198 138 147 181 145 128 141 84 143 151 80 91 118 49 98 130 179 178 180 131 146 203 199 224 197 134 106 126 57 166 169 116 168 180 87 73 165 75 109 134 100 178 152 166 106 169 96 74 155 76 88 212 150 216 159 90 165 60 143 71 111 138 75 56 102 107 181 92 93 150 98 118 106 154 188 192 199 152 197 126 169 95 115 173 103 203 148 139 98 134 174 170 185 171 179 112 142 166 155 165 169 187 104 218 133 145 111 176 129 123 61 52 152 68 122 121 48 33 67 154 98 171 180 165 103 160 67 53 55 167 186 99 158 115 133 190 94 176 122 159 135 196 189 199 109 89 95 101 53 50 154 90 142 99 170 72 85 129 152 180 142 79 177 156 143 113 143 105 186 176 204 81 83 70 78 151 139 147 174 136 111 73 77 71 76 116 177 191 80 161 153 75 114 149 115 140 185 189 96 181 110 180 168 100 77 147 36 47 119 135 135 145 255 134 86 144 182 141 156 126 183 111 188 119 181 92 67 123 136 137 149 154 115 165 119 87 182 111 192 137 212 104 190 142 95 82 86 95 103 124 168 100 188 191 164 174 136 122 75 139 78 63 69 88 97 179 74 108 77 178 143 99 84 95 98 103 194 193 113 114 205 145 161 71 61 141 154 160 147 157 161 77 158 78 111 78 156 56 130 146 153 102 130 59 144 106 74 142 163 117 107 81 87 66 81 125 183 161 160 178 166 65 106 129 160 97 70 151 74 133 131 90 138 166 104 102 128 166 180 153 186 98
146 153 154 144 139 132 134 144 150 171 191 187 170 165 164 165 172 192 185 190 185 184 179 184 178 191 199 188 160 145 147 157 161 158 158 169 186 196 193 173 180 175 176 170 177 181 189 192 159 202 175 211 222 170 212 155 135 142 127 133 193 150 212 162 161 141 104 171 98 175 130 189 105 149 109 111 86 62 98 120 74 78 170 109 126 98 111 139 106 121 64 107 56 83 64 102 75 66 69 72 88 104 98 136 104 104 117 122 69 79 113 177 122 165 130 103 96 72 104 74 108 127 164 114 112 49 100 128 62 73 82 154 178 142 179 92 180 168 191 190 177 182 104 101 159 78 130 112 143 92 189 181 205 178 120 111 64 169 134 162 153 196 208 188 163 200 119 106 196 199 204 150 177 210 189 85 165 90 139 103 116 155 118 151 162 128 148 112 164 126 140 126 193 174 130 112 91 21 130 141 124 193 194 130 142 67 162 64 133 112 176 89 188 199 144 90 167 169 118 149 187 164 166 133 206 221 194 73 67 65 72 70 143 56 67 165 169 140 178 183 201 129 112 105 154 214 168 163 157 166 142 182 89 198 190 187 128 78 178 177 168 155 83 123 168 149 110 137 114 145 103 155 133 118 122 184 130 138 99 179 160 119 59 126 68 145 55 95 44 96 137 103 174 183 109 153 110 59 115 77 108 102 168 165 137 157 70 61 68 99 135 118 105 123 143 134 83 61 58 129 173 155 101 100 68 69 180 114 106 96 86 176 81 133 189 103 149 205 194 130 114 166 131 82 85 129 120 191 88 68 162 130 173 173 81 119 108 185 122 142 126 149 153 106 110 100 179 158 186 160 151 117 205 104 86 63 144 69 98 124 168 171 188 176 148 66 156 178 188 177 74 179 162 128 91 142 184 153 193 142 89 62 163 83 136 131 87 130 91 97 200 181 143 83 98 94 164 97 157 170 98 79 94 177 158 113 189 177 83 119 128 183 166 174 185 173 62 66 74 133 167 93 152 179 85 98 177 117 110 208 98 184 72 138 161 110 78 92 153 183 128 96 167 160 138 160 86 116 117 146 159 115 66 149 63 119 54 47 74 115 188 151 151 169 156 103 143 114 155 72 141 110 74 84 65 159 91 103 165 144 176 109 177 177 177 157 214 222 126 207 94 94
156 155 150 139 127 122 134 147 164 173 175 183 158 159 154 160 178 180 172 184 175 173 163 173 181 189 178 179 157 141 137 144 147 144 141 151 167 188 194 189 172 164 171 171 172 172 142 172 186 193 190 179 219 205 175 191 152 119 187 137 189 145 161 155 124 190 186 176 167 195 182 185 255 127 145 150 141 55 122 91 56 84 140 161 114 134 135 122 141 96 72 77 58 65 88 71 102 96 53 57 87 75 255 99 146 110 127 110 72 93 114 150 164 195 99 134 72 80 119 116 80 133 185 86 69 74 144 155 81 91 101 181 178 79 73 108 175 152 98 106 131 201 94 124 158 155 95 117 151 122 73 169 175 123 135 164 93 182 190 122 201 147 147 104 114 187 134 207 178 148 142 184 219 216 185 151 155 145 129 126 40 146 106 141 73 152 95 122 162 178 112 221 129 227 150 152 31 123 119 134 97 92 97 166 142 55 62 164 102 112 193 139 184 205 157 182 186 78 144 101 198 107 183 152 192 148 151 109 160 61 128 55 162 155 91 160 135 173 92 111 171 167 103 134 206 154 133 167 161 57 159 185 189 125 156 141 147 88 162 82 164 114 153 172 147 183 117 105 116 163 161 145 120 166 79 168 92 93 196 91 81 176 78 154 183 89 163 148 63 82 50 116 98 62 72 82 132 108 87 65 88 102 102 134 98 90 181 97 78 155 153 81 184 136 216 206 101 92 69 65 83 90 186 76 97 179 193 131 123 199 125 95 142 167 99 143 101 202 195 214 113 203 111 95 173 151 98 95 162 75 70 168 78 152 135 172 76 143 197 124 122 131 158 157 112 149 79 116 169 121 206 121 153 200 135 130 143 163 85 134 139 180 144 144 138 180 142 185 175 83 102 177 168 141 94 112 155 190 108 196 182 161 87 89 104 153 76 178 128 152 158 95 93 79 164 139 104 149 90 85 113 165 171 115 208 158 131 172 75 115 101 179 107 211 127 147 168 140 120 145 90 165 83 84 150 94 159 182 134 122 158 183 69 147 78 178 90 192 164 121 135 169 92 98 188 89 90 150 58 98 114 184 124 119 143 107 79 54 68 155 95 90 100 165 162 97 161 111 89 169 165 152 81 178 135 126 92 87 79 88 60 59 93 76 97 103 109 151 179 97 124 158
155 151 142 131 120 117 127 156 171 181 182 165 158 137 151 147 154 180 183 181 169 171 170 171 174 184 187 168 154 132 135 146 154 152 145 142 152 173 184 186 177 171 173 172 176 159 167 150 151 157 171 165 218 229 193 206 179 174 174 145 152 199 130 143 139 107 109 137 114 150 114 109 184 145 115 74 134 94 95 82 107 126 168 105 161 102 123 146 133 94 104 67 61 79 89 70 111 89 49 87 74 107 97 80 120 81 89 73 103 122 106 129 194 127 125 94 76 58 58 98 67 168 76 82 69 64 62 165 162 117 118 84 68 129 176 140 62 124 161 104 120 201 95 191 117 137 134 131 174 147 69 156 67 162 180 128 115 196 195 181 158 148 191 203 107 167 108 189 97 158 126 99 111 208 110 79 142 115 73 77 130 153 117 173 121 126 112 164 163 173 152 174 115 215 131 178 49 84 129 94 90 165 85 71 113 99 166 81 137 190 108 148 109 195 126 199 92 159 125 184 178 188 205 209 150 197 136 181 174 117 60 111 120 172 171 76 168 75 113 190 97 118 92 118 176 84 134 84 85 141 154 177 95 185 170 74 110 148 126 178 162 90 127 79 164 115 78 154 127 166 177 177 67 94 81 142 179 189 140 177 191 128 145 171 183 157 205 138 70 87 33 84 93 91 107 137 73 168 75 82 180 97 135 133 161 200 108 83 166 86 171 92 112 162 211 136 93 99 109 88 94 154 88 170 96 188 124 218 185 218 122 175 165 102 201 180 125 197 190 179 190 176 185 150 141 113 196 156 142 169 92 112 77 109 130 148 91 107 202 100 103 93 132 148 160 122 90 191 87 116 118 102 105 203 145 140 59 110 193 182 191 163 127 79 105 92 187 131 149 137 85 77 147 160 165 199 177 208 114 170 181 147 53 51 54 128 170 93 255 79 131 185 76 105 174 107 119 174 182 75 150 149 177 181 179 206 96 192 139 79 114 193 103 199 204 134 89 112 106 161 174 131 121 147 206 186 130 207 123 109 97 104 169 112 177 127 145 206 99 94 137 79 187 115 169 195 166 146 146 146 106 132 114 101 117 128 97 105 74 154 130 172 164 156 151 152 65 91 73 129 177 104 208 116 209 205 150 127 122 96 66 94 72 164 109 162 161 113 116 113 82 122
143 142 138 130 119 122 131 155 170 180 160 155 139 129 135 159 172 179 178 176 163 175 171 162 178 183 188 170 160 137 141 150 164 166 156 153 156 165 175 177 166 172 164 153 255 168 156 138 170 165 178 185 201 200 193 163 121 155 90 169 170 176 153 151 155 172 110 183 132 204 142 169 157 173 189 165 148 57 78 89 95 71 166 183 103 132 115 157 91 135 123 59 66 67 66 88 84 64 90 107 61 72 127 127 76 67 92 62 72 161 99 140 106 176 183 159 81 64 73 129 103 113 148 98 67 129 118 96 125 92 124 116 148 115 73 155 111 86 95 100 98 150 96 136 159 66 161 81 170 164 167 76 62 83 123 184 108 111 181 203 162 116 109 93 120 158 92 154 170 122 128 185 160 196 108 126 97 88 66 127 144 152 76 65 80 120 173 199 174 118 140 79 93 135 143 80 134 106 164 96 81 66 78 78 89 136 169 186 139 138 152 185 132 211 182 154 110 98 131 197 168 128 148 162 114 196 170 106 162 64 59 102 143 84 159 91 167 106 180 79 166 166 151 124 143 133 159 160 149 159 77 132 100 146 169 152 137 183 178 129 169 89 172 103 158 142 119 78 143 90 177 65 97 149 94 170 177 117 198 128 102 144 178 195 104 209 104 118 46 116 57 43 90 94 125 103 70 178 82 90 107 197 191 116 195 196 182 86 72 172 132 195 166 115 165 146 199 109 123 91 120 111 88 184 130 91 126 174 125 114 118 96 115 199 123 193 170 205 104 100 178 77 64 170 89 150 81 160 83 170 123 88 169 168 150 92 172 104 192 163 119 174 154 49 79 86 175 195 92 122 107 159 180 197 95 79 57 54 126 187 123 130 137 183 147 86 98 93 181 172 87 151 176 203 211 209 213 186 94 166 144 164 160 147 55 121 70 128 165 74 82 177 172 112 173 162 145 147 92 128 168 182 82 113 163 96 186 201 99 179 167 112 81 86 183 137 184 173 82 106 155 165 199 196 226 223 225 118 111 146 196 147 99 148 137 147 181 161 145 164 145 164 143 112 196 107 186 176 119 109 160 184 136 134 143 45 60 70 120 155 89 153 67 44 134 53 64 159 129 167 132 172 212 223 201 110 212 201 134 91 87 82 76 72 76 112 90 145 83 106 93 126
146 151 154 155 146 146 148 161 172 168 152 143 127 135 145 163 175 167 162 168 158 166 166 178 177 194 197 184 163 156 153 164 176 178 169 166 162 164 162 147 158 152 166 165 160 168 158 163 153 138 168 164 228 227 213 135 128 138 145 113 129 120 157 129 155 118 166 136 139 127 190 137 162 170 107 103 158 54 58 38 82 141 175 145 114 130 154 121 80 78 107 56 55 72 61 60 93 60 64 98 85 73 126 92 83 78 60 63 96 104 165 110 115 106 178 175 161 80 74 82 76 55 57 145 103 126 148 64 72 151 72 71 63 152 153 153 51 160 147 186 110 102 176 194 83 154 60 145 159 156 74 125 129 172 139 170 194 93 162 193 149 163 109 129 105 162 148 169 147 136 129 159 97 110 171 105 135 133 158 91 97 107 60 98 104 146 105 205 174 84 63 92 99 159 165 189 186 186 177 66 101 161 118 76 161 158 181 132 199 210 129 135 124 199 131 205 106 123 105 96 88 128 89 183 145 122 149 119 137 131 95 161 85 77 80 82 157 160 153 91 137 161 108 143 148 135 58 170 68 128 136 129 124 50 146 146 182 159 162 158 85 158 189 161 147 204 136 131 79 103 136 64 137 146 136 123 96 96 113 211 136 196 123 193 196 180 103 74 42 52 123 74 119 81 171 65 60 61 65 140 194 155 100 159 113 164 128 165 117 75 121 109 158 159 138 168 92 187 187 193 181 171 178 111 138 190 128 132 103 114 176 178 181 166 183 86 95 130 111 99 181 60 97 156 132 169 69 125 71 154 179 167 177 112 105 130 168 200 190 112 168 64 156 156 158 166 98 93 160 189 89 173 140 93 137 166 149 51 75 177 173 99 181 84 165 74 186 97 184 175 167 124 180 124 201 208 193 132 94 145 75 121 167 63 165 111 158 152 177 169 156 128 120 172 184 141 138 195 106 185 97 163 135 151 181 162 105 190 100 142 138 156 150 161 143 133 82 104 92 176 173 120 118 201 127 234 224 162 115 147 104 115 69 88 60 96 135 134 174 70 67 66 115 194 199 101 83 77 146 173 108 170 182 81 38 119 95 143 139 132 77 168 110 57 115 43 57 184 195 109 154 175 205 167 213 186 210 123 198 119 99 104 160 184 176 117 75 69 105 172 210 132
155 162 171 177 172 168 154 159 156 159 145 150 139 153 164 180 183 175 168 149 152 161 172 183 185 203 200 196 182 159 157 163 172 182 176 177 168 157 157 145 146 146 160 166 181 160 169 140 150 152 166 188 200 222 176 186 157 147 134 109 160 165 94 147 122 68 167 185 191 150 165 171 147 158 124 115 119 125 119 74 74 155 111 142 114 153 86 144 74 87 68 48 54 63 62 60 77 75 101 103 111 119 147 120 85 95 64 70 106 122 104 164 139 99 121 88 104 60 51 82 56 103 140 56 59 115 52 64 64 145 122 66 164 65 57 150 148 142 152 140 72 179 139 154 159 161 155 53 157 69 158 88 129 172 146 130 148 187 189 84 96 180 183 147 73 58 126 77 125 127 160 114 124 98 135 90 114 147 161 173 175 149 82 97 146 136 98 115 81 111 116 70 112 88 188 82 166 188 81 63 153 67 76 149 128 164 182 163 167 131 210 120 176 141 118 146 183 195 92 120 168 92 193 189 154 125 168 122 182 166 133 98 108 179 122 59 134 161 91 171 144 136 89 138 57 133 108 170 79 155 164 140 144 128 59 68 152 182 110 138 79 74 141 158 161 193 182 96 177 143 111 130 50 99 73 75 144 102 149 124 173 206 212 206 109 118 86 114 70 116 144 139 148 90 186 166 60 59 123 144 88 127 140 146 114 64 119 72 75 151 133 146 161 118 133 132 83 117 78 158 92 93 121 97 125 106 169 100 127 206 144 185 137 74 139 143 110 95 103 205 163 89 156 127 128 156 63 165 73 82 153 185 181 89 110 122 105 193 145 112 67 77 95 142 78 155 154 151 188 136 134 130 66 77 147 84 150 137 89 139 165 120 161 162 144 70 169 85 146 161 103 125 160 143 140 159 134 98 88 166 70 166 67 170 128 65 88 103 133 93 134 89 142 68 79 112 103 92 166 202 123 182 175 60 100 95 109 197 187 169 132 150 60 95 153 84 158 161 205 169 139 188 97 108 165 136 134 208 142 191 103 193 123 70 144 71 62 168 88 100 149 165 166 120 201 167 152 85 54 155 88 109 77 115 23 72 36 109 156 165 169 84 164 105 79 50 83 186 114 206 116 149 125 156 110 119 182 110 130 191 112 196 126 201 101 92 111 88 95 116 154 192
167 176 189 198 192 181 166 149 149 159 164 164 166 187 204 211 204 176 173 146 157 153 167 182 191 189 189 189 177 168 168 163 165 171 175 179 175 172 156 163 163 166 177 177 176 145 137 144 157 148 125 147 197 198 166 136 172 145 82 107 108 163 111 121 57 72 97 151 176 91 141 103 94 93 108 169 79 78 147 67 148 97 174 112 167 89 135 120 104 80 121 88 60 51 112 67 90 85 86 103 90 94 98 145 83 74 73 146 126 110 96 98 78 78 85 119 148 115 76 89 74 99 78 150 89 51 117 155 105 128 95 151 58 149 109 156 150 140 100 137 130 153 164 173 66 56 130 83 114 78 171 178 153 159 164 135 73 177 158 133 171 147 168 172 162 80 102 149 162 170 109 136 135 76 101 129 127 66 103 128 167 165 71 138 162 74 157 186 179 166 139 100 173 177 83 188 86 133 176 122 137 70 102 206 164 159 128 98 192 200 208 210 135 198 153 115 198 94 149 161 203 196 179 202 96 186 160 124 101 198 145 191 177 180 95 109 143 85 109 93 187 197 179 105 183 130 85 118 180 172 131 66 48 116 51 86 138 95 175 127 152 74 80 82 145 124 111 81 80 68 70 86 57 64 75 166 162 132 149 176 131 183 214 137 142 98 78 122 122 80 47 75 155 93 194 79 71 77 107 79 180 188 105 108 74 155 77 71 159 168 110 160 90 96 103 95 138 107 166 85 169 136 199 139 178 186 121 206 217 202 117 179 180 59 59 62 65 93 114 203 98 167 121 161 83 110 153 63 163 189 103 94 88 200 192 143 104 175 148 126 111 86 141 66 53 100 92 114 164 128 142 153 92 102 173 173 133 147 170 131 141 137 79 66 160 147 190 90 95 116 172 194 207 204 213 121 204 96 79 130 70 68 130 150 170 182 130 187 139 177 73 60 145 119 78 127 140 83 144 134 172 190 84 62 53 174 88 198 188 99 170 153 98 118 42 48 167 184 102 119 199 151 145 161 114 228 135 117 73 137 190 166 159 61 146 70 152 74 152 167 113 158 188 195 85 103 140 102 145 120 62 91 53 68 75 106 94 40 92 125 79 146 72 85 111 91 102 79 255 137 207 143 177 113 111 83 80 118 110 110 215 117 124 112 90 125 121 155 65 108 108 223
158 167 180 189 186 168 151 140 141 155 171 180 180 190 197 199 203 173 174 162 162 174 178 172 187 177 184 171 179 173 161 154 153 156 167 170 171 174 170 187 176 171 180 153 154 180 173 137 167 165 171 130 181 179 180 192 127 154 134 146 162 125 151 87 107 120 144 94 133 138 124 72 110 83 111 110 124 120 121 133 119 112 120 156 82 76 83 82 107 78 55 48 59 98 83 70 80 116 126 119 103 139 96 84 78 97 114 128 113 126 123 102 115 115 81 120 80 78 157 97 172 112 91 69 80 106 86 53 53 52 144 50 85 60 77 90 138 118 117 160 92 94 169 171 57 137 122 54 128 84 145 152 144 74 115 71 109 89 148 137 175 190 144 92 120 94 146 137 79 83 171 84 104 93 89 157 55 56 107 131 101 155 167 166 131 148 155 128 167 55 89 119 158 79 120 103 88 108 130 188 79 159 122 164 192 197 112 175 86 116 96 92 161 89 185 173 159 172 193 141 157 213 119 206 159 138 108 111 194 99 161 137 181 171 174 183 132 190 140 79 138 136 105 203 91 83 183 123 183 133 141 155 38 137 147 158 140 81 161 115 96 166 128 135 122 140 167 138 162 90 106 108 127 56 114 140 183 171 177 134 113 188 121 193 137 190 78 68 38 110 70 89 77 96 130 85 112 123 107 143 130 122 73 172 81 97 78 106 95 79 62 119 152 175 77 70 168 166 136 162 163 100 137 116 92 163 187 111 140 111 123 126 143 74 96 55 135 144 185 90 86 186 83 76 165 80 157 151 82 172 124 195 178 167 160 185 150 86 91 24 130 88 130 118 61 61 81 94 153 190 158 60 141 141 150 146 176 188 149 152 175 200 197 108 187 105 213 124 171 191 92 113 186 208 115 198 212 109 121 95 181 115 101 110 88 107 130 111 120 113 126 113 111 152 76 73 70 112 112 188 189 115 80 156 153 172 188 96 186 104 96 84 179 134 134 139 45 155 158 76 182 178 148 121 192 170 156 79 112 114 173 196 80 70 106 151 140 172 76 162 113 103 189 162 74 141 114 127 63 93 43 50 93 64 135 97 104 57 90 104 155 86 76 101 42 105 76 82 155 64 156 195 164 189 141 68 138 140 170 182 134 107 117 107 89 132 152 54 145 183 92 175
144 154 168 173 168 148 143 130 144 160 175 177 176 190 177 184 172 161 156 167 175 167 178 169 169 166 164 164 166 159 149 147 147 153 159 158 163 172 175 201 205 196 183 174 180 192 192 187 166 173 181 138 158 168 169 156 170 143 185 119 105 143 137 77 93 133 121 118 128 69 82 125 94 88 150 118 138 152 75 112 147 98 93 101 97 139 98 77 95 63 57 74 72 49 82 59 73 110 122 89 85 81 92 101 80 61 121 103 113 142 159 89 80 67 111 88 131 103 80 92 151 105 190 83 121 118 101 135 115 138 110 108 50 162 108 168 77 68 107 171 76 172 180 160 158 141 121 157 163 79 174 134 145 64 139 125 139 110 173 189 96 179 93 111 75 154 96 97 105 165 162 180 179 143 98 167 95 132 145 158 109 124 131 163 156 154 117 136 48 63 138 124 54 147 93 187 169 182 222 217 101 191 88 137 153 217 211 128 87 90 143 165 147 143 178 178 151 77 83 107 141 188 201 105 100 143 155 95 173 147 197 90 150 144 194 100 179 107 194 178 179 82 189 182 182 184 177 125 118 78 84 112 80 131 61 144 79 84 168 121 173 76 160 113 166 204 216 127 177 161 58 144 68 146 81 166 255 157 175 193 157 203 203 158 154 183 141 67 126 149 72 93 128 159 75 90 186 131 184 151 95 167 80 68 179 176 95 87 82 44 60 55 117 85 168 160 124 175 171 164 83 77 80 182 110 77 160 109 159 210 211 97 165 64 26 107 64 150 143 89 70 83 166 86 84 82 95 101 92 184 91 103 126 122 174 95 146 119 119 18 85 30 93 79 152 50 162 178 150 150 111 64 134 157 93 126 124 185 200 106 122 213 129 192 183 130 178 225 127 106 91 182 164 164 146 103 131 93 90 130 99 95 147 169 99 176 190 134 155 67 123 62 68 156 177 137 94 102 195 198 116 185 181 139 63 71 98 178 172 166 158 134 117 133 134 39 44 65 97 66 131 118 124 117 172 183 177 59 124 159 70 185 82 169 49 61 77 152 94 75 182 136 170 161 61 123 110 83 34 138 114 58 103 142 95 165 180 91 66 50 62 69 61 148 52 99 118 109 38 143 62 83 138 131 115 80 90 64 80 154 197 203 185 150 160 114 53 54 61 86 178 152
129 138 148 152 142 132 126 121 136 154 174 176 171 163 167 160 165 164 169 152 172 179 177 174 168 157 139 139 151 144 146 145 148 152 154 147 153 164 180 255 198 186 165 176 168 184 204 176 188 150 177 176 130 164 143 124 167 188 204 175 126 110 102 128 139 152 122 142 142 74 120 118 89 118 85 93 166 122 73 93 117 154 137 126 89 143 77 119 76 71 50 50 59 93 60 51 91 85 85 84 77 111 80 52 61 59 105 108 149 97 156 102 91 78 149 90 166 161 76 78 93 110 100 92 105 53 118 68 131 72 61 134 148 115 171 117 136 142 97 114 109 164 70 160 124 95 175 160 151 145 165 64 80 155 89 165 130 167 147 178 95 134 155 166 73 81 164 151 106 134 177 146 188 98 181 161 77 144 157 127 174 101 143 142 65 57 77 46 38 135 141 149 164 91 171 104 99 210 225 184 137 94 121 190 116 105 202 170 86 98 145 165 71 166 134 174 159 70 145 97 113 121 156 200 164 173 142 173 134 198 200 115 150 86 171 108 197 102 197 153 88 77 177 107 94 142 168 75 76 99 153 62 29 88 130 73 86 186 194 164 131 161 64 82 117 200 221 210 141 171 98 115 157 83 155 174 117 87 172 97 139 189 100 108 128 73 135 102 49 79 114 73 96 159 150 91 183 145 88 112 75 59 104 63 92 159 74 67 50 98 58 66 87 88 130 69 127 92 88 175 107 85 71 61 92 60 71 168 152 116 209 200 70 73 139 54 97 149 165 127 118 161 138 161 110 157 183 124 187 185 203 120 148 164 160 59 143 51 72 21 104 25 37 91 77 43 48 162 157 67 107 71 121 79 88 135 201 140 163 135 137 211 147 208 207 135 146 235 114 192 161 147 123 151 189 103 151 151 193 171 141 165 103 171 199 206 110 137 95 88 49 53 171 85 74 106 115 170 199 204 189 152 147 166 108 151 167 97 105 141 190 124 121 117 88 103 124 50 45 155 145 76 142 136 156 74 64 100 155 155 170 95 84 168 65 102 136 102 166 71 138 134 185 115 155 86 120 35 146 72 86 62 80 75 66 125 167 160 146 75 255 126 170 96 168 44 24 46 22 33 88 75 147 174 126 151 147 165 77 183 89 91 143 94 156 63 60 53 52 154 87 80
123 132 142 139 130 119 121 118 136 140 161 165 174 157 164 154 162 156 156 157 163 171 166 167 160 139 137 151 157 161 155 152 149 144 147 139 147 157 162 176 180 173 166 170 177 198 209 205 193 147 162 170 125 161 135 109 134 193 151 184 208 150 168 141 120 146 171 101 84 159 113 114 107 125 79 109 149 84 142 63 85 142 163 168 101 163 107 90 104 88 108 129 73 101 53 51 114 74 131 113 71 72 91 105 111 112 92 102 115 87 98 116 115 122 80 107 88 81 75 143 145 151 96 122 142 58 55 124 107 138 71 142 136 47 156 145 191 87 101 64 103 79 161 165 174 184 185 157 171 132 83 145 164 89 174 106 142 85 173 95 105 132 137 91 127 169 160 173 180 107 126 116 158 196 171 183 94 92 93 92 153 135 75 144 57 49 102 74 44 52 83 87 172 163 168 74 183 197 208 141 198 168 150 153 80 100 171 128 165 174 171 141 128 90 99 89 152 115 146 86 183 97 151 194 100 155 91 203 110 186 206 103 91 120 76 164 134 171 188 141 164 117 86 159 166 148 78 146 169 112 170 87 90 110 33 107 56 168 129 88 175 91 160 92 177 165 162 134 147 163 201 107 107 149 185 161 183 156 103 192 158 85 102 175 95 154 142 116 110 171 99 111 92 107 146 60 76 82 79 67 67 57 119 103 119 77 75 84 157 104 58 73 159 60 119 87 112 162 155 109 64 82 159 50 115 57 166 88 192 162 106 123 133 149 64 107 59 69 170 137 72 136 132 187 161 71 117 141 132 92 108 173 135 113 83 126 114 38 70 88 36 39 26 62 77 103 55 144 155 116 141 133 112 126 188 97 183 200 208 103 152 188 115 213 122 229 132 150 221 194 104 204 150 187 173 122 196 93 179 134 150 190 154 209 155 147 96 189 176 157 48 66 169 97 164 77 86 159 144 97 184 189 146 178 73 175 152 112 195 136 139 108 86 135 115 163 76 42 133 118 117 115 121 62 97 117 156 140 160 168 114 204 202 172 143 157 61 103 147 119 159 168 175 152 141 122 143 162 177 156 200 88 118 58 170 146 186 146 159 118 99 167 97 187 175 76 50 34 69 138 92 106 80 168 89 100 63 97 181 154 143 95 134 100 73 85 132 133 115 63 73 116
118 129 137 138 123 116 115 110 120 137 144 163 170 167 177 164 158 163 166 158 171 159 171 162 149 155 158 163 174 176 161 153 152 148 150 144 146 154 156 156 160 155 137 167 159 198 205 207 186 187 165 172 169 149 109 135 177 168 162 223 203 176 152 171 118 179 192 149 160 89 155 93 99 166 165 90 85 126 51 102 67 104 154 131 82 80 75 79 88 138 124 96 108 78 72 68 110 79 107 70 73 81 86 82 71 117 111 140 126 83 138 124 107 101 88 78 79 67 61 124 166 190 143 187 84 75 69 169 79 187 72 104 45 128 154 156 186 148 150 100 147 146 58 78 98 214 145 107 145 151 121 156 144 109 126 73 80 163 112 170 143 132 99 131 172 114 81 167 184 185 187 120 175 187 190 84 107 100 94 103 167 143 99 157 159 65 163 85 81 67 65 169 184 128 85 90 99 82 162 183 106 191 145 120 86 92 98 133 150 85 107 173 162 111 123 176 175 85 171 154 138 166 103 193 162 166 116 200 213 171 168 89 167 169 109 56 141 129 196 168 200 91 171 160 146 140 136 153 141 185 94 165 57 119 40 90 80 168 163 145 155 67 168 167 255 131 150 140 89 201 209 202 161 120 175 112 181 162 156 102 139 132 100 159 100 109 86 47 152 169 89 193 81 171 149 63 157 152 60 139 67 52 55 49 95 140 79 76 136 75 75 60 135 47 90 136 85 79 81 171 117 121 67 46 47 63 180 197 152 120 171 102 146 181 93 166 89 147 135 87 168 135 131 79 123 163 81 74 140 112 203 162 187 180 176 108 146 77 144 104 47 107 72 96 120 109 92 153 56 58 160 71 83 172 100 198 219 214 187 111 117 82 95 98 119 207 153 143 146 167 203 189 190 123 211 204 157 179 99 138 110 93 171 104 190 209 103 95 179 161 152 66 122 170 110 126 185 162 89 89 164 176 155 92 87 161 183 92 116 120 185 101 145 160 168 118 149 82 162 93 107 156 191 83 83 118 155 128 161 103 216 216 218 121 146 79 175 185 177 177 110 190 114 205 167 104 80 196 204 188 223 168 154 100 173 162 80 88 112 159 61 80 138 103 153 74 157 76 107 107 155 169 65 104 74 164 96 99 85 160 149 91 150 84 173 141 83 158 159 61 72 119
108 122 139 142 131 112 113 112 125 125 137 152 168 186 174 179 172 164 157 150 171 170 174 170 158 159 177 193 202 196 184 164 152 152 157 161 159 144 145 143 143 150 143 156 187 206 206 203 186 184 150 163 163 157 173 121 155 188 209 167 186 135 158 101 137 140 123 161 107 120 162 118 161 116 130 91 73 109 92 131 63 81 78 101 72 130 84 139 86 95 159 135 103 95 82 86 90 137 71 61 48 88 80 96 95 108 97 124 107 91 81 89 162 100 118 161 80 62 73 92 111 123 94 184 85 82 166 88 103 80 74 128 145 120 65 72 134 154 141 57 142 52 139 161 89 182 113 181 116 150 142 137 124 128 65 125 128 115 73 100 143 129 159 160 158 181 137 182 91 188 180 125 136 175 106 172 165 76 91 160 122 174 173 167 141 147 71 152 143 165 96 79 142 101 151 195 197 175 85 65 147 190 102 82 160 50 72 62 109 90 122 131 74 149 108 161 137 84 117 151 173 189 106 165 126 115 191 114 198 98 87 172 166 131 116 152 156 93 205 214 138 182 64 53 88 134 75 150 183 169 195 195 79 96 156 55 53 108 172 88 147 88 182 100 142 188 144 63 69 90 106 181 168 74 151 88 108 129 166 111 149 133 99 73 69 53 72 115 120 92 96 86 136 101 75 68 79 133 122 135 145 68 129 88 74 93 88 101 81 72 69 68 77 74 103 71 56 57 109 128 104 53 143 79 150 148 76 157 97 143 95 108 168 146 98 90 89 156 95 87 153 142 75 162 167 160 64 103 87 99 91 173 181 136 174 159 165 81 56 52 57 133 136 140 127 106 46 148 113 80 161 178 185 164 108 200 165 206 197 134 157 115 111 179 98 77 189 137 150 100 173 205 175 128 215 108 145 182 135 96 189 182 126 182 107 188 206 127 176 113 142 87 104 188 88 78 78 179 76 68 74 168 160 163 101 84 88 148 111 113 103 124 168 165 163 69 162 134 128 180 167 197 94 159 122 172 107 108 214 217 178 166 159 130 165 203 94 176 120 193 92 152 134 126 124 212 116 123 128 221 122 169 105 92 90 86 155 181 106 255 111 155 155 180 87 99 147 122 100 178 90 70 77 83 90 107 149 88 111 78 87 93 107 170 181 133 107 111 61 79 86 106
101 118 137 145 139 120 112 111 124 127 149 154 168 186 190 193 190 184 169 169 175 175 181 172 178 172 186 209 217 213 190 166 154 156 172 178 173 157 128 130 133 150 146 180 178 190 208 204 195 163 150 167 196 188 163 142 142 164 182 208 154 159 129 121 137 137 152 111 157 63 66 80 97 104 133 145 98 76 66 69 102 69 104 73 109 57 75 66 86 99 110 129 135 99 115 79 106 78 66 47 89 81 94 122 128 109 95 133 91 103 142 80 74 74 120 126 67 112 162 82 92 90 185 178 113 97 139 89 179 82 145 52 55 84 130 81 150 93 78 57 145 126 150 68 86 201 172 201 160 77 173 121 113 82 69 151 133 145 107 152 146 122 121 171 172 109 116 191 96 145 152 166 169 151 171 123 159 73 169 110 188 144 128 76 101 112 184 120 129 127 163 72 101 193 182 142 101 161 139 86 84 97 162 179 137 45 45 155 150 148 108 171 176 72 70 121 181 82 168 179 163 96 164 197 221 154 141 144 162 76 118 116 101 79 55 161 95 92 214 117 125 102 64 69 48 46 154 184 120 195 210 154 96 97 146 75 137 163 124 184 149 160 164 81 94 140 153 143 104 115 184 113 153 64 102 160 130 122 189 117 185 76 176 69 165 158 95 153 156 159 125 165 67 65 60 115 145 95 142 135 48 113 73 89 113 138 88 150 88 61 133 146 127 83 113 117 85 46 41 106 49 56 56 114 98 95 98 85 119 109 91 111 101 115 98 88 93 120 157 101 104 173 99 90 174 67 136 170 179 78 166 168 149 78 120 182 115 172 166 79 98 45 151 139 63 111 158 150 103 100 80 82 92 119 140 138 202 205 255 184 75 134 165 113 71 165 153 140 81 162 132 130 126 157 140 181 149 197 112 102 107 157 107 146 207 186 196 193 150 124 164 86 183 117 190 115 177 113 82 92 164 136 134 88 79 87 179 120 91 124 169 129 152 112 141 93 162 162 183 90 98 201 143 112 136 218 180 225 142 204 110 210 114 195 170 155 104 112 192 88 255 194 203 123 185 125 200 140 176 220 133 202 177 132 177 106 142 77 154 94 81 54 118 123 84 168 98 111 182 88 136 96 123 132 69 144 78 79 75 83 142 82 187 110 86 183 82 134 89 79 108 86
102 116 135 151 148 135 118 119 125 140 147 148 255 176 196 202 211 189 194 179 179 163 177 181 180 176 198 207 220 208 190 169 162 173 191 192 179 159 138 127 119 156 163 199 209 189 209 203 182 167 138 182 189 187 146 165 122 102 143 193 195 132 190 192 199 153 135 101 92 135 92 61 82 97 95 158 141 158 85 93 138 107 59 101 133 59 52 123 83 107 96 109 77 81 122 79 73 131 102 52 43 56 83 93 122 112 96 88 84 68 78 85 63 67 82 143 70 77 87 92 111 155 171 152 143 187 185 108 92 97 111 152 56 64 74 171 92 128 108 116 60 129 155 84 80 177 168 99 112 194 148 120 151 139 162 57 122 161 137 156 147 124 171 179 115 138 204 193 200 184 143 128 137 113 154 121 96 125 84 170 150 175 150 163 72 152 178 173 159 50 142 89 169 183 191 215 130 155 142 124 90 176 75 162 89 80 52 97 116 124 78 179 174 64 129 143 74 255 132 140 166 162 210 181 198 197 191 102 112 167 83 134 74 151 163 164 165 191 119 109 198 111 155 50 147 127 161 143 217 196 118 183 202 194 183 85 136 155 179 96 177 142 155 154 119 74 108 157 127 87 193 176 156 66 94 165 152 114 177 90 152 121 148 165 66 157 160 64 70 90 55 64 91 98 156 106 95 45 134 47 46 70 58 61 85 130 107 77 97 103 146 81 96 171 72 83 83 36 42 134 108 134 94 50 74 142 146 161 83 95 173 108 73 149 84 89 196 99 173 110 164 125 83 109 78 80 79 69 115 76 71 54 61 160 82 116 89 148 137 137 95 159 62 167 137 61 56 140 139 180 161 121 187 153 83 188 193 168 100 170 141 51 149 162 158 158 64 72 174 77 192 154 163 209 147 144 94 106 104 175 92 99 90 160 131 189 186 79 92 105 76 170 174 116 178 184 80 113 165 93 75 85 96 166 81 110 89 134 189 196 131 129 159 91 156 176 133 156 163 144 197 191 132 126 133 163 127 207 160 129 162 110 101 122 140 180 89 122 123 167 107 123 87 170 94 167 182 195 169 118 137 255 124 182 109 119 119 85 130 116 128 107 106 95 169 94 96 119 90 122 179 90 113 68 56 101 162 136 130 73 161 108 117 165 114 102 99 136 99 109 112 99
117 128 144 156 156 149 132 129 131 140 145 150 160 181 186 211 227 210 202 188 172 171 185 170 172 175 184 190 193 196 187 174 184 196 207 213 193 161 147 133 125 160 195 219 226 209 211 170 173 160 168 166 193 156 204 184 162 127 161 138 189 185 185 173 211 146 141 144 59 106 44 62 60 102 134 88 91 100 184 99 109 150 64 63 68 121 54 91 126 82 110 138 77 71 78 57 62 81 101 84 48 113 107 96 131 110 104 80 82 130 130 55 59 114 66 70 95 106 110 194 115 85 87 92 115 139 194 123 65 41 142 46 59 169 108 81 197 198 86 255 133 50 60 94 124 83 93 174 193 195 143 181 116 155 162 57 164 175 113 108 142 165 149 107 182 186 181 210 162 157 86 157 156 161 153 130 98 160 170 87 182 141 136 57 66 143 156 62 130 104 131 87 163 179 93 190 99 161 61 55 74 163 255 76 64 60 155 169 178 187 144 138 129 71 64 55 144 116 174 135 145 186 180 139 201 198 93 162 165 160 62 141 131 119 78 173 120 196 207 138 195 79 166 159 135 131 115 220 148 206 204 142 122 94 114 168 126 148 84 140 199 147 117 144 160 147 74 60 82 152 200 184 144 98 105 171 146 145 90 136 128 97 100 98 152 69 120 141 88 179 82 75 54 127 77 49 114 54 79 100 134 69 43 103 84 117 96 80 99 152 77 49 89 108 183 97 97 129 49 129 71 97 81 160 73 136 62 87 185 81 127 65 163 141 145 136 124 117 107 113 169 80 178 142 91 87 174 168 62 157 67 55 134 169 180 185 173 175 159 141 46 99 160 168 108 153 46 91 69 144 180 121 145 81 74 147 86 162 110 132 112 63 80 148 146 130 168 151 181 169 189 153 158 183 129 108 124 147 79 81 164 151 164 106 160 111 177 162 162 152 147 81 169 84 144 180 160 176 180 163 109 159 200 181 132 92 70 109 109 191 115 160 168 140 72 157 154 103 171 169 115 105 95 122 130 210 142 104 189 170 185 112 93 197 190 108 167 74 164 134 51 156 140 80 78 164 124 175 159 183 181 160 166 160 107 127 79 169 177 93 49 139 147 174 107 100 185 129 164 190 199 98 179 80 144 133 128 79 71 140 92 88 191 166 154 99 107 112 111 150 142 119
129 140 151 161 160 160 149 145 141 149 156 148 164 181 204 221 231 222 215 184 255 169 163 175 255 163 160 158 171 174 171 182 192 213 226 219 198 177 146 143 147 170 189 201 202 201 200 163 186 174 156 124 157 170 155 138 181 130 120 108 181 197 173 118 119 146 107 83 135 123 95 53 90 114 91 101 185 104 112 144 128 94 91 141 69 64 64 97 74 139 83 98 100 70 68 46 42 66 89 98 67 100 104 118 111 112 131 113 101 63 69 72 72 87 66 117 86 122 167 181 103 83 80 122 168 159 163 69 158 37 140 116 156 131 159 83 159 198 97 174 86 86 69 73 77 113 96 75 153 177 195 118 108 137 115 165 73 170 168 152 109 177 126 179 175 126 208 139 196 124 115 165 64 66 107 68 108 169 92 198 164 166 115 99 156 81 56 117 151 40 106 83 62 66 116 61 164 57 85 61 63 159 63 57 143 184 110 186 134 174 75 59 140 141 44 79 166 143 114 196 215 152 106 177 92 149 119 78 94 116 112 129 176 99 169 136 119 124 134 195 182 133 130 170 86 176 172 229 196 212 162 100 138 166 105 143 157 64 156 173 168 122 178 154 167 134 144 68 157 112 185 167 94 147 112 95 86 72 123 101 124 190 122 128 93 171 92 100 194 99 164 159 172 67 96 158 62 166 171 68 57 90 96 64 68 178 150 90 88 101 145 114 147 132 145 102 91 103 59 161 175 95 67 110 103 154 155 74 156 74 165 75 75 90 160 80 100 93 182 87 95 176 105 137 118 136 167 139 140 124 129 69 68 125 158 120 163 98 53 149 57 168 173 103 159 143 45 151 124 176 125 140 144 136 88 135 108 85 137 135 124 74 139 65 97 68 72 147 89 108 94 191 193 108 120 102 92 101 163 70 169 166 75 88 76 158 162 101 155 63 81 113 162 154 99 80 140 158 195 146 164 144 180 105 151 67 159 165 199 120 211 207 130 165 84 122 143 137 187 166 130 157 92 175 201 187 177 152 147 101 170 142 99 125 83 152 155 74 107 146 59 77 109 95 67 144 133 150 163 164 179 177 104 116 139 151 157 145 104 65 84 63 82 180 133 131 90 166 134 148 160 148 105 111 59 124 82 173 68 102 112 193 114 94 101 134 104 134 115 125 172 147
133 146 161 165 165 164 158 153 145 155 151 169 178 199 224 225 240 215 217 181 167 143 153 157 156 131 132 143 157 161 167 181 197 208 218 214 198 176 165 155 158 173 183 204 202 187 198 173 176 169 139 124 174 154 178 164 146 144 114 153 103 178 125 147 164 117 146 140 144 130 133 127 87 54 146 138 123 117 154 189 177 94 96 129 95 98 142 116 73 84 135 85 98 95 84 74 81 34 50 63 85 83 99 160 131 132 108 103 83 87 86 92 111 108 102 90 128 168 165 108 101 88 78 100 181 178 99 98 55 137 118 115 79 178 72 150 130 194 91 75 66 66 146 69 123 136 171 168 167 123 168 193 94 125 153 140 152 95 187 106 155 167 112 155 140 153 171 152 144 114 72 72 70 110 88 83 93 171 140 177 113 92 90 108 87 108 54 78 45 105 109 137 51 119 145 118 57 129 84 103 114 60 53 118 80 185 199 203 158 196 152 86 57 117 144 132 154 186 195 204 189 157 107 176 162 130 69 72 82 87 188 189 125 201 109 131 169 191 193 191 194 105 206 105 119 162 206 191 182 147 112 92 190 162 72 68 157 76 97 144 132 75 146 170 115 92 103 141 67 78 79 180 80 165 127 170 160 129 139 128 90 96 77 125 61 147 146 111 183 149 158 92 93 176 96 73 153 87 93 153 147 153 51 36 42 166 90 101 146 91 167 148 81 86 75 150 90 108 91 69 106 143 116 123 120 140 125 163 175 176 158 161 162 85 140 149 98 172 192 114 96 133 71 154 95 97 125 162 130 105 38 112 115 80 118 171 126 87 126 63 169 72 141 121 61 118 140 113 57 94 86 83 70 152 124 149 172 150 47 116 136 104 132 70 147 122 64 133 141 191 186 175 103 179 183 117 64 103 64 109 119 156 104 163 110 160 67 147 122 64 117 148 65 75 106 95 161 116 197 179 214 178 157 163 126 124 59 182 202 183 221 143 120 171 80 184 147 122 126 131 148 190 193 118 206 205 109 149 185 103 104 94 192 192 177 111 161 62 62 151 159 164 123 173 160 71 90 120 157 118 129 152 95 189 132 137 96 122 100 95 98 94 69 83 179 152 180 121 150 126 120 100 84 70 154 164 101 118 97 135 167 95 130 191 90 101 136 93 118 203 146 185
129 148 166 170 167 159 153 146 154 160 166 178 195 206 230 229 219 222 192 177 149 135 132 148 136 127 132 142 167 167 177 175 186 193 204 197 191 174 169 157 173 181 165 193 181 188 180 189 177 174 136 151 175 146 155 189 176 170 161 119 171 196 197 175 179 178 152 179 118 102 141 138 95 109 127 82 138 143 93 80 86 78 99 123 88 98 84 119 75 74 83 141 82 78 60 96 42 73 102 80 98 142 101 107 115 136 76 76 60 128 145 112 99 126 141 95 137 210 208 121 129 179 93 71 96 84 89 67 73 52 80 67 73 148 84 169 165 207 203 121 70 66 121 161 73 154 74 108 130 176 188 95 187 105 143 136 148 189 124 137 63 168 180 137 152 142 180 125 195 126 107 154 111 124 95 151 158 117 76 185 104 194 124 144 167 51 141 37 136 135 42 115 98 82 118 146 155 150 105 104 80 129 127 152 84 92 183 188 99 149 164 157 125 84 142 158 88 136 154 91 174 108 186 175 85 126 141 173 116 211 107 191 163 223 143 199 185 182 148 190 199 147 188 163 196 172 193 154 113 198 175 188 154 113 87 73 179 76 73 155 131 172 157 104 180 176 102 165 165 96 159 162 164 76 154 124 94 143 131 113 169 142 81 49 138 99 97 107 228 122 119 121 204 95 188 133 92 119 158 74 113 99 47 64 112 55 80 192 109 90 81 83 121 88 102 160 100 126 81 80 74 87 138 62 149 139 44 57 70 165 77 171 134 76 72 173 179 84 92 74 154 77 97 83 88 142 158 65 151 114 45 147 135 61 62 129 108 47 145 170 184 191 128 76 175 98 159 122 80 84 108 121 133 100 209 218 97 120 129 74 65 152 159 144 123 94 80 88 201 131 179 143 95 143 175 71 62 162 116 121 86 168 81 56 59 61 146 107 52 109 61 80 98 118 90 141 125 127 107 211 189 104 88 176 165 117 76 124 204 145 108 105 176 180 66 102 69 118 170 114 132 149 152 173 204 156 188 189 187 192 188 99 168 186 164 90 154 64 135 151 171 172 157 161 80 78 90 126 56 85 162 143 189 192 86 156 117 100 112 174 83 100 69 153 133 161 83 117 191 130 174 88 90 70 168 177 91 100 109 161 115 193 138 152 135 107 168 81 145 185 94 138
126 148 170 171 164 155 155 157 156 159 173 183 200 198 205 197 192 185 187 167 143 133 137 134 133 142 137 160 177 181 179 169 175 176 188 174 176 165 170 167 183 193 191 189 177 167 195 192 152 184 162 158 184 163 178 168 141 146 118 141 147 204 148 181 167 169 129 174 161 123 172 158 56 75 55 121 84 74 149 58 63 95 119 88 166 94 145 79 72 66 133 80 93 91 99 52 81 74 82 103 132 140 150 104 97 103 83 57 54 65 81 110 128 96 94 118 122 197 160 105 171 83 71 163 80 134 181 111 86 63 57 66 76 45 75 69 137 102 95 79 162 164 159 166 140 184 166 156 154 145 188 100 193 165 127 137 119 127 131 166 137 101 131 185 215 154 213 210 207 126 132 181 129 105 141 78 131 169 90 176 137 123 148 161 157 128 141 34 130 43 85 141 96 53 94 133 170 171 162 93 107 84 88 140 67 92 93 128 182 117 181 95 97 136 161 136 72 163 108 95 140 118 161 169 179 73 155 124 110 135 130 225 227 126 212 107 193 108 91 97 131 117 160 101 134 160 160 148 89 96 108 195 143 136 124 127 194 115 173 75 71 178 180 138 163 92 186 172 173 140 146 183 121 188 82 137 48 116 36 84 138 76 116 116 134 56 105 130 138 138 115 192 201 183 154 119 117 125 83 168 75 152 86 63 79 93 117 89 114 109 133 83 70 83 66 124 129 181 91 162 157 145 113 119 95 41 41 52 63 105 179 136 138 99 94 100 174 177 71 64 111 151 168 74 143 60 255 180 86 163 140 105 163 84 158 57 53 44 128 79 190 144 83 95 154 172 100 129 159 58 77 79 169 106 217 231 207 110 193 172 96 180 107 147 140 115 129 90 134 155 177 170 121 184 143 101 84 170 176 81 139 152 143 123 131 106 147 164 81 98 151 130 186 132 142 132 110 126 168 190 137 94 160 138 127 153 84 195 150 136 106 96 182 69 158 133 118 70 93 175 200 195 184 191 175 97 85 91 89 179 144 201 126 139 156 158 160 71 90 186 141 168 132 172 78 181 160 161 111 60 148 96 94 126 159 157 92 96 91 109 180 186 78 93 87 118 188 184 200 96 117 153 66 80 68 69 83 129 87 62 79 163 113 114 210 120 105 57 55 63 76 172
126 149 173 173 170 160 159 161 255 167 179 194 192 191 168 177 179 175 175 165 155 145 146 151 148 156 157 184 198 197 184 169 169 167 164 159 152 157 167 181 196 198 198 194 192 191 169 195 176 170 190 165 166 155 137 124 179 163 185 133 136 134 178 139 94 145 123 170 199 146 128 98 147 87 93 91 35 47 59 106 57 52 51 125 91 89 164 76 70 129 127 71 65 102 63 64 80 76 103 80 122 140 123 94 144 87 93 117 66 56 77 119 111 93 101 190 134 139 204 100 145 170 65 160 134 133 174 90 84 75 56 42 39 102 85 66 166 94 150 170 156 124 168 173 75 170 116 167 133 101 91 96 157 61 114 35 91 49 117 105 152 105 110 168 185 155 131 180 110 161 173 133 171 98 166 156 161 127 148 108 142 88 93 116 154 129 72 149 144 136 173 73 118 122 62 95 80 196 101 195 157 123 167 77 157 89 169 180 172 130 94 111 154 157 128 69 92 60 143 67 155 190 137 184 181 126 145 80 187 191 161 120 222 195 171 191 109 177 195 106 209 125 209 121 99 142 44 98 108 142 203 202 200 190 166 178 211 182 190 135 142 139 185 129 169 128 114 93 111 75 168 192 137 124 168 76 68 80 117 150 80 82 161 38 116 38 59 190 114 108 138 90 103 192 217 217 178 99 81 89 84 162 88 142 56 133 103 131 94 193 143 92 126 98 64 63 82 106 158 76 130 168 104 77 128 126 162 100 177 125 162 112 91 199 139 92 145 140 163 54 255 62 131 179 72 180 155 140 109 94 134 93 99 173 89 121 69 131 150 183 96 138 87 157 91 142 144 131 163 64 85 105 80 190 112 125 208 139 145 154 148 177 71 147 137 157 77 168 190 151 139 90 89 89 138 150 141 200 91 102 137 166 60 63 61 134 108 146 174 69 122 255 183 107 145 209 106 165 93 189 72 169 59 67 72 128 90 171 202 165 197 146 175 128 74 46 150 136 93 200 106 172 172 181 153 107 106 186 85 97 115 163 193 83 71 78 127 76 139 166 118 132 82 118 96 78 126 130 126 50 74 171 130 206 99 81 156 78 189 120 133 113 99 174 167 164 162 96 108 181 137 79 98 55 60 112 76 163 104 71 107 89 141 178 205 110 73 111 137 124 65 110
130 150 172 176 174 168 168 158 156 169 175 177 178 160 153 146 145 155 173 171 165 166 160 148 154 168 183 188 205 199 186 172 166 152 150 142 142 148 157 165 191 194 197 204 187 204 201 176 184 162 193 202 203 165 156 136 133 123 147 147 173 194 164 110 99 97 174 181 108 143 142 143 66 37 23 33 37 133 138 109 68 134 81 78 68 81 82 69 59 65 117 119 63 53 69 130 129 100 121 82 92 116 83 117 104 84 71 104 109 62 99 135 103 98 83 132 97 130 169 102 138 153 145 117 103 96 168 200 101 96 147 50 129 131 42 66 179 188 74 123 164 168 146 172 74 73 179 175 161 195 195 181 181 92 58 19 90 86 135 109 77 150 103 86 113 154 209 208 129 156 187 193 144 109 185 148 111 169 75 175 131 114 126 116 52 118 129 81 157 85 112 158 63 153 141 69 78 108 100 108 125 171 149 51 98 161 95 100 146 174 163 71 112 192 157 153 107 149 170 147 89 154 188 193 187 81 74 79 160 198 170 207 143 174 197 188 176 187 104 215 213 214 202 190 156 89 88 142 159 78 179 144 127 179 167 195 207 128 95 170 139 156 129 126 206 158 160 184 93 126 255 205 161 169 115 71 60 91 56 53 79 129 166 138 53 52 105 99 152 79 86 74 141 217 207 110 107 90 61 107 145 94 105 165 113 79 76 171 186 181 136 98 178 69 56 126 97 74 167 147 172 88 80 109 102 145 116 174 199 146 140 167 85 126 125 195 78 60 91 63 151 93 73 92 86 163 206 194 111 154 150 126 124 115 113 163 77 72 161 173 177 86 171 174 120 87 73 98 173 73 125 170 73 114 193 196 135 213 132 186 119 171 148 140 42 155 167 141 161 74 80 135 127 180 125 113 103 96 190 198 185 75 119 157 152 167 156 171 96 92 99 153 188 176 123 97 118 104 108 97 117 82 75 175 83 168 174 95 180 114 116 90 84 175 71 167 93 135 133 124 170 152 106 166 121 82 101 137 135 138 187 151 144 141 174 168 164 103 179 103 149 77 80 166 75 75 163 69 55 51 131 69 124 189 125 105 63 110 80 205 208 108 153 146 154 73 72 102 90 134 136 91 102 129 99 44 109 81 167 181 177 110 73 77 182 104 112 76 61 62 70 82
138 151 168 174 172 168 159 159 161 160 171 173 156 137 123 136 144 153 171 200 190 189 176 160 174 193 202 204 202 194 185 174 162 146 140 134 131 145 161 177 182 193 196 207 209 224 203 187 163 151 145 203 155 197 155 190 184 151 187 193 166 204 175 118 119 112 99 158 155 109 171 146 145 38 46 44 41 157 139 149 94 77 61 58 69 126 117 74 63 123 64 60 46 83 96 72 95 114 83 75 79 73 99 106 139 132 99 90 75 132 83 98 89 90 87 141 124 104 110 113 107 97 73 86 178 155 117 134 92 126 145 109 131 35 48 168 87 160 159 127 172 148 176 151 175 66 98 72 77 188 97 200 139 162 136 113 59 131 116 115 67 174 80 131 111 148 183 120 173 94 91 164 116 143 162 119 169 149 97 173 138 71 75 94 161 144 62 169 86 98 144 92 133 149 143 97 80 134 188 178 151 142 158 107 166 172 89 174 193 172 66 56 166 176 152 78 95 173 180 78 156 66 139 97 158 156 145 122 65 171 143 189 173 150 163 90 98 99 157 206 192 199 186 184 159 87 129 144 136 82 132 167 143 84 171 157 190 111 96 172 102 158 171 78 126 200 140 180 199 141 195 194 223 200 180 140 125 142 36 60 141 105 153 131 43 125 104 166 68 57 56 81 96 196 218 165 132 55 103 79 88 155 68 163 105 148 90 72 78 87 111 184 88 96 64 140 53 62 80 76 185 82 147 175 141 140 201 199 178 176 164 163 138 135 184 121 80 52 130 56 65 176 88 119 173 104 218 207 89 90 118 124 135 125 118 72 56 126 171 75 132 71 110 150 163 167 171 171 159 192 183 98 86 140 102 107 151 126 214 108 185 99 88 81 45 59 173 123 96 160 75 61 88 77 157 95 157 124 179 156 188 152 114 128 173 96 174 153 117 136 97 91 86 81 94 157 186 187 92 179 163 184 148 141 154 124 83 152 193 105 100 100 98 79 183 185 185 98 206 141 94 141 170 140 114 172 114 181 142 118 196 202 166 173 160 53 160 68 68 78 109 134 113 60 111 147 50 137 35 101 147 117 181 183 175 82 116 126 155 164 188 155 157 180 152 130 120 158 145 177 64 122 124 67 47 52 166 123 148 102 66 154 80 90 72 187 86 101 161 140 177 178
147 152 159 156 159 155 157 145 156 160 164 153 142 133 132 139 135 159 188 202 207 196 192 177 194 202 196 193 186 179 179 166 161 150 142 139 144 149 159 178 178 189 184 211 218 238 191 186 152 144 133 195 174 164 199 188 132 142 197 162 194 192 154 157 169 94 163 93 144 123 107 109 146 42 108 36 124 79 98 94 123 71 81 80 121 93 92 89 139 84 64 68 63 85 117 93 90 71 81 65 65 73 98 115 119 137 70 109 69 78 83 120 80 100 80 93 159 127 141 124 141 156 105 174 130 122 124 116 113 86 134 45 120 117 164 191 95 196 176 185 88 190 95 160 139 69 55 129 82 255 103 148 94 68 47 36 79 144 98 77 125 167 91 117 146 91 144 128 116 142 109 114 105 115 196 177 98 190 186 134 100 140 79 96 83 152 153 161 172 109 148 183 163 115 88 40 49 69 177 93 145 75 97 84 164 147 157 95 155 73 147 39 114 131 136 67 102 125 184 112 153 62 67 68 78 119 61 150 158 144 146 90 129 109 92 122 98 156 199 157 115 160 123 182 122 62 64 47 139 80 60 97 129 37 54 122 144 130 94 152 158 76 125 171 149 163 183 183 178 78 163 134 116 133 204 114 144 104 99 146 76 110 153 126 63 57 173 123 65 255 148 169 110 116 153 96 124 120 42 138 65 92 160 147 166 101 64 68 73 73 75 149 94 141 115 80 126 94 107 138 96 81 106 118 99 93 148 220 156 140 157 112 173 96 92 175 164 155 61 131 109 82 85 100 102 210 217 100 136 90 83 219 211 203 116 71 159 110 133 176 93 141 85 94 111 118 136 112 102 192 195 81 168 115 80 73 176 137 108 101 148 171 62 119 150 66 86 135 200 102 139 92 91 90 89 175 83 160 165 77 85 171 178 94 137 90 72 166 155 188 85 187 131 97 181 72 98 180 158 164 177 130 182 68 83 164 148 139 182 86 166 111 78 152 154 191 200 202 145 100 191 154 195 151 167 167 177 190 136 211 110 134 161 53 51 110 122 144 137 130 65 39 49 62 168 116 138 127 104 47 67 70 66 97 156 131 106 132 131 76 182 117 175 182 126 69 171 77 82 174 134 83 113 52 95 161 144 89 108 170 59 49 97 61 69 167 84 160 101 61 91 116
150 150 149 140 141 132 141 147 142 151 148 140 130 136 132 137 142 165 171 209 214 203 190 186 180 201 192 175 169 163 164 168 166 159 159 158 158 162 159 179 187 181 190 208 213 228 222 184 143 144 166 159 191 185 149 129 154 121 160 171 151 142 122 187 195 138 118 89 128 94 178 120 85 132 60 112 84 161 155 121 94 89 107 60 69 67 120 108 151 147 127 76 93 78 109 61 57 68 61 75 51 58 66 71 95 91 70 88 111 113 83 78 99 84 111 105 113 137 182 176 122 113 197 108 110 216 124 203 151 74 62 53 153 70 90 105 198 142 197 141 117 197 129 194 202 173 165 109 141 104 173 201 189 73 123 111 119 114 161 174 155 161 97 159 86 138 77 75 73 123 109 175 181 199 204 137 199 194 99 96 95 67 142 139 191 166 169 157 129 160 124 94 139 134 56 140 42 143 67 135 184 183 88 104 185 106 81 85 86 74 79 76 101 57 133 148 166 184 170 158 71 106 59 69 61 63 48 135 140 91 90 166 153 122 43 138 117 175 188 201 123 191 117 185 67 134 147 130 146 97 143 54 62 31 65 180 179 100 90 66 158 91 61 142 140 140 74 95 80 99 78 105 177 86 187 162 143 116 99 78 137 95 87 168 131 164 185 110 159 159 58 82 116 134 123 116 157 149 124 67 141 67 70 94 108 75 94 131 87 105 65 72 174 119 162 171 107 85 93 84 89 191 131 90 170 186 102 187 157 179 117 106 146 182 190 175 74 98 76 112 79 185 113 190 129 91 197 189 69 153 81 129 182 150 190 170 160 85 165 73 81 77 180 149 169 94 138 107 201 204 155 96 172 64 90 138 146 190 98 91 113 71 132 95 73 182 187 160 148 171 94 186 117 95 177 135 123 61 155 72 158 114 182 153 155 75 84 183 92 106 181 169 185 149 166 68 88 66 128 129 183 127 81 168 72 117 149 157 169 81 84 169 126 133 90 102 199 100 119 105 110 191 208 94 81 175 180 97 96 128 204 86 169 121 37 96 133 83 115 107 134 155 70 71 85 66 155 150 54 118 68 76 62 121 138 53 89 115 142 105 119 165 91 159 138 88 149 95 92 200 128 72 110 152 88 181 126 168 167 141 68 85 143 84 163 106 79 65 148 117 129 170
150 147 144 136 124 122 136 143 151 146 149 133 137 126 138 147 156 169 186 185 198 200 177 174 192 199 187 161 162 150 167 165 172 178 181 177 171 171 178 180 175 168 189 204 230 211 216 182 157 117 171 181 195 204 194 175 128 78 137 123 108 158 123 137 168 172 194 159 197 149 121 170 93 148 77 125 118 83 84 129 143 114 104 82 98 72 89 159 102 95 87 67 83 80 134 82 83 64 30 21 55 36 68 71 120 92 102 104 157 124 100 128 79 102 117 124 133 196 118 105 117 198 167 135 205 210 126 122 178 84 68 154 76 82 98 135 116 170 121 113 212 163 180 226 125 195 170 150 134 83 160 167 132 182 121 84 146 103 181 150 113 170 137 167 167 149 141 61 146 79 145 174 106 169 114 159 125 178 186 116 151 171 182 175 129 87 69 105 67 152 169 103 183 62 119 134 50 117 66 121 85 84 95 85 84 124 74 132 105 96 49 119 69 75 175 98 75 184 94 83 152 76 139 63 72 144 150 134 89 145 66 82 49 43 128 127 139 162 117 170 125 226 144 111 73 158 153 129 37 104 85 118 136 139 85 143 93 201 89 92 63 66 106 155 126 99 61 87 58 73 78 158 141 94 75 98 117 95 180 155 178 74 117 159 175 189 83 78 61 159 72 152 107 150 204 105 86 125 162 96 64 135 120 189 100 187 146 64 54 51 59 166 77 82 78 177 103 164 203 136 181 179 209 162 160 176 199 113 193 181 141 138 162 163 183 126 142 79 70 154 115 77 181 108 85 164 158 153 163 168 86 186 132 204 81 119 147 146 167 178 100 195 99 175 121 141 177 165 168 176 93 90 129 160 73 67 180 161 140 133 184 164 159 80 119 110 143 126 192 95 141 119 165 183 78 97 57 93 114 160 81 132 147 71 74 166 184 101 167 136 176 107 99 133 68 69 109 78 178 116 200 185 154 151 139 99 165 133 159 67 68 75 182 177 166 141 203 182 179 127 112 162 182 110 172 156 82 175 186 180 117 79 166 64 134 132 34 143 148 149 136 171 153 161 93 150 161 68 73 83 177 110 68 170 73 56 43 77 48 141 155 152 164 161 177 172 117 107 156 195 156 139 153 159 166 87 105 180 188 108 164 132 85 81 95 97 178 76 112 93 78 151
146 149 150 145 136 130 139 144 150 153 138 137 128 128 129 135 140 157 183 186 181 182 185 176 187 202 177 177 160 165 170 175 184 191 191 180 176 176 169 175 169 157 179 192 220 220 198 140 151 165 139 198 193 192 188 168 146 105 132 116 154 92 171 124 140 209 197 186 143 134 181 143 151 95 101 114 114 96 76 64 81 91 80 136 111 85 97 107 123 105 159 142 76 123 89 134 87 35 85 29 46 33 63 58 86 98 99 122 111 129 255 90 127 97 115 151 120 129 92 109 100 86 106 190 122 182 141 161 192 100 126 181 133 176 85 134 190 209 151 221 149 154 155 226 206 205 189 79 175 76 178 89 155 184 171 192 138 171 84 192 182 177 125 136 175 85 158 97 175 157 177 187 103 198 145 147 138 194 104 166 98 80 182 87 158 105 181 77 73 140 163 182 103 154 44 52 50 54 64 119 116 67 117 136 123 83 103 171 150 107 90 159 138 79 146 138 88 75 74 116 145 157 64 81 57 161 159 75 157 157 149 59 50 147 157 74 97 156 155 171 224 126 204 144 166 153 130 39 129 115 132 68 144 91 122 182 182 145 186 90 170 157 131 87 69 124 177 176 71 124 171 73 79 111 78 165 180 150 169 165 94 162 125 92 150 129 138 57 45 130 168 159 101 129 141 198 189 75 65 77 145 77 91 101 127 135 117 154 87 145 51 157 104 147 77 72 78 185 166 108 119 135 208 211 198 169 102 104 168 92 155 158 91 181 99 207 255 112 160 132 133 135 61 75 116 144 151 156 60 137 186 130 161 167 114 76 66 138 116 175 197 94 188 91 134 136 185 91 172 193 130 181 131 149 82 86 194 133 206 182 143 74 70 179 142 119 140 182 255 119 111 155 179 94 73 137 35 112 145 173 124 144 177 146 106 88 157 105 80 74 71 154 82 52 116 18 103 119 123 152 117 93 75 163 122 82 137 60 84 75 68 176 81 186 197 199 116 144 157 84 154 188 90 108 136 105 170 95 77 173 106 154 60 67 111 40 43 147 163 126 89 167 106 166 104 163 131 178 143 190 108 99 128 106 172 117 113 125 120 58 139 154 84 169 159 77 173 144 78 96 190 162 125 52 85 85 161 174 115 138 82 70 101 119 99 161 161 53 44 92 117 139
147 156 167 165 164 154 154 160 159 150 143 146 134 118 121 122 145 163 180 179 187 199 198 210 219 219 193 191 180 176 173 178 187 190 188 185 175 176 163 168 145 161 174 174 194 183 191 156 170 176 193 191 153 197 179 170 134 136 139 140 94 139 160 105 168 203 198 155 204 131 204 101 108 71 70 149 68 64 93 61 68 138 122 99 154 82 89 175 164 120 123 102 116 142 95 84 77 99 44 43 77 47 88 90 103 130 147 138 150 134 77 62 91 113 116 126 165 108 91 105 153 75 95 180 204 115 148 174 195 90 196 86 73 65 174 187 99 183 113 113 213 118 190 145 140 209 195 161 183 170 121 187 100 182 114 103 203 121 113 116 190 153 178 152 88 141 95 188 104 134 161 186 152 171 197 168 195 124 102 123 118 161 144 97 189 151 118 173 89 161 185 118 128 44 40 40 46 75 50 129 68 152 126 68 116 169 142 104 74 108 74 72 181 97 125 187 165 94 94 89 54 89 59 71 154 93 152 168 100 76 83 159 50 60 105 176 150 93 172 190 109 220 121 183 109 81 71 74 107 136 74 155 79 164 67 74 147 176 97 92 116 138 184 183 91 145 132 144 139 78 165 111 119 97 119 141 143 165 115 67 84 172 148 134 104 121 69 85 135 110 158 136 182 175 142 102 71 65 64 73 72 76 93 106 92 86 74 82 61 60 74 167 111 170 93 54 100 151 134 197 125 178 121 205 172 163 139 206 103 94 172 134 151 94 158 114 139 125 217 102 184 96 131 149 110 135 105 53 136 175 158 117 116 112 166 134 107 72 167 183 194 167 168 169 159 175 176 170 103 89 105 159 154 116 99 150 203 113 204 150 85 119 79 180 175 125 168 103 128 54 137 101 175 145 137 121 144 48 131 135 165 91 193 160 154 173 68 103 159 115 162 173 156 118 71 25 17 125 128 165 92 181 164 164 145 71 112 64 159 71 139 150 188 108 132 108 188 188 92 84 190 165 101 198 153 77 134 161 142 155 63 123 142 140 122 39 155 128 88 185 131 112 88 70 155 149 159 105 193 156 128 217 174 112 120 87 96 148 126 174 126 81 191 200 130 140 151 66 117 174 156 159 164 78 170 88 147 142 103 138 80 89 64 173 148 173 100 57 74 145 42 149
144 156 175 186 184 176 174 165 163 150 143 151 144 136 121 120 127 145 164 183 176 193 203 212 235 236 227 206 201 187 175 175 180 182 186 172 172 165 159 137 147 152 167 163 173 194 162 175 166 178 199 164 172 145 174 128 148 150 170 171 148 137 164 132 146 169 189 221 218 193 140 175 83 60 127 66 98 97 137 88 69 96 88 99 83 96 113 131 126 197 145 132 154 117 94 85 71 70 73 92 61 61 95 85 93 93 147 120 184 135 135 131 82 99 137 117 185 104 94 83 93 61 118 77 92 205 206 91 91 102 89 158 129 170 107 145 152 162 192 196 103 202 110 106 99 150 134 177 177 165 69 105 107 112 96 124 101 150 91 163 109 162 128 91 159 167 103 115 143 176 172 175 179 171 118 130 188 175 82 104 93 139 107 104 119 122 178 196 96 143 193 170 74 41 132 32 105 133 111 148 161 80 119 111 191 117 133 96 72 95 100 91 206 216 191 151 86 86 148 137 85 81 159 127 117 132 186 147 152 137 94 165 108 93 93 67 170 160 99 152 180 131 181 132 167 163 164 110 155 150 114 100 158 109 127 94 95 149 167 116 110 192 192 208 212 219 155 138 137 85 157 209 200 177 133 164 140 166 117 134 91 117 146 76 158 45 42 72 115 76 122 72 78 117 176 107 115 129 134 68 88 122 110 152 71 100 59 139 54 49 82 66 67 160 54 78 40 155 121 100 209 162 146 88 131 101 156 101 199 103 172 76 168 116 109 130 233 158 144 125 190 175 111 160 55 154 84 56 161 78 138 70 163 166 178 86 163 158 165 171 97 105 177 69 126 73 111 148 83 167 80 88 180 120 199 140 204 103 189 124 187 184 134 99 100 97 150 140 43 45 119 136 104 80 181 86 111 70 82 94 148 193 94 154 78 155 97 122 177 172 188 85 173 80 105 88 31 33 67 108 134 156 148 154 85 161 73 160 161 58 171 181 192 124 102 113 124 131 202 115 166 198 103 132 146 102 162 163 97 62 155 90 35 134 31 111 56 60 145 171 107 101 82 69 169 182 105 207 218 226 131 120 201 104 127 104 80 71 74 136 109 115 135 124 141 92 105 177 95 137 184 140 166 117 71 95 131 111 126 85 172 69 169 157 101 83 159 55 55 53 100 170
140 151 172 188 199 191 183 161 158 149 156 162 148 142 124 132 148 149 170 170 174 188 191 224 235 238 229 220 211 183 171 165 167 175 177 178 174 164 156 145 130 151 165 183 191 194 190 164 171 180 185 177 198 151 180 178 156 192 134 193 124 143 174 94 147 145 120 189 178 137 179 95 88 134 138 106 58 143 104 75 67 71 80 103 98 102 95 102 120 135 156 124 113 106 112 79 68 67 108 84 76 87 81 112 79 113 159 128 128 115 140 99 94 116 114 177 110 166 93 113 88 55 130 156 189 115 166 155 91 139 139 87 108 74 136 102 96 64 145 108 146 151 100 200 168 175 123 168 172 160 145 164 171 140 101 134 188 159 148 137 72 171 94 184 180 127 107 100 174 166 154 135 142 126 123 178 89 163 143 83 138 116 110 76 159 171 124 85 92 101 99 90 144 60 53 113 142 125 72 80 104 84 96 92 156 123 105 97 157 166 172 159 212 162 214 102 141 82 87 65 123 172 163 104 163 111 206 135 117 186 97 106 153 137 38 45 47 149 148 92 68 129 177 140 125 166 90 74 76 138 170 186 88 167 68 74 149 65 143 165 83 170 206 137 200 215 190 131 180 177 204 186 104 196 116 139 94 55 95 89 139 95 80 164 91 83 82 104 60 104 151 76 78 95 94 136 119 59 57 82 102 62 57 55 109 107 167 71 144 163 168 77 61 83 97 72 21 34 87 187 135 110 171 71 133 181 158 92 135 155 167 153 50 167 120 107 157 223 251 231 103 176 123 178 79 165 162 64 149 169 169 171 76 182 127 172 77 172 173 95 80 82 80 162 124 116 173 96 140 116 133 152 187 180 255 174 196 190 191 90 86 195 104 115 155 199 105 153 65 44 122 104 102 89 174 187 193 93 179 154 89 145 137 170 82 82 51 108 90 146 106 195 193 125 110 149 73 87 105 74 136 179 85 100 132 80 92 90 53 122 87 188 111 170 113 204 117 123 162 144 109 203 222 201 139 150 117 134 57 119 87 78 139 100 138 144 117 160 81 129 166 168 188 119 76 188 200 116 177 198 126 156 161 148 139 142 132 136 121 113 185 80 117 180 142 183 185 89 177 181 160 82 75 59 158 78 168 101 126 142 132 64 65 100 123 160 80 88 106 65 111 92
125 134 149 173 185 183 178 160 147 149 160 155 166 160 143 144 154 176 180 165 170 165 179 189 212 220 220 220 205 181 159 148 158 171 178 179 175 165 153 140 129 146 149 167 188 194 191 163 161 190 205 207 167 191 156 159 168 161 203 171 149 126 142 158 181 181 132 138 177 117 196 157 135 129 86 93 151 121 96 106 73 126 106 161 192 157 118 133 185 118 173 114 109 137 91 96 84 72 75 75 57 73 75 99 99 112 120 140 113 112 114 92 116 97 111 127 91 97 107 158 92 58 72 78 91 198 152 163 107 56 168 81 91 150 187 73 164 48 101 152 146 85 106 89 177 160 143 75 164 172 169 78 98 137 141 84 84 144 137 128 98 143 130 147 175 87 167 157 104 149 101 168 113 181 139 198 98 114 95 100 93 137 111 72 70 127 80 67 162 179 203 191 86 105 151 57 97 129 125 77 167 168 95 190 107 175 198 154 62 74 166 193 114 181 118 110 96 171 75 58 151 143 111 107 195 198 94 190 189 189 147 110 72 119 48 46 145 147 79 153 100 92 148 143 92 126 70 177 74 105 114 88 97 188 177 116 127 177 131 115 178 169 216 126 125 133 187 101 105 163 202 102 198 97 103 148 58 156 168 145 91 160 177 135 161 48 50 159 125 179 100 86 99 70 151 80 124 88 141 80 159 148 86 106 124 132 154 72 117 70 116 110 81 127 37 33 75 132 110 150 76 72 63 110 155 115 111 105 128 163 58 125 71 146 70 182 220 165 225 124 171 146 170 187 141 168 104 139 65 90 112 137 151 113 187 158 161 133 141 135 77 169 175 177 152 168 122 92 153 161 67 173 169 105 137 134 163 111 88 97 126 156 180 207 124 123 182 121 99 85 89 141 115 136 191 177 205 104 105 201 91 131 180 100 88 56 120 69 177 96 104 171 104 85 168 78 59 55 164 75 96 101 87 52 167 158 148 167 139 98 161 89 190 212 171 158 165 195 200 115 202 116 177 198 204 125 77 89 103 170 66 144 112 45 118 70 115 127 85 148 195 196 142 182 122 87 114 212 115 132 193 149 140 127 222 127 188 92 90 97 88 126 84 148 124 89 157 128 198 100 105 114 145 147 71 59 124 142 127 151 77 69 148 61 61 75 99 76 61 147 96 116
111 118 129 146 164 173 171 160 143 141 156 164 173 165 160 163 177 197 186 182 167 161 170 170 186 187 207 205 202 184 163 149 153 164 170 181 179 172 150 154 150 161 159 177 193 181 173 188 177 168 169 212 153 181 193 179 194 176 206 203 156 189 124 166 155 158 208 150 255 184 172 137 140 163 127 129 154 66 71 119 146 76 92 107 148 126 130 175 119 118 108 121 102 130 107 70 89 91 92 92 97 65 69 74 112 111 92 148 100 102 88 79 137 103 97 144 113 143 80 82 174 71 160 151 135 93 99 176 65 140 134 123 101 168 112 91 103 134 42 147 75 80 93 96 73 59 58 154 137 100 177 74 165 117 134 53 159 127 158 94 161 175 136 192 114 112 86 164 160 110 100 116 192 193 203 197 172 140 162 140 154 103 67 90 171 109 62 149 95 117 175 204 93 149 60 147 50 98 135 63 119 73 85 93 160 170 196 138 120 72 111 86 192 103 190 183 83 182 97 179 114 169 100 187 75 154 99 101 96 99 83 150 155 145 37 146 51 109 73 170 94 174 175 172 101 65 177 107 187 105 113 131 126 100 142 103 199 135 172 136 145 146 197 107 101 87 167 73 72 185 126 102 155 168 72 89 67 82 100 149 191 155 98 156 166 70 75 169 88 196 101 129 148 113 170 159 85 186 166 95 198 85 104 132 129 179 75 75 107 88 81 143 139 136 59 84 45 71 148 55 83 57 77 162 169 88 169 103 86 155 146 84 24 136 139 184 255 117 197 187 168 148 103 86 191 200 86 177 125 157 161 68 92 168 176 181 97 160 170 81 146 84 157 85 166 115 188 101 145 141 173 177 112 108 153 188 184 186 163 140 161 194 164 186 132 102 168 85 38 129 99 136 148 77 113 104 105 182 112 111 124 202 92 87 100 61 70 72 80 115 114 107 183 124 95 177 96 137 166 96 176 173 49 67 69 107 118 110 82 56 101 88 116 215 175 176 93 168 209 140 202 106 123 97 181 162 64 140 112 158 90 155 129 84 162 101 83 98 133 146 195 191 86 96 154 111 188 153 113 212 193 227 204 162 180 144 117 86 75 164 170 156 59 159 156 162 131 85 180 71 158 114 152 141 54 41 48 117 68 69 58 123 73 61 55 72 106 83 113 72 88 182
102 105 108 121 136 157 163 155 152 139 153 167 181 178 182 182 201 189 181 170 160 153 143 152 174 187 197 206 202 195 171 155 153 165 174 179 181 172 175 172 174 171 183 188 194 194 189 192 174 168 209 209 168 196 172 183 181 197 138 195 177 194 194 151 127 122 186 122 197 151 182 121 169 136 103 173 106 121 65 102 75 83 121 135 148 188 127 150 130 111 97 129 104 98 106 80 82 112 90 96 132 81 92 123 88 80 94 130 111 255 77 72 98 117 112 71 134 57 156 102 104 84 154 87 135 127 112 156 140 167 182 185 194 221 131 113 94 135 154 58 170 124 195 183 140 144 159 147 70 92 157 79 80 149 136 94 93 161 103 166 170 182 148 118 174 147 127 143 110 77 88 176 107 202 203 137 160 207 191 148 109 103 53 82 164 92 93 69 177 186 190 100 182 118 81 154 49 49 141 65 131 178 168 178 184 184 81 83 136 93 109 166 136 174 78 77 76 84 101 196 98 187 153 184 151 57 164 131 161 156 91 156 75 112 124 104 175 188 191 178 131 172 101 89 77 113 191 167 127 152 135 169 104 186 130 174 110 180 158 68 113 75 174 190 121 123 78 142 163 181 108 186 79 83 129 107 124 143 90 119 83 88 186 131 83 170 167 69 79 86 153 201 86 67 81 79 90 102 106 167 199 130 185 72 109 140 74 169 134 97 163 124 122 197 182 81 90 59 100 64 145 94 95 76 177 166 170 177 91 113 154 90 99 85 145 102 114 116 165 98 103 162 77 84 184 102 76 110 78 88 116 82 76 145 171 87 125 173 107 147 162 128 161 179 112 156 169 96 152 173 92 76 170 187 135 151 176 81 145 107 101 108 109 144 177 168 143 92 41 129 72 78 115 54 92 95 95 200 145 214 210 152 91 90 167 89 155 129 147 184 196 94 112 171 124 142 73 77 61 167 136 165 96 46 143 81 171 108 48 145 161 169 199 158 181 132 93 132 152 185 85 127 91 172 68 116 155 64 159 148 204 198 117 170 176 178 179 185 185 195 139 106 160 150 173 110 177 175 148 203 221 208 144 137 207 140 197 147 170 93 151 139 68 54 100 154 143 167 123 148 128 124 139 96 41 113 65 84 82 164 147 60 61 75 64 103 109 92 132 178 170 172
108 109 106 109 120 140 158 149 149 145 155 163 186 198 197 191 190 192 183 189 166 163 153 159 174 176 192 208 210 202 182 168 164 168 176 186 186 186 191 194 195 179 188 185 193 192 170 169 193 199 167 206 198 197 188 186 179 143 192 155 200 197 145 129 162 180 96 182 96 183 98 154 91 91 127 133 84 77 61 56 156 105 95 163 134 104 182 109 106 136 90 116 119 160 139 81 119 83 96 85 103 100 87 102 130 66 117 95 72 56 53 53 61 138 103 64 141 78 124 176 90 92 103 205 116 121 115 162 208 199 93 191 114 228 236 140 157 113 97 134 138 84 94 75 68 130 72 137 153 173 185 142 122 118 129 49 103 148 115 188 96 204 195 198 181 166 84 156 114 123 182 113 180 197 98 204 212 178 121 163 137 59 89 141 98 177 122 135 145 196 109 109 204 95 86 169 150 132 160 115 73 158 82 79 73 167 67 154 129 110 54 58 130 168 73 126 54 127 81 171 200 132 130 177 113 104 156 167 76 114 168 157 165 90 175 170 97 199 126 150 87 168 122 162 187 118 104 210 208 131 176 150 162 191 196 218 210 202 177 106 93 105 155 143 132 193 99 65 161 165 133 87 166 153 98 115 75 181 164 167 154 181 142 90 113 154 77 66 131 144 97 122 174 66 72 92 143 187 162 122 142 93 163 144 67 78 147 76 96 74 118 190 93 101 206 117 102 146 141 176 180 135 109 139 164 166 139 168 117 83 138 79 30 130 67 77 105 192 112 137 98 163 53 93 169 105 66 162 117 115 146 85 138 67 167 168 170 70 56 53 61 128 144 161 105 170 125 109 180 68 161 66 150 151 163 159 68 158 133 167 181 188 168 193 112 162 76 92 120 43 41 46 130 79 176 195 191 188 195 116 207 151 181 75 175 76 135 121 122 71 166 199 177 194 144 89 153 109 78 170 75 86 108 148 81 138 171 87 49 135 161 184 183 182 184 93 146 99 190 174 83 173 89 114 144 141 66 164 111 161 222 210 204 155 169 151 194 125 153 193 176 187 159 82 147 178 178 102 196 131 188 215 123 127 196 171 123 68 160 174 127 176 167 62 99 154 49 47 105 137 42 78 175 148 55 125 45 87 56 61 87 52 121 70 145 173 200 92 107 139 124 174
127 124 115 109 113 129 150 151 138 142 155 181 194 199 193 181 186 185 185 172 167 155 162 172 171 194 200 200 210 195 185 175 172 180 188 190 198 199 193 203 207 199 184 184 180 186 169 169 171 181 159 155 190 129 137 147 162 128 121 149 141 149 186 158 188 112 90 162 110 114 101 135 83 97 113 76 75 85 139 105 122 99 90 134 68 123 151 87 130 145 80 101 115 105 99 108 108 95 103 118 115 95 126 83 115 93 98 74 54 79 87 66 74 115 156 85 81 102 97 146 98 95 138 209 175 126 115 169 148 160 102 193 195 225 236 206 108 115 132 173 80 183 177 171 132 152 131 155 169 108 133 91 139 116 55 131 120 118 172 196 161 185 155 190 83 164 162 167 173 130 100 206 160 114 173 173 183 167 152 147 61 27 29 136 170 176 197 149 204 147 176 189 156 135 173 181 84 175 104 153 119 107 103 156 174 86 167 73 65 157 124 81 142 72 57 76 133 67 86 188 210 115 178 166 163 152 89 78 115 143 162 144 117 89 92 94 166 155 197 195 130 140 68 96 100 196 196 175 106 92 111 132 46 69 190 218 149 199 108 83 170 138 151 80 93 163 191 160 72 112 135 61 51 108 110 91 82 175 109 76 155 143 160 137 97 88 180 162 73 147 99 98 158 94 115 171 210 129 125 136 181 167 64 160 162 69 179 106 109 136 177 181 143 95 143 113 141 188 113 190 138 112 97 148 162 96 65 145 164 142 173 167 128 85 110 174 113 104 99 88 117 151 144 40 140 119 161 171 177 170 102 113 175 124 97 174 76 109 151 140 98 58 148 87 108 57 105 76 166 74 120 148 80 76 135 114 153 68 126 52 74 172 112 119 164 175 63 144 40 64 110 64 104 67 101 184 146 190 186 92 136 94 96 81 255 113 98 105 158 166 158 131 185 149 102 78 152 59 88 94 123 152 70 135 130 156 109 137 90 52 103 180 184 89 75 176 82 173 162 116 61 62 85 154 57 59 173 88 188 138 162 135 205 110 102 192 129 160 176 188 179 112 108 143 100 172 145 183 127 93 200 95 188 133 188 176 67 59 72 167 147 118 126 116 110 162 151 45 113 141 88 104 114 107 78 103 54 101 62 147 49 61 163 90 90 115 195 125 103 145 194 189
144 137 123 110 110 126 142 152 150 151 153 189 200 213 199 190 193 189 196 173 162 167 179 182 189 196 200 194 208 201 202 192 189 187 198 204 209 214 214 211 187 191 165 158 185 155 148 136 153 141 156 155 131 163 135 164 170 173 171 126 192 207 157 176 153 94 162 85 155 100 84 138 150 97 124 152 98 92 158 167 160 110 97 141 59 56 87 74 135 63 85 154 180 121 106 115 99 87 122 89 84 111 87 117 70 89 64 76 105 132 135 168 108 169 174 106 161 95 94 161 119 198 127 126 191 167 113 93 196 98 150 174 194 213 216 120 194 78 72 172 79 182 69 73 75 86 64 61 81 166 105 63 32 104 133 122 145 152 255 153 174 180 117 153 170 109 171 71 142 184 208 114 116 182 197 161 191 142 177 104 58 122 124 54 179 198 103 108 156 154 150 195 174 162 181 151 164 173 109 134 163 97 94 195 96 81 95 168 71 157 131 79 122 151 121 60 62 111 179 100 115 162 177 162 62 100 176 120 86 153 100 91 190 181 182 188 158 202 190 136 104 128 137 69 94 208 115 209 97 174 48 135 127 82 146 207 221 207 152 106 151 130 61 163 92 157 123 130 82 71 68 103 132 129 78 142 154 134 172 142 113 56 170 106 96 96 72 118 64 158 101 99 90 94 154 102 120 181 122 184 184 92 162 64 98 94 74 179 75 89 83 156 167 168 166 185 174 189 120 79 76 78 72 69 133 124 171 64 164 176 89 84 160 155 84 92 85 186 86 178 171 123 90 85 53 47 139 85 159 165 109 167 153 83 165 79 117 81 93 145 84 111 56 113 61 159 124 176 77 96 133 42 50 98 120 175 110 70 63 76 98 102 200 172 82 166 95 152 81 104 76 126 154 164 110 218 115 171 127 138 94 109 166 170 82 173 168 186 84 102 101 107 112 211 203 174 163 74 134 173 94 139 71 135 60 68 129 108 38 54 69 165 141 142 73 155 180 113 154 165 52 139 80 157 156 67 185 98 105 124 171 177 162 186 100 88 200 109 199 114 102 149 154 132 162 178 91 90 143 73 168 96 162 156 153 255 255 69 150 126 180 170 142 127 185 124 146 60 131 82 166 173 134 192 88 160 98 117 57 81 55 148 131 96 199 203 105 93 188 141 141 138
154 144 126 111 107 118 142 145 153 144 158 175 192 191 184 174 187 180 190 186 176 181 189 192 202 206 217 212 199 208 210 201 195 193 194 205 213 215 214 205 186 181 163 174 172 180 174 147 137 151 107 150 147 131 118 111 98 132 157 125 159 180 146 114 171 109 160 97 113 125 142 132 156 63 89 154 154 156 169 152 147 109 74 119 49 88 65 61 104 97 85 137 123 169 117 103 87 83 85 81 104 78 85 113 90 86 140 139 109 141 128 119 133 126 135 214 125 150 192 127 97 194 111 214 181 184 74 78 77 176 140 135 75 205 220 119 152 187 120 107 183 171 164 167 162 169 137 151 59 120 142 129 127 97 56 86 123 151 184 129 144 115 133 95 90 115 173 127 116 121 156 142 135 151 185 179 88 86 142 106 138 58 146 121 131 95 166 209 111 211 102 176 182 185 168 89 112 134 102 134 118 203 173 97 115 153 185 120 156 134 181 90 160 80 143 77 109 65 157 101 166 181 167 132 160 108 117 167 173 188 140 146 159 177 101 186 134 94 184 169 94 175 64 70 87 183 127 214 196 176 132 96 75 154 174 182 202 131 190 190 76 101 54 156 174 130 177 126 187 149 102 152 142 129 129 152 73 90 84 59 47 49 155 74 182 108 128 163 77 167 175 141 99 168 106 155 159 136 178 154 108 175 86 66 72 77 78 80 101 63 63 77 67 67 77 97 149 101 96 59 95 62 56 164 164 162 109 116 119 186 159 105 130 87 181 146 92 73 68 150 106 110 126 133 107 145 146 147 72 69 62 176 179 93 88 143 154 118 168 130 127 138 82 165 168 116 172 182 170 132 129 112 77 174 100 100 153 145 88 130 67 193 159 194 157 69 139 108 255 90 131 83 174 143 150 223 173 157 86 124 169 110 170 184 141 128 206 148 90 74 161 92 145 98 200 186 114 114 103 187 188 84 116 134 115 133 71 144 112 155 130 92 193 193 131 74 173 132 66 61 65 146 138 80 106 77 143 203 176 158 178 143 61 135 172 79 193 125 110 180 152 91 159 117 143 100 148 107 62 156 104 97 107 95 114 73 120 135 97 111 154 175 178 211 122 93 186 169 168 174 78 110 120 133 172 80 67 69 87 124 65 73 78 120 101 100 152 187 134 197 201 109
144 132 116 105 104 124 143 151 153 153 155 179 180 177 165 175 168 194 201 187 194 192 193 182 199 210 217 221 213 216 213 204 191 189 190 198 203 207 196 185 181 173 167 147 152 174 173 159 166 160 144 104 144 165 168 160 113 95 98 157 169 185 156 165 164 124 156 163 96 153 137 125 114 82 81 135 67 132 123 92 95 141 84 102 51 123 78 73 111 53 86 111 126 118 103 93 91 77 72 72 57 56 60 83 97 139 103 125 143 170 148 134 171 134 133 147 167 117 189 96 98 160 117 109 196 73 148 55 68 151 120 53 163 132 209 228 139 103 95 101 170 114 164 170 66 68 62 54 119 49 132 102 120 123 120 58 62 179 171 84 170 78 158 171 181 193 171 187 89 185 105 183 193 194 112 180 171 117 81 109 73 73 90 97 81 97 195 133 156 178 186 183 142 120 114 116 103 112 102 102 101 95 178 133 184 134 187 143 167 96 157 204 145 82 74 81 72 89 116 189 166 124 72 120 163 194 185 199 210 121 174 112 173 81 75 77 174 163 92 175 79 152 138 175 92 179 214 150 126 94 64 130 67 150 136 102 208 212 109 88 180 65 159 148 99 75 83 161 94 164 114 92 77 59 71 74 115 148 94 94 37 72 60 88 150 88 109 89 87 86 97 105 173 173 107 125 130 214 121 178 161 85 80 93 93 193 114 84 148 70 144 64 92 104 113 101 141 139 164 81 59 71 80 78 151 117 160 152 124 177 92 138 205 179 94 74 137 165 159 119 36 30 58 39 144 46 56 38 54 43 255 133 183 140 169 115 107 160 180 82 129 170 130 93 79 144 152 93 176 80 142 71 82 172 141 98 117 142 55 131 131 140 189 205 192 146 146 146 149 47 132 80 124 105 119 172 185 98 124 82 180 190 123 97 161 103 123 123 122 144 84 124 133 125 97 162 95 110 191 200 200 177 71 153 61 137 95 98 134 139 145 191 129 203 97 77 146 57 63 131 74 50 153 167 109 86 200 130 203 128 160 148 78 48 98 114 181 169 180 170 172 176 181 167 192 113 92 69 142 77 156 77 85 163 178 157 114 112 156 66 111 82 164 112 111 101 148 160 99 146 85 110 197 229 126 124 108 187 176 116 177 153 164 100 115 165 104 182 111 93 191 99
131 117 103 99 111 133 149 153 147 149 161 165 173 179 158 163 161 172 182 179 190 178 185 182 181 201 220 221 213 215 203 200 188 181 255 186 187 195 189 179 176 164 165 167 162 156 183 179 152 154 123 115 156 125 166 163 112 118 129 106 170 138 140 152 159 162 134 118 143 165 94 74 137 50 64 134 144 122 76 79 83 143 79 82 71 73 138 80 111 131 110 121 136 121 144 109 128 97 125 73 120 112 69 97 103 133 143 134 163 164 197 173 176 158 133 119 119 90 86 89 135 183 152 162 113 65 49 98 29 119 33 144 168 98 123 190 128 118 127 186 180 68 170 68 99 76 168 86 57 136 72 22 89 111 154 164 169 149 99 77 136 169 97 199 175 153 157 152 125 177 130 128 183 179 189 94 163 162 109 153 161 93 85 154 102 154 101 185 101 94 185 119 109 132 63 146 73 90 96 193 115 130 84 99 77 106 184 184 169 111 202 159 131 171 64 129 174 148 180 181 74 141 87 173 189 162 217 188 124 196 185 108 171 164 76 167 162 105 169 134 77 143 160 141 181 132 120 212 216 95 85 96 173 165 126 129 121 196 142 187 182 91 124 117 153 140 110 106 148 95 131 102 144 157 166 118 112 182 94 116 92 151 150 183 95 145 191 123 177 149 97 202 167 201 191 220 198 127 213 152 116 178 120 112 116 121 166 157 116 159 89 48 53 90 40 123 76 100 157 53 56 89 64 84 94 194 164 91 169 80 116 158 95 89 181 94 169 123 154 35 104 105 128 152 77 126 94 47 106 142 126 65 163 150 99 132 151 151 188 87 167 157 104 171 191 109 162 191 183 129 101 169 97 132 116 111 102 71 88 47 95 52 173 128 168 184 108 102 127 132 98 56 136 182 196 200 195 107 130 88 167 137 193 160 147 199 96 142 82 106 76 81 186 83 176 130 99 119 204 202 206 92 113 167 79 73 165 93 71 114 91 200 193 191 168 138 147 58 80 136 126 54 135 129 176 111 189 170 218 167 71 147 92 113 71 87 79 105 122 69 102 83 153 255 107 97 147 176 56 80 103 171 174 134 149 163 102 148 135 62 164 153 167 125 209 105 175 88 76 100 78 95 153 147 172 183 113 114 198 188 146 84 173 135 91 90 111 158 122 139 167 98
119 107 99 98 119 139 156 164 155 158 163 180 184 178 173 178 167 173 163 177 180 172 175 162 163 180 201 224 219 209 202 187 182 172 173 171 181 180 180 180 183 173 163 166 173 182 184 191 190 196 140 174 178 183 148 135 119 107 115 127 108 132 165 100 74 136 109 122 102 165 124 76 146 61 89 117 81 155 76 111 81 123 89 90 111 84 85 112 81 83 125 120 194 124 140 99 95 110 79 85 80 100 255 116 84 148 123 151 135 141 164 182 183 117 117 172 99 73 151 77 72 169 117 92 147 65 134 37 30 76 25 146 172 167 129 120 220 198 182 153 111 125 160 95 179 125 161 76 156 106 124 27 124 114 165 96 132 77 84 155 122 170 187 205 196 148 180 168 180 121 157 84 161 107 122 98 80 82 88 122 157 118 155 158 167 139 80 165 156 179 118 139 149 52 65 73 84 98 154 103 115 163 71 120 135 62 165 125 152 160 198 210 194 112 67 128 74 155 142 130 69 177 125 112 204 211 215 203 149 172 175 154 134 155 106 164 76 156 81 156 100 139 77 104 98 209 224 221 211 200 107 82 179 115 149 103 142 201 170 163 148 99 112 134 115 130 100 178 117 155 116 84 120 84 127 173 135 139 117 146 114 64 72 86 158 131 118 92 86 93 132 152 146 109 120 136 156 217 154 98 90 177 101 187 214 205 82 168 72 47 90 86 53 148 148 63 84 112 169 109 149 80 159 180 190 198 93 78 132 163 91 167 91 167 83 64 156 67 72 84 74 136 54 162 127 153 82 169 165 171 101 71 170 102 95 109 159 158 141 140 78 136 169 182 150 136 175 160 82 177 106 198 169 184 152 140 202 122 75 133 49 32 89 151 154 89 136 118 103 69 172 60 140 163 71 171 104 119 188 193 142 196 93 104 141 182 139 71 93 156 124 84 82 180 100 129 193 114 207 207 183 164 154 80 154 124 81 111 109 255 174 113 202 133 255 82 161 54 74 141 94 67 131 170 180 166 114 150 115 133 84 88 124 24 33 122 143 169 140 144 72 123 122 255 145 209 91 86 90 142 144 163 94 117 136 155 150 147 42 54 132 73 188 167 111 152 155 86 182 108 85 191 118 169 155 238 204 231 145 104 84 137 169 69 112 112 91 100 132 192 197 144
118 110 105 110 128 143 158 166 163 162 171 176 182 174 179 180 177 162 160 167 177 173 165 162 165 177 202 206 207 190 186 180 178 168 163 163 173 179 179 169 190 194 183 175 190 167 181 207 204 204 191 195 187 168 156 177 172 134 177 141 165 136 82 71 122 121 77 140 119 112 162 137 88 104 125 82 123 84 78 81 117 166 98 122 103 141 68 113 73 91 255 139 133 138 104 78 93 81 76 77 140 96 98 103 84 98 112 146 155 153 121 108 107 117 148 139 63 135 69 53 64 133 81 87 146 136 114 137 106 127 49 145 103 125 168 200 173 95 178 165 54 69 108 67 79 162 106 124 159 146 147 123 79 155 178 175 129 87 119 167 129 110 180 201 206 225 208 116 125 76 71 99 78 66 154 174 72 162 146 86 129 82 87 170 154 78 112 186 152 173 103 114 177 83 68 65 171 148 166 180 189 103 166 65 73 93 117 83 132 194 135 209 96 162 84 124 30 84 42 140 135 154 98 85 166 91 190 192 181 182 77 87 178 77 175 169 92 138 70 154 179 179 110 100 91 192 194 121 203 179 130 193 111 175 168 171 98 151 122 88 96 197 97 143 125 153 115 115 138 147 167 81 71 169 173 181 127 93 76 56 57 96 77 155 166 102 157 105 155 137 106 168 193 91 142 203 147 135 120 149 180 185 150 111 115 97 95 125 62 36 76 44 142 66 151 149 84 169 98 97 134 168 147 85 135 118 80 169 68 255 158 75 169 80 106 58 61 85 126 153 75 52 87 83 125 113 89 84 122 198 93 137 151 166 143 193 183 93 171 96 79 84 125 189 195 155 139 115 81 181 192 189 194 228 142 228 126 154 174 39 122 116 31 129 132 113 109 142 179 172 91 74 65 138 67 166 94 105 101 142 190 84 90 144 181 133 154 136 98 157 72 154 179 139 106 186 108 170 139 203 95 107 195 145 195 187 120 158 179 140 137 140 172 101 165 91 91 170 161 71 43 73 60 172 119 138 105 177 80 77 68 125 48 31 44 108 161 124 78 63 179 195 176 118 116 114 101 164 145 107 151 166 167 87 74 66 112 133 91 102 104 180 187 107 122 94 108 140 81 154 134 105 145 130 121 162 145 130 147 201 157 92 65 111 101 154 88 178 84 96 204 128
126 122 125 131 146 153 155 163 164 176 181 180 172 180 178 174 169 166 178 173 163 157 161 155 164 179 189 184 192 172 178 161 164 155 150 161 175 182 190 190 196 193 175 187 199 203 190 205 204 197 192 163 136 170 163 117 160 120 161 173 175 139 114 79 120 138 121 153 176 91 70 61 89 136 132 132 90 122 147 61 103 86 130 105 93 127 125 51 100 92 104 127 130 118 104 89 79 74 85 80 119 117 96 113 89 103 134 112 157 127 150 115 86 95 132 134 106 96 63 49 49 150 68 127 100 179 137 163 161 139 131 160 129 174 167 180 178 110 60 84 126 62 163 74 182 176 188 157 76 170 167 92 111 83 180 156 169 129 138 149 71 150 160 193 206 174 148 145 118 168 64 133 70 131 77 76 116 156 137 165 126 137 76 149 93 139 121 171 111 172 170 201 123 177 72 151 179 124 117 104 137 102 169 101 92 185 186 86 141 95 107 194 161 173 154 47 86 67 47 45 59 132 168 128 93 180 175 119 175 115 178 168 151 123 130 172 167 145 167 177 136 124 82 131 108 193 96 200 195 161 203 162 172 151 61 104 78 75 87 162 189 160 181 186 124 120 181 186 83 169 78 68 119 116 167 171 132 174 151 91 62 167 97 148 104 196 140 204 99 147 194 165 100 93 183 180 120 128 186 127 207 184 204 164 128 77 138 51 148 48 44 119 130 112 131 101 185 107 188 189 146 91 93 115 162 72 139 75 95 166 137 162 108 68 138 117 40 142 150 109 161 169 163 183 170 150 184 197 124 101 188 96 170 123 199 152 104 159 105 185 192 117 193 199 200 112 155 109 120 118 203 173 187 186 192 174 192 211 106 69 125 91 70 122 82 159 174 181 188 127 188 186 141 67 67 178 184 94 136 134 78 133 101 77 75 157 145 116 48 52 112 76 75 86 153 113 200 143 157 150 89 137 177 185 121 208 178 157 173 181 121 188 189 174 164 150 114 177 147 99 77 84 72 183 160 75 97 83 150 117 79 61 23 86 89 162 132 121 164 142 116 87 138 101 196 153 184 99 192 82 154 124 151 117 100 58 46 122 108 124 72 166 97 121 126 178 194 196 88 145 97 84 133 163 148 109 220 156 111 182 160 149 59 96 65 122 87 92 86 187 202 149
133 133 138 143 151 144 149 146 157 171 180 179 176 170 172 179 166 189 178 183 172 167 162 159 164 172 182 188 184 173 168 156 160 156 158 166 185 193 199 181 201 186 206 197 202 185 185 169 194 197 192 166 128 103 145 144 167 123 140 157 184 187 175 137 93 140 162 98 112 85 144 126 73 77 135 131 143 132 153 59 138 102 175 99 85 62 69 46 97 67 95 112 152 117 104 101 106 118 79 112 111 111 107 105 138 135 103 98 146 111 82 89 110 71 95 87 86 79 70 130 61 65 75 91 95 133 90 178 161 79 172 190 188 135 178 85 171 146 109 147 58 142 89 185 174 86 87 95 181 187 96 144 161 74 182 142 163 77 127 112 128 88 51 144 200 205 231 191 195 165 144 47 144 75 162 133 170 170 74 102 74 160 145 60 150 165 179 120 187 170 210 153 150 100 97 181 86 77 151 144 171 81 83 112 179 154 110 131 114 136 95 114 191 89 163 48 68 31 54 89 61 72 171 176 135 161 57 158 163 98 122 83 108 202 184 185 74 100 102 208 164 192 167 79 124 84 86 166 130 121 195 128 164 99 51 68 65 105 171 157 177 171 94 161 171 87 177 121 106 195 138 113 156 151 82 174 131 77 105 95 112 167 158 179 117 93 111 103 172 92 190 148 154 117 73 110 143 112 157 189 107 158 189 183 98 169 67 84 89 48 130 69 157 81 184 192 115 110 190 175 89 98 79 63 131 133 111 79 178 81 153 177 156 111 139 156 133 83 153 166 108 170 175 176 137 168 192 196 122 150 163 115 215 123 180 176 160 198 106 207 199 186 193 142 101 166 78 115 176 156 131 208 157 205 118 210 218 133 175 107 101 129 127 154 167 121 104 169 191 190 170 109 166 102 106 177 83 93 93 167 122 162 176 135 155 142 75 170 147 58 77 154 153 64 163 163 179 202 97 186 156 104 191 194 204 105 110 150 89 122 86 177 192 81 170 114 84 115 163 135 152 83 172 137 110 154 154 146 133 77 147 134 121 113 144 82 176 161 161 177 103 165 95 83 125 76 114 204 193 173 147 159 106 138 66 96 91 39 121 129 67 101 198 150 86 87 148 93 85 76 78 52 121 75 161 163 111 147 118 113 126 121 118 151 164 156 181 89 182 84 158 100
136 140 146 148 149 139 136 134 147 153 172 186 181 171 166 170 178 177 187 191 171 168 156 158 168 175 184 184 185 173 167 155 158 158 174 192 208 208 207 205 200 196 191 189 168 167 177 177 171 144 177 155 125 103 104 105 170 136 183 194 189 127 98 159 152 101 177 107 150 150 128 89 75 91 92 143 91 87 140 79 89 82 95 169 92 126 60 52 61 62 69 129 117 104 150 116 136 109 91 146 132 101 145 115 100 126 74 72 108 124 113 69 77 72 86 120 90 92 131 167 83 76 91 100 114 89 190 130 88 141 80 182 107 101 171 180 165 173 76 168 178 163 88 88 193 153 105 112 168 188 181 184 77 88 149 174 130 173 70 50 103 61 140 81 177 146 198 133 188 127 77 110 52 84 70 83 158 177 96 164 166 92 84 92 131 118 164 186 206 107 113 185 109 200 141 97 154 83 178 161 161 103 115 106 144 217 133 197 194 170 99 125 187 151 128 108 61 102 37 141 89 180 187 91 70 167 140 62 71 67 74 97 170 189 92 100 77 99 116 181 145 86 164 166 145 179 75 151 103 156 178 123 151 128 37 131 80 134 187 175 177 72 166 123 133 138 68 173 174 161 105 155 63 118 138 170 162 81 78 93 98 162 82 127 157 87 177 157 181 104 157 161 163 84 54 71 87 124 195 169 191 95 168 92 102 86 82 135 68 100 45 118 52 106 107 131 176 157 113 151 102 153 58 54 91 93 79 144 146 125 181 175 77 148 72 156 148 52 159 115 173 103 116 87 187 162 172 189 115 204 163 130 228 153 111 200 198 129 170 195 201 160 213 107 129 185 163 130 167 122 172 184 168 177 93 137 149 218 149 131 57 118 150 171 163 114 151 110 172 169 194 160 186 165 90 182 122 78 162 131 170 88 150 173 166 146 189 84 158 57 45 91 55 153 89 100 111 108 125 200 197 175 195 181 96 128 115 186 96 160 190 188 178 163 128 150 141 65 93 126 87 96 142 135 207 116 160 154 124 146 42 82 137 125 166 113 143 197 147 136 116 170 117 123 103 174 88 155 196 166 168 112 64 70 142 145 45 123 37 143 157 110 138 127 144 191 108 185 156 64 81 122 77 109 83 82 99 123 102 97 81 137 76 59 144 66 148 84 131 98 141 142
123 129 136 142 139 133 126 123 132 145 166 175 178 172 168 157 166 182 174 185 168 175 166 172 164 169 178 187 182 170 165 164 166 171 191 209 224 227 222 210 185 177 181 160 146 161 147 163 163 168 148 170 134 126 151 151 171 152 176 168 138 132 107 148 124 151 91 103 116 159 74 72 99 114 163 86 163 156 56 47 104 107 79 134 74 68 74 99 118 78 82 63 75 94 125 164 127 129 255 90 89 96 89 92 106 69 104 105 103 126 100 111 73 122 108 111 125 118 90 138 90 100 90 94 176 171 90 75 123 161 177 116 79 186 189 102 95 122 128 113 94 110 99 180 93 198 190 190 104 199 114 192 164 139 156 176 174 167 152 58 104 54 105 135 169 184 194 142 99 146 66 109 64 114 89 122 184 158 114 174 79 74 128 52 18 76 130 77 86 131 168 198 102 169 199 146 81 160 114 168 152 90 92 127 125 165 132 199 118 121 86 184 188 77 124 59 152 88 80 56 122 116 120 181 83 138 112 118 158 137 175 181 89 199 195 84 160 120 85 193 103 93 101 55 145 157 173 77 96 69 160 102 84 105 126 161 169 152 195 145 94 90 179 94 122 121 109 80 181 177 106 94 156 60 89 90 92 193 159 177 87 130 64 115 37 76 59 112 133 122 97 124 71 255 57 64 135 89 95 92 125 192 84 127 100 71 183 106 114 67 45 36 42 52 123 183 111 157 113 96 59 145 142 51 131 158 139 123 115 197 159 101 143 170 71 79 89 63 71 185 185 102 129 127 97 183 200 111 175 221 228 224 190 188 124 190 212 136 204 205 203 209 191 155 143 155 154 172 83 89 101 197 179 197 106 124 186 200 122 109 154 71 137 181 188 195 125 165 211 177 162 139 179 178 84 193 162 83 99 73 187 166 127 146 125 189 204 118 123 114 68 95 130 77 133 187 120 112 180 203 106 175 103 190 114 191 200 210 100 91 139 119 183 112 153 185 183 62 96 101 44 144 188 106 179 193 185 109 64 82 141 71 63 71 177 138 176 153 193 190 162 179 77 72 94 162 128 144 122 193 100 136 121 52 89 96 68 104 132 33 120 179 95 120 195 109 180 152 69 44 141 57 48 157 110 90 200 176 177 181 108 187 176 139 140 61 137 70 82 167 168 83
108 118 131 136 135 126 128 129 140 140 161 169 174 175 174 164 172 175 171 161 171 173 172 179 173 173 179 186 190 180 170 166 171 181 197 214 227 228 220 200 177 180 174 140 130 148 129 144 162 129 141 167 159 150 117 143 138 178 123 164 114 157 102 93 132 118 128 114 175 147 156 169 156 184 169 144 89 142 127 124 95 136 66 105 130 143 88 90 75 70 70 46 83 89 142 124 140 119 137 94 84 90 76 78 97 99 114 107 111 94 126 99 110 96 102 146 113 98 144 169 109 92 88 127 171 59 97 60 71 91 74 72 75 87 193 199 205 151 103 119 111 203 206 197 109 202 209 105 118 187 95 170 102 167 87 144 124 182 152 66 139 60 59 153 140 144 87 118 110 126 116 97 84 155 128 117 179 116 84 154 79 33 80 16 51 59 130 57 75 130 112 123 101 164 92 174 120 155 165 156 53 108 81 124 201 210 145 112 136 76 69 68 81 99 140 148 160 79 98 146 176 81 141 131 73 129 145 86 107 100 180 86 147 163 192 88 172 144 162 74 175 150 63 155 154 161 172 158 146 89 152 50 52 139 43 139 87 193 213 106 151 89 181 201 206 129 185 116 119 116 134 79 141 78 76 144 103 199 110 169 88 91 88 105 26 73 116 163 132 111 109 156 77 106 150 127 132 144 147 94 123 192 107 167 64 161 172 130 102 60 48 70 48 55 77 144 159 163 104 84 54 129 38 120 128 55 174 201 140 159 110 103 94 86 147 108 104 78 188 90 163 78 96 153 184 185 194 179 203 214 125 230 145 132 131 218 108 192 114 79 80 164 166 164 162 125 129 155 91 93 137 125 129 186 187 180 175 191 82 110 163 159 166 171 130 204 146 109 198 134 94 160 131 142 175 82 91 106 75 67 75 84 149 165 85 187 101 173 74 56 54 119 136 174 94 126 195 141 208 216 109 188 122 122 115 133 209 201 177 151 105 184 104 187 100 178 192 170 149 112 96 163 170 122 167 200 103 147 112 77 160 113 140 193 91 158 128 84 146 202 182 181 163 161 157 120 171 142 165 208 123 157 151 133 86 130 35 112 75 133 153 88 187 198 106 205 89 112 147 61 44 88 38 66 137 99 124 116 175 173 119 196 181 87 132 79 94 67 73 164 161 108
90 105 124 132 133 135 134 140 150 145 151 151 166 169 179 166 174 170 157 159 167 170 166 165 160 175 179 191 187 184 177 169 168 180 194 211 220 211 210 185 174 165 166 155 146 144 124 140 132 166 164 134 157 154 101 93 146 163 121 106 164 153 122 138 96 117 132 96 180 93 143 136 129 166 162 86 116 92 132 46 89 72 99 107 110 73 89 97 89 137 88 60 55 81 171 158 123 101 88 94 85 100 77 82 109 60 60 135 93 108 100 113 176 124 120 89 103 100 82 148 177 177 89 71 59 56 104 152 118 158 79 184 81 109 188 122 99 203 211 118 117 151 171 117 80 186 198 196 79 84 190 193 201 164 118 124 119 144 94 144 81 92 123 157 169 148 132 137 127 71 63 162 186 198 153 94 80 113 155 112 139 63 92 139 142 40 54 141 161 152 149 66 168 116 94 76 166 49 116 43 110 110 144 181 107 167 136 132 156 132 68 149 84 72 170 81 67 81 116 158 116 159 125 168 110 109 117 181 188 93 93 191 190 126 138 157 148 60 156 148 139 134 125 136 74 155 126 166 161 132 141 55 133 55 128 88 255 145 208 201 107 156 201 152 211 208 174 199 96 116 197 89 131 168 103 177 88 127 185 91 133 95 126 89 103 36 57 150 86 202 172 97 179 66 168 133 169 158 95 105 101 92 128 77 152 87 95 147 200 84 71 68 167 139 90 89 109 148 200 122 81 123 27 26 65 131 173 125 110 212 122 194 108 96 155 87 187 197 140 98 174 75 144 169 127 107 170 97 183 98 178 184 205 202 205 111 193 95 79 88 118 172 169 161 96 58 120 71 157 96 86 179 81 114 142 140 134 176 147 84 144 159 110 181 91 194 197 164 95 92 178 150 80 163 123 119 167 153 90 114 107 188 100 110 177 176 93 90 129 58 155 53 61 80 184 184 125 195 121 214 124 148 117 189 113 220 145 225 193 137 101 118 205 197 212 107 171 179 70 91 159 75 83 173 100 196 170 98 184 135 83 100 113 204 199 187 173 154 104 147 160 186 88 175 152 119 69 151 174 164 135 89 82 141 46 86 87 36 67 126 143 168 179 189 105 117 124 129 70 28 104 25 47 63 80 90 103 102 145 168 116 205 92 82 175 126 105 79 174 104 116 110
91 109 128 140 144 136 145 144 154 157 157 149 159 169 167 182 170 144 134 150 147 164 155 152 145 171 255 195 192 178 171 158 157 175 193 205 213 204 194 184 173 164 135 150 151 148 142 123 154 162 124 167 165 147 142 149 140 166 113 157 100 119 141 147 135 143 171 168 95 100 176 162 176 177 78 75 110 80 74 69 81 125 124 107 83 72 97 109 107 102 136 54 83 79 107 125 105 148 104 91 80 109 114 70 79 104 109 146 118 111 163 157 102 161 103 97 84 89 149 116 96 81 73 111 56 51 49 139 118 135 95 180 88 174 82 182 97 196 200 158 213 198 189 73 100 153 187 85 72 182 154 119 103 186 184 169 96 87 187 179 106 106 160 171 173 80 131 50 86 92 124 162 178 205 114 97 179 167 165 142 129 51 57 60 157 77 53 57 87 50 116 160 175 108 68 152 83 115 137 57 144 177 161 87 158 194 158 161 196 74 68 104 140 136 162 73 76 160 157 68 103 153 129 167 171 82 196 179 202 191 92 99 101 85 192 168 142 60 65 92 150 86 77 157 88 159 164 155 71 95 159 62 100 100 167 79 167 206 182 207 201 163 173 115 220 118 123 213 206 123 176 93 174 179 83 100 115 82 85 147 197 159 113 140 30 117 45 89 84 160 88 93 84 174 147 81 114 103 78 90 114 202 200 194 86 132 108 106 107 96 111 107 128 134 89 182 178 107 201 130 117 72 48 33 21 133 90 136 164 206 174 147 104 184 196 100 107 148 116 98 92 179 161 131 131 160 69 50 156 167 120 124 192 136 189 104 130 161 79 163 74 165 144 170 118 71 93 76 177 194 153 80 109 167 124 187 183 153 141 159 163 118 163 116 180 139 184 187 113 166 83 122 181 179 183 174 179 145 86 133 119 131 144 68 160 62 169 114 125 76 147 100 156 183 195 98 207 101 170 87 90 81 83 194 200 214 213 204 104 160 168 97 148 176 123 190 188 177 83 162 121 174 89 255 159 146 98 107 193 158 119 132 215 191 219 102 195 116 178 194 172 169 100 112 103 145 46 83 129 203 204 255 101 126 57 115 96 153 84 71 133 78 140 91 197 206 111 145 63 114 45 82 111 75 174 147 145 168 174 202 170 136 195 104 175 89 176 106 116 148 92 138
105 122 138 147 144 137 137 149 163 157 167 158 161 166 173 171 161 145 151 146 145 145 139 138 148 165 189 199 186 171 159 154 162 173 187 190 199 195 192 182 171 161 151 145 147 144 134 157 160 126 126 140 167 163 154 137 124 125 119 161 159 172 119 166 122 174 163 179 105 160 148 118 146 163 153 108 70 86 75 133 106 54 84 63 75 111 88 123 113 122 140 63 75 90 97 149 115 102 93 137 78 97 79 114 79 63 128 81 139 115 114 142 106 124 84 110 78 115 78 175 177 75 88 124 162 167 95 64 144 149 154 81 77 126 89 166 178 80 77 155 199 181 183 68 62 172 131 174 99 182 255 191 152 84 78 175 139 170 106 142 98 92 166 124 152 141 97 162 147 54 133 172 181 146 94 128 172 78 174 139 88 112 162 74 109 163 129 157 168 107 141 104 88 158 123 32 33 104 132 117 176 188 188 179 124 162 128 210 172 119 58 148 50 68 78 175 161 144 126 168 190 107 173 98 186 133 196 198 115 181 179 113 170 162 182 147 183 77 84 159 130 114 141 179 109 153 148 113 183 101 86 167 109 83 93 108 98 197 190 195 107 198 196 201 176 204 182 221 152 141 164 193 101 81 95 137 88 104 82 109 109 99 136 130 133 49 115 123 102 157 95 183 161 73 59 158 165 88 147 155 126 209 170 177 133 95 109 255 130 205 124 139 111 134 205 105 152 205 179 197 102 123 171 73 107 65 138 57 157 88 102 110 209 114 99 109 158 96 157 179 175 122 147 166 163 55 52 33 129 81 77 94 85 75 81 154 165 137 147 110 130 170 186 186 85 113 170 153 182 89 128 75 82 111 73 192 110 189 178 135 97 185 187 96 126 94 180 163 83 102 152 81 185 168 169 113 156 72 62 166 179 178 68 143 39 104 50 151 101 77 56 161 79 184 149 183 87 105 126 141 133 170 120 185 178 159 192 200 92 156 104 195 195 200 197 186 159 100 180 177 144 122 58 124 152 108 124 162 183 142 196 205 123 170 222 161 137 188 82 80 111 88 100 67 47 77 132 151 174 192 195 193 99 157 172 71 58 157 159 148 86 152 176 149 172 173 172 161 124 53 104 36 68 129 166 92 133 176 165 121 205 128 100 130 166 100 70 155 132 141 191 200
130 139 147 142 128 127 124 147 155 171 183 170 180 163 165 165 158 161 162 161 138 140 138 138 147 170 184 181 182 167 157 156 163 173 181 189 191 190 185 179 173 160 130 143 150 166 160 146 145 165 169 154 171 157 168 113 167 164 164 116 131 144 131 136 182 136 157 142 185 137 163 181 181 124 135 78 128 140 76 152 133 59 66 119 72 77 102 126 127 140 146 90 75 84 97 118 146 107 152 113 94 73 81 100 62 84 102 104 122 132 115 115 144 124 133 135 157 151 255 94 86 78 55 125 86 79 84 85 77 69 172 171 119 113 151 74 70 84 153 175 103 187 177 171 124 174 80 171 74 96 82 175 161 90 179 86 116 86 153 124 114 187 137 182 140 182 167 173 117 130 133 103 142 163 105 148 148 178 95 190 89 129 144 152 171 118 128 171 105 167 183 150 113 85 141 25 51 101 153 161 169 172 101 117 184 86 108 83 169 136 67 136 110 91 154 94 93 173 155 148 145 124 126 186 196 107 193 156 178 74 67 161 160 61 164 154 195 144 77 67 58 66 174 183 179 176 100 135 196 193 188 180 185 172 136 181 139 140 85 167 166 160 205 109 128 232 174 167 125 191 187 99 175 106 63 79 128 145 164 170 118 157 107 167 119 150 126 69 54 117 67 76 174 103 154 115 68 81 68 138 189 135 150 168 100 196 86 87 143 97 127 117 163 112 125 183 205 153 105 101 178 110 125 91 49 52 59 104 62 172 94 96 137 147 162 118 109 175 163 181 102 151 69 101 128 130 46 131 103 114 76 89 73 125 79 182 99 151 166 157 176 144 162 195 160 117 173 132 100 131 130 150 111 102 150 172 163 101 155 167 113 150 166 138 182 162 181 196 119 87 140 175 165 200 150 116 188 63 162 76 162 133 161 71 53 95 56 95 94 141 138 83 108 169 170 98 91 126 103 152 143 69 171 173 96 84 178 112 91 161 173 173 117 171 91 96 118 94 153 141 162 171 56 94 73 120 90 99 192 192 158 185 215 155 223 109 148 163 150 70 159 90 112 90 149 120 124 157 130 125 191 167 106 187 87 131 171 163 96 130 105 124 169 163 180 91 120 127 151 102 59 147 84 168 73 173 120 162 91 80 161 90 86 99 169 62 64 73 63 164 153 105
149 147 141 129 115 108 112 131 156 169 191 182 175 165 163 163 177 171 186 184 166 150 140 150 152 165 169 174 164 146 153 163 172 176 177 182 176 188 185 184 178 164 151 138 157 171 162 179 173 136 176 162 187 159 168 178 170 155 109 113 140 102 136 188 198 137 167 133 178 130 153 97 147 117 88 95 118 121 147 67 68 95 130 114 140 82 87 108 134 153 84 84 119 90 97 114 173 138 147 131 78 120 106 77 39 42 50 107 88 160 136 151 136 99 105 63 115 154 66 60 70 60 48 66 160 189 107 203 108 176 89 126 175 86 83 75 95 83 159 162 107 80 182 165 185 122 86 184 176 106 161 159 115 149 96 184 152 118 123 73 85 166 138 188 129 192 192 195 170 181 104 188 183 115 72 100 161 107 107 167 115 160 177 175 102 116 173 172 149 134 188 188 255 65 66 73 93 81 95 91 169 194 184 136 176 64 116 64 63 129 67 167 86 89 199 166 171 181 166 139 190 177 186 202 168 144 181 198 194 80 154 129 46 56 107 90 188 187 86 117 161 111 79 178 178 184 112 129 209 99 191 86 123 100 99 92 176 169 168 102 154 116 100 145 116 213 156 219 210 210 156 152 65 99 140 85 53 163 158 165 145 141 166 73 165 163 114 54 136 66 113 73 102 134 103 123 100 161 102 86 172 163 204 141 200 167 174 77 142 117 139 159 139 89 206 98 143 85 108 98 95 202 96 81 163 53 51 51 54 129 174 87 93 187 191 176 92 133 108 127 80 64 58 60 156 120 140 40 141 76 85 142 148 102 119 137 103 67 163 127 147 184 113 106 187 148 177 94 81 157 121 51 130 95 98 127 100 141 161 95 107 122 96 141 184 144 94 177 125 162 118 159 155 160 107 165 187 160 94 81 188 187 155 32 23 134 52 69 163 96 103 145 77 159 88 169 81 163 151 79 80 85 109 124 175 120 163 156 129 131 154 168 104 136 160 140 162 109 144 174 150 174 87 54 134 133 84 157 179 81 194 175 200 208 105 148 144 153 117 99 123 106 64 93 75 139 133 116 92 109 72 169 102 146 190 134 172 119 118 142 139 175 93 106 131 141 113 75 95 59 141 79 116 98 179 147 71 104 97 115 124 86 136 153 156 89 148 113 46 46 152 165
152 142 123 111 103 100 111 129 153 173 184 191 182 161 158 164 180 185 187 179 172 153 155 149 153 166 150 147 148 145 151 171 184 188 179 174 181 187 189 174 181 172 161 154 161 153 174 162 143 174 155 152 160 205 170 156 145 148 185 151 132 165 145 130 201 165 152 117 167 119 172 144 86 158 138 144 105 93 122 134 82 86 79 81 85 82 107 92 93 108 100 98 95 118 80 91 119 116 117 94 79 65 67 51 47 67 79 62 88 83 97 132 99 116 86 118 118 67 65 64 148 137 99 111 119 118 123 153 109 119 73 138 135 115 92 164 95 69 175 181 88 85 148 91 188 188 109 198 123 177 152 152 132 91 178 185 71 102 76 145 129 181 195 131 178 150 203 121 181 149 192 188 86 134 61 133 158 114 160 131 92 71 127 67 169 177 82 145 171 133 151 140 135 104 139 74 150 133 199 170 128 184 96 163 165 92 147 123 62 67 94 75 86 92 197 171 163 168 78 167 183 202 206 166 101 185 160 96 121 177 150 70 123 87 162 190 96 172 151 175 80 151 180 150 82 97 98 105 188 168 110 157 175 179 105 162 165 124 160 173 86 189 107 121 149 164 141 137 207 170 158 128 129 130 159 171 155 192 172 121 180 216 104 88 105 178 100 93 66 131 116 67 96 60 70 80 57 64 68 113 96 89 89 145 192 99 82 44 48 41 114 62 63 132 132 88 131 112 177 84 166 115 139 98 159 103 75 89 112 84 108 173 140 97 156 143 90 123 92 170 78 66 79 52 163 106 100 78 60 96 68 97 113 197 135 189 96 70 127 70 134 174 88 132 82 183 150 150 106 76 160 152 75 84 110 106 160 179 151 200 96 203 97 181 119 168 102 171 147 180 185 178 81 129 128 153 93 150 161 136 191 88 159 122 42 138 50 79 98 70 114 53 71 160 126 125 154 110 181 154 174 212 191 171 123 65 150 144 109 159 91 163 164 117 109 81 81 121 204 157 189 153 150 139 119 139 87 133 159 167 189 99 110 93 121 97 154 158 91 69 77 163 96 72 131 62 146 67 146 152 152 124 128 81 89 162 152 177 191 198 178 117 100 93 162 84 172 117 114 161 137 113 92 170 173 135 127 152 189 166 140 130 150 142 123 59 67 63 57 101 118 144
144 130 113 105 105 113 124 131 153 162 183 183 179 154 151 157 179 193 198 185 174 157 142 156 161 155 146 140 137 147 159 180 196 197 184 177 174 187 190 188 170 179 171 165 161 166 133 136 157 178 143 191 173 144 150 164 173 155 199 194 151 142 154 129 120 160 127 138 176 120 82 151 75 125 154 152 145 79 73 59 143 84 91 120 107 86 128 101 100 92 90 79 68 80 125 86 118 168 114 153 79 75 61 91 79 95 62 76 72 94 89 81 78 70 52 98 51 77 75 77 150 58 85 118 98 202 136 240 197 98 70 94 150 186 104 200 141 94 116 199 147 174 94 205 168 217 209 190 134 176 165 93 173 178 190 180 179 66 124 178 141 204 189 185 96 191 133 131 187 172 165 182 110 88 162 109 151 96 160 77 162 154 59 65 169 124 179 178 104 100 164 170 117 165 146 53 92 111 151 151 183 95 91 169 150 122 61 165 123 107 171 164 105 100 94 94 170 186 112 84 137 81 190 115 123 185 165 143 158 158 61 128 49 66 94 182 170 141 197 118 193 200 147 96 182 180 176 143 174 148 104 178 102 176 176 83 75 57 154 72 128 124 174 154 130 156 160 118 186 113 146 164 113 103 159 152 101 106 151 193 209 138 130 184 121 179 187 148 86 81 100 162 125 70 51 52 79 63 98 73 87 85 93 85 98 111 85 44 114 97 11 36 36 161 179 85 165 141 168 105 205 189 148 166 115 183 105 79 68 152 67 163 62 81 63 167 184 96 94 127 180 71 63 157 146 165 157 57 102 135 76 75 188 94 203 171 189 166 60 141 97 94 106 128 140 167 184 96 164 133 72 70 74 95 116 255 126 180 187 190 158 111 189 166 104 131 172 159 177 192 178 171 156 126 198 98 182 135 140 184 189 193 140 121 65 125 61 118 115 84 63 143 57 141 114 139 158 170 173 133 218 177 140 180 145 56 40 63 78 98 163 63 65 178 162 145 99 200 116 136 175 81 105 78 32 48 148 104 76 94 173 164 69 101 180 149 86 142 180 182 104 152 164 108 56 43 59 41 47 121 126 110 83 143 109 194 181 174 120 120 103 189 132 135 159 110 79 84 87 134 103 124 87 96 154 144 105 116 214 215 181 141 87 126 144 116 175 142 56 112 89 102
134 123 113 111 122 131 141 149 156 161 185 182 175 158 141 151 175 179 187 179 171 154 147 152 153 155 162 163 152 158 171 191 198 196 179 168 166 184 192 186 189 184 178 171 168 159 153 122 135 165 188 147 163 121 111 174 139 172 210 181 198 160 162 141 105 112 115 107 156 155 144 141 61 115 79 146 121 68 128 119 128 62 134 77 80 129 88 97 137 108 107 72 116 53 83 91 90 141 131 113 90 96 61 107 60 84 70 91 65 122 98 77 133 255 51 56 145 77 136 116 95 82 106 81 96 131 151 144 118 190 119 82 171 84 89 201 132 106 205 211 189 102 103 211 156 210 95 183 175 135 164 100 181 172 136 89 78 103 184 105 147 169 200 118 189 113 173 197 170 152 131 173 73 87 163 128 139 108 99 125 69 61 117 56 94 173 97 130 163 167 68 128 134 142 60 164 78 167 199 155 194 130 114 151 65 67 68 99 104 161 192 144 159 99 201 169 138 198 102 146 171 165 117 185 147 191 152 98 119 165 152 114 163 168 177 172 159 166 194 167 151 123 132 188 119 109 187 98 187 150 187 178 144 75 89 141 172 158 102 149 67 72 139 157 95 163 170 191 131 167 100 77 157 71 163 165 149 128 175 196 142 127 157 124 126 145 86 112 140 147 166 193 195 159 162 62 131 148 119 150 169 104 163 94 155 100 155 146 56 82 43 57 44 70 164 170 76 84 135 91 96 106 108 159 163 113 93 164 95 87 115 146 56 119 144 80 103 144 177 190 191 128 154 122 169 76 175 78 130 135 138 141 91 87 126 194 168 130 45 37 91 145 117 159 170 105 196 92 194 188 106 153 155 109 100 129 87 157 96 183 88 190 125 134 145 125 131 185 145 103 122 74 106 158 170 189 90 82 73 83 128 97 129 90 87 136 69 107 190 129 113 63 115 170 81 91 80 157 179 200 137 185 192 89 171 128 92 149 170 130 123 82 68 172 95 129 90 111 203 188 204 191 86 151 82 95 74 101 78 162 59 159 158 65 70 176 96 186 171 192 146 152 189 125 64 150 94 107 64 121 37 49 59 76 188 171 185 169 73 114 146 169 201 115 96 154 127 155 255 141 167 72 155 70 88 134 190 130 169 140 149 133 136 117 52 88 142 170 113 44 50 69
138 135 130 134 140 150 159 159 170 163 178 178 170 162 152 161 173 187 190 180 168 148 148 154 142 150 164 169 163 179 187 196 190 186 165 154 159 171 190 184 192 177 161 173 141 137 128 161 165 165 174 174 133 108 111 116 167 194 219 193 211 140 171 90 139 79 152 171 139 134 140 123 130 54 50 54 115 61 69 113 54 54 65 109 132 73 84 127 103 147 157 74 72 49 53 122 83 136 115 98 114 95 73 69 117 90 107 75 102 56 49 79 120 54 57 73 71 148 142 173 107 104 105 94 161 218 150 189 104 120 148 176 86 104 151 123 94 210 130 153 205 197 97 199 184 196 79 71 165 144 102 170 171 175 173 185 108 189 184 207 172 183 140 121 158 104 173 178 178 173 184 106 128 172 255 190 98 169 103 143 128 173 134 150 60 78 82 169 132 124 130 132 102 126 105 62 74 179 93 86 96 133 158 139 142 155 84 86 82 180 146 185 116 166 163 205 115 110 178 200 187 185 170 194 110 188 159 148 118 155 148 113 94 135 91 99 75 109 156 143 112 196 97 173 69 132 77 109 139 164 170 100 173 154 113 125 189 87 141 95 116 157 140 115 163 110 177 144 191 106 123 150 153 71 150 88 159 149 160 93 169 74 189 95 122 124 135 192 165 196 213 141 134 115 91 52 100 144 92 109 89 86 79 90 194 110 186 62 111 84 93 52 43 57 155 87 57 66 59 61 76 89 182 187 181 97 192 164 109 144 75 100 52 69 144 173 184 119 191 98 199 155 176 88 169 124 136 138 99 134 106 150 67 119 98 79 123 162 151 129 55 124 138 80 79 116 125 206 102 105 134 193 142 90 146 179 164 130 165 142 91 191 124 155 149 82 173 158 177 148 154 148 179 96 114 143 72 137 74 103 169 106 93 176 113 130 127 93 172 147 68 92 144 169 86 95 179 78 184 161 171 180 164 151 93 56 148 109 177 169 71 154 139 159 95 91 174 186 98 146 204 109 133 175 60 64 107 67 137 138 73 120 110 74 106 99 147 138 126 109 159 217 212 181 112 137 69 143 141 94 33 143 132 81 188 178 140 132 63 69 85 148 176 175 94 141 64 182 76 161 163 56 107 111 128 116 115 150 195 147 116 150 121 55 70 163 143 99 114 67 137 37
148 152 153 152 156 160 163 158 158 165 182 184 182 155 150 157 182 200 205 175 174 162 166 162 154 149 166 169 176 182 187 192 181 164 150 141 146 160 182 194 196 172 170 142 157 159 161 142 132 166 182 179 162 131 125 169 187 155 173 182 216 147 122 146 150 151 148 130 124 157 108 52 89 135 119 90 109 143 95 50 131 56 74 53 51 87 75 135 95 157 99 112 63 67 76 71 77 83 123 99 107 98 116 98 105 76 89 88 74 75 61 42 47 55 65 68 158 102 174 134 137 199 92 98 158 123 133 124 102 142 133 142 74 171 151 181 154 145 203 149 102 116 85 170 181 117 84 164 162 139 106 82 75 82 81 100 186 151 191 136 176 105 123 166 169 155 160 146 151 130 198 97 164 94 168 174 194 133 179 113 117 118 173 81 63 73 85 170 97 78 155 87 86 135 122 157 164 153 153 124 178 121 197 181 181 124 103 65 91 86 105 147 179 198 107 216 169 184 175 179 127 213 198 150 182 138 125 183 177 124 156 94 133 121 160 150 169 163 139 111 151 168 191 149 160 107 138 80 107 90 179 141 150 119 155 100 114 184 157 116 118 162 108 67 70 185 127 116 176 189 152 110 78 82 138 135 90 144 87 73 255 83 147 188 138 145 186 151 202 122 142 222 192 108 136 94 53 117 120 177 104 154 175 193 114 132 195 103 65 49 113 71 54 89 63 67 131 88 44 68 52 95 72 91 156 168 86 173 185 181 92 127 75 73 77 84 177 184 200 99 121 137 82 174 165 148 171 71 150 71 148 61 100 126 98 178 179 115 167 109 44 150 88 155 178 90 167 120 126 106 208 147 208 145 94 81 146 73 88 109 190 194 115 148 167 77 151 80 81 160 139 142 95 94 88 186 162 113 94 199 104 98 193 89 80 126 92 65 157 75 117 94 88 102 97 110 162 169 74 171 69 64 108 167 66 62 88 144 134 109 148 91 97 88 152 91 165 103 94 184 165 150 99 145 171 94 179 178 89 180 115 89 174 76 172 175 90 124 202 213 115 117 180 149 97 139 149 140 42 77 146 105 70 108 179 73 86 150 59 106 94 187 102 98 89 59 135 145 88 164 58 112 141 138 97 198 121 127 113 116 154 94 81 163 118 186 95 102 88 126 135 127
152 159 165 168 161 160 162 153 164 163 182 176 171 164 164 171 184 212 209 190 173 168 180 171 157 149 158 162 161 174 181 180 174 161 147 138 141 163 182 198 192 180 145 124 135 138 150 177 170 150 138 185 182 174 154 185 192 191 185 184 200 164 169 191 156 115 119 107 160 131 89 136 45 68 107 56 86 136 52 101 45 69 91 38 82 103 63 89 110 106 88 95 71 97 109 91 82 79 75 99 103 81 126 96 92 105 65 66 101 79 63 72 105 92 69 78 76 104 184 140 103 168 129 133 181 131 184 118 201 109 174 86 87 121 163 110 179 182 124 153 101 175 87 154 110 134 106 61 166 66 176 157 188 189 92 194 98 116 177 197 111 144 153 161 106 166 179 194 142 185 206 183 164 179 167 110 112 173 112 105 118 194 166 117 62 171 101 88 168 106 161 143 67 132 46 152 132 165 56 53 175 100 109 120 113 79 113 131 70 112 136 136 68 83 117 191 211 210 145 122 153 205 188 186 92 93 190 141 160 60 107 68 69 115 156 56 177 190 181 182 160 201 198 98 81 162 90 175 124 171 187 93 106 180 138 150 114 148 77 91 59 64 148 142 153 69 163 164 84 146 71 147 109 113 122 79 159 172 116 69 71 161 77 181 130 146 96 100 112 120 175 158 198 188 103 163 106 99 71 136 164 123 202 98 101 174 115 90 77 112 83 81 73 162 79 142 89 64 81 69 143 88 101 69 53 57 102 173 129 133 104 171 146 123 159 173 104 198 158 171 159 108 80 77 119 178 154 133 137 145 67 143 158 121 97 134 136 186 134 68 58 123 73 67 166 96 182 138 179 96 136 156 145 189 97 136 74 66 145 181 120 204 113 118 167 102 145 85 179 87 130 123 144 87 185 87 174 153 190 140 204 104 154 177 72 64 60 157 98 42 82 77 94 167 81 135 73 168 103 64 159 112 68 81 113 180 142 216 132 178 94 116 113 153 153 126 56 161 87 76 109 193 176 148 134 192 190 187 94 194 115 130 99 182 87 158 111 189 153 99 114 132 214 231 186 100 84 96 153 133 167 78 80 183 94 62 113 102 56 96 87 140 166 169 57 52 146 156 72 154 133 64 72 149 206 137 98 160 145 151 150 196 83 149 188 116 89 125 56 42 86 99
147 153 160 162 161 154 146 145 162 163 179 175 173 160 155 170 189 205 199 175 182 184 176 171 170 158 146 153 150 167 169 167 167 166 154 156 159 172 187 199 185 177 153 136 138 152 171 172 153 148 178 187 161 182 164 177 158 190 192 202 187 200 164 187 189 165 138 124 77 106 75 102 66 51 98 105 84 138 54 56 99 48 64 42 34 43 63 126 95 95 99 82 85 64 72 126 85 82 90 102 97 80 96 112 91 120 67 70 97 116 137 56 61 64 102 91 173 96 143 138 105 87 132 177 97 118 189 104 92 120 193 117 84 85 83 193 131 183 131 106 76 73 66 167 60 63 165 179 178 129 189 98 95 156 114 193 159 201 198 160 97 68 85 161 82 169 179 171 186 224 141 221 146 150 186 184 98 109 146 203 171 200 86 158 99 142 79 90 114 100 151 56 121 60 96 151 152 86 127 64 178 113 219 200 84 50 146 135 170 71 97 134 94 137 110 205 111 195 111 90 145 170 187 190 193 139 196 181 79 158 77 157 141 162 118 153 170 164 185 137 111 203 208 96 105 163 168 150 144 170 104 195 121 180 172 184 189 159 98 154 103 84 143 149 155 152 138 117 69 165 68 52 73 58 85 183 144 108 185 122 93 135 175 153 154 72 93 148 98 134 181 95 134 184 89 85 79 152 74 121 90 143 103 117 197 108 105 125 95 91 150 65 161 90 143 87 117 81 84 77 60 75 110 47 44 122 127 89 83 110 163 155 118 116 116 202 197 90 147 162 82 152 140 133 94 91 135 100 131 172 84 124 210 126 151 98 177 154 94 83 107 137 85 154 95 131 62 155 130 119 192 139 141 182 195 151 82 87 98 135 196 100 93 118 114 83 70 142 96 168 99 64 57 165 172 108 180 77 188 191 169 141 126 183 173 152 162 83 53 131 71 168 106 92 80 66 68 151 65 105 98 127 90 121 127 198 210 175 144 110 113 95 122 148 150 157 80 111 161 64 103 169 170 95 140 181 184 163 97 95 159 104 129 88 137 114 164 136 142 105 142 210 219 218 193 172 120 59 133 70 98 130 180 188 135 79 123 64 150 131 136 149 77 80 117 143 152 156 67 124 54 140 102 104 99 97 90 132 87 140 118 90 176 175 98 113 123 151 96 78 75 49
143 143 144 145 146 143 147 145 161 160 172 172 175 172 167 172 173 196 187 175 175 172 183 162 159 155 154 147 157 165 175 176 177 178 178 176 179 174 187 194 189 174 154 141 142 158 165 162 129 143 125 135 149 184 192 163 192 146 189 198 150 190 166 134 135 172 143 88 132 83 134 123 66 78 137 82 147 72 136 52 127 112 62 118 53 59 134 255 102 100 85 77 75 101 89 100 83 93 83 121 111 86 127 108 76 75 87 71 76 112 94 80 70 146 101 107 174 101 172 93 86 74 162 65 89 168 180 109 96 128 115 78 106 165 184 190 108 188 108 67 82 170 171 164 101 142 107 140 104 139 188 84 83 153 119 108 130 155 187 175 78 119 133 133 115 162 121 195 208 144 149 207 165 165 98 98 146 145 91 124 168 146 113 68 164 145 159 170 165 175 182 178 107 113 101 61 67 101 114 135 90 171 167 102 74 122 99 156 147 160 65 99 98 83 136 113 187 158 95 45 84 158 180 165 155 104 103 153 157 82 164 174 95 79 147 161 170 156 149 187 153 207 118 211 200 180 62 160 169 101 203 169 114 149 126 95 147 162 116 151 117 133 122 138 58 58 166 143 135 86 61 118 53 49 164 191 203 152 186 101 169 176 140 79 73 124 76 76 96 96 168 172 176 85 117 156 59 62 143 59 64 97 143 114 179 139 205 102 113 117 70 95 58 67 121 110 177 82 108 104 88 144 90 60 135 111 72 158 80 77 109 187 82 90 85 92 86 166 69 168 186 124 104 132 199 109 202 202 183 169 114 201 198 129 184 183 160 170 194 147 172 96 149 131 126 139 69 144 88 115 119 91 115 166 186 142 67 159 100 187 151 138 95 116 157 73 160 65 76 126 156 158 72 166 74 93 78 78 120 174 106 195 181 87 77 116 255 77 71 117 61 116 58 160 82 140 161 145 123 67 171 97 188 103 150 104 202 217 201 101 94 56 144 60 118 170 87 156 113 105 77 167 178 193 203 143 202 104 76 118 176 143 99 86 91 79 182 139 121 77 126 129 207 144 208 181 128 171 162 134 89 81 185 84 103 98 167 168 145 200 164 79 174 67 145 157 55 151 87 46 83 57 97 133 172 172 195 118 140 118 89 94 109 147 101 70 129 98 66 100 161 64
145 141 136 133 136 138 137 136 153 152 171 174 187 173 166 165 167 157 156 156 152 167 176 161 154 156 159 158 162 161 175 183 187 195 192 194 187 188 189 185 184 174 163 138 145 167 139 127 102 121 146 166 181 149 142 158 179 134 165 169 157 117 197 212 193 141 144 157 102 145 66 100 110 117 65 71 78 164 129 81 61 133 150 84 122 105 149 120 138 100 155 95 76 108 92 89 107 91 115 142 96 118 75 62 73 71 79 88 104 83 65 123 134 96 101 161 179 91 91 149 152 72 63 135 66 100 119 116 78 82 49 79 168 104 202 132 168 160 175 68 147 160 187 113 87 87 116 160 195 87 81 163 168 129 70 163 177 187 148 103 85 87 139 134 130 160 119 190 106 213 204 167 103 92 92 145 107 122 120 183 177 148 90 132 149 114 103 179 101 96 191 139 147 135 68 148 180 92 99 167 200 109 137 173 90 96 61 115 158 96 85 96 20 60 118 160 159 118 39 126 32 51 85 163 200 101 145 80 155 61 175 178 98 78 169 84 183 149 140 179 167 191 209 175 204 90 70 170 179 177 212 149 188 88 153 115 165 162 155 82 45 121 129 35 70 130 133 171 159 97 137 105 134 65 112 179 105 180 154 74 156 90 84 180 108 144 140 146 136 60 51 157 159 71 151 128 82 55 132 72 64 174 88 94 101 90 143 206 185 170 165 57 152 141 154 91 172 159 84 165 155 72 111 62 77 168 61 66 59 85 159 85 79 152 174 157 121 147 80 82 165 120 120 185 193 181 197 92 186 143 90 97 166 155 173 179 185 179 161 174 77 146 135 85 148 129 53 137 104 123 170 143 172 168 172 165 114 75 132 170 117 152 88 115 141 169 163 52 123 65 110 46 85 129 69 93 57 142 159 90 184 182 114 181 162 132 169 171 155 98 113 59 86 148 47 82 124 151 134 74 84 181 109 187 170 103 109 133 203 115 79 103 74 142 137 151 125 155 53 67 68 61 78 115 157 118 203 176 166 154 150 157 137 183 114 141 181 89 181 141 140 120 129 86 189 172 188 93 124 156 47 162 150 178 138 71 129 200 113 202 174 77 86 94 100 82 102 141 83 46 125 62 129 88 89 99 200 128 84 84 105 95 180 97 181 148 63 94 61 172 119 115
148 145 139 138 138 129 122 125 136 147 155 179 179 187 168 161 154 149 139 156 173 175 182 168 155 159 156 168 162 166 166 181 195 200 201 199 189 181 182 182 179 157 167 168 146 148 160 112 134 138 125 126 123 117 156 122 194 149 128 181 112 162 173 177 180 170 136 94 149 85 94 90 85 97 139 98 169 102 144 135 125 89 90 151 115 151 102 100 160 143 155 94 105 73 104 90 113 87 143 81 76 75 58 45 73 65 133 118 129 68 125 131 87 105 105 97 169 117 160 97 133 77 153 118 80 190 201 98 115 59 140 44 61 184 197 119 205 95 166 107 134 195 141 153 192 197 125 168 185 170 182 172 121 142 156 158 178 173 90 150 115 70 126 143 139 162 147 138 185 170 191 194 153 196 192 90 119 179 100 146 129 121 85 133 109 122 165 188 175 208 98 174 137 142 149 76 99 178 183 104 151 117 147 184 210 104 100 86 98 62 96 28 45 143 170 172 187 161 71 120 41 87 128 165 87 180 98 149 159 62 153 255 92 120 181 193 176 91 174 153 177 81 193 98 97 87 75 88 102 197 205 198 104 72 63 142 57 89 56 129 117 40 39 140 93 78 169 174 95 75 74 113 117 75 116 179 196 160 141 81 154 161 78 118 80 72 99 45 119 143 110 70 121 90 149 151 148 148 159 168 147 90 130 80 184 94 162 151 146 119 144 57 82 54 153 177 106 74 149 167 154 148 110 57 174 78 64 140 143 158 181 163 142 178 127 79 168 153 77 89 189 196 202 170 185 164 188 154 67 113 177 164 167 174 86 99 89 202 181 115 121 129 109 51 98 116 103 139 92 157 85 159 177 79 150 111 91 154 79 102 101 135 182 134 73 63 103 38 49 81 134 70 54 111 140 135 122 62 72 53 70 94 89 187 117 173 131 155 174 185 109 93 81 134 55 57 75 79 86 79 98 165 198 189 88 90 123 209 106 93 138 98 64 150 55 164 158 49 39 133 59 110 105 88 139 123 153 179 141 158 85 120 103 130 100 184 203 124 85 129 81 131 130 68 99 196 186 162 75 99 133 61 95 88 170 93 194 110 229 119 200 96 119 99 101 119 112 153 128 75 131 140 73 102 114 118 174 91 138 110 172 191 110 104 191 72 73 165 122 113 114 120
147 147 150 148 142 130 117 105 119 135 148 161 177 190 175 166 145 140 255 172 186 201 190 167 157 155 164 156 149 153 157 171 179 193 199 185 185 179 182 182 180 179 167 175 176 175 142 127 109 148 146 158 131 149 162 155 185 188 171 129 110 140 160 168 147 138 86 77 101 76 69 78 132 83 102 148 83 130 77 61 131 132 87 99 134 150 102 107 172 104 136 114 138 87 97 152 95 128 126 113 102 56 49 38 70 57 93 90 125 69 82 91 73 121 106 90 110 134 104 160 90 89 57 135 112 153 117 109 92 151 38 44 57 143 163 199 209 124 95 185 148 128 127 106 100 146 156 88 109 187 105 63 62 140 146 65 132 203 195 146 162 75 70 131 57 63 169 130 184 205 196 212 122 123 147 115 198 100 145 105 154 159 188 147 166 186 194 204 144 184 204 99 144 166 124 166 88 160 180 176 181 134 162 111 115 190 206 169 140 92 154 141 76 57 114 178 78 78 61 87 125 153 110 93 86 67 150 136 159 71 76 89 105 167 77 181 147 180 97 61 130 68 182 189 159 186 180 86 189 92 118 114 97 137 160 145 108 151 88 135 96 99 102 76 153 135 83 175 137 110 67 130 175 148 159 138 165 126 112 145 43 141 161 165 130 77 54 59 125 59 120 78 43 150 148 146 95 74 174 139 142 165 169 116 146 100 89 175 90 107 165 53 154 63 74 96 103 80 147 132 147 103 87 85 107 162 109 119 110 162 154 169 184 178 94 74 165 71 187 204 105 141 85 151 162 99 83 69 158 53 60 64 64 150 154 160 178 156 147 188 115 167 61 163 165 139 151 114 146 73 130 133 176 86 129 90 65 89 141 164 140 172 171 138 56 54 81 133 19 21 128 55 57 150 51 49 134 142 115 91 111 101 112 168 152 107 100 168 113 147 104 87 133 119 139 57 72 157 98 91 68 169 78 174 133 163 79 176 157 99 72 79 124 155 56 92 149 65 122 82 80 83 181 85 137 191 89 76 100 68 164 81 93 179 116 200 125 203 191 147 67 67 80 167 133 149 93 118 71 145 113 119 135 58 108 176 147 143 242 221 108 159 167 93 189 160 91 84 100 67 156 112 130 91 83 87 124 116 173 98 95 102 195 140 88 77 89 176 83 142 175 142
141 146 154 155 148 131 115 106 117 127 146 161 178 181 175 156 152 153 154 175 183 205 181 154 138 144 145 153 136 139 138 153 177 191 195 187 174 172 181 186 192 183 174 183 179 157 130 144 120 159 153 156 160 158 105 141 205 211 156 181 139 189 188 154 126 57 56 71 61 122 98 163 125 122 121 73 137 86 138 119 57 137 81 88 105 157 93 90 101 103 99 96 99 100 152 115 128 137 92 75 71 54 92 37 46 74 120 147 78 59 54 107 80 90 109 104 145 94 91 84 99 94 68 114 120 181 114 127 89 110 62 64 72 81 161 99 206 118 102 206 203 106 197 182 174 67 151 134 158 181 172 163 140 106 83 130 166 178 175 164 103 117 139 159 80 149 79 93 127 115 185 179 166 142 144 194 108 163 192 164 80 78 108 177 82 137 89 200 194 161 180 162 174 85 76 80 83 82 159 144 85 65 81 137 197 116 107 199 196 107 191 88 176 59 72 127 83 81 106 111 109 108 162 143 131 106 107 42 61 148 130 153 140 84 141 157 81 101 155 152 153 161 80 163 141 146 118 137 94 181 132 57 155 150 87 103 148 122 138 34 139 48 137 111 67 161 143 68 141 142 87 83 117 206 185 115 186 110 154 126 141 64 159 165 169 111 55 93 39 48 58 103 150 53 159 146 133 93 195 101 115 125 64 113 54 44 57 84 145 112 179 97 136 94 136 101 131 119 190 84 89 81 67 94 160 152 149 92 76 76 140 110 178 76 76 129 160 175 133 125 213 95 182 76 80 117 76 153 145 132 51 54 97 49 70 77 119 194 191 171 103 172 72 155 79 180 111 109 168 175 142 168 98 99 131 95 90 137 165 161 66 171 60 78 63 159 91 38 26 117 41 41 111 161 92 139 58 104 139 53 88 67 112 109 153 83 100 113 115 139 129 102 142 48 56 168 149 107 108 68 83 61 89 154 175 75 151 83 186 83 71 76 143 81 70 121 153 77 65 145 101 89 154 171 181 93 89 75 86 186 170 79 135 84 87 193 105 95 105 125 93 131 158 165 117 90 161 78 112 121 37 120 77 68 83 89 165 228 204 219 186 121 173 151 142 164 192 84 123 136 95 135 177 132 162 157 144 169 115 180 184 138 88 153 94 178 112 175 117 104 67 99
136 142 151 159 154 142 126 116 130 131 140 151 173 174 176 176 159 157 159 180 181 191 171 157 148 145 151 138 141 132 143 162 178 186 187 172 165 164 180 179 189 191 174 171 172 156 142 137 166 139 178 140 121 144 137 161 173 177 198 150 198 157 131 101 58 127 115 133 102 79 141 116 79 152 70 72 113 128 95 103 73 57 108 65 112 117 73 140 98 103 102 103 86 92 122 113 137 126 110 96 93 70 98 45 101 99 134 90 89 80 69 70 84 83 89 112 87 158 80 76 87 95 70 67 96 98 209 121 97 138 81 109 105 134 96 180 125 142 205 206 136 201 132 149 105 156 125 151 168 180 180 176 151 162 114 128 170 182 180 95 162 188 148 90 71 84 126 69 112 95 127 87 175 155 179 204 162 215 127 129 92 180 114 154 140 125 146 180 95 205 190 205 112 110 152 93 191 125 67 117 97 145 53 121 179 190 193 177 101 168 126 166 95 180 78 71 140 177 130 180 161 161 90 144 43 67 125 60 168 164 103 157 135 158 111 135 176 151 123 147 104 70 73 76 147 162 172 72 102 170 67 150 135 123 63 162 255 144 67 148 153 159 163 138 139 162 93 111 142 169 173 87 94 100 215 216 109 163 140 134 121 144 109 160 171 75 124 96 60 17 47 106 91 65 71 95 99 205 161 139 100 140 160 55 65 47 42 147 60 86 77 98 82 111 127 90 147 172 120 103 180 104 129 143 83 96 74 85 96 136 108 180 190 174 152 107 187 89 99 178 127 95 69 174 76 105 176 118 67 154 96 51 136 89 140 177 158 163 81 173 106 83 119 105 86 151 147 101 81 148 100 138 91 85 168 172 89 124 167 164 71 76 130 147 155 74 144 158 145 121 62 55 71 152 77 164 115 112 130 152 70 105 106 154 117 182 100 152 109 196 118 171 144 151 125 178 150 167 96 162 143 119 116 119 148 98 87 150 127 131 116 90 69 91 167 64 96 127 85 176 200 200 135 66 137 118 69 129 169 185 120 77 162 168 158 77 92 76 117 146 162 158 67 133 162 157 172 176 97 125 63 148 59 93 125 193 111 226 134 183 128 138 136 185 96 101 176 173 118 117 96 174 178 89 144 163 62 161 174 168 59 73 65 65 76 152 86 186 118 130 106 63
126 136 149 154 159 146 145 134 143 137 145 151 187 185 190 178 175 152 153 164 166 178 168 153 148 143 139 153 150 146 153 170 188 189 182 170 157 157 171 181 191 190 189 183 168 135 135 131 170 185 150 144 165 132 142 131 193 208 186 144 130 183 147 108 90 84 46 70 82 83 115 106 76 60 82 132 167 150 84 144 87 105 51 52 75 53 91 94 77 148 128 92 101 88 99 148 105 90 91 102 90 82 55 79 103 65 136 83 63 52 51 81 80 138 115 117 81 89 60 112 101 92 151 72 120 118 104 189 186 163 119 136 113 137 188 106 186 105 84 109 195 209 177 182 168 160 160 64 177 93 191 100 120 165 124 78 90 189 176 157 175 172 100 97 129 153 85 115 117 135 152 114 142 67 71 157 119 109 219 147 173 152 150 95 152 64 168 73 185 114 117 164 173 109 195 105 93 123 130 67 145 58 81 50 165 77 123 91 199 168 173 221 214 95 106 167 85 164 174 81 125 56 152 64 114 152 51 97 71 184 114 116 146 81 150 68 91 150 58 61 150 74 171 174 183 96 166 171 109 79 126 123 87 40 100 121 166 111 127 138 101 149 159 158 177 71 69 77 176 165 140 168 153 192 181 141 121 88 166 124 67 75 138 82 163 60 137 60 53 62 50 102 157 65 153 184 202 112 157 113 114 66 74 91 77 104 82 74 77 112 79 76 78 88 172 102 144 144 87 84 164 162 92 152 68 68 70 83 147 94 96 138 184 101 80 179 93 179 104 116 88 72 63 94 148 82 107 111 155 155 163 127 47 137 156 113 80 184 185 184 118 167 162 169 169 77 92 145 76 116 76 131 107 136 145 126 102 186 134 130 75 78 129 151 150 175 169 153 146 153 136 159 184 187 186 181 176 166 165 138 78 179 97 97 163 153 179 150 158 108 85 79 67 81 171 83 85 170 85 141 44 127 60 139 115 195 175 181 175 97 127 184 126 96 112 88 150 74 168 161 111 131 112 46 131 151 69 139 82 123 169 147 73 147 186 76 110 138 157 144 122 121 156 109 91 87 152 175 110 107 151 159 81 112 73 110 198 115 108 108 172 77 101 165 183 81 177 134 84 128 105 143 74 92 125 112 104 66 161 60 155 46 104 155 108 59 108 86 163 185 166 128
112 127 144 152 158 151 162 157 164 160 161 161 195 210 200 185 170 153 136 153 165 171 177 168 169 153 163 164 171 164 157 173 191 194 182 158 144 137 157 161 171 182 178 150 159 124 118 146 165 181 150 161 176 118 126 180 136 206 194 206 145 111 169 97 123 135 132 76 105 87 93 130 66 95 97 147 86 91 141 93 108 117 102 35 69 39 125 102 72 82 110 147 90 97 108 113 105 92 130 129 98 93 74 62 95 58 66 82 66 56 105 82 83 111 118 101 152 141 79 98 61 97 77 164 146 67 145 154 99 183 195 200 169 91 87 143 130 111 72 76 86 153 88 122 94 66 170 156 169 104 190 111 221 202 102 143 102 76 103 133 144 141 115 161 85 185 109 145 63 142 111 60 145 69 152 79 88 110 104 189 202 130 114 151 146 147 66 154 79 204 211 214 117 124 102 92 163 159 176 139 133 98 141 119 168 161 189 172 102 199 182 199 112 132 178 164 110 94 141 131 49 148 43 142 65 147 165 175 93 155 92 163 160 140 103 151 83 140 143 110 99 130 110 109 174 114 167 175 74 104 153 37 116 37 54 124 126 147 118 103 77 144 107 202 171 184 186 169 102 94 179 122 135 147 189 159 104 122 137 145 77 136 66 131 107 149 124 54 140 76 104 83 66 76 197 116 115 110 155 89 106 70 120 66 82 127 70 88 89 89 85 71 78 110 93 147 148 192 178 77 176 175 174 155 78 75 132 77 90 88 140 95 183 124 88 78 78 109 191 87 112 62 104 155 164 151 182 185 180 196 93 139 82 144 70 60 141 166 186 87 121 71 141 172 140 124 66 99 111 102 113 164 155 153 143 120 128 124 157 194 87 154 80 152 109 164 172 176 155 117 71 179 110 169 188 86 75 74 178 180 179 130 202 109 205 195 131 149 167 178 82 86 151 95 94 183 152 77 148 77 67 133 76 130 203 195 85 114 163 93 192 82 144 167 85 103 141 161 92 95 193 172 51 102 51 135 59 182 140 163 163 69 181 193 88 174 159 135 50 42 148 47 131 147 102 156 75 148 108 78 113 149 134 125 121 168 172 185 170 161 67 177 171 176 140 87 130 71 155 107 152 68 121 133 184 105 179 137 171 77 91 97 62 93 73 114 83 105 94 195 111 195
97 117 140 147 146 146 158 165 177 160 160 177 189 205 198 193 176 150 139 148 155 179 186 189 188 165 182 176 191 173 176 172 189 193 182 154 138 134 135 157 165 170 156 166 134 136 135 144 159 144 140 160 151 130 167 137 181 153 205 184 190 166 105 158 155 255 69 129 161 105 140 123 69 149 86 72 141 79 140 75 154 64 74 107 106 120 91 65 57 120 82 99 97 111 152 116 147 112 124 114 132 106 82 90 87 95 108 90 88 84 81 120 91 92 96 108 166 74 74 82 169 104 150 87 62 55 139 146 156 81 90 89 181 90 116 108 123 100 57 156 169 82 172 60 135 101 112 131 184 208 113 121 143 136 210 138 148 139 56 142 110 151 86 168 183 153 144 163 86 128 149 81 54 70 122 57 168 89 131 103 177 87 87 167 165 65 137 182 97 191 158 111 148 181 189 184 111 106 98 70 131 60 127 128 116 78 129 108 91 89 104 192 197 190 139 100 128 57 106 49 74 45 129 80 153 85 135 182 87 183 103 124 158 141 126 132 149 74 127 56 153 160 168 81 85 175 168 166 102 164 146 50 125 83 158 152 162 115 154 98 179 158 117 207 102 118 127 178 112 114 170 127 118 97 171 132 83 156 146 70 65 151 137 91 157 138 168 61 85 61 102 146 85 120 153 212 179 111 92 119 70 100 74 66 88 80 81 184 178 176 131 92 52 177 176 105 100 194 73 169 128 80 75 72 126 37 49 52 76 112 77 168 162 128 176 126 93 162 192 80 71 146 124 56 57 125 79 97 145 115 195 193 79 104 127 172 186 164 184 73 160 62 116 121 103 114 116 129 112 164 164 46 134 150 70 161 90 182 115 115 86 176 173 102 97 82 163 162 123 154 160 87 173 120 162 84 86 78 124 130 194 171 115 172 211 99 180 102 183 80 168 81 177 100 137 155 157 120 165 154 160 90 176 172 151 184 139 173 148 185 89 157 168 167 68 95 139 175 116 129 178 68 89 121 36 69 138 83 128 164 161 149 173 200 171 94 171 127 118 121 85 141 149 104 101 82 85 147 108 65 102 99 181 122 188 83 124 142 90 153 114 109 184 187 127 159 49 140 114 57 63 59 167 102 190 94 165 76 76 74 167 71 141 176 154 137 105 172 143 184 121 153
92 110 131 138 140 136 149 159 165 165 166 171 189 188 186 192 176 160 149 164 162 182 206 210 199 178 190 189 203 189 180 174 186 185 183 162 146 137 145 145 163 172 165 157 117 132 138 142 140 157 155 184 133 138 173 156 154 192 179 152 127 126 106 173 116 146 153 158 179 170 185 101 139 154 78 74 67 137 69 110 96 93 76 62 74 77 128 126 92 76 133 130 105 136 133 102 144 127 117 129 101 81 88 54 71 66 101 153 142 91 90 137 108 94 92 164 133 152 78 150 125 94 120 123 59 61 140 52 63 171 79 78 81 102 162 177 140 145 59 156 62 65 71 138 169 126 179 209 225 116 208 205 197 221 176 195 110 57 114 155 98 146 183 153 108 195 158 129 174 116 103 147 148 152 89 148 134 84 99 91 108 147 82 84 170 98 179 90 106 193 210 179 186 172 146 172 116 79 165 88 55 55 134 97 132 134 131 189 102 194 95 181 102 109 130 156 100 74 157 58 48 126 141 166 82 182 191 86 175 136 166 180 76 125 33 126 142 142 56 153 138 159 98 97 88 155 62 140 148 79 154 158 65 74 168 138 163 72 170 70 194 160 142 207 126 130 154 116 111 164 139 132 131 155 151 97 69 68 163 106 148 71 71 70 174 172 102 151 128 105 155 89 151 89 90 157 120 114 113 75 133 165 91 68 84 132 127 81 178 126 58 39 140 73 202 133 205 91 108 59 144 172 122 109 145 39 49 118 148 90 143 91 148 73 185 103 207 183 184 176 135 100 43 51 100 71 74 120 182 110 216 127 184 148 158 112 161 169 186 127 65 116 146 83 56 105 156 112 120 171 141 123 93 162 85 161 171 85 131 90 103 174 125 156 153 106 255 54 103 118 156 104 89 91 174 154 81 127 185 196 94 193 135 101 210 116 192 86 158 124 86 144 101 172 80 80 109 87 92 81 107 88 102 115 156 134 104 173 71 82 93 89 162 181 163 92 168 177 177 143 60 42 141 143 47 125 191 152 145 105 102 78 194 186 114 192 68 99 136 113 100 41 142 65 182 186 180 114 97 143 150 74 82 90 102 126 128 155 97 69 73 187 139 75 59 45 90 73 69 143 113 110 178 145 138 184 136 131 131 73 155 91 183 182 97 142 147 132 146 144 205 108
90 104 120 129 131 124 129 143 151 163 176 179 174 185 174 168 166 161 170 160 172 177 198 191 196 189 186 195 201 195 178 175 182 188 188 175 160 151 161 158 178 177 175 152 141 127 122 160 174 186 183 177 136 165 158 136 159 165 199 166 197 114 171 146 175 193 155 119 175 156 129 167 145 70 155 73 84 139 148 65 111 99 83 139 84 102 77 72 87 115 140 89 88 99 81 98 95 136 106 126 137 104 124 84 79 88 134 140 140 142 100 108 80 108 89 120 79 100 94 97 129 188 81 167 65 129 121 64 88 118 137 75 82 175 91 118 172 87 153 146 64 164 86 86 176 176 195 200 219 199 173 113 207 169 197 186 65 156 53 93 179 186 163 193 176 95 185 165 181 126 100 173 185 153 83 167 166 121 75 165 161 163 57 154 118 82 118 123 164 192 140 179 111 108 186 171 179 80 131 172 159 78 133 159 181 104 85 83 85 187 111 128 196 80 161 73 93 151 125 107 78 174 84 123 175 181 158 171 86 168 163 171 151 148 127 136 141 123 112 140 64 159 84 65 168 165 164 94 168 171 96 164 86 91 176 175 80 76 69 159 166 113 199 207 171 102 144 96 113 176 69 169 150 86 119 44 57 136 62 120 147 74 161 122 62 113 177 155 152 92 148 187 82 124 172 89 93 133 82 102 69 70 84 69 65 67 76 159 74 162 64 146 165 149 97 100 94 126 85 157 157 72 75 78 150 65 64 103 86 69 163 130 97 183 154 213 117 149 126 160 97 153 51 56 144 104 162 175 162 107 182 128 163 145 185 163 208 151 140 134 153 93 173 149 110 109 146 69 143 152 73 124 62 112 181 166 180 79 78 165 130 161 168 195 176 68 150 134 146 136 121 55 172 151 90 148 71 91 173 156 93 188 88 192 183 127 162 78 167 64 169 81 142 80 176 120 152 129 186 110 151 136 155 210 203 106 91 72 60 155 99 172 87 106 186 97 86 134 136 60 122 135 144 103 96 173 98 113 93 70 117 123 117 206 142 182 137 151 118 56 34 39 121 115 182 186 170 142 65 103 80 77 187 100 105 72 142 59 79 104 188 182 157 131 155 134 43 121 100 99 55 138 168 96 91 87 105 77 74 73 82 187 178 131 179 81 150 119 69 181 191 151
96 106 119 126 126 126 125 124 135 147 168 176 178 165 167 160 174 193 181 178 174 179 180 178 181 181 181 177 190 178 178 168 177 182 182 182 183 177 179 170 188 184 171 153 144 147 162 165 189 170 191 191 171 179 143 164 188 214 150 148 166 174 182 129 135 129 143 188 211 143 128 160 117 153 102 90 137 164 119 69 68 87 124 110 113 139 70 60 110 132 68 61 70 81 62 93 118 73 91 101 129 112 96 100 101 121 119 114 110 170 100 128 166 80 104 94 131 158 111 186 136 185 80 83 120 56 64 96 128 104 89 129 147 100 113 176 74 82 156 138 167 135 98 202 207 207 113 119 184 206 170 76 115 109 73 162 115 103 136 150 174 101 181 149 189 190 133 145 191 145 189 129 200 192 135 97 89 175 78 174 76 141 80 167 135 134 180 134 160 181 194 130 182 185 128 128 79 88 165 181 104 167 81 131 185 182 109 175 150 148 188 154 95 78 104 61 160 107 183 123 178 164 91 174 124 185 183 171 81 171 147 84 86 156 93 142 153 86 81 96 113 155 151 119 162 160 165 78 68 110 159 148 148 174 173 112 109 180 177 143 94 212 121 154 86 149 150 110 173 109 108 136 150 142 137 130 134 63 149 84 75 104 103 67 59 126 76 136 78 105 73 183 168 160 44 130 150 56 143 53 56 152 167 72 84 46 62 130 115 157 102 68 115 94 99 97 90 132 159 116 75 167 90 61 75 163 89 98 86 132 157 119 144 104 205 203 119 136 208 87 70 143 97 182 160 67 148 176 192 202 182 99 168 106 181 89 162 172 179 162 106 104 91 125 148 125 156 143 165 74 146 119 105 161 165 135 161 171 162 80 175 91 180 178 112 143 72 115 76 142 109 111 147 96 93 178 158 86 159 97 192 160 98 181 152 113 150 166 67 59 46 131 104 168 78 91 88 198 107 208 145 207 205 129 196 104 182 88 156 150 127 173 103 172 161 134 121 159 148 131 26 60 153 155 188 186 119 115 187 173 166 165 79 111 105 181 60 71 110 60 30 65 131 111 180 108 255 158 90 132 87 112 107 126 89 169 68 70 160 118 114 165 130 130 78 137 162 105 136 154 145 82 115 187 137 167 138 102 93 100 90 123 148 128 147 79 107 52 78 142 128 129
99 108 118 125 127 119 111 113 123 146 162 183 172 161 165 169 189 210 214 180 164 167 170 178 173 168 162 175 171 166 161 166 173 177 182 183 184 187 183 190 187 180 169 144 152 159 173 189 177 154 152 142 134 146 181 157 213 190 168 162 142 190 187 189 181 132 129 201 123 181 127 137 107 78 95 132 99 85 66 138 77 128 67 100 99 103 114 61 65 62 60 53 116 70 94 105 45 101 74 86 128 94 123 152 159 156 131 101 109 112 164 155 115 101 104 98 161 109 140 202 122 166 118 69 139 53 68 177 191 92 188 124 68 119 105 83 94 157 149 160 168 109 188 117 133 157 111 199 107 195 81 165 153 103 51 79 153 53 160 156 174 109 92 127 182 91 166 106 104 179 178 111 184 191 173 140 121 175 185 189 160 138 72 120 151 108 71 140 111 193 115 182 130 172 126 132 99 104 161 80 80 69 80 98 104 162 175 150 60 134 130 82 97 143 162 155 142 171 198 117 167 170 164 93 101 95 173 85 67 126 65 127 131 140 139 94 162 156 84 77 86 52 144 98 131 63 100 160 70 79 86 175 182 74 119 93 196 165 183 188 130 212 139 124 97 88 87 90 121 122 138 89 169 64 99 141 136 145 113 78 108 162 114 69 85 143 87 98 140 50 61 161 168 154 86 125 30 28 113 48 127 109 68 151 68 115 28 69 118 152 99 180 150 108 92 185 151 84 61 166 87 107 176 167 144 118 102 108 172 158 151 77 147 87 203 109 186 125 167 124 122 120 204 103 126 82 155 177 172 182 114 195 182 107 79 142 142 166 98 147 110 189 131 179 171 124 104 155 130 149 140 86 132 144 140 184 121 166 99 101 160 111 167 164 148 138 140 133 127 60 68 177 157 122 162 134 55 48 76 127 187 175 92 121 78 129 112 112 104 94 95 118 79 109 84 184 120 115 128 143 225 138 204 193 99 164 162 132 156 137 90 173 133 158 180 208 94 162 136 128 61 57 84 118 102 110 119 95 184 174 95 160 163 156 165 183 56 101 126 48 98 77 166 147 165 171 165 75 168 137 87 178 83 184 193 142 156 164 100 112 140 130 97 82 163 134 128 160 111 91 141 97 186 98 197 174 182 186 177 74 183 195 166 98 191 80 165 59 111 160 178 132
110 117 127 128 126 112 116 114 138 149 170 172 164 164 169 185 207 228 226 194 179 166 161 169 160 163 153 164 162 157 167 170 175 172 178 168 180 184 182 171 171 166 153 159 158 163 159 162 182 163 153 161 163 132 164 209 225 224 184 158 116 127 108 136 128 126 149 201 180 143 164 72 97 163 101 204 170 106 97 98 126 139 110 81 109 65 54 59 53 61 59 59 75 66 92 98 63 65 81 86 88 104 88 101 100 103 87 122 84 103 119 185 121 178 119 164 111 120 151 117 139 98 97 158 117 66 89 97 78 178 119 155 148 77 177 75 166 55 146 161 191 102 105 105 98 199 159 138 172 184 118 165 118 83 135 134 163 126 62 166 92 255 153 185 175 120 109 104 173 150 187 104 193 110 121 187 166 183 148 166 168 184 186 149 172 77 165 70 115 72 122 123 63 170 172 138 94 118 124 103 146 158 64 168 143 179 148 99 93 103 128 76 84 123 184 95 178 162 150 183 108 166 178 120 92 105 177 113 80 85 65 98 168 127 148 153 161 176 180 108 120 59 146 153 81 84 156 54 117 116 192 191 165 112 153 174 93 194 185 97 204 161 204 139 86 67 118 175 100 90 186 80 137 78 118 75 85 164 94 115 164 154 116 103 160 127 126 160 111 151 120 110 134 127 55 60 24 27 119 111 51 48 63 58 58 126 50 123 42 54 80 120 111 193 129 91 171 70 71 141 112 82 121 146 179 125 118 144 107 87 152 89 147 84 190 110 136 185 230 195 169 188 188 211 121 187 181 184 195 196 101 125 180 167 158 132 88 142 130 87 69 173 144 152 88 103 124 114 175 79 144 155 136 162 186 176 189 131 99 102 116 62 49 44 135 94 148 77 140 131 109 141 136 127 141 151 64 151 156 88 146 174 81 99 182 81 166 72 89 67 127 108 162 161 197 139 219 230 137 137 191 125 161 139 160 121 112 162 74 134 89 89 107 215 238 224 189 142 51 132 137 104 63 167 104 202 172 193 169 82 146 164 97 106 150 168 108 106 24 127 92 168 73 74 152 70 86 179 85 123 147 70 75 188 170 136 86 168 173 92 89 86 108 153 169 87 184 95 120 132 127 183 121 192 199 194 167 104 156 180 173 104 205 164 192 175 162 60 77 165 165 105
120 125 130 125 115 111 115 134 156 177 172 168 163 168 174 190 217 212 217 199 188 181 166 177 173 164 153 157 163 173 178 182 183 175 170 168 167 161 167 161 144 158 161 160 161 164 178 163 147 126 150 141 135 189 185 160 208 212 210 147 122 120 169 109 133 127 144 145 174 85 146 144 99 85 138 197 169 76 74 64 66 57 76 105 68 71 112 128 72 71 100 104 86 82 65 70 78 71 103 84 89 103 74 120 129 123 115 101 92 121 114 187 125 143 166 110 133 219 189 208 199 165 72 120 113 148 102 148 55 59 66 73 104 97 170 78 168 137 161 174 136 102 189 167 74 158 149 188 121 167 190 179 163 157 147 178 76 92 71 151 193 170 200 118 115 105 100 99 116 154 188 181 142 145 171 101 131 161 131 183 111 98 188 192 92 77 171 95 131 75 108 140 156 64 141 122 155 161 141 142 133 157 98 64 154 66 80 151 176 173 178 81 127 143 173 112 180 194 125 186 153 150 200 143 143 171 119 172 90 146 165 157 66 129 160 148 151 70 69 133 92 148 46 140 55 155 59 97 177 141 132 178 167 170 82 177 81 190 90 109 191 177 176 172 157 184 128 160 200 159 93 121 172 84 104 186 189 165 138 98 155 149 83 132 64 143 125 164 145 91 50 118 145 40 119 131 74 42 120 31 60 56 70 149 66 55 97 152 70 166 146 70 185 176 193 97 105 150 141 126 63 136 144 179 124 158 109 192 100 187 131 56 102 110 143 193 99 144 209 127 221 230 196 194 108 145 178 153 185 190 98 176 174 173 74 122 142 92 122 35 86 151 170 192 196 152 114 173 85 100 83 69 131 185 121 116 194 99 195 106 148 91 79 126 45 135 68 156 122 159 187 173 232 193 218 157 186 115 173 78 172 106 95 177 186 182 107 128 171 146 63 158 125 173 155 115 119 223 212 213 145 177 181 180 103 83 89 168 106 140 64 73 116 121 128 214 192 169 113 51 153 162 92 154 105 182 80 171 120 68 156 71 157 184 186 179 160 128 35 70 70 82 164 97 172 175 153 182 145 54 121 57 68 108 121 152 167 71 56 129 160 139 96 150 144 112 159 154 136 187 199 152 118 181 148 123 105 185 83 106 173 198 205 126 195 135 76 138 255 164 98 111
134 136 136 126 114 104 117 147 180 197 178 158 152 145 178 193 209 199 207 205 184 179 191 186 173 166 160 152 173 188 195 191 183 175 168 162 159 160 156 138 138 153 164 169 144 172 170 165 150 157 129 182 176 192 131 173 168 190 149 195 128 184 170 184 186 188 113 96 103 87 135 63 151 96 139 132 108 67 54 80 60 140 56 56 62 69 79 84 81 119 122 88 139 100 64 57 91 58 62 64 109 104 65 123 98 76 89 57 69 118 114 140 133 204 124 140 202 135 145 113 90 136 104 66 69 162 153 160 52 153 61 104 135 95 169 78 93 156 175 189 102 186 179 75 128 59 82 182 193 159 193 107 177 74 181 161 172 115 167 164 150 143 198 194 194 143 141 152 191 114 97 134 113 161 142 89 176 173 169 139 94 86 98 198 99 144 120 136 177 141 151 71 68 129 94 53 87 43 123 118 127 68 91 47 71 165 180 181 90 104 93 113 154 97 201 186 193 255 119 205 191 107 202 113 128 172 181 80 87 87 177 79 87 87 187 144 113 147 175 75 138 164 155 146 87 166 113 86 83 189 158 103 150 72 168 63 175 116 175 183 158 107 153 120 113 144 180 109 120 98 193 96 182 194 129 200 210 91 178 85 79 75 161 133 109 63 141 166 107 72 37 140 40 34 36 80 76 155 63 97 47 96 50 110 115 60 120 133 132 174 90 99 96 103 100 165 191 99 68 146 69 129 178 81 159 194 98 146 98 168 123 67 154 122 78 84 197 207 126 172 194 120 208 172 201 119 188 83 118 110 198 143 115 87 97 135 107 121 125 121 76 74 102 112 116 111 98 122 191 123 149 83 88 158 100 109 132 202 129 83 169 102 88 40 34 76 96 162 151 149 195 197 149 233 131 193 152 95 134 138 184 75 87 81 195 153 172 146 127 88 124 126 187 200 209 149 181 109 193 141 81 62 107 92 171 89 145 88 71 155 112 255 95 106 211 166 185 94 153 149 56 66 142 159 99 134 131 82 177 177 84 87 166 181 187 156 65 144 51 163 133 112 139 149 183 108 96 139 137 46 131 45 60 177 134 152 144 131 104 69 57 155 80 74 138 64 74 173 182 147 165 195 145 189 183 159 169 192 101 152 191 97 105 113 185 173 167 87 91 116 115 131
141 139 136 127 116 114 133 162 198 210 192 167 143 138 169 176 193 195 181 191 197 191 193 170 178 167 153 174 193 205 204 181 170 165 161 155 148 154 155 154 152 159 172 162 177 144 142 132 118 119 119 174 188 140 148 160 127 130 151 191 118 193 121 102 174 130 176 102 174 156 110 81 145 156 167 135 108 104 106 88 140 95 67 90 66 134 93 154 97 101 104 142 70 49 46 46 99 50 71 72 95 95 79 101 82 79 87 93 108 115 151 127 172 149 118 111 111 119 147 157 89 75 63 54 157 69 147 76 90 87 176 108 135 63 165 95 106 127 179 103 214 198 103 71 71 62 172 125 180 189 111 185 150 89 180 122 182 113 124 149 178 163 100 186 185 116 160 193 197 134 119 77 144 162 142 95 174 187 105 118 144 134 165 126 180 139 175 178 127 132 155 64 134 55 143 51 41 43 49 100 53 108 42 55 70 59 164 92 200 181 185 106 164 93 195 209 177 183 183 188 165 131 176 153 142 185 187 146 190 174 89 195 186 140 199 112 156 123 103 128 191 153 157 135 72 183 87 105 189 198 198 105 142 119 73 118 180 193 128 189 126 89 162 255 69 84 105 144 189 119 130 79 115 163 123 158 201 142 107 170 76 188 91 194 109 99 159 104 82 99 122 43 48 45 124 152 83 165 182 109 65 63 153 50 109 94 147 146 120 154 161 165 131 108 92 109 111 112 88 81 174 82 83 83 166 87 79 114 181 63 91 46 64 63 91 85 97 97 170 191 173 176 182 145 112 151 150 141 186 94 188 193 185 133 114 110 129 48 123 72 51 174 94 143 171 122 198 136 195 184 159 123 141 204 190 137 137 173 179 182 120 147 100 128 44 93 97 114 186 169 156 182 216 193 227 220 130 113 180 114 109 145 114 178 183 146 205 170 154 82 111 75 194 184 149 110 147 194 181 165 54 132 73 123 133 160 201 173 73 153 84 154 178 137 101 107 173 62 126 156 122 103 175 81 55 45 116 162 178 122 137 127 153 172 171 119 68 62 162 142 102 174 190 143 94 192 122 161 178 122 53 80 124 64 116 108 169 145 164 131 72 128 162 134 82 103 169 124 82 86 177 101 199 152 127 97 97 173 89 85 82 150 137 210 108 115 140 204 93 110 130 112
148 144 140 132 134 140 164 188 215 216 206 174 145 142 157 156 168 154 159 171 163 178 169 175 174 164 168 177 196 208 198 176 163 152 152 155 154 167 168 149 149 167 175 167 173 156 138 125 142 107 145 147 134 173 165 127 132 88 167 134 180 184 190 187 113 122 182 116 89 156 120 102 99 189 117 173 108 129 137 65 89 76 63 83 91 82 109 97 158 115 75 93 69 71 41 84 50 67 64 87 58 97 77 86 94 137 86 108 84 110 134 149 125 161 178 129 136 164 143 99 126 123 125 137 87 94 92 97 91 185 183 79 166 65 77 91 172 217 199 117 200 160 185 164 180 170 177 160 158 118 161 161 122 129 76 123 104 119 124 169 182 137 127 137 131 94 125 191 194 109 139 174 134 127 130 88 174 120 197 118 120 192 140 190 102 80 162 116 173 161 151 100 138 39 44 116 121 118 88 46 111 45 30 46 138 97 125 177 180 152 187 147 106 187 146 147 114 162 159 162 144 168 90 167 97 155 96 86 133 127 102 141 95 110 187 185 138 77 88 139 204 196 169 144 89 179 91 192 147 96 96 154 192 175 149 161 163 131 112 124 139 165 66 161 81 77 189 122 103 124 154 162 154 141 185 121 119 114 150 176 165 95 199 204 174 79 72 93 114 164 70 65 95 124 90 84 93 164 94 133 116 65 85 156 88 144 110 113 187 123 182 79 77 77 103 102 151 85 103 118 107 154 189 90 166 185 140 182 84 134 155 42 152 164 72 153 106 206 98 96 93 173 153 203 154 134 175 159 167 183 114 184 178 168 80 155 163 70 62 148 163 160 72 162 118 93 198 118 204 182 182 118 204 200 114 155 188 102 185 141 146 149 134 84 82 134 192 147 197 211 214 146 217 110 106 110 189 200 133 188 116 175 143 159 78 124 91 164 100 194 165 92 200 210 103 193 180 93 157 78 70 80 24 49 129 113 199 147 179 92 181 104 84 166 95 182 69 134 132 61 137 65 109 62 122 37 139 77 101 143 131 73 167 140 193 88 107 68 82 105 104 84 117 187 200 115 205 124 124 174 143 139 80 152 125 77 90 88 161 123 73 105 168 113 112 81 162 77 127 88 112 187 118 209 120 162 88 88 176 152 169 93 197 189 203 115 108 101 112 98 153 184
155 148 140 137 143 156 181 197 218 212 208 180 156 141 147 143 164 155 147 150 158 154 176 173 161 163 161 184 210 211 195 171 153 146 154 166 255 180 180 172 163 168 175 153 165 124 133 107 138 132 137 101 144 163 134 145 89 139 131 115 156 201 160 179 120 198 191 142 96 90 94 119 110 160 158 99 94 149 61 80 70 60 106 79 86 128 101 105 138 89 102 133 61 60 62 34 76 40 75 87 94 116 82 127 122 92 98 91 93 97 108 169 148 115 148 185 104 185 97 159 128 91 59 96 79 96 190 97 190 110 159 149 75 154 172 91 172 230 215 156 107 199 115 255 168 150 101 92 191 191 149 76 146 130 78 166 141 139 101 118 109 147 78 69 160 144 133 217 174 177 142 134 141 71 126 96 103 139 150 117 206 194 184 135 112 73 67 164 145 64 86 100 134 49 158 93 63 127 75 123 255 33 32 73 138 114 158 84 72 178 95 132 163 138 118 125 184 181 65 90 58 54 117 120 178 93 88 171 155 52 78 181 191 157 86 90 102 145 183 191 140 173 207 184 102 103 165 129 196 91 169 141 130 66 144 161 174 155 172 69 130 129 67 93 68 131 189 134 133 95 108 139 154 192 157 212 131 136 167 132 119 142 96 175 177 170 121 44 109 123 123 147 142 165 183 154 128 100 115 96 181 100 94 160 188 106 108 191 138 80 148 81 72 96 57 70 162 103 207 112 122 105 180 189 95 203 181 177 90 118 143 145 123 69 82 148 182 204 207 108 103 120 146 116 92 88 141 166 170 131 143 72 75 169 160 166 82 115 176 165 164 154 157 54 88 86 150 110 203 200 142 102 206 197 91 170 160 156 121 91 145 52 76 86 77 91 108 126 206 210 206 180 164 183 164 189 150 99 170 111 164 158 163 69 52 61 101 116 194 107 139 113 152 199 168 193 183 152 92 110 31 128 99 93 169 126 97 97 142 109 182 113 101 154 187 176 101 152 50 57 70 62 68 132 122 80 50 159 166 157 130 72 91 130 98 162 184 169 131 93 61 104 173 195 96 204 132 226 123 108 167 135 59 137 129 117 195 94 118 114 115 88 85 93 125 109 148 68 58 126 100 102 200 163 97 151 89 74 94 74 99 77 88 116 109 204 153 194 166 170 65 116
167 156 147 142 146 157 175 199 206 203 188 179 167 152 145 154 153 146 147 153 146 158 169 177 164 151 169 187 213 202 195 166 159 150 167 179 190 184 168 159 155 164 175 165 155 138 140 138 126 105 132 112 147 121 152 129 89 136 158 105 129 138 184 169 160 145 136 166 145 84 112 153 83 83 95 171 133 151 94 113 59 67 116 101 113 146 95 108 97 81 78 104 86 70 57 45 66 68 51 60 64 95 105 124 113 117 118 93 116 149 144 137 115 123 157 146 165 116 120 143 144 106 46 68 62 125 116 92 180 118 99 179 142 90 65 187 127 130 119 115 148 198 183 187 196 166 108 171 89 112 165 190 83 79 179 173 162 165 79 108 148 164 147 122 187 158 148 195 200 163 183 184 170 91 97 188 94 101 185 114 130 88 80 125 171 173 67 72 104 140 62 71 155 70 81 89 161 66 125 110 86 26 44 118 82 71 135 53 127 96 177 158 83 137 155 113 169 123 139 61 104 84 99 173 100 183 73 61 119 49 125 75 108 192 172 160 167 165 174 148 101 164 184 151 204 190 126 191 115 124 88 162 88 82 63 151 165 175 179 140 143 152 115 174 95 124 186 148 78 58 68 124 139 167 165 162 111 184 188 84 94 176 153 110 153 148 67 41 48 132 62 101 148 198 106 153 164 146 123 112 84 87 149 140 92 99 94 86 72 64 124 90 74 42 37 66 73 120 178 105 185 113 114 156 91 188 111 113 150 109 105 60 157 70 88 168 108 170 107 182 163 181 124 190 84 109 165 166 176 181 182 81 169 64 158 113 160 68 79 122 124 97 98 146 69 159 170 163 128 201 96 200 112 156 164 168 92 98 118 105 147 90 142 40 138 111 158 93 199 177 169 178 90 159 116 86 178 165 198 147 194 152 160 127 47 163 171 204 187 192 139 113 201 142 109 192 82 142 136 150 80 152 98 87 79 99 182 91 147 181 188 183 209 103 86 137 141 149 66 137 83 57 165 127 61 150 57 99 186 177 160 153 126 168 192 198 78 62 69 142 84 161 147 133 117 106 110 160 233 109 173 156 60 78 96 176 183 94 89 127 106 155 197 148 168 119 56 83 52 139 110 151 91 95 147 172 83 166 60 64 47 148 150 146 167 97 79 166 147 67 161 82
183 165 150 139 145 151 168 182 193 184 189 177 163 152 167 166 163 164 168 148 149 163 176 174 165 161 171 202 208 213 199 177 172 171 181 196 195 171 151 124 129 151 172 179 169 156 151 124 161 145 128 146 155 142 102 145 87 125 147 151 159 174 137 186 255 147 105 166 104 61 115 156 134 80 159 115 136 160 108 92 153 127 73 36 59 75 99 98 154 86 100 149 87 107 119 74 63 62 95 56 57 64 95 80 87 94 86 86 87 130 175 118 128 118 73 85 84 99 123 121 183 69 149 80 60 104 72 111 180 163 164 94 58 60 156 177 107 220 112 197 182 182 174 179 80 85 95 130 83 171 163 171 199 140 197 83 173 100 77 137 137 139 105 177 151 117 211 201 103 171 145 176 135 86 160 199 100 173 121 148 149 122 167 127 164 165 116 54 149 166 175 84 139 189 84 79 153 73 62 51 127 42 96 121 76 95 56 98 85 65 75 179 122 141 96 180 139 209 119 77 180 122 180 138 180 175 56 114 124 30 97 99 171 79 172 147 155 70 98 132 135 104 192 197 156 115 98 145 198 96 188 174 53 94 93 58 137 170 94 147 149 67 79 85 167 111 83 173 176 73 87 65 98 101 96 177 98 129 102 62 144 62 71 158 140 110 50 111 130 112 58 132 144 90 173 95 176 101 67 102 66 170 140 136 85 188 112 118 117 65 47 61 38 114 58 151 100 106 94 181 63 51 66 61 181 88 195 205 129 107 138 109 77 176 149 177 169 111 142 192 87 181 114 107 192 174 171 146 182 115 152 87 176 66 80 96 97 64 163 113 134 49 76 90 101 255 182 168 97 156 96 149 98 152 149 78 147 146 166 129 96 122 133 121 147 157 94 100 130 102 69 163 106 64 164 170 146 91 209 163 173 97 65 151 160 152 101 124 225 186 200 100 150 167 91 104 129 162 75 68 134 137 90 148 71 125 103 189 113 104 178 182 164 185 137 63 84 104 55 121 50 73 172 169 151 157 89 184 152 176 155 49 152 110 192 88 165 161 152 45 64 136 145 80 142 154 175 204 187 183 96 135 109 190 114 120 186 92 146 158 196 207 175 108 149 61 56 79 76 74 72 154 95 132 149 77 129 130 71 65 129 84 156 123 122 86 123 86 140 178 174 157
189 170 150 140 142 140 141 147 163 177 173 180 176 184 180 192 178 168 164 164 162 173 173 177 167 163 181 195 221 218 203 191 180 188 195 199 191 169 137 111 126 138 159 175 156 163 166 159 154 183 163 132 135 125 149 95 143 143 156 111 107 130 106 188 177 104 133 136 111 127 155 80 125 81 136 75 84 140 142 108 91 132 42 107 65 68 87 110 115 91 144 81 133 82 90 88 104 76 108 71 71 89 87 109 108 79 94 111 75 156 170 107 103 96 140 135 137 101 100 128 202 190 70 60 61 139 94 99 90 88 158 131 55 122 44 109 194 105 103 105 157 89 111 57 103 163 171 79 152 192 183 184 204 130 109 128 127 174 112 121 77 164 56 69 130 172 200 161 255 140 71 83 118 163 127 152 158 172 175 159 96 68 98 70 83 84 158 68 76 157 192 134 146 155 113 93 119 172 72 70 76 161 139 53 135 133 78 114 104 174 76 182 166 85 190 203 116 214 100 131 176 181 179 95 78 58 110 45 98 128 99 109 169 144 117 89 152 138 160 92 66 90 83 168 104 202 109 156 192 193 91 118 114 81 68 109 176 78 123 67 176 139 78 89 152 63 76 163 143 81 72 90 96 106 184 97 109 100 102 132 74 79 79 81 133 105 52 152 58 47 97 50 51 150 71 146 56 134 74 122 79 91 110 131 134 72 99 103 148 50 35 111 117 55 33 93 74 77 75 153 96 57 89 63 59 140 135 156 179 195 146 185 104 86 180 114 178 193 100 177 117 87 207 113 213 138 92 199 192 154 190 108 168 105 92 142 160 161 130 157 69 148 77 152 102 102 178 161 103 183 117 100 46 149 73 160 129 62 89 91 44 87 20 52 62 90 101 65 112 126 85 117 133 90 103 67 137 189 95 148 93 160 48 131 155 111 119 194 230 139 193 175 181 169 165 111 101 168 168 52 59 69 154 160 187 194 141 119 183 170 115 140 212 168 123 64 42 61 139 43 132 59 111 94 157 74 166 161 145 141 79 69 147 78 160 155 80 66 127 134 151 108 167 106 108 148 88 208 137 179 117 201 103 204 133 169 124 127 161 143 164 91 164 149 166 148 173 95 140 61 108 145 54 148 166 152 145 98 151 71 88 149 88 54 49 123 79 155 118 190 184 114
181 164 145 137 132 124 123 134 147 167 176 186 199 210 224 204 200 176 148 147 159 163 169 170 162 166 178 201 213 210 199 196 197 200 209 205 194 165 140 130 139 156 173 178 176 172 160 183 187 187 169 160 114 134 105 100 119 152 132 167 159 117 159 149 156 176 159 114 163 88 107 135 165 77 104 119 84 84 144 173 161 73 115 72 86 70 93 170 135 164 155 145 81 97 122 104 110 68 70 51 81 63 114 85 80 103 79 65 137 119 90 82 77 52 42 120 63 91 139 130 123 111 173 109 92 142 157 81 180 160 183 72 84 54 53 68 88 157 94 175 176 74 60 98 140 149 72 108 188 92 194 93 195 196 94 91 91 185 147 193 181 158 63 158 168 123 194 97 141 78 58 168 172 137 89 191 160 161 163 82 66 151 139 110 94 129 114 62 146 66 184 114 214 179 195 97 171 110 174 144 131 71 161 79 139 104 71 125 91 67 79 138 131 121 176 99 186 105 105 201 119 140 168 200 179 150 41 135 137 40 50 125 138 57 153 151 146 79 152 137 117 129 86 78 174 85 93 143 181 82 179 88 137 185 135 123 128 166 63 157 134 95 182 74 56 125 64 97 197 143 124 173 161 101 94 89 148 87 71 108 80 154 74 85 138 93 66 88 118 59 102 102 60 144 120 58 58 112 136 155 73 132 163 59 98 52 49 154 152 43 70 30 51 53 86 154 67 153 114 42 35 36 64 36 107 116 117 118 118 167 144 121 111 174 116 175 120 123 64 58 163 186 140 123 118 138 177 205 205 126 97 172 110 188 185 129 66 159 90 159 142 121 111 162 201 94 94 126 132 182 176 101 89 134 137 127 91 47 137 126 120 65 63 53 24 122 122 83 123 146 86 16 33 44 106 92 113 80 87 83 134 144 151 109 181 149 153 151 235 131 109 158 89 66 98 87 146 179 146 117 67 120 113 111 195 212 122 207 166 148 108 220 117 111 170 120 32 37 136 147 73 156 125 140 79 182 185 108 95 150 160 151 124 166 163 156 88 173 166 140 142 169 96 164 85 101 165 171 101 117 204 147 178 146 154 206 124 183 64 59 65 84 101 155 162 121 88 186 179 70 75 57 111 55 137 79 81 167 179 133 117 170 116 53 89 104 60 81 91 89 191 138
154 145 138 137 132 127 119 121 131 153 167 186 197 217 225 219 184 169 156 151 159 163 158 168 172 172 169 192 200 196 203 203 205 212 216 208 199 177 150 150 163 164 172 173 155 158 155 177 175 180 139 137 136 118 129 134 105 141 172 119 158 141 116 96 120 148 95 85 130 114 164 132 168 78 103 85 143 75 99 177 97 83 84 48 120 136 113 109 104 153 94 112 125 101 146 148 92 69 65 45 54 108 82 93 75 72 90 67 82 102 147 93 85 56 70 137 75 82 124 200 126 127 110 103 86 92 103 90 98 148 184 156 72 157 150 175 186 137 117 199 131 122 125 160 46 66 160 184 92 98 149 160 149 176 83 112 136 187 113 133 81 162 103 105 115 112 116 182 103 141 117 173 114 85 110 96 127 193 96 83 144 63 115 142 119 183 142 49 136 135 147 153 188 212 212 95 79 147 96 197 173 92 117 91 131 97 141 167 92 68 100 132 71 98 132 177 106 101 174 159 185 180 118 187 69 62 129 42 148 42 150 158 156 126 159 124 52 131 49 55 54 64 144 66 142 80 166 65 166 170 166 77 169 137 208 143 189 172 169 171 93 100 109 167 101 89 74 121 93 106 123 161 186 121 180 86 191 77 159 72 125 108 95 84 80 75 150 85 160 144 72 133 56 48 139 44 53 34 40 68 105 151 152 54 77 73 150 107 139 109 49 54 143 166 107 99 79 149 38 119 37 27 129 145 66 115 120 157 81 91 118 84 123 99 89 150 71 100 95 104 60 180 125 204 214 170 106 130 202 208 105 178 191 117 197 139 134 64 153 77 169 193 185 214 217 116 90 105 117 186 141 45 57 123 139 63 110 67 63 70 126 123 29 52 23 78 137 123 64 90 124 79 21 102 159 71 77 137 107 171 164 48 153 123 93 107 131 136 130 141 115 152 145 141 73 78 110 188 76 68 161 112 184 110 127 127 111 151 165 151 103 192 165 177 77 146 84 142 153 89 105 162 79 83 150 93 186 120 196 79 167 160 76 112 151 189 171 97 106 171 153 92 122 91 114 86 149 114 200 119 210 202 235 182 210 212 121 180 74 125 166 64 72 83 106 170 77 89 116 162 154 88 144 62 56 167 156 172 100 156 93 88 65 150 78 71 105 87 122 113 153 108
121 123 127 129 129 123 124 127 139 146 146 165 203 221 224 219 182 160 145 144 145 148 170 164 167 164 169 176 182 194 199 199 208 220 224 216 204 188 166 170 195 198 195 196 167 159 163 169 173 167 137 124 140 124 102 129 101 110 164 175 108 169 123 173 125 135 154 163 145 148 205 156 125 118 84 84 110 125 107 85 83 70 92 54 65 89 163 117 147 101 99 145 149 108 121 121 100 69 95 49 61 117 119 101 126 117 126 87 94 165 90 113 81 62 140 71 143 89 101 117 203 121 93 73 86 87 190 97 174 103 177 94 126 144 126 82 82 95 188 101 131 97 191 73 164 151 133 113 97 175 182 172 112 147 124 95 142 109 102 111 134 113 99 158 174 193 204 113 186 165 91 158 191 141 185 200 108 195 86 182 160 174 89 132 88 175 90 79 121 67 119 165 156 228 159 181 195 126 175 92 83 131 99 155 109 132 88 159 107 78 93 186 73 171 134 132 163 182 156 193 185 134 90 97 155 145 146 66 88 49 70 162 94 79 160 103 132 138 116 67 66 121 168 92 156 140 167 114 69 166 122 172 142 117 138 216 146 178 99 155 142 173 199 165 61 40 123 94 128 108 182 123 190 168 153 93 187 165 69 141 107 175 153 178 139 108 87 156 99 159 107 97 140 166 69 86 77 42 106 78 163 68 55 113 36 80 108 145 122 106 73 168 146 198 103 121 65 80 54 58 79 74 79 53 55 72 98 191 81 100 80 137 141 105 86 85 111 154 51 148 143 159 100 158 169 130 109 163 207 132 152 93 156 121 93 172 173 158 153 161 110 106 187 229 151 115 176 153 97 81 158 56 126 53 89 81 77 94 56 59 128 69 84 38 121 19 37 78 178 175 57 91 63 160 71 74 69 163 77 168 79 142 75 105 91 116 175 212 230 214 144 123 151 64 75 84 108 195 100 186 179 103 108 142 136 198 183 190 124 188 102 108 186 199 187 73 64 80 130 113 156 180 93 135 158 155 163 190 125 108 109 147 129 79 173 178 178 154 181 132 112 102 103 137 186 94 149 189 131 98 199 133 187 163 219 127 199 194 128 85 125 69 160 116 61 64 69 86 198 117 186 121 83 165 153 65 67 125 203 184 152 144 55 160 77 185 121 180 171 79 139 200
99 109 121 129 133 131 138 134 143 138 139 155 172 206 208 199 187 151 131 130 142 157 175 194 192 178 180 170 182 180 197 204 214 216 219 205 200 188 181 188 205 220 207 198 180 166 164 153 255 182 178 165 149 117 118 108 134 124 157 170 115 155 142 153 127 104 129 149 95 111 194 189 107 120 75 114 116 86 113 71 84 78 133 47 72 130 113 144 113 116 124 109 114 110 129 92 103 66 72 77 93 89 127 121 68 88 100 139 107 94 105 82 97 113 88 90 74 79 173 146 92 81 69 152 69 127 80 135 191 110 144 207 97 194 80 139 181 94 190 176 182 104 107 196 180 139 173 91 165 170 166 67 154 165 116 134 150 190 186 137 175 164 161 164 171 147 183 208 125 195 191 111 203 190 190 104 200 144 147 99 83 121 193 106 148 129 82 159 64 179 149 190 189 131 221 167 166 92 132 149 100 186 184 81 127 154 173 172 172 172 196 190 108 103 140 139 108 99 186 175 183 98 88 139 86 141 137 88 162 157 167 128 191 186 120 161 156 154 159 82 177 97 196 192 180 170 72 145 77 170 113 102 209 181 137 126 104 77 174 108 194 187 167 136 111 144 48 159 160 185 130 131 182 168 166 161 86 153 167 62 71 97 128 134 82 171 139 114 164 141 99 174 122 171 162 63 51 94 53 122 172 121 100 47 92 138 54 118 129 159 114 94 119 114 94 121 174 57 143 143 255 65 77 145 112 63 88 183 99 70 135 93 119 165 83 179 83 56 83 148 101 175 171 163 170 63 149 98 161 106 173 168 142 165 164 127 157 60 119 70 197 151 221 215 119 139 106 101 132 140 183 60 93 44 115 181 157 107 161 91 136 150 64 71 112 35 48 106 147 96 86 129 155 101 161 162 160 144 166 143 126 142 146 153 152 96 168 111 189 218 130 88 74 166 167 164 163 99 91 97 151 204 106 127 179 150 181 192 94 197 103 196 130 127 180 255 116 84 79 82 102 166 202 120 88 183 171 161 202 175 182 87 173 168 116 172 151 182 255 93 156 184 182 200 97 103 190 199 210 99 155 195 105 128 188 149 180 123 126 199 187 135 142 61 61 106 137 82 155 96 86 162 158 135 53 158 66 185 177 95 153 104 49 52 65 97 112 126 77 150 107 182
96 106 117 128 138 146 156 154 149 141 134 135 149 170 184 194 172 142 142 127 130 148 179 191 207 197 184 180 177 186 189 194 201 201 202 195 190 182 177 179 181 209 214 180 182 163 164 162 159 187 193 153 152 97 137 89 122 132 143 131 153 138 157 91 163 105 156 157 141 155 147 149 97 173 123 83 128 81 73 123 76 116 65 56 58 88 109 172 147 148 160 131 125 112 102 93 75 98 93 54 69 92 79 69 76 104 93 80 93 86 88 97 124 165 94 81 148 96 72 90 75 123 87 46 53 137 70 164 109 169 114 174 190 87 164 182 96 132 159 105 189 212 178 115 181 197 175 120 110 191 93 124 110 67 131 172 127 112 144 135 255 145 169 169 191 119 172 199 107 122 195 174 114 192 154 125 115 96 98 99 76 101 137 108 78 96 165 120 157 182 92 190 158 181 176 185 85 162 132 184 193 94 97 186 106 65 88 115 173 176 179 204 126 195 112 109 131 107 198 173 186 84 117 144 99 136 155 155 182 128 180 189 111 135 69 117 38 144 113 161 180 172 203 96 189 90 164 166 194 134 143 91 191 163 165 185 78 165 174 120 190 148 112 159 141 97 80 123 93 188 216 193 104 175 105 167 71 132 177 123 185 196 120 98 117 90 158 63 70 107 146 85 107 67 117 63 149 153 154 77 68 67 29 46 12 49 141 109 108 162 125 202 91 108 108 76 171 92 159 58 131 72 178 146 66 105 70 138 124 68 164 154 67 92 83 81 148 91 68 162 163 167 91 84 157 76 97 182 157 159 133 78 65 82 124 154 77 66 57 142 115 112 216 114 127 114 133 85 150 150 170 143 152 132 65 103 101 193 167 117 94 127 107 93 98 71 146 157 84 179 109 88 166 177 156 128 127 63 154 133 59 77 41 118 66 169 188 116 217 212 212 163 136 81 159 93 190 151 157 200 180 102 92 91 88 180 83 177 121 136 139 105 193 139 160 136 144 158 73 133 161 134 188 109 132 82 131 183 193 183 103 171 119 173 111 205 133 95 84 123 88 101 118 194 179 188 160 161 163 93 133 129 169 90 112 201 165 126 142 163 197 88 92 93 173 76 162 152 165 90 139 136 42 111 151 87 65 180 144 113 127 120 112 114 63 86 90 97 165 97 86 72
115 122 129 142 156 168 166 155 141 131 138 143 147 162 184 186 159 156 134 134 144 164 177 208 200 199 186 188 183 176 183 186 185 180 184 179 175 176 173 180 191 192 184 198 185 156 143 158 192 185 161 137 154 145 106 145 148 90 149 119 100 95 76 152 92 163 87 109 84 163 99 170 152 98 176 133 83 153 65 62 110 47 125 101 62 88 132 110 108 141 144 110 110 141 83 72 71 57 42 67 86 84 83 63 63 45 60 70 65 116 121 93 102 87 77 119 134 73 96 159 100 83 69 54 45 86 76 183 215 124 180 175 188 73 157 95 182 75 177 173 150 113 128 216 224 182 128 122 172 164 151 169 167 68 95 163 163 138 128 169 194 190 154 181 153 189 116 172 202 112 203 207 126 123 183 96 88 77 168 146 161 153 94 168 135 74 84 109 95 112 124 106 172 94 192 168 127 113 169 89 166 106 111 203 183 76 159 115 91 201 114 221 199 219 179 173 110 176 201 192 113 172 90 138 68 139 70 87 91 194 193 191 121 195 157 145 134 91 89 156 172 99 94 200 193 160 95 193 151 178 143 87 84 101 70 104 156 163 85 182 107 188 185 131 151 148 66 114 135 211 198 210 132 176 83 82 80 182 142 188 117 146 189 144 166 89 111 86 62 62 146 164 75 150 41 88 67 112 69 139 88 117 55 47 48 45 58 188 109 128 213 102 83 124 56 137 123 102 117 69 108 172 162 74 88 79 119 56 90 171 166 111 92 67 176 90 194 102 137 83 51 90 103 156 145 114 74 94 96 184 195 87 110 156 108 171 163 102 76 168 162 122 205 190 192 95 85 160 135 154 150 93 86 153 146 198 97 179 96 58 154 151 64 147 134 122 150 97 188 164 112 158 146 162 56 156 63 156 50 139 67 68 61 47 158 156 190 124 196 141 164 194 148 70 160 150 94 179 110 110 174 123 118 186 155 155 181 91 106 112 123 94 92 91 128 178 144 106 102 165 141 115 170 166 169 100 156 187 196 166 193 197 89 130 154 218 111 126 186 92 96 81 118 73 76 88 88 175 119 153 129 152 90 78 112 189 160 155 198 197 126 158 132 103 114 180 172 107 124 141 136 142 70 142 51 131 128 103 133 197 103 66 109 101 153 133 144 139 108 148 149 49
139 143 150 159 172 180 176 158 144 140 143 153 173 181 184 176 169 155 163 156 159 159 177 185 194 213 190 189 178 171 181 179 184 178 170 170 182 179 173 170 174 187 194 176 190 184 183 182 190 205 199 199 150 134 103 123 137 152 159 80 144 138 83 102 84 92 112 120 142 151 73 101 68 98 82 107 115 81 96 61 67 70 89 58 70 117 97 152 110 102 98 54 82 67 132 100 96 60 83 48 97 64 68 104 96 53 40 49 110 61 69 91 55 129 89 94 133 153 79 75 104 134 90 57 116 74 69 197 206 115 106 93 83 134 82 177 81 180 72 185 204 217 229 230 227 119 171 182 102 150 176 154 171 131 159 145 70 90 161 174 149 92 164 156 127 86 155 173 166 148 154 109 105 99 109 171 136 151 106 164 156 58 131 154 107 79 191 126 186 79 144 167 182 162 185 146 163 118 84 126 194 214 124 189 158 89 177 70 81 203 206 207 145 135 164 172 108 187 190 132 148 202 122 144 131 95 129 143 177 92 188 193 199 174 68 147 37 31 113 45 119 79 89 103 93 172 180 186 196 187 144 154 154 118 119 48 143 102 123 178 184 127 193 97 168 59 157 165 188 141 122 106 168 145 80 150 155 152 167 122 196 139 110 95 69 51 82 116 115 60 130 118 150 35 46 78 82 114 72 139 164 62 137 150 51 107 123 124 102 151 210 194 142 102 82 128 152 134 105 92 79 84 103 164 78 105 63 92 98 103 147 63 95 103 83 182 136 108 154 56 151 52 59 123 122 90 142 122 210 158 164 98 196 158 191 89 168 84 94 72 75 89 83 82 173 169 84 66 89 106 194 195 143 172 170 133 137 124 137 83 149 111 74 162 155 65 54 162 156 123 123 105 152 74 66 59 59 114 71 60 142 152 51 146 154 73 118 92 114 188 143 214 115 122 178 103 123 99 124 177 132 188 172 144 99 91 125 167 129 126 151 184 129 114 188 190 187 96 196 186 183 78 99 130 183 97 75 129 104 166 204 199 200 107 120 146 156 121 175 169 113 171 53 155 107 139 75 114 158 179 113 172 103 72 115 200 116 159 153 161 147 145 109 142 145 144 88 85 154 63 138 129 102 54 46 53 84 116 103 174 176 61 162 153 92 179 92 182 170 85 54 38
163 167 169 175 179 179 167 157 153 152 163 174 186 182 187 169 161 162 171 156 159 167 171 183 199 191 181 178 167 163 178 185 195 185 183 181 189 182 194 187 182 176 179 173 190 193 167 187 184 196 174 159 173 167 177 138 201 188 143 156 154 100 164 121 108 151 97 130 128 56 121 126 73 136 100 80 96 76 104 142 60 102 80 68 77 93 170 98 156 65 94 42 58 113 74 112 91 80 79 71 95 90 127 75 116 59 76 44 57 61 107 50 83 71 115 97 108 108 85 80 103 137 185 119 108 77 132 126 127 224 208 178 94 157 146 194 100 84 178 183 203 211 226 222 138 121 149 90 177 68 170 72 97 122 68 36 43 61 123 140 165 147 173 167 178 180 100 165 156 95 176 186 191 96 63 67 60 148 133 167 140 87 153 162 89 182 114 117 83 118 179 104 201 107 96 131 172 104 183 112 169 187 194 111 157 150 111 86 185 127 116 185 166 125 138 137 109 158 100 175 190 151 135 153 133 110 169 200 188 107 185 189 143 97 190 106 58 75 67 145 134 156 109 165 156 151 169 172 184 192 86 177 143 134 64 130 80 85 162 160 122 85 140 133 171 60 125 90 111 206 117 86 125 135 183 184 165 113 180 113 89 163 136 135 77 54 152 50 119 60 76 111 81 71 18 86 98 178 181 80 171 115 64 161 108 84 179 141 107 156 130 147 151 104 62 96 57 86 98 82 93 153 112 77 168 120 67 115 70 173 167 154 73 75 190 176 210 92 130 125 67 132 124 80 108 199 141 132 154 215 171 161 191 161 163 160 172 155 84 75 167 72 86 105 178 139 74 78 153 162 151 128 127 200 126 159 167 127 151 120 98 152 121 149 175 133 147 157 193 105 106 166 64 166 144 74 138 94 84 87 151 89 129 154 88 74 140 116 123 162 205 103 255 106 114 118 115 105 191 111 199 168 192 115 117 70 67 183 181 193 139 177 77 191 88 140 111 148 196 175 153 166 86 146 108 158 169 161 200 196 115 179 198 139 232 226 188 188 134 106 122 158 97 36 110 57 129 160 181 180 173 118 163 161 93 213 179 183 139 179 89 171 110 147 187 170 155 138 69 132 103 31 69 103 48 52 87 181 99 77 170 163 170 90 82 97 83 80 158 145 28 36
178 179 176 175 165 164 157 155 158 159 166 175 185 175 188 174 165 171 176 154 147 158 155 179 183 184 162 156 146 163 173 196 202 200 193 193 188 192 191 188 183 162 168 178 160 172 188 186 177 193 183 200 186 195 137 188 186 196 185 167 121 183 132 129 143 166 111 152 97 86 103 119 109 99 122 89 124 143 77 133 123 152 127 96 130 145 114 150 86 61 95 49 83 117 96 136 117 94 120 97 61 85 89 94 88 65 65 68 77 124 74 64 90 90 84 106 98 91 137 77 105 187 87 182 74 97 71 116 112 127 123 152 120 213 103 196 193 186 197 204 106 112 204 125 97 159 183 75 114 123 72 156 61 122 107 124 95 154 70 183 104 168 105 175 161 103 152 186 124 172 146 114 121 107 116 81 137 105 142 100 70 126 144 164 150 155 120 103 162 181 128 164 107 177 145 178 177 137 197 175 197 103 184 179 187 157 142 203 164 118 212 216 201 115 98 165 161 89 142 169 168 177 92 151 114 191 150 134 103 174 105 190 184 194 203 175 68 86 41 75 150 160 64 99 93 154 79 94 73 78 142 178 65 160 45 139 75 70 120 176 68 79 184 132 131 66 100 184 94 147 190 92 99 91 188 114 157 115 162 182 105 71 166 82 152 122 108 101 46 49 163 117 80 34 89 27 156 146 107 184 121 50 81 51 157 98 71 180 189 193 131 188 75 86 76 91 32 154 69 80 128 142 145 109 75 78 138 107 62 164 76 133 132 126 137 205 130 117 178 115 160 162 77 152 192 194 203 111 206 107 174 143 135 108 178 96 176 119 73 169 66 62 157 126 61 107 72 69 174 108 157 162 113 98 148 174 102 136 66 163 115 98 151 106 181 159 130 102 180 139 112 97 130 158 178 185 79 67 119 143 57 118 154 149 107 56 115 91 67 104 172 177 149 160 140 183 128 184 212 205 114 113 86 131 106 46 145 165 185 174 167 133 149 112 75 92 177 191 103 164 143 133 177 155 101 119 132 162 94 145 139 79 199 210 128 190 168 196 160 163 78 151 144 115 33 64 134 99 138 161 108 90 72 172 94 157 126 102 163 151 59 147 100 111 191 161 83 90 65 105 29 49 60 155 113 65 167 99 79 145 170 102 145 94 186 122 176 117 70 59 34 16
187 187 177 163 146 150 149 149 153 153 167 165 180 186 186 178 193 180 183 167 145 139 161 172 175 167 150 141 147 154 174 195 209 218 213 196 189 171 177 171 184 185 180 168 175 161 164 177 185 187 163 200 163 159 187 201 198 164 195 195 194 194 178 117 107 138 165 117 105 99 124 105 101 117 102 141 110 78 86 150 82 116 143 122 99 103 100 90 99 72 107 83 102 85 145 116 114 111 133 72 63 75 111 99 110 102 117 102 140 113 98 93 88 113 127 143 126 77 149 146 165 80 174 172 169 130 124 92 112 145 184 123 116 166 204 188 89 94 143 190 205 106 200 170 66 137 53 122 94 55 160 174 73 147 107 109 52 58 157 94 184 124 170 107 69 162 98 120 190 103 113 159 90 109 106 123 53 158 165 173 167 101 58 148 53 152 116 149 198 210 214 214 136 192 148 137 102 153 196 134 211 144 85 74 78 118 158 202 191 129 128 127 112 75 99 141 183 126 131 98 165 175 149 139 126 196 185 117 187 187 92 189 98 207 212 208 184 60 72 103 69 166 167 151 119 78 119 164 129 105 124 155 183 78 172 138 171 160 111 168 87 161 172 173 92 133 104 132 191 106 95 103 177 129 107 124 178 189 88 75 94 127 79 111 168 131 114 45 102 119 136 126 146 36 27 60 52 120 186 142 85 71 101 50 93 91 75 96 93 91 99 117 76 117 130 59 45 136 121 89 86 143 155 94 89 83 146 63 85 152 139 94 131 109 223 114 108 93 88 140 148 123 66 120 82 190 91 97 100 146 101 95 202 193 122 155 147 165 122 129 62 63 104 147 70 164 66 141 170 142 172 103 81 143 88 133 69 145 81 118 111 161 184 181 146 85 99 112 162 134 185 114 96 157 86 139 137 185 165 68 105 165 149 105 142 82 53 48 57 44 105 125 80 94 81 175 87 145 120 99 85 103 167 114 54 41 156 136 127 102 181 93 146 95 133 76 87 82 159 106 85 87 103 191 175 134 197 192 178 159 116 173 111 201 204 213 102 190 109 90 129 75 145 26 39 87 59 74 55 165 178 74 64 117 164 192 118 165 119 63 59 91 87 103 170 132 169 145 97 126 146 97 155 63 69 163 70 162 134 82 79 161 148 103 147 181 72 164 42 126 24 20
186 183 168 146 129 131 140 147 156 168 163 164 164 178 188 188 197 205 186 180 167 145 160 163 178 166 146 150 142 159 172 187 213 223 224 210 179 156 162 167 182 188 171 158 162 164 160 162 156 152 150 182 174 190 202 204 201 207 202 173 190 177 125 127 133 188 117 100 99 57 86 121 151 155 159 169 90 82 69 92 75 81 115 101 104 105 98 117 136 79 88 91 96 112 134 138 170 112 106 112 130 120 105 98 120 125 85 84 95 123 113 121 124 139 125 86 69 84 75 95 101 65 82 80 98 154 76 79 187 95 188 197 181 210 175 88 91 110 196 109 207 102 143 166 160 140 41 150 155 164 181 90 194 179 176 137 164 148 178 80 150 74 170 170 166 86 153 115 183 177 171 84 136 116 144 70 131 86 93 139 162 140 147 54 70 69 74 158 192 110 212 132 132 187 176 66 86 146 81 94 121 174 159 118 132 100 197 95 179 178 215 148 161 71 148 74 101 154 104 144 121 72 174 90 154 172 115 94 105 147 136 192 143 184 176 180 176 162 141 118 191 99 161 149 171 61 152 108 154 166 172 181 193 111 89 89 126 190 132 100 131 69 70 96 146 156 74 171 95 136 95 153 174 104 206 169 100 163 129 155 114 106 141 64 77 106 86 62 108 56 57 44 102 99 97 136 42 62 76 122 92 97 163 160 56 88 124 50 97 171 181 154 166 92 41 43 62 72 151 125 91 182 197 102 96 94 83 93 145 149 150 181 210 118 189 164 98 73 138 75 138 78 145 140 174 133 88 184 111 180 133 144 173 95 90 173 118 160 53 158 76 162 59 146 99 75 255 57 120 155 52 155 122 154 65 91 84 155 158 131 158 202 204 186 168 83 147 60 113 140 159 137 178 87 170 190 96 121 185 160 74 158 74 68 137 88 135 61 135 104 97 25 30 94 58 138 182 187 99 154 105 89 95 97 36 79 55 70 132 170 187 105 153 127 147 107 159 159 170 106 73 93 155 161 106 203 123 193 111 75 74 137 85 195 93 165 150 170 103 180 93 163 70 24 93 104 34 46 141 137 140 150 59 78 168 79 182 160 87 43 154 155 131 98 140 79 76 71 78 162 63 106 82 103 86 147 65 68 77 186 199 121 192 120 89 136 145 52 111 84 134 35
182 178 163 139 125 123 128 146 154 164 164 166 172 177 168 184 199 205 185 187 177 174 172 177 180 182 174 167 160 158 173 186 215 231 228 205 177 160 150 155 188 192 165 171 159 165 149 148 168 171 135 149 165 146 194 152 167 163 165 171 129 117 179 183 164 195 155 185 136 129 109 110 102 147 85 136 108 53 111 53 57 145 126 162 126 92 84 148 84 160 158 153 106 124 124 130 114 119 111 80 101 123 84 117 77 95 97 112 112 105 112 119 171 138 178 86 95 73 108 166 98 76 71 130 72 61 120 59 107 179 96 130 147 99 158 185 118 151 193 100 202 112 145 172 75 141 134 48 148 156 99 181 127 206 190 127 140 191 158 188 91 167 127 158 146 172 144 177 102 87 166 120 102 155 94 141 139 142 172 106 150 59 79 104 96 92 183 159 216 195 101 191 179 132 129 157 80 61 143 111 80 168 77 141 153 76 183 143 141 97 100 179 170 48 126 130 67 88 125 149 66 97 166 164 89 110 177 164 90 131 172 200 205 158 201 187 121 76 153 125 212 223 130 176 185 165 175 131 169 124 180 185 158 124 189 177 156 143 179 69 80 118 163 122 98 195 126 173 162 123 153 126 177 124 180 110 199 111 78 64 137 84 41 122 94 90 170 80 90 57 73 103 127 62 34 84 142 86 97 166 168 107 109 166 129 85 146 116 49 60 106 157 84 81 87 55 128 129 98 90 170 168 113 131 128 188 146 154 68 151 172 128 208 206 108 95 173 138 73 170 161 129 183 74 84 85 195 90 152 112 189 121 194 93 172 153 65 152 110 158 100 169 67 55 148 61 122 114 117 138 49 57 113 52 147 93 112 188 143 195 167 190 187 149 186 163 160 146 81 158 121 176 83 80 163 87 191 183 152 129 97 89 104 84 85 180 134 63 81 111 67 36 136 152 112 77 180 93 187 154 83 84 64 80 46 91 175 186 108 202 190 181 84 128 150 91 51 148 82 88 115 164 186 142 112 209 203 195 190 76 87 165 174 77 78 109 87 190 195 90 94 65 41 51 105 70 56 52 139 142 139 137 131 165 91 107 105 99 75 55 143 76 96 142 87 103 111 156 163 167 176 154 91 156 138 66 161 101 101 86 164 208 129 102 84 112 152 255 77 132 84 86
177 175 163 146 124 122 135 154 157 173 179 182 178 175 163 162 174 169 186 182 167 182 180 196 190 202 196 178 174 165 170 190 208 218 216 201 180 151 158 163 174 186 180 170 161 157 139 155 167 130 168 184 130 169 149 157 134 182 180 181 127 168 163 164 173 196 162 98 115 42 89 32 106 106 93 43 109 38 103 112 68 83 143 129 146 84 84 131 146 109 151 94 153 100 102 99 92 122 101 81 103 87 84 83 73 85 66 81 109 100 106 175 120 154 128 87 126 107 77 149 86 71 155 146 81 104 157 158 66 137 172 190 163 184 180 102 80 84 192 191 199 93 180 67 156 150 149 153 90 185 146 107 184 189 149 198 103 169 94 87 102 124 145 157 100 111 149 78 176 91 80 99 182 186 162 172 159 160 190 150 117 116 156 140 95 121 190 142 107 185 186 74 123 99 173 77 166 157 166 163 181 143 140 54 132 159 163 91 140 88 185 146 131 43 41 123 98 182 149 157 112 155 73 155 104 166 127 75 112 103 162 169 182 188 139 124 149 157 188 165 231 141 223 158 187 80 75 71 166 157 177 171 169 159 80 89 87 101 68 56 116 60 118 87 104 112 103 171 115 152 161 124 144 126 137 155 133 166 79 62 90 67 135 178 92 102 185 97 67 71 95 70 113 52 54 59 103 72 85 142 103 193 95 80 63 66 130 124 31 37 118 101 122 143 84 167 105 145 92 79 157 97 116 198 161 153 81 145 132 139 156 157 98 201 119 185 171 145 59 172 150 114 188 95 166 156 197 172 120 174 129 100 201 191 80 67 158 121 53 142 135 133 149 91 113 126 80 92 107 177 167 57 60 99 35 156 171 100 93 139 148 210 129 194 186 65 123 94 161 153 82 148 85 180 76 179 130 175 82 134 184 136 79 136 177 95 145 101 123 133 35 40 155 167 170 162 186 110 134 86 167 104 132 88 90 78 180 155 118 105 122 191 104 187 66 131 69 158 48 139 72 88 68 82 91 96 176 150 167 83 172 114 78 129 104 175 99 85 171 151 182 170 130 102 75 103 100 120 86 89 72 167 84 99 97 124 114 108 152 144 141 139 170 175 125 85 97 135 163 92 113 177 197 133 169 105 167 162 170 95 158 109 116 174 53 32 68 71 128 76 156 135
178 180 174 154 140 127 135 155 168 174 175 171 170 168 158 152 159 164 163 168 169 177 202 210 218 215 197 195 179 167 179 193 204 209 203 191 183 168 165 159 164 165 168 167 167 148 165 168 154 160 157 128 123 152 153 161 137 136 118 166 165 102 176 115 130 114 137 109 60 97 77 23 36 125 103 51 28 59 144 149 91 102 92 100 81 157 85 83 79 102 68 64 64 75 76 86 74 77 81 101 94 103 81 92 122 74 63 119 96 79 130 106 141 117 147 87 82 69 151 86 173 73 121 108 54 71 119 102 55 65 83 148 113 176 92 102 185 132 180 77 136 122 190 174 70 56 125 73 78 159 140 190 192 172 200 163 101 109 173 129 156 154 82 140 104 153 97 127 150 165 113 163 168 123 124 136 198 199 181 97 117 74 111 91 174 152 113 151 183 201 150 102 137 142 170 143 174 183 98 91 91 148 111 145 142 54 134 161 110 88 89 82 116 151 111 120 163 98 123 106 151 62 164 162 99 132 122 75 187 167 161 193 186 189 79 149 75 143 197 180 226 229 114 102 197 149 172 71 67 123 57 149 140 97 139 108 148 158 149 125 84 102 71 189 127 174 150 118 149 175 92 186 164 199 188 202 178 183 66 104 112 88 75 169 108 139 106 194 90 172 87 84 82 74 104 144 135 63 71 172 124 209 162 181 92 72 92 36 55 56 69 138 82 154 112 92 82 121 60 84 56 146 131 107 181 82 82 63 127 152 166 146 152 165 168 185 163 133 54 159 88 189 97 174 188 150 201 196 106 194 182 186 198 162 106 149 144 95 56 139 167 146 107 137 51 75 118 161 182 192 154 72 84 68 141 61 114 101 186 121 110 203 203 114 195 139 75 155 81 186 98 146 152 101 79 101 139 90 172 128 89 198 192 160 178 164 189 89 49 139 145 149 112 174 108 193 197 107 104 98 178 67 75 73 103 121 179 135 159 174 189 164 167 90 174 158 125 124 42 105 93 28 132 164 175 158 79 173 176 94 118 189 109 106 176 159 109 98 178 158 134 172 110 84 25 114 71 98 190 82 169 98 89 154 147 165 165 103 147 159 135 67 141 89 164 81 86 161 161 135 169 100 198 105 135 137 70 67 101 193 111 122 103 81 63 128 64 139 152 127 152 167
169 173 175 162 146 139 137 154 162 178 172 169 173 159 171 155 133 143 154 163 170 167 198 209 219 219 196 191 178 171 178 189 197 192 196 255 190 177 172 163 167 177 171 149 147 157 166 159 135 140 122 152 145 111 117 93 118 145 173 141 160 84 165 183 167 141 135 74 134 94 38 40 117 120 43 43 43 90 93 101 135 94 97 132 94 101 123 102 128 139 76 95 63 97 108 83 56 59 72 101 76 79 73 84 77 113 101 113 56 69 83 125 141 185 105 83 82 95 73 76 176 71 81 97 60 92 58 60 55 86 140 127 156 73 72 80 93 83 141 93 182 181 110 141 77 97 80 170 115 102 105 177 208 131 193 178 182 107 109 186 72 119 148 122 156 127 166 185 153 125 160 181 175 149 179 144 93 127 147 111 125 124 137 200 183 103 159 130 144 177 73 151 44 144 62 82 146 157 103 200 94 143 153 39 91 88 62 162 132 163 76 154 157 65 126 164 118 128 172 126 91 57 105 150 85 150 91 60 82 151 142 106 91 181 178 177 91 173 134 198 185 217 133 125 120 187 106 87 143 150 137 111 110 64 73 121 146 94 96 128 50 59 138 99 176 130 212 113 152 106 93 174 177 82 145 124 182 132 108 134 134 67 163 142 111 171 154 133 105 111 107 113 161 197 147 109 186 186 96 183 178 120 100 79 59 123 119 57 79 114 102 68 81 122 163 100 104 113 142 35 93 113 73 79 101 136 78 64 170 172 151 181 132 128 126 92 156 84 55 133 163 111 172 139 126 156 107 87 105 190 186 99 103 165 58 147 121 115 160 149 116 96 135 135 120 109 180 152 161 145 146 203 176 166 99 162 70 149 255 167 147 206 124 212 150 84 98 158 110 92 106 110 207 102 130 157 110 90 116 170 171 133 114 188 91 192 181 88 139 154 118 102 74 131 93 94 122 173 204 177 117 131 154 74 90 112 195 91 181 107 138 194 141 183 177 73 62 89 130 103 114 130 63 131 64 58 85 150 112 101 86 160 106 88 196 101 169 126 71 145 162 175 164 116 81 130 148 174 189 184 154 140 97 108 118 132 181 164 182 77 67 67 168 131 86 153 81 142 69 70 151 123 75 182 111 101 144 109 119 98 136 107 101 88 130 45 39 150 73 174 141 107
145 155 165 164 157 145 145 146 163 160 167 149 157 165 156 143 133 140 148 157 164 179 194 211 215 214 196 167 167 168 177 187 196 195 197 196 198 187 182 179 168 184 177 143 157 141 162 169 177 159 110 141 107 105 115 142 98 169 163 131 150 128 174 179 113 171 134 126 59 118 65 142 60 131 97 52 65 114 135 99 158 97 91 150 123 122 97 163 85 78 42 34 62 34 81 45 52 64 88 59 64 95 98 100 85 115 67 96 78 82 85 101 128 186 102 116 88 82 111 81 77 75 71 116 53 45 64 53 160 82 82 166 75 159 95 98 142 135 182 125 72 187 193 89 189 179 134 178 181 145 143 175 179 104 206 180 200 202 177 103 149 176 131 174 107 141 205 138 151 172 172 194 119 124 158 144 79 94 86 148 145 116 100 163 152 183 95 125 99 106 169 154 117 99 149 186 145 212 167 255 115 75 97 120 138 129 255 129 182 178 103 108 57 155 151 143 166 95 75 175 92 142 170 176 87 118 174 141 164 81 89 191 99 151 141 72 181 179 123 206 155 97 196 162 106 191 175 96 119 133 123 50 9 112 37 124 72 113 42 139 48 65 88 102 114 215 153 178 212 167 106 113 149 172 168 80 143 104 85 146 87 80 131 119 211 224 166 126 152 218 110 191 176 101 122 218 111 121 131 109 153 128 134 97 74 57 134 53 84 75 73 151 123 79 83 174 177 78 50 54 77 83 85 109 188 172 170 172 153 80 89 94 173 162 175 177 74 90 97 63 44 64 152 182 77 95 114 164 154 144 111 167 163 77 116 79 130 162 151 125 146 138 98 146 57 83 102 129 163 150 197 174 89 101 64 99 80 99 86 128 107 115 217 211 118 148 93 140 94 138 190 115 198 171 170 152 133 165 65 80 89 114 109 200 164 92 126 110 129 66 162 95 93 150 104 193 178 95 192 119 67 98 159 73 162 166 156 146 68 91 76 178 191 97 128 73 157 97 112 135 126 134 27 133 135 78 60 174 142 173 167 157 171 97 117 116 199 172 96 130 157 89 97 80 86 54 52 94 157 164 164 77 109 177 79 163 137 184 117 160 45 100 173 153 121 86 78 91 125 161 78 101 68 155 66 67 95 76 162 92 168 198 185 163 136 111 56 63 154 172 85 200
103 120 142 151 152 144 144 150 163 163 155 161 167 152 141 138 123 143 155 160 166 179 196 220 219 217 194 163 158 153 158 177 185 193 199 206 208 206 192 191 189 187 173 143 150 135 154 144 177 153 155 132 129 115 135 133 129 191 192 181 121 169 134 154 182 128 128 155 94 122 101 79 94 84 110 101 164 118 87 83 74 146 87 146 141 169 87 74 102 63 112 37 28 65 88 51 62 69 74 84 62 108 65 81 141 130 73 82 79 94 121 113 114 116 95 123 159 117 110 90 142 164 76 128 65 132 147 110 149 132 202 90 140 184 92 115 149 193 76 91 67 181 187 122 182 187 80 81 88 176 86 116 191 180 167 168 109 211 193 199 160 192 190 152 211 160 135 190 197 168 95 140 179 182 177 152 166 167 166 147 70 153 78 134 169 100 200 170 93 91 124 165 151 147 128 183 164 159 188 157 191 121 98 145 144 132 126 160 94 155 64 56 149 117 65 84 115 152 168 165 79 145 183 91 189 92 164 158 156 138 79 71 168 77 135 171 135 157 174 123 166 128 102 167 136 101 152 121 150 156 144 48 122 85 105 123 135 100 106 72 59 173 185 162 198 129 114 120 208 133 177 108 151 78 81 166 167 140 91 63 176 92 134 140 89 206 229 129 207 114 104 156 93 104 164 138 121 167 119 121 126 206 173 81 142 107 156 115 90 180 182 102 134 178 145 144 81 70 158 97 134 155 164 169 111 161 82 103 82 98 163 173 182 109 168 93 136 74 59 128 56 100 148 192 102 142 176 165 179 90 175 69 151 143 52 157 128 81 76 158 127 156 60 129 62 166 153 138 181 198 94 177 175 110 101 175 78 164 93 80 160 97 129 144 150 174 177 105 173 122 184 115 200 108 206 148 188 117 154 186 127 166 174 202 174 101 103 114 94 80 82 111 176 147 98 153 186 143 144 89 166 124 96 78 151 154 77 44 47 138 167 116 110 120 109 136 188 183 124 67 78 73 46 135 106 156 148 168 124 181 158 99 191 152 141 143 94 88 135 139 85 174 106 113 65 81 146 84 125 74 168 162 100 166 183 109 178 164 157 102 61 168 180 149 193 117 116 141 118 153 158 76 86 87 128 126 113 103 180 73 80 78 180 155 76 149 74 81 107 61 182 95
70 90 116 134 142 149 158 158 169 168 167 171 157 140 136 128 127 131 156 177 168 174 184 199 212 198 185 171 161 157 162 166 183 192 205 219 223 221 196 198 193 193 183 169 170 152 178 164 179 176 118 117 148 152 144 157 188 166 180 136 120 104 174 118 174 164 82 156 112 172 92 95 140 154 82 91 104 140 117 163 80 88 92 125 144 88 94 55 131 68 96 38 71 67 85 50 65 99 79 85 82 84 64 130 88 92 96 75 72 100 111 134 97 177 99 167 96 129 113 94 157 81 112 84 185 170 100 80 87 99 127 151 91 112 99 158 107 184 97 129 151 154 138 86 171 134 68 97 78 69 162 157 167 170 108 191 198 165 167 168 178 141 139 187 133 170 152 207 210 100 152 178 176 182 90 81 149 79 107 162 108 112 111 185 92 206 203 193 196 138 117 174 156 121 86 92 90 169 137 118 81 175 89 118 145 68 89 168 76 99 80 167 132 123 65 63 91 86 76 79 172 89 103 94 132 135 183 78 155 162 115 171 70 169 67 143 162 61 178 166 184 80 123 95 204 120 171 174 151 86 169 60 69 148 103 106 149 134 121 56 90 123 135 178 255 188 137 126 186 191 192 130 168 73 96 114 133 172 149 81 79 112 180 153 119 109 207 122 120 144 163 185 199 128 203 101 187 195 83 84 136 96 116 147 68 113 143 113 79 142 130 192 100 159 184 168 80 76 80 84 79 114 107 152 183 164 180 158 137 97 158 85 68 66 57 150 100 31 48 128 109 79 95 122 150 183 105 91 162 81 171 131 131 69 69 103 75 168 164 124 99 124 81 88 104 82 137 195 158 108 111 121 158 76 89 157 107 110 149 134 182 162 121 103 191 178 179 75 120 127 138 184 160 203 129 196 107 107 96 192 189 114 201 202 114 127 167 112 110 164 89 170 124 129 183 163 163 109 63 129 81 160 139 88 83 42 134 142 118 107 111 144 173 75 133 182 114 123 69 131 103 63 44 83 52 102 120 162 130 185 152 187 96 103 101 194 131 174 98 161 137 192 96 185 139 156 154 145 163 185 120 171 185 108 84 129 115 114 117 67 89 186 198 152 89 160 63 128 55 159 146 156 87 166 141 94 136 142 96 60 138 157 101 85 144 118 177 155 149 151 69 138
54 72 94 118 134 153 166 171 173 176 176 173 168 161 142 139 133 125 140 167 170 180 177 176 188 188 183 177 178 163 160 164 170 186 205 221 232 216 206 195 176 195 186 179 178 159 183 183 177 183 166 158 173 148 180 139 187 195 183 164 156 157 154 109 164 97 132 92 174 139 124 95 73 139 177 127 119 125 108 121 145 71 86 161 103 76 58 80 64 66 69 106 255 40 102 64 98 97 121 86 74 89 65 73 132 93 91 123 145 99 106 85 146 84 109 98 155 93 113 146 193 121 94 157 119 125 98 109 90 204 120 99 192 87 203 109 196 119 91 109 160 169 180 177 190 156 160 91 92 181 174 167 148 116 76 134 124 180 148 150 143 153 198 168 159 168 216 213 202 197 88 176 148 79 115 153 126 144 180 143 165 158 166 153 151 125 204 217 218 193 157 178 87 82 192 197 150 153 67 158 158 101 102 158 153 81 147 170 140 93 144 155 66 130 110 120 169 90 176 166 175 83 166 102 179 126 162 145 255 70 148 178 85 90 99 163 135 163 170 183 181 138 110 192 194 189 120 81 82 184 131 91 255 173 168 76 147 68 145 70 132 85 131 137 116 164 215 211 217 110 157 148 78 77 95 161 184 92 90 125 152 92 118 175 88 186 102 110 170 172 91 198 196 106 184 87 152 129 184 168 130 88 152 167 77 155 157 82 134 120 169 145 183 114 105 189 100 79 129 76 120 63 121 68 157 112 107 164 71 109 73 160 152 131 52 81 110 94 55 92 68 79 92 151 173 188 136 73 120 167 163 51 50 164 152 84 79 165 94 157 173 134 159 118 181 181 118 146 178 100 85 151 118 155 136 147 153 184 170 83 179 192 117 153 96 189 188 103 66 125 182 186 83 136 150 209 203 209 194 177 134 180 211 104 180 202 187 155 152 175 97 152 176 163 157 88 100 47 98 176 151 70 154 145 137 131 74 83 59 167 164 125 120 173 182 190 171 185 92 66 94 142 56 158 170 169 93 175 160 101 187 108 123 176 141 179 158 94 108 199 161 192 118 121 140 124 166 136 122 183 193 133 163 96 130 100 172 109 86 144 144 120 225 209 146 106 148 37 44 97 88 183 150 78 168 169 63 100 83 39 151 169 97 93 162 82 171 88 65 61 137 96
61 79 99 118 129 150 169 190 189 177 179 172 179 168 155 153 141 137 153 154 165 179 174 165 173 189 186 198 196 192 178 168 169 182 212 230 225 215 183 185 171 195 197 182 186 183 149 177 161 174 154 185 145 156 189 179 182 151 186 141 184 158 182 141 127 158 152 129 79 128 77 89 99 118 170 187 191 156 142 138 86 80 98 88 67 75 60 45 69 86 86 120 58 60 84 76 78 87 100 99 114 77 98 87 114 104 113 90 86 113 106 99 158 73 128 99 55 88 87 140 104 165 189 121 185 121 203 123 134 96 129 187 152 184 204 107 154 73 108 89 124 113 154 148 188 183 181 151 126 167 107 79 133 162 120 116 60 158 120 142 150 169 154 109 117 138 201 142 188 195 125 158 156 174 162 87 83 147 170 108 99 88 140 98 139 147 189 114 212 115 160 138 182 92 162 104 92 178 76 154 86 160 96 190 159 140 70 123 104 72 87 183 178 83 58 145 78 147 142 153 171 130 77 176 114 187 126 89 49 153 96 107 101 197 118 106 163 74 70 130 94 125 131 182 86 181 157 107 143 143 194 162 205 195 145 180 103 85 166 156 182 186 133 177 103 105 184 220 132 196 174 133 77 142 184 119 180 77 137 92 62 143 79 99 83 160 95 108 102 149 175 122 102 125 82 78 76 186 116 182 182 79 165 83 137 190 104 193 107 113 127 119 146 113 99 146 79 115 109 129 113 59 155 116 126 110 69 159 44 63 69 69 156 69 60 131 55 47 54 67 172 186 105 186 196 137 78 112 135 109 69 121 139 123 178 133 130 129 43 148 66 74 115 102 138 181 93 177 95 123 120 136 147 143 107 201 122 182 139 88 182 100 180 103 189 135 81 176 170 176 103 85 117 91 93 171 153 194 189 102 179 139 208 173 209 214 147 228 214 135 143 159 149 190 94 44 132 79 74 188 121 128 76 143 168 255 150 134 89 68 162 148 76 144 186 134 111 139 171 178 162 86 82 168 168 178 182 136 171 164 90 179 179 176 170 157 126 196 130 118 130 119 179 95 111 63 117 176 111 142 112 149 121 171 79 130 94 121 192 119 188 135 201 117 192 128 44 55 24 76 92 89 134 135 119 145 152 109 105 121 58 158 137 166 82 68 54 100 39 144 59 88
78 97 114 127 136 155 167 190 178 175 165 169 168 172 171 170 134 133 133 155 174 171 155 157 174 181 193 209 212 198 178 172 168 182 207 226 213 203 184 172 170 197 197 162 146 155 158 182 185 159 162 154 170 165 136 189 188 166 180 120 160 138 167 146 70 141 140 111 125 66 125 67 171 157 110 184 136 190 120 95 145 119 85 75 123 56 70 73 69 80 90 107 92 85 86 55 87 101 132 115 124 86 77 81 104 96 156 132 149 163 99 107 77 92 48 95 118 106 156 102 107 191 158 209 208 125 115 100 199 97 137 182 87 192 203 208 97 146 169 159 66 170 192 111 113 110 115 192 162 128 156 177 176 72 123 120 69 93 138 146 155 110 84 115 153 106 187 149 112 104 171 168 141 98 103 91 85 147 84 169 148 55 61 155 75 143 85 122 91 115 177 182 183 149 143 216 151 159 174 185 194 155 136 156 187 180 174 135 73 115 166 133 88 79 148 167 72 151 163 66 163 134 76 82 180 131 90 47 84 184 161 218 217 185 175 92 78 126 174 129 79 148 174 82 84 172 169 144 181 146 131 211 179 141 183 146 126 136 95 107 133 143 147 155 195 146 219 167 183 175 181 105 85 88 127 131 181 166 75 164 158 120 94 76 185 122 98 91 124 151 72 116 99 170 143 63 116 85 94 79 179 179 76 94 94 95 144 106 101 205 128 126 195 162 137 154 91 114 168 74 66 69 57 77 156 178 75 73 59 152 63 129 92 113 85 45 102 101 54 148 127 148 103 112 186 171 178 121 91 68 157 86 167 154 92 187 111 153 76 141 155 166 101 163 82 159 170 164 155 150 128 105 180 203 169 155 185 140 68 94 116 150 193 211 211 203 109 157 178 182 149 84 101 174 119 193 196 202 199 177 198 145 190 109 146 111 203 207 225 190 162 112 104 73 55 75 27 142 168 171 85 96 178 184 81 176 70 75 160 105 157 71 124 106 123 136 117 189 91 181 96 198 163 163 73 119 123 187 114 192 193 154 84 190 95 132 131 187 140 120 151 106 111 64 88 108 67 74 94 100 142 123 171 152 120 68 117 75 94 159 111 121 128 128 149 103 76 53 111 140 54 158 85 56 49 84 144 135 151 63 131 81 160 100 133 82 51 148 70 158 122 143
98 120 142 148 147 155 166 178 181 167 162 168 156 169 166 163 137 137 134 148 173 172 160 170 164 178 189 210 214 201 188 173 170 184 204 218 215 201 189 174 196 202 195 172 145 166 150 188 193 185 141 137 170 143 162 167 182 145 136 163 111 135 152 64 78 102 89 82 77 66 129 71 117 114 113 125 144 116 181 97 89 126 44 68 130 56 59 91 130 119 99 90 94 86 54 51 69 107 94 134 94 131 104 76 116 95 102 171 149 143 105 116 70 135 50 46 31 48 82 90 100 196 123 176 226 197 205 156 100 178 96 157 142 93 109 123 209 196 75 71 68 80 200 140 224 218 115 171 185 116 163 171 169 131 128 171 61 96 143 84 127 105 139 112 128 105 134 174 119 97 168 173 126 178 143 142 51 68 116 77 157 146 74 96 165 165 172 74 172 72 74 180 92 139 164 218 214 119 139 106 121 179 104 180 130 67 56 80 152 156 177 120 95 169 190 80 143 172 155 91 142 65 140 157 173 104 162 165 170 111 106 212 121 177 133 107 125 168 146 75 131 80 98 98 199 109 96 175 141 81 89 172 111 123 158 117 77 161 152 132 106 191 186 198 198 199 175 214 192 166 95 82 104 84 139 172 176 173 159 155 104 110 138 175 73 176 111 89 105 116 67 106 71 56 55 75 51 68 152 97 83 178 75 171 96 155 107 193 135 193 172 183 213 121 159 144 120 161 145 83 172 71 107 89 80 82 88 136 171 87 115 196 112 111 107 59 39 138 54 135 163 144 108 182 124 199 76 67 59 167 84 85 113 166 152 101 112 183 62 142 164 108 62 89 117 134 67 54 124 51 132 106 130 122 185 198 199 183 125 72 173 137 143 163 191 155 168 134 98 81 140 87 103 130 184 172 94 167 187 130 182 140 192 202 196 195 193 215 121 133 85 153 127 90 125 91 138 130 114 156 80 128 148 87 160 98 165 95 92 94 60 160 140 155 172 127 200 90 117 97 114 93 160 66 68 104 180 187 205 202 131 135 183 100 80 78 156 180 203 164 144 108 170 148 128 62 127 158 92 92 92 161 94 132 162 99 86 124 185 147 113 143 147 131 101 117 61 46 43 121 47 82 80 149 107 80 88 117 136 174 120 94 168 152 154 148 90 100 58 61 72 131
111 131 149 155 156 155 157 165 162 165 156 156 146 138 160 164 152 144 151 163 160 167 178 179 183 180 195 201 201 188 174 172 167 177 192 196 204 202 203 205 211 195 184 173 162 170 189 199 190 196 200 190 162 123 163 163 179 149 162 167 158 132 103 130 102 88 144 116 150 114 131 152 146 141 114 126 140 172 111 143 130 131 39 66 48 53 93 108 126 101 154 97 136 68 102 63 64 75 76 101 115 113 99 84 75 123 92 102 156 116 113 129 90 107 31 118 39 103 145 91 146 119 149 136 197 107 134 87 186 179 137 88 91 129 182 203 217 112 146 154 71 163 184 139 157 189 105 96 197 181 169 100 169 141 188 142 154 60 151 46 143 78 117 90 163 160 111 136 143 97 150 154 100 178 75 150 69 76 66 69 106 120 163 104 153 150 93 168 122 159 93 118 80 99 206 158 141 108 115 189 183 121 114 135 60 120 128 97 93 113 175 187 126 129 165 104 100 90 161 139 162 162 168 87 106 177 182 127 87 120 106 191 199 198 163 117 155 88 45 79 130 102 123 217 185 119 190 141 155 173 95 92 185 149 90 73 72 61 168 100 105 166 110 106 103 191 200 95 140 165 107 113 145 152 149 140 140 96 162 63 168 142 156 107 92 150 135 138 138 81 113 73 62 73 109 59 46 145 58 133 137 140 151 102 106 109 116 188 121 151 150 117 133 108 117 111 109 125 94 76 106 77 79 68 163 150 160 129 106 196 196 158 121 156 78 165 93 120 93 61 183 155 181 213 117 174 73 150 162 165 102 159 98 170 185 112 155 200 167 112 65 153 69 131 73 131 78 138 102 165 167 169 147 121 131 184 150 94 92 164 142 159 181 108 195 205 185 188 117 168 140 80 158 182 185 115 138 95 134 184 123 137 186 123 183 173 198 93 196 177 92 145 123 82 151 140 109 67 92 78 163 61 109 134 161 110 177 168 111 93 171 123 178 194 96 149 175 138 162 106 255 184 85 142 165 60 119 133 137 216 122 204 133 189 152 89 75 133 124 127 194 187 174 179 76 135 146 157 159 88 172 113 144 128 137 122 157 86 176 109 112 184 87 150 97 71 90 100 134 116 152 129 78 135 57 59 77 159 135 180 155 141 129 115 97 98 56 81 138 63 76 67
119 132 147 154 155 149 147 150 152 162 148 148 138 142 149 168 166 162 168 162 158 168 181 187 178 184 195 191 177 177 168 168 168 174 177 188 193 197 208 217 222 196 188 149 142 170 196 166 207 175 196 167 150 122 164 178 186 172 96 137 153 135 94 69 110 72 151 142 146 131 75 74 106 172 170 176 105 130 171 140 105 115 110 97 112 47 62 68 94 76 90 88 75 50 48 98 64 63 73 70 105 71 113 103 62 60 80 107 143 140 119 144 99 54 109 55 127 98 68 140 85 89 189 92 168 90 176 83 123 83 80 143 188 97 116 176 219 100 72 71 121 112 65 81 193 108 187 199 141 92 100 116 140 167 105 116 179 68 118 122 86 79 146 145 132 164 60 131 51 60 133 91 114 178 125 86 134 165 166 101 118 134 183 102 103 100 167 172 144 114 68 140 69 138 105 207 112 186 192 150 111 153 166 150 66 110 46 138 62 62 75 111 121 110 133 130 158 170 77 84 113 50 52 60 158 191 141 95 100 153 131 163 188 89 190 141 73 157 136 128 140 78 201 196 222 212 201 79 103 149 174 186 115 149 92 94 74 129 82 181 217 146 210 121 118 190 133 132 76 170 181 120 165 111 202 111 116 121 155 119 168 144 175 119 82 74 150 134 147 121 123 166 52 152 150 131 33 111 53 87 141 172 85 87 193 151 93 184 168 130 217 122 116 210 125 139 128 97 154 79 177 148 63 150 124 147 202 163 140 212 203 130 195 192 129 78 93 59 45 140 182 165 198 109 102 117 102 104 106 108 163 192 91 193 167 215 198 160 103 255 82 98 127 107 123 119 58 73 126 170 68 177 95 162 186 150 162 125 66 165 61 168 172 196 126 111 173 137 90 141 163 168 104 163 81 149 138 125 83 139 110 140 99 196 82 181 144 126 75 106 149 68 44 82 96 88 140 114 184 171 65 56 161 175 112 152 154 174 152 91 129 139 157 185 188 95 151 135 102 171 124 177 158 180 81 168 146 185 106 194 191 195 199 128 105 79 123 147 187 200 206 129 166 180 136 157 170 61 56 138 118 126 196 141 70 173 155 191 109 155 85 173 158 144 81 126 79 107 69 66 66 56 134 86 86 153 72 143 105 166 85 78 149 116 49 144 120 68 170 71 148 140
123 126 129 134 140 142 148 148 153 155 154 138 139 154 164 185 191 200 177 167 175 179 183 189 202 203 190 184 169 164 160 159 164 169 172 175 173 183 202 212 206 206 187 165 164 181 187 205 205 203 206 216 192 152 127 154 162 167 158 149 146 152 91 74 75 98 124 129 107 160 116 91 110 141 106 119 105 91 83 163 68 117 54 73 96 78 51 68 88 105 98 70 100 66 59 73 71 93 101 85 67 115 62 54 69 84 76 98 96 97 99 133 66 69 77 76 57 73 87 91 143 100 72 152 61 119 66 89 157 163 92 67 173 86 198 149 110 193 160 131 43 31 98 158 94 173 192 198 194 147 180 127 185 157 82 156 79 176 137 155 93 94 144 156 112 170 74 135 60 74 113 171 140 157 173 85 160 125 115 86 125 194 144 188 176 73 98 74 162 53 108 134 123 122 120 157 203 97 100 99 95 125 99 147 141 58 127 137 156 118 77 139 102 151 135 148 123 170 69 112 91 96 128 151 139 109 176 140 185 133 77 110 143 173 82 78 74 133 71 99 128 160 87 208 126 184 146 82 169 63 141 185 107 188 93 177 82 187 95 209 219 228 228 148 179 143 90 143 131 164 105 177 148 109 103 187 160 137 137 53 159 148 68 66 104 147 192 189 100 179 93 154 79 157 167 70 35 46 121 57 70 125 164 117 174 84 88 82 189 130 203 191 113 150 147 221 112 145 130 171 161 82 166 94 191 184 189 124 137 157 174 109 112 90 156 155 133 56 84 63 173 193 183 100 186 161 64 63 161 184 97 120 194 158 157 123 224 201 199 83 171 114 146 166 160 142 130 155 159 118 96 180 83 164 170 121 132 178 172 61 146 97 128 184 94 201 195 144 95 182 148 178 119 165 175 81 87 96 127 99 197 206 111 120 104 107 138 70 67 79 69 63 122 61 147 162 132 176 173 82 92 60 165 160 133 197 145 202 210 191 89 126 179 78 175 81 165 168 176 99 155 171 91 103 73 147 98 118 110 182 182 167 187 100 104 67 60 129 175 200 185 113 120 92 107 140 149 150 69 169 123 143 124 192 180 82 88 100 137 136 80 161 159 77 163 102 111 140 173 145 161 167 153 70 116 184 85 151 91 80 71 68 152 80 89 83 118 70 149 165 85 93
127 123 116 116 122 131 136 146 156 153 149 152 151 162 183 209 216 208 195 196 181 197 194 195 187 205 209 188 167 154 146 160 166 174 174 175 174 183 188 193 188 191 177 147 167 174 197 179 196 174 214 177 209 181 138 143 133 132 158 137 152 107 124 151 99 90 124 112 116 116 92 78 138 144 184 158 168 81 132 83 87 130 60 62 61 125 72 130 57 56 54 65 131 119 89 93 108 82 74 111 120 127 104 84 82 103 77 90 114 126 98 101 76 76 92 55 63 78 81 71 71 63 65 131 60 72 63 161 63 63 60 63 97 74 97 157 102 78 67 104 24 134 90 52 57 163 185 191 194 190 162 185 77 62 165 163 97 98 175 99 154 62 84 171 161 124 104 71 122 160 165 111 140 157 76 148 79 133 165 89 147 144 195 178 166 173 86 158 165 139 109 136 174 190 196 196 210 143 190 171 91 146 142 141 166 58 55 124 164 142 188 185 169 146 99 100 175 71 62 83 157 100 57 62 141 98 104 202 140 183 173 117 99 88 177 152 147 54 53 120 50 47 164 109 144 194 86 168 111 158 97 188 197 191 102 95 180 186 169 160 119 167 204 196 187 149 97 103 164 144 166 91 77 189 102 178 108 64 80 76 74 113 81 67 156 110 187 185 200 117 103 101 152 176 181 97 52 61 61 77 120 81 165 160 120 95 109 99 151 104 135 149 140 185 208 174 100 97 80 78 122 167 87 161 132 155 190 136 120 128 110 157 100 92 78 86 154 55 153 81 193 125 175 194 174 62 132 55 60 72 152 113 100 179 197 123 207 207 118 184 174 167 84 87 160 93 125 82 140 192 129 123 174 189 146 170 77 155 79 165 96 82 62 66 86 124 100 109 103 102 169 83 174 74 106 97 128 141 185 138 203 103 178 151 162 174 60 78 92 98 54 161 84 155 86 178 77 164 150 109 80 153 86 103 154 102 192 156 139 205 104 89 173 97 165 117 117 203 205 139 178 110 146 97 77 154 81 149 62 100 81 99 109 131 126 177 60 72 100 130 203 149 137 168 80 175 125 74 126 165 87 123 155 124 185 132 97 101 130 129 68 59 61 175 114 145 120 157 81 131 174 76 140 166 169 166 175 90 142 116 56 95 86 40 44 122 99 68 68 61 47 54
131 126 115 111 111 124 125 140 143 159 163 156 163 173 171 196 205 204 199 197 195 186 192 186 192 202 194 182 171 154 151 160 166 176 172 175 182 183 192 194 186 177 166 144 141 179 176 190 165 163 191 202 171 120 154 150 158 91 159 116 150 146 153 146 162 156 123 175 127 90 117 110 153 126 107 201 159 69 58 102 95 91 118 70 154 89 134 95 122 79 91 97 81 95 118 110 111 105 96 131 112 94 108 63 64 102 69 99 115 119 100 100 65 49 102 57 65 70 71 108 67 84 156 65 115 87 78 127 123 77 67 108 110 93 79 193 192 157 129 82 32 51 133 139 158 143 140 175 138 182 147 145 70 55 155 161 176 166 106 68 88 141 146 183 190 118 117 82 162 173 138 90 125 168 100 104 102 170 134 111 76 186 119 162 135 171 105 96 106 119 152 84 172 183 173 132 137 130 167 201 190 160 80 159 125 115 158 89 140 81 83 191 105 126 82 93 64 132 149 62 168 77 159 75 117 197 143 103 188 178 159 72 88 76 165 131 79 117 156 138 44 79 156 138 99 175 168 72 79 173 92 209 156 136 211 195 85 166 205 166 223 145 110 204 128 117 195 110 171 64 114 67 171 119 147 88 99 145 113 119 172 135 137 77 101 157 189 163 106 110 126 207 234 232 103 152 107 57 53 155 169 77 92 121 111 139 124 124 148 159 121 162 127 183 132 147 185 73 57 157 96 95 180 142 178 106 100 196 173 101 142 136 172 88 116 159 159 114 62 139 100 137 101 175 94 96 155 153 133 156 195 128 116 205 188 123 198 113 204 142 179 162 84 129 172 91 172 115 90 152 203 165 182 195 126 173 184 91 194 103 78 172 160 116 74 176 89 93 113 207 205 90 74 67 115 104 169 86 180 91 102 168 101 181 77 89 74 46 54 65 156 103 132 92 106 182 153 92 182 176 136 170 77 136 85 163 139 135 202 200 194 153 76 102 91 198 103 211 201 151 136 142 181 173 173 140 130 84 64 162 184 136 117 161 163 173 115 130 175 201 205 92 129 163 117 60 65 131 117 159 84 197 103 188 96 151 92 171 90 119 135 130 59 132 94 92 107 124 185 184 181 176 165 127 78 165 110 83 66 52 111 142 55 123 74 132 157 59 163 149 53 68
138 135 125 117 109 112 125 129 144 151 168 166 158 150 159 175 195 208 202 197 197 189 168 169 152 172 184 179 158 150 157 163 170 176 172 176 185 200 204 203 189 182 180 174 160 161 184 185 151 173 195 177 174 146 98 101 100 106 145 147 143 128 129 154 150 159 92 83 154 87 169 138 89 99 119 154 172 144 116 44 117 85 71 123 111 146 98 101 111 83 100 95 137 129 155 125 125 99 129 105 122 104 126 120 77 89 104 70 78 77 148 102 55 55 82 134 106 70 61 55 50 68 110 93 159 171 135 147 150 169 76 81 67 153 71 110 187 111 79 69 92 153 103 92 135 58 138 61 122 166 114 117 125 161 154 187 195 181 104 133 164 85 163 93 194 110 174 143 157 82 172 165 163 144 162 152 173 174 162 71 167 154 125 144 140 116 174 178 153 152 150 119 168 80 137 193 178 147 206 209 203 186 118 136 107 99 103 158 68 121 168 88 105 178 122 89 135 128 100 137 158 169 162 109 187 138 163 92 165 111 87 170 179 120 174 125 83 119 172 156 85 65 78 83 165 168 114 117 58 144 183 139 229 232 179 161 87 80 105 108 164 145 205 115 206 171 206 180 115 65 123 78 157 145 112 90 199 101 179 79 102 120 189 114 114 102 82 184 154 79 186 215 162 146 116 176 48 90 94 107 83 78 105 106 90 164 76 121 128 115 144 122 152 125 192 122 161 80 52 53 78 192 157 142 168 179 125 79 159 96 176 100 98 163 85 96 79 155 107 110 132 132 192 186 120 58 52 141 143 180 108 162 203 187 179 74 187 94 203 101 115 120 85 156 140 154 160 188 161 198 125 211 185 206 107 118 163 189 109 183 182 184 121 160 158 166 177 89 188 143 173 188 113 68 141 174 167 148 87 180 92 92 169 136 78 70 107 106 61 176 112 159 117 98 184 90 111 131 159 183 126 148 134 73 66 173 89 182 199 174 128 155 114 177 116 203 212 196 114 106 148 123 206 185 139 144 49 103 133 149 85 147 129 165 175 99 177 124 125 161 113 161 114 54 152 137 126 39 86 77 173 94 128 165 179 159 127 115 76 150 52 145 93 90 67 154 80 122 187 189 165 116 172 135 53 120 170 154 131 55 39 137 65 63 105 144 113 68 152 64 66 89
150 149 140 125 112 114 122 128 141 152 164 149 146 137 255 156 175 199 184 177 178 187 157 149 138 152 167 160 166 171 172 173 169 163 165 178 195 213 215 203 182 203 202 197 192 173 162 175 185 175 166 170 116 101 86 101 157 130 131 145 91 135 129 74 136 135 59 124 91 119 165 116 131 169 129 209 111 96 61 131 81 69 74 68 79 100 161 106 102 97 135 94 111 161 104 103 89 130 106 97 116 117 103 95 103 76 88 64 101 103 81 84 76 63 65 130 78 58 68 71 40 47 63 94 96 191 149 167 81 143 192 185 128 170 127 82 191 87 185 133 181 68 90 161 163 71 47 140 141 154 171 173 64 80 182 178 95 193 102 150 158 160 163 144 109 146 176 97 72 149 77 137 73 163 132 182 94 176 74 149 86 170 211 200 162 200 90 160 90 170 141 147 157 172 184 139 193 124 142 140 115 124 201 98 66 43 142 131 133 107 171 86 187 179 110 172 58 59 80 98 66 86 122 193 90 193 189 84 64 163 104 132 121 175 140 144 175 104 77 65 164 161 113 156 159 131 88 82 156 123 167 195 209 179 196 187 137 155 182 162 208 106 98 100 199 94 149 182 159 65 132 164 164 179 123 111 212 160 141 88 187 92 143 108 87 178 125 123 75 136 195 116 202 171 111 99 122 153 113 80 85 151 73 121 168 141 147 78 102 115 185 124 185 111 204 126 184 110 141 53 164 108 109 186 99 165 102 62 65 153 132 103 152 100 97 92 102 71 163 63 165 76 136 73 74 60 92 67 68 111 187 152 166 95 51 154 164 105 141 101 128 134 129 73 184 159 171 119 96 112 192 224 205 196 190 120 95 180 151 190 120 181 181 65 163 148 85 111 85 166 139 79 134 75 117 153 186 163 113 94 91 176 156 141 41 72 90 62 182 81 163 78 79 89 102 174 175 106 200 198 169 187 177 108 86 157 139 101 151 82 134 115 157 167 177 140 199 100 126 110 145 114 155 88 157 61 68 109 146 81 193 136 98 150 116 130 213 199 115 118 141 76 62 50 35 35 51 47 157 97 93 164 182 94 160 92 173 122 123 108 133 140 149 160 110 162 147 148 132 195 165 124 128 119 102 121 69 155 121 64 136 124 107 139 145 157 113 165 103 66 53 95
163 164 156 138 120 114 122 127 144 139 145 149 131 138 146 149 182 192 183 180 183 175 160 136 121 135 255 162 171 170 177 166 166 162 162 174 189 197 205 207 203 213 211 217 189 196 192 163 165 182 143 123 106 148 150 116 176 176 159 175 114 112 91 101 69 47 85 129 101 134 145 76 89 127 168 118 132 87 83 95 55 92 56 71 131 158 149 146 123 91 99 87 95 101 127 111 114 84 108 110 80 77 111 85 71 77 61 57 81 56 78 88 90 76 120 71 89 51 45 34 49 40 134 176 98 186 95 84 94 108 94 178 110 88 160 191 197 96 96 200 132 122 175 139 159 159 69 125 138 131 155 140 150 136 143 205 98 132 140 163 74 68 171 100 134 153 183 167 87 60 146 77 101 66 79 156 175 187 134 123 184 181 190 128 145 127 199 101 125 168 141 196 92 169 184 145 196 131 96 105 211 112 160 113 156 44 155 171 86 114 188 90 86 83 82 145 142 148 53 115 144 91 96 198 135 188 82 170 127 59 77 151 92 183 150 80 78 135 177 178 146 63 84 71 165 177 77 65 58 57 131 76 117 173 113 114 175 79 192 154 172 159 174 81 180 161 73 93 88 76 121 143 164 85 86 164 139 128 141 140 130 92 97 101 100 99 93 122 144 103 126 213 129 171 168 139 73 123 141 160 71 97 161 62 54 146 54 75 169 110 120 110 88 96 176 123 107 64 39 120 189 172 127 187 80 89 176 76 62 158 176 115 158 159 199 199 148 91 64 159 118 155 120 166 172 68 57 151 148 97 138 167 119 75 140 132 141 144 144 84 74 88 92 85 92 149 134 201 201 186 202 162 184 237 142 124 209 108 80 112 164 181 163 154 103 45 138 55 101 115 111 111 65 170 124 131 89 189 119 255 162 90 187 159 137 126 94 162 181 178 124 154 186 186 214 121 219 161 196 191 135 131 186 68 114 159 152 141 79 83 81 178 107 169 94 181 116 87 180 92 122 200 177 175 87 59 136 79 65 92 95 91 79 92 111 185 109 209 176 119 172 79 58 136 138 119 97 110 123 141 157 168 179 135 183 166 171 126 118 144 159 161 107 164 134 145 195 208 117 209 204 167 115 125 135 78 162 60 60 147 150 95 166 85 185 98 81 93 66 93 91 116
170 172 164 148 126 113 117 132 145 137 136 136 121 125 131 152 163 187 187 174 175 176 162 147 140 148 168 170 181 168 168 161 153 151 158 174 181 192 185 189 191 209 214 209 187 191 176 189 176 176 158 142 147 104 119 177 135 170 167 147 145 157 146 129 113 111 27 39 133 108 67 80 67 90 127 122 98 180 147 125 75 69 62 128 69 83 97 130 156 98 85 86 95 119 83 142 104 108 73 65 76 84 71 94 68 72 67 65 66 66 75 64 71 97 148 136 49 107 27 84 23 112 48 71 155 70 165 180 92 94 182 171 66 161 141 187 110 91 88 194 89 85 179 177 72 59 50 140 67 112 55 148 63 168 139 206 113 183 146 141 132 153 169 121 182 137 124 95 140 76 42 130 124 61 100 115 142 101 159 101 180 109 205 205 210 180 195 121 197 165 101 109 183 103 107 199 108 192 182 173 113 106 131 78 56 152 139 139 150 99 186 127 116 145 176 102 162 155 43 55 134 196 136 187 111 176 163 135 159 61 158 167 113 184 78 137 180 187 97 181 171 64 174 81 129 141 79 113 168 167 77 73 198 122 171 168 116 117 122 150 158 81 83 108 153 105 98 123 68 165 169 100 94 100 183 255 110 112 98 97 159 128 104 149 108 103 74 81 192 143 123 103 205 104 103 95 142 121 50 58 65 76 77 112 52 124 86 63 83 129 79 76 154 112 91 115 108 148 45 148 107 171 189 83 174 94 168 99 108 93 179 202 148 138 122 114 106 107 174 163 158 62 80 63 71 175 102 57 61 134 105 122 88 148 71 108 141 57 58 148 137 154 122 169 157 207 160 142 126 173 122 203 137 188 239 158 120 142 156 100 161 81 131 79 86 126 147 158 125 166 88 119 79 173 149 189 86 85 109 136 96 171 188 112 71 94 80 176 186 86 68 148 148 101 202 209 118 164 168 71 112 173 176 108 78 159 137 177 148 188 180 124 102 96 133 194 158 130 108 96 177 211 214 125 95 57 49 40 88 129 83 112 89 168 175 193 212 211 163 183 95 125 134 159 68 128 44 64 102 122 125 170 91 182 180 86 70 61 87 105 97 168 86 103 117 184 182 209 200 139 100 146 121 151 186 89 83 102 154 60 78 164 198 105 85 80 145 100 75 156 182 104
164 171 171 154 127 121 127 134 149 144 137 134 124 134 145 162 166 255 191 187 188 173 167 163 167 177 191 186 191 166 161 148 146 149 156 171 171 165 163 166 172 183 185 185 196 197 198 173 196 158 130 142 119 167 132 138 146 174 177 110 179 174 143 127 71 109 36 38 53 148 66 121 116 104 125 163 115 161 97 90 94 139 88 94 81 138 162 102 123 100 75 82 82 116 140 98 112 81 94 81 44 60 71 79 102 85 78 117 71 98 74 74 63 71 93 61 77 25 37 25 117 26 135 102 51 142 149 106 181 186 179 126 105 63 150 114 115 85 157 160 112 180 81 105 168 75 56 150 58 154 56 153 146 123 106 127 191 141 126 66 113 169 172 117 125 81 137 146 57 117 129 37 127 124 129 63 172 176 104 121 159 217 123 120 189 184 191 114 90 196 100 157 111 156 167 200 183 74 158 52 161 178 91 156 111 79 106 154 193 174 88 83 165 158 63 125 69 104 61 168 159 193 113 197 185 86 106 96 62 77 105 174 100 106 136 77 108 87 147 110 78 68 177 177 154 189 101 194 195 187 165 177 169 187 129 187 190 214 104 188 118 115 124 111 152 154 150 64 107 111 87 172 176 112 163 104 126 97 97 73 131 117 182 83 165 88 127 132 201 161 204 96 193 103 104 70 139 161 113 56 69 93 115 83 92 111 95 86 83 153 168 168 85 142 168 101 137 73 152 120 81 156 152 68 160 169 93 174 83 57 176 192 138 208 191 160 121 105 177 77 151 149 156 73 130 111 162 64 108 160 133 155 157 104 52 150 125 145 124 154 97 57 154 98 174 146 168 75 97 180 152 160 224 157 249 138 222 207 191 174 200 144 85 112 150 143 159 104 152 110 193 171 199 170 167 184 179 80 160 106 93 70 76 70 156 161 97 87 118 153 68 158 59 108 79 166 131 164 61 109 155 107 69 164 100 147 96 192 141 188 96 114 166 184 132 179 178 172 150 143 197 222 220 206 147 134 140 91 69 167 76 90 136 107 200 204 202 104 131 150 116 68 144 70 60 255 162 100 175 92 165 104 81 185 81 126 163 154 134 155 68 170 78 84 166 145 192 116 139 116 92 90 188 153 166 101 91 94 143 175 92 106 153 122 255 185 142 94 72 168 114 255
148 159 165 149 129 121 129 142 143 145 141 141 145 156 151 152 156 162 171 191 197 185 187 179 192 200 206 214 191 181 157 144 149 157 162 169 169 155 138 139 155 173 179 194 189 178 187 161 153 176 165 160 173 178 142 168 171 123 110 255 125 182 158 130 132 83 60 48 83 92 129 49 86 96 125 102 134 93 104 113 141 112 121 77 105 76 140 113 79 107 67 125 67 67 79 97 107 88 77 50 81 53 88 64 58 56 99 122 99 99 69 112 69 71 60 45 26 109 121 39 76 49 120 125 43 126 119 126 163 86 132 69 133 94 62 70 182 178 98 178 177 113 165 165 95 147 71 130 78 127 66 71 157 154 89 135 156 171 164 178 165 122 99 159 135 90 119 49 91 109 122 102 50 36 39 103 132 115 103 87 105 203 176 223 163 125 166 105 81 78 172 82 144 90 187 169 107 131 33 122 117 125 159 128 97 83 65 92 198 157 192 176 173 110 120 169 158 89 82 163 145 183 137 100 78 174 148 166 121 102 101 190 110 104 166 187 190 93 133 176 92 120 96 154 167 159 176 148 201 201 181 126 165 112 187 181 223 185 199 186 119 71 95 169 167 89 161 109 133 144 96 133 141 87 100 161 120 144 59 139 156 80 81 104 130 92 175 125 117 130 206 94 88 79 157 148 82 172 131 159 67 68 60 82 47 140 174 164 194 135 106 92 119 117 85 77 60 50 163 86 167 55 155 141 160 112 121 73 64 63 81 186 176 117 95 94 181 97 118 150 169 107 155 142 167 155 89 176 179 130 71 166 164 70 173 139 57 138 82 115 84 52 140 163 118 74 63 100 49 102 66 93 104 168 132 229 130 135 120 111 165 95 95 99 135 64 96 73 73 183 189 174 179 110 158 142 151 132 105 140 134 75 61 124 139 61 180 147 101 137 169 158 155 147 134 57 134 124 109 113 44 104 158 69 182 112 110 106 102 144 198 124 124 170 74 164 176 123 173 199 168 113 165 103 97 64 130 69 54 64 165 120 177 217 148 126 255 136 204 135 75 101 77 104 170 83 68 177 87 116 113 166 109 75 176 80 88 118 152 143 55 162 174 149 109 134 182 171 104 190 79 71 77 80 111 104 117 194 123 134 196 209 122 122 108 143 77 133 70 85 106 217
129 142 152 145 134 124 128 140 145 140 133 147 150 164 164 155 142 163 173 190 202 196 200 191 206 205 225 215 211 180 172 162 161 167 178 180 172 156 145 144 146 159 145 178 181 171 150 172 163 122 160 154 130 123 132 170 125 164 98 174 176 182 122 112 116 98 133 70 65 114 85 138 101 120 109 189 255 95 122 89 77 70 124 128 70 66 76 144 135 86 71 65 94 78 92 86 106 101 115 68 66 68 106 60 47 53 133 123 171 100 129 125 94 76 71 44 81 120 85 148 70 61 100 89 70 35 80 134 84 174 186 81 82 158 87 65 121 91 77 105 142 192 198 96 187 184 158 141 151 73 132 77 119 147 98 181 96 154 199 179 185 134 164 201 131 127 118 119 129 50 122 89 151 112 94 73 158 139 70 154 172 167 206 202 132 135 153 154 78 170 107 170 129 96 144 166 153 87 114 116 99 112 109 87 151 60 81 182 181 111 195 163 168 171 157 149 169 81 98 95 91 91 133 184 157 158 116 165 175 157 99 128 106 156 148 129 108 181 187 75 161 93 180 94 80 67 117 135 95 114 102 193 152 118 126 213 142 169 181 132 159 185 153 137 85 88 127 171 85 119 111 74 105 170 195 192 158 114 117 107 156 122 73 97 164 194 151 164 182 129 162 169 97 158 104 152 154 81 127 71 166 87 166 74 104 167 104 116 180 94 143 190 107 192 171 182 136 86 124 108 159 57 60 55 80 161 154 157 67 81 183 195 103 142 102 160 77 72 88 136 71 63 82 158 68 168 78 117 192 199 170 189 187 88 112 156 158 136 143 67 150 113 124 72 171 107 46 34 142 119 88 129 181 188 119 195 143 132 145 188 147 180 183 89 119 106 175 177 120 139 97 198 141 202 163 120 58 87 61 156 59 139 105 43 108 54 65 88 130 178 94 154 149 91 74 151 120 73 90 103 47 52 66 98 95 173 202 180 206 136 166 117 166 60 88 74 94 168 148 197 192 179 181 150 66 161 158 62 104 132 82 149 197 188 107 127 146 113 149 161 107 155 157 98 122 60 63 172 183 199 190 190 186 122 146 84 50 105 107 119 99 69 141 72 181 136 139 210 195 148 108 66 94 133 101 106 89 183 97 193 106 202 207 118 168 131 109 102 116 139 125 176
113 126 138 139 133 127 123 122 124 127 133 148 160 163 164 142 135 156 152 180 196 221 205 215 209 206 212 225 222 206 184 177 179 184 184 186 177 163 145 136 146 138 155 169 177 165 164 157 150 107 136 152 124 144 158 179 144 132 162 155 110 168 129 125 140 105 87 150 103 153 140 98 111 89 167 149 193 187 165 92 104 79 76 65 73 126 62 94 73 83 79 79 79 82 80 78 103 106 135 127 85 107 121 54 86 48 82 104 109 157 113 82 73 63 102 134 70 175 162 106 92 121 150 66 152 48 62 122 143 72 90 102 131 187 75 165 176 176 85 146 172 210 139 145 165 108 111 95 121 116 109 183 99 168 130 117 99 114 196 171 171 156 150 162 177 165 135 128 55 152 163 73 151 113 130 93 152 156 98 140 161 95 169 206 99 82 87 90 135 166 124 149 133 58 120 90 59 132 29 124 44 94 78 147 141 86 96 179 162 208 113 181 94 119 102 72 73 170 117 72 160 178 179 76 153 160 85 158 105 182 163 120 112 184 103 201 149 195 156 131 82 88 255 110 72 163 168 158 164 191 138 96 146 128 83 163 204 125 102 167 175 160 192 125 187 126 178 85 114 85 156 156 102 108 166 91 104 72 52 50 94 168 175 98 193 201 220 120 119 136 113 138 77 72 149 78 79 97 78 192 166 195 105 93 128 88 148 76 178 73 100 97 134 113 97 87 85 129 159 174 76 152 122 55 69 82 86 89 95 101 87 89 84 80 133 147 123 89 167 169 160 165 168 108 168 172 140 191 160 173 191 161 165 161 83 168 164 172 84 151 141 55 165 168 160 99 126 103 120 55 157 80 156 95 135 158 119 183 95 104 111 145 133 166 89 175 177 90 91 149 118 151 122 194 100 163 115 162 99 77 126 76 68 125 29 134 125 114 126 187 103 193 77 110 154 59 173 113 177 134 166 159 65 164 150 192 117 153 194 116 87 85 168 81 87 162 194 137 131 98 99 167 167 148 156 155 61 82 88 134 146 121 137 133 212 208 105 213 207 161 158 48 86 151 155 57 55 157 193 204 185 135 142 142 163 80 72 53 63 100 88 166 68 78 147 113 191 194 114 129 116 124 164 88 104 81 97 90 133 116 154 111 146 121 112 164 119 57 142 97 142 130
117 126 138 142 138 131 126 114 126 140 149 143 164 153 153 142 142 147 147 171 199 204 220 198 187 197 205 209 226 207 199 192 185 255 186 180 167 161 159 142 132 143 149 143 160 172 153 152 108 128 128 127 106 111 165 137 172 167 136 158 141 109 133 175 121 128 137 110 162 114 83 155 73 136 150 174 133 96 85 132 58 66 68 75 46 56 42 62 69 96 82 88 133 84 73 76 95 93 84 100 111 98 88 69 51 86 106 112 101 95 114 157 76 117 91 82 93 165 132 164 150 180 181 72 81 87 40 123 70 146 186 98 202 197 180 180 80 71 76 134 197 114 214 185 105 123 161 183 172 117 191 164 169 176 170 81 113 167 173 141 92 154 120 213 204 178 115 108 78 84 106 139 128 123 179 172 135 138 184 146 133 74 184 161 114 143 82 72 69 166 139 60 115 145 52 80 132 26 73 131 107 121 176 127 77 162 150 95 150 118 196 255 79 178 162 164 69 119 61 163 157 109 153 78 133 137 58 63 167 152 207 208 184 158 113 211 219 115 126 196 182 105 200 116 139 137 161 164 190 149 166 174 148 188 182 149 175 211 131 123 186 90 201 131 158 144 157 131 130 132 123 174 105 137 118 114 115 77 60 146 116 160 75 86 163 122 112 151 146 136 128 102 157 160 59 101 97 115 175 148 112 215 209 121 114 164 82 72 80 111 79 97 143 175 171 95 117 152 98 84 168 167 71 157 136 77 95 178 124 102 93 183 78 133 67 112 47 68 79 92 159 123 172 163 179 148 118 130 144 105 194 88 105 62 86 185 88 176 148 159 62 151 58 104 78 155 156 129 91 76 115 164 118 196 179 178 183 74 121 136 194 187 134 186 168 92 125 86 167 115 86 106 188 117 103 203 160 138 117 121 133 80 154 139 41 89 157 81 107 211 196 123 190 77 119 123 138 80 168 139 171 147 88 90 162 161 154 165 183 171 168 152 168 158 167 129 169 187 78 167 115 124 156 101 157 150 129 133 85 93 185 211 129 212 204 199 100 176 201 154 176 108 143 149 63 127 97 88 142 139 207 147 186 89 111 92 135 79 61 152 99 105 56 170 147 154 91 155 140 47 129 58 70 169 102 83 113 142 81 140 176 86 126 183 120 180 100 75 133 172 75 145
133 138 143 147 144 131 127 125 144 159 159 160 165 153 158 156 156 152 153 173 183 193 206 185 194 195 191 198 218 220 213 201 191 182 174 163 152 155 143 153 148 127 143 135 168 170 162 164 159 154 138 129 157 173 124 182 177 175 141 151 121 90 152 86 157 142 176 157 111 150 151 145 86 120 114 100 89 178 123 89 72 73 57 111 69 35 73 66 75 93 92 114 161 129 82 64 68 93 86 106 144 148 102 103 98 71 72 147 121 92 140 136 107 89 121 94 191 145 153 134 123 200 130 166 152 110 58 158 159 127 70 127 196 105 114 132 80 74 75 113 203 196 97 98 175 164 143 160 144 173 183 171 148 135 101 165 140 166 122 70 139 165 195 122 192 197 159 168 110 123 164 154 121 140 183 124 114 165 110 157 130 83 196 147 188 157 150 117 99 160 100 164 96 154 119 40 126 78 56 59 180 82 184 145 148 169 169 76 145 132 120 172 104 80 166 171 75 71 106 115 170 71 107 126 133 74 139 139 83 156 193 174 144 204 218 153 198 221 105 176 181 110 201 162 87 122 188 109 174 154 201 143 169 197 186 81 88 136 102 115 174 127 130 154 188 130 168 181 166 176 162 147 164 113 144 96 90 182 80 130 82 79 160 86 127 187 166 181 216 111 163 87 141 58 118 142 118 156 84 95 193 255 122 177 154 204 116 96 76 168 108 123 196 203 180 129 84 124 91 92 74 125 118 63 115 139 91 191 183 100 160 169 160 137 124 100 64 121 164 164 184 121 137 164 94 166 77 126 110 95 107 171 53 61 151 128 83 109 171 160 62 110 100 136 160 98 169 173 196 111 184 121 96 128 108 85 152 145 176 131 163 191 186 182 81 80 82 176 84 180 121 137 175 122 168 212 201 99 127 82 174 72 87 102 139 48 84 135 213 122 125 138 206 123 175 154 167 169 146 88 101 80 160 103 96 84 121 73 67 133 176 158 134 78 178 96 150 183 86 107 175 142 182 75 89 153 154 174 199 198 208 135 220 108 117 93 111 80 83 106 175 91 55 55 104 40 137 45 153 149 157 136 163 78 109 135 119 76 171 107 173 92 142 82 170 86 80 71 93 54 157 68 156 129 147 180 186 133 176 105 83 168 188 181 102 169 70 105 111 74 127 106
155 157 159 153 142 135 128 148 172 187 196 190 172 162 160 172 174 170 159 165 177 187 185 201 181 196 184 198 207 214 206 198 178 166 153 136 133 134 139 151 145 143 150 152 255 166 161 177 151 157 145 144 153 144 175 185 152 138 146 133 132 101 124 76 160 104 165 118 180 159 178 118 83 106 84 110 125 86 92 153 82 123 68 50 41 41 63 84 86 96 98 97 137 88 76 106 86 74 122 106 117 109 132 90 106 88 99 99 150 121 128 158 106 93 110 159 122 121 133 122 202 143 92 106 77 113 67 80 58 105 63 187 102 172 123 170 81 64 71 169 182 76 153 147 157 50 74 139 105 171 183 149 153 149 49 146 142 138 111 113 53 122 180 206 125 193 107 178 85 113 151 255 124 118 174 181 141 93 76 146 96 77 179 107 186 218 174 138 164 82 99 123 88 153 136 24 255 137 58 148 190 84 103 72 66 155 65 157 79 184 132 210 100 159 89 124 74 122 125 79 182 173 173 180 163 98 164 98 68 147 201 213 212 140 139 215 146 113 209 97 177 104 98 149 113 187 107 194 160 203 114 202 190 128 102 89 79 149 146 107 139 185 94 92 133 189 85 152 179 191 186 139 108 85 146 149 146 189 131 153 255 82 75 111 86 142 141 186 112 126 150 176 133 102 37 114 135 144 156 57 83 113 103 173 215 199 82 84 163 96 89 193 102 166 136 192 170 88 118 82 67 159 50 53 71 159 97 136 107 110 191 76 87 133 136 109 81 67 175 166 81 76 114 85 159 100 174 164 89 79 70 103 125 138 72 67 72 177 112 168 63 64 99 153 162 172 78 175 202 178 177 93 192 166 155 98 79 149 141 118 96 143 69 94 149 106 123 90 185 127 81 133 130 120 95 178 186 99 161 94 95 148 177 104 87 65 144 85 116 177 190 128 114 116 189 156 150 168 90 162 170 83 88 85 108 117 131 136 58 141 65 160 148 78 183 180 149 71 164 74 177 174 185 85 79 106 151 119 153 206 134 201 146 87 175 66 66 154 73 132 111 63 148 88 123 127 125 100 120 80 185 69 138 171 151 180 173 85 119 85 160 130 122 63 128 92 85 183 72 156 171 73 98 148 189 195 170 154 65 134 126 105 129 151 166 156 77 167 102 172 66 103
156 162 165 160 142 135 136 160 192 217 218 206 187 162 165 176 176 174 177 177 183 196 190 196 198 192 177 185 195 203 193 186 165 153 139 129 115 119 132 136 156 159 160 161 169 180 191 201 198 195 161 156 182 190 140 155 107 96 137 87 104 74 97 153 136 96 141 113 119 185 164 178 98 139 48 108 73 58 147 159 118 174 144 82 120 45 66 87 154 154 100 97 96 92 79 104 87 85 93 110 105 145 112 95 85 82 80 120 110 101 83 108 118 152 142 106 177 180 199 181 91 93 131 104 77 87 89 72 94 89 59 112 199 125 201 105 102 71 53 150 79 150 143 36 47 136 135 160 168 87 183 176 165 133 78 71 83 134 130 150 87 132 195 105 147 90 117 94 155 135 127 171 129 119 116 199 108 141 169 164 98 125 117 88 202 190 152 128 115 78 73 117 62 54 50 103 89 70 62 122 84 164 157 83 113 68 95 125 149 132 209 123 202 130 141 190 88 166 193 161 167 93 95 201 131 193 95 166 167 127 179 208 158 105 131 180 132 216 111 184 114 200 99 176 121 112 99 197 189 143 199 141 220 134 186 171 123 144 181 117 97 185 179 137 192 188 165 112 179 132 167 142 99 79 137 132 173 172 93 166 131 111 164 123 87 137 129 107 177 143 127 116 156 97 44 60 50 90 148 148 93 74 92 113 102 179 79 63 98 101 146 115 206 155 187 94 137 184 115 202 180 69 55 93 124 146 158 122 178 101 83 128 170 145 69 48 146 55 174 161 96 180 94 173 67 116 162 144 134 86 169 154 66 135 65 100 171 177 179 130 180 150 65 61 61 173 113 139 126 190 150 145 140 111 255 79 50 138 68 80 76 76 50 43 123 152 180 116 166 102 77 175 175 143 113 255 181 70 104 179 94 152 168 148 82 79 113 190 127 104 175 142 209 178 99 90 114 133 80 70 69 119 88 108 160 135 163 73 85 68 139 56 157 77 92 179 170 62 143 96 81 95 143 101 174 169 134 126 255 115 109 186 117 135 59 156 154 137 106 62 164 79 79 189 164 160 157 144 89 142 93 112 155 69 163 166 180 138 180 89 157 62 73 72 114 134 192 194 90 78 180 95 83 97 187 88 190 81 135 61 156 104 98 144 178 109 133 131 165 86 75 125
140 154 160 156 138 133 146 170 195 205 210 198 178 171 175 183 189 191 182 188 181 201 204 189 204 197 194 188 177 180 181 166 148 140 132 137 126 122 137 151 170 173 152 157 174 179 187 186 183 184 161 188 190 153 189 125 139 154 118 80 99 118 162 140 112 102 180 129 208 171 162 126 133 58 109 63 65 47 59 130 146 103 96 121 60 94 101 93 152 136 105 132 88 97 70 77 75 87 112 119 125 100 127 122 133 93 103 71 66 110 71 142 143 104 108 108 118 157 89 85 85 83 90 87 97 98 90 167 145 85 81 75 161 125 176 154 101 71 85 131 131 60 123 97 94 151 72 94 137 91 96 77 130 156 77 86 104 39 105 89 170 137 159 129 160 179 121 115 163 139 81 106 187 139 158 211 177 112 157 132 145 98 160 81 91 129 206 187 133 164 75 115 66 156 118 115 83 129 160 72 92 140 67 158 159 154 54 125 93 184 196 137 162 95 110 149 185 158 137 103 121 149 99 181 201 203 120 191 193 105 112 122 192 157 99 184 191 116 131 210 204 201 163 187 186 187 108 190 195 156 193 97 203 197 179 141 170 179 109 199 187 185 184 121 187 101 178 113 87 190 114 105 65 76 81 157 79 161 150 83 58 108 133 101 141 125 98 153 202 200 114 68 64 49 94 156 65 104 70 76 117 149 96 81 98 147 58 86 158 83 179 159 224 128 104 179 127 167 193 208 205 138 103 96 153 144 85 90 96 102 85 116 136 113 73 60 120 122 169 74 129 176 135 70 153 162 128 73 67 81 164 138 157 134 161 76 156 109 133 134 118 145 143 100 64 92 155 178 119 130 197 139 134 83 69 86 149 129 123 70 120 102 33 73 152 130 165 119 136 144 146 111 169 196 137 95 60 148 92 156 90 91 173 154 162 132 185 189 158 115 199 185 214 232 217 107 191 181 79 69 122 189 101 158 99 194 192 95 167 157 72 159 61 169 164 125 162 140 106 95 116 93 91 160 70 180 185 105 179 139 178 89 175 112 39 76 149 151 66 58 148 82 87 183 137 111 90 123 64 78 126 159 134 144 147 155 151 86 134 134 89 137 141 161 128 166 113 139 175 188 92 135 148 91 92 107 186 112 112 135 129 137 116 102 185 142 148 159 139 169 185 137
116 134 148 152 140 141 150 171 175 184 185 193 184 165 183 194 200 192 191 195 202 198 200 193 192 186 183 181 177 177 169 157 142 137 154 157 151 146 149 173 187 172 176 197 192 191 199 208 164 198 168 163 180 182 172 171 162 149 153 91 106 139 148 167 159 123 172 111 156 160 180 164 91 72 85 79 9 28 89 81 117 134 102 78 76 66 76 139 129 110 127 139 76 127 74 81 82 100 102 113 92 108 130 131 91 75 61 91 68 64 66 75 106 122 107 172 101 95 105 137 122 71 78 102 88 93 88 129 71 131 73 142 75 148 90 201 100 91 52 35 121 133 94 47 69 70 85 99 192 184 83 161 175 158 92 129 134 91 133 173 181 124 89 109 124 178 136 165 171 102 129 96 180 98 181 157 198 90 154 119 176 112 176 164 142 115 192 80 124 123 104 134 75 75 128 120 45 149 85 150 139 138 59 51 73 68 151 120 83 81 195 188 96 161 92 84 101 182 199 211 191 176 121 196 209 212 131 141 159 196 204 213 128 101 155 164 117 195 98 199 135 103 151 142 157 168 159 114 165 190 187 182 142 184 114 165 98 177 165 136 109 185 180 143 86 170 110 97 186 125 157 110 153 174 77 136 84 158 137 79 126 60 117 122 164 87 144 198 108 157 74 66 151 58 158 69 83 90 97 162 63 151 136 169 169 160 150 62 56 112 94 136 213 131 143 148 90 180 118 126 169 198 88 153 84 111 154 163 69 69 81 44 93 81 58 117 174 163 178 172 80 176 95 155 64 54 151 69 144 45 130 136 195 108 192 93 173 76 148 158 105 186 71 151 150 126 164 104 156 178 189 123 194 145 159 107 48 64 63 114 66 136 139 128 166 119 89 185 102 89 199 157 199 168 144 135 99 54 127 162 169 181 181 132 183 142 106 181 127 139 92 123 181 206 189 206 112 91 149 125 69 128 140 189 134 205 194 207 131 171 72 102 156 82 78 156 162 90 100 57 181 78 136 64 131 100 113 167 76 72 103 84 112 107 42 104 66 146 164 69 124 85 172 137 209 114 103 110 173 158 88 164 122 116 121 58 87 139 115 67 148 99 74 124 196 112 156 120 210 120 151 183 115 119 103 170 172 96 172 172 156 88 121 106 82 74 173 78 117 79 166 107
104 119 132 137 138 143 162 171 161 168 173 170 173 176 169 185 192 188 206 209 207 199 181 180 189 188 175 177 168 161 166 160 152 159 173 181 178 176 173 185 184 179 200 201 210 212 193 192 185 187 187 182 135 136 169 144 144 154 155 150 187 178 126 142 130 106 160 131 129 135 196 151 171 103 50 17 82 50 52 112 130 111 187 136 78 102 111 80 101 98 93 80 63 120 120 82 69 100 105 102 111 124 87 93 114 71 89 75 83 70 71 73 98 106 151 157 142 88 94 66 136 147 105 88 81 78 99 78 159 62 145 92 78 77 100 144 157 153 135 114 156 154 97 185 110 179 203 119 173 124 165 176 157 164 47 89 40 135 169 135 111 168 142 87 149 159 163 180 175 177 83 84 108 103 96 100 150 61 102 121 148 179 105 108 184 191 113 111 146 164 101 185 161 118 127 70 80 134 153 157 82 124 150 82 116 61 162 82 89 122 160 148 84 163 98 131 117 99 139 106 155 120 176 181 106 176 202 205 189 130 198 207 188 148 146 45 137 91 150 195 131 154 169 124 210 219 189 133 134 107 161 184 178 152 79 110 77 160 136 171 89 167 138 162 77 153 162 192 209 116 174 159 150 106 159 112 81 91 63 70 162 60 90 78 155 117 179 94 174 151 169 97 122 55 81 175 106 137 255 156 64 88 166 80 61 108 48 57 61 154 109 148 123 102 101 116 193 162 126 195 218 138 90 151 100 81 129 137 162 119 135 29 53 121 127 98 121 179 86 176 170 160 182 76 111 128 108 134 60 108 95 78 184 125 208 173 91 175 168 123 166 113 139 54 143 122 146 72 144 180 121 149 157 112 166 160 82 75 55 106 63 144 72 145 82 92 189 179 175 167 130 136 134 222 137 166 61 152 61 123 121 82 174 144 91 196 145 203 186 177 83 145 224 166 137 138 198 186 158 165 80 152 126 102 206 178 111 202 141 199 85 98 172 102 120 162 56 82 135 102 171 139 161 72 155 138 95 149 143 144 182 97 143 123 66 115 145 100 68 141 131 124 158 126 135 86 92 103 124 160 123 119 85 110 42 57 55 61 160 67 66 103 124 103 186 195 191 203 207 171 149 191 111 107 95 130 98 156 111 176 107 180 164 170 162 93 75 100 140 105 85 56
108 115 122 125 127 145 157 159 155 145 147 167 169 159 158 171 168 193 198 194 195 186 167 178 180 170 164 159 163 173 176 178 174 178 191 202 202 195 185 196 179 191 192 205 218 208 205 163 174 150 135 153 138 130 151 165 179 124 168 158 128 220 143 175 144 104 123 147 104 129 176 180 203 151 59 58 55 54 125 86 99 112 134 158 121 96 117 127 126 113 88 92 62 55 63 132 101 137 95 114 115 110 107 89 103 85 66 89 82 72 65 124 146 78 97 87 83 72 66 98 111 50 49 132 149 63 150 138 61 82 163 72 165 172 79 150 140 67 82 167 79 196 180 190 154 177 138 198 141 100 181 131 163 100 53 44 139 101 174 186 182 86 151 183 187 155 185 135 103 115 120 87 99 126 90 98 148 150 90 81 135 170 136 162 166 189 83 98 50 157 74 180 94 158 169 76 129 154 93 155 67 117 104 146 69 75 138 183 160 83 160 176 173 100 145 174 123 193 207 110 149 81 142 108 114 195 184 131 189 90 194 93 127 67 47 135 66 149 73 83 118 112 219 119 229 132 243 211 194 219 178 136 175 171 153 82 125 90 95 108 65 151 188 131 102 174 92 143 149 210 112 143 48 149 154 151 92 65 144 175 70 154 145 188 100 149 161 135 180 167 80 117 57 98 113 179 110 95 149 77 64 61 161 53 59 122 82 131 154 157 123 185 107 151 98 118 188 193 182 110 98 158 89 114 78 148 174 101 157 148 57 48 114 138 85 102 123 101 94 98 142 82 179 72 155 57 57 148 45 104 142 180 151 221 132 176 106 127 59 118 148 167 99 71 150 87 167 91 156 108 184 187 137 135 112 187 175 89 178 172 139 106 85 119 117 78 98 157 98 192 206 249 146 191 193 74 117 81 69 177 173 177 67 158 74 88 106 101 255 118 73 120 195 114 207 133 204 190 169 94 77 140 148 113 199 161 144 115 114 142 175 149 154 182 121 127 162 95 140 131 173 166 166 140 80 166 148 155 90 149 186 189 199 150 121 135 128 53 145 88 56 101 146 94 81 90 163 133 165 162 75 78 72 64 81 70 56 54 141 115 136 35 39 127 101 85 183 196 137 112 108 122 189 191 105 206 173 94 82 85 71 69 138 66 137 142 82 80 74 171 58 73
113 114 111 111 120 133 139 149 143 133 137 155 149 153 145 154 153 161 188 193 182 175 177 161 180 181 172 168 168 172 189 197 192 193 199 209 209 206 200 194 187 181 182 193 205 187 187 136 150 166 141 162 169 164 172 189 166 159 141 150 213 180 178 150 188 115 82 101 79 160 167 163 174 89 67 141 155 125 173 129 149 111 115 133 82 96 53 38 91 108 77 67 92 89 97 94 121 102 104 70 64 83 106 101 88 91 80 102 85 114 68 118 96 75 72 73 75 83 68 155 83 114 146 115 95 50 42 82 78 126 134 104 171 122 172 79 176 116 147 104 193 204 170 216 232 128 219 200 85 177 124 172 144 165 152 153 94 118 140 158 144 111 136 66 161 109 111 104 201 199 123 81 69 107 166 104 53 48 107 39 64 66 160 101 126 194 135 143 73 53 172 140 175 64 158 68 156 87 94 115 46 124 142 57 144 182 94 120 191 169 77 169 99 75 138 73 115 110 152 151 194 175 59 126 83 71 151 177 103 80 81 142 145 160 53 43 59 107 158 155 158 116 124 152 230 220 135 138 171 134 215 206 99 201 186 158 169 175 132 121 163 81 192 139 172 106 165 131 143 170 189 157 145 110 52 106 104 87 166 164 77 68 142 103 144 174 109 100 78 87 140 148 126 149 63 178 176 99 140 96 109 81 155 109 87 60 90 106 90 114 161 176 148 106 195 146 183 101 179 122 159 168 144 93 109 154 125 175 69 53 61 83 142 118 182 116 108 201 177 128 146 144 90 150 182 74 109 127 110 132 67 109 176 120 130 184 97 171 172 153 95 104 106 120 84 155 175 70 154 114 108 143 202 128 155 117 139 138 115 170 110 130 144 155 134 85 84 95 87 102 228 248 138 118 186 79 170 102 117 73 96 141 119 54 107 169 85 119 126 65 167 164 167 92 144 203 188 206 125 144 65 83 129 129 111 104 179 205 200 100 165 103 118 117 166 88 134 160 98 121 160 153 157 113 168 186 186 116 81 155 178 143 95 173 117 121 157 143 142 53 112 126 178 82 161 152 164 112 68 168 75 187 113 166 101 72 57 154 105 84 39 85 134 35 141 118 121 179 168 102 127 142 102 97 121 132 200 138 91 144 166 140 60 150 62 168 118 125 94 180 74 121
116 115 111 111 111 123 132 132 124 128 132 147 148 144 137 123 127 134 154 154 165 171 173 170 167 176 166 180 179 195 201 206 198 198 203 208 203 205 204 196 182 171 169 179 166 180 141 159 145 151 169 136 182 149 189 192 172 183 176 200 155 214 195 151 98 124 148 89 162 179 114 198 176 84 90 152 145 162 116 115 116 162 189 100 97 124 27 76 32 41 60 106 68 85 130 131 105 133 128 96 81 58 105 84 106 107 93 115 101 130 78 99 87 81 75 124 90 104 84 95 93 99 66 100 28 124 126 28 84 139 76 180 167 117 184 145 72 105 172 193 139 157 215 220 179 225 120 210 190 106 161 107 80 143 162 69 123 183 188 174 105 68 111 94 103 133 173 93 116 210 136 100 156 78 128 90 160 116 65 123 43 57 135 131 132 170 84 171 163 81 123 123 103 60 156 255 163 88 172 114 159 77 95 108 181 114 180 96 168 159 175 75 82 191 185 85 91 168 127 105 86 111 64 122 128 112 169 164 138 129 95 168 157 55 52 51 106 82 65 149 191 190 209 218 120 156 174 194 133 131 213 176 104 171 115 170 123 137 153 84 151 138 103 175 84 98 121 164 141 114 91 66 91 93 150 141 79 159 103 184 89 143 90 144 93 179 97 116 119 111 74 142 151 78 130 101 93 91 100 109 133 81 106 87 144 98 176 87 137 100 203 115 189 92 126 208 120 184 130 63 63 172 191 103 152 196 94 76 67 63 67 165 130 94 107 207 206 202 163 125 172 200 150 94 109 187 175 89 57 152 109 173 128 199 197 95 156 148 82 118 204 186 197 181 101 150 77 76 165 77 183 199 106 198 120 135 118 137 114 105 90 150 90 74 117 165 63 81 124 160 137 131 229 113 193 192 91 71 116 66 47 123 111 103 59 89 169 156 95 141 110 69 175 100 110 152 137 154 118 163 151 161 80 148 153 204 159 95 187 87 137 101 125 128 185 158 160 146 63 99 51 76 154 77 99 102 165 87 131 173 172 200 105 180 90 166 141 168 63 133 167 74 75 158 174 88 167 124 167 96 74 109 179 129 94 158 78 121 168 129 143 93 119 46 78 89 137 145 193 166 201 107 129 170 148 119 166 145 110 61 53 82 160 60 64 177 81 102 135 115 96 132
111 109 107 105 105 117 124 129 131 129 127 134 143 141 119 118 120 125 138 136 144 148 154 171 174 187 191 186 190 197 209 206 205 197 204 207 209 208 198 174 165 138 156 165 138 163 157 152 147 174 150 157 149 139 151 141 150 149 183 147 137 168 176 168 115 84 151 139 163 140 136 165 91 142 108 97 182 98 109 130 115 125 180 132 84 45 88 22 18 53 46 58 79 116 117 157 132 101 78 102 85 114 126 93 107 110 102 101 152 87 128 90 69 118 89 89 123 109 99 122 94 72 115 76 74 22 124 106 98 73 101 88 149 172 113 159 154 128 65 182 101 197 100 119 212 200 225 143 143 178 163 93 115 179 173 136 150 182 95 161 98 145 82 127 93 134 118 168 171 133 195 181 163 172 92 145 125 93 102 116 150 159 104 92 169 186 179 91 87 168 177 145 85 68 56 130 141 160 89 157 81 123 152 75 104 103 119 113 158 92 126 109 161 173 100 164 101 195 163 140 94 171 64 148 54 142 136 104 175 76 144 125 142 135 169 157 155 59 73 136 152 195 101 213 198 211 190 126 149 119 98 97 194 191 134 89 113 132 63 63 81 93 101 185 89 170 184 170 117 114 110 78 68 88 123 79 158 81 181 77 66 158 70 81 110 124 172 81 141 132 156 120 70 132 96 81 88 198 106 198 83 172 70 57 164 136 95 104 143 141 94 155 146 104 153 106 103 88 154 63 46 79 181 125 126 116 77 166 72 101 94 190 108 185 120 174 98 189 133 152 196 104 162 186 126 97 154 75 135 155 93 163 97 127 101 147 160 149 155 207 201 139 189 172 121 99 144 138 166 102 192 205 196 184 78 120 76 174 137 156 146 34 123 121 53 66 90 166 179 96 175 113 127 203 146 191 171 63 57 143 139 49 107 114 143 59 143 161 179 175 153 146 118 71 170 64 67 130 95 123 52 68 169 160 116 129 95 195 98 187 170 72 95 102 106 89 62 155 90 99 76 123 113 70 98 154 165 87 91 145 162 195 125 184 75 180 79 83 175 181 77 128 168 180 178 75 107 139 64 77 100 83 168 92 187 176 122 84 155 87 71 121 95 30 29 120 56 169 99 130 95 202 134 107 131 198 201 190 172 56 131 127 160 68 98 68 92 165 205 223 206 96
115 112 107 105 108 124 133 136 135 135 136 137 144 126 124 112 109 125 116 141 148 154 157 175 182 187 192 204 200 210 206 212 208 210 216 216 210 193 177 160 140 146 150 157 157 151 158 165 168 187 203 200 175 188 192 162 178 124 153 134 154 134 168 121 91 99 79 129 142 187 148 182 164 170 93 119 113 163 95 177 123 128 123 134 130 127 60 24 16 23 32 94 82 100 128 111 154 95 77 101 77 103 99 110 109 98 94 114 120 111 124 107 74 96 101 91 127 100 127 177 80 145 57 142 54 101 49 37 92 161 80 85 145 80 118 62 52 157 62 107 137 98 173 89 145 144 144 126 214 119 170 96 176 186 161 151 152 194 180 164 79 98 63 54 148 143 164 172 193 161 132 139 176 93 204 203 155 196 117 102 144 122 157 157 87 181 150 85 82 175 154 148 146 140 99 42 57 75 164 156 80 135 142 154 177 170 106 206 166 154 139 132 198 96 195 171 175 157 102 133 174 144 128 88 89 92 145 157 171 82 152 167 178 136 112 158 126 157 166 162 170 182 102 95 195 199 154 153 113 171 89 75 92 130 118 116 91 151 101 160 150 98 201 93 135 162 148 144 145 108 59 151 105 85 82 84 149 152 151 148 166 127 76 126 110 134 188 149 74 106 111 150 99 69 73 178 87 100 126 158 103 85 128 79 67 98 53 85 98 147 78 82 175 106 161 212 121 152 121 47 52 139 84 164 141 99 178 167 82 151 110 119 116 131 125 156 99 159 144 169 198 99 192 88 105 174 109 167 89 52 140 121 152 153 105 164 106 195 161 182 121 99 107 92 152 167 114 66 173 199 162 205 175 86 90 153 163 109 185 178 160 145 128 69 101 154 90 103 88 168 201 143 119 97 151 86 175 150 99 41 103 139 92 103 38 148 130 170 148 160 127 75 80 92 165 63 74 135 64 83 88 133 57 162 156 133 162 178 92 131 149 147 90 138 148 140 111 70 63 44 71 113 59 156 174 191 193 147 155 184 83 96 84 180 167 86 153 192 149 187 82 186 175 166 127 104 75 62 137 76 146 167 92 130 181 194 150 195 162 136 115 92 61 83 139 144 110 110 101 182 122 159 196 130 95 109 109 143 83 147 132 59 166 63 154 170 84 121 224 172 156 215
119 115 111 115 123 142 153 152 142 146 131 134 136 150 136 141 135 131 125 137 133 148 169 164 171 186 205 213 220 209 211 208 209 215 223 221 204 181 153 136 125 132 135 158 169 150 174 171 196 171 181 185 145 129 176 170 156 91 122 96 149 130 158 126 151 153 140 138 179 170 162 149 98 122 141 103 70 99 80 121 128 152 163 121 138 66 38 33 28 99 49 75 127 149 91 109 137 135 102 73 120 85 124 140 96 124 92 118 122 138 63 62 108 148 88 93 103 110 102 78 163 59 52 120 59 69 87 79 149 74 79 105 170 78 154 75 159 110 59 170 103 75 75 175 104 117 208 207 219 157 87 83 129 179 188 191 145 154 141 163 142 103 55 112 123 137 148 121 181 183 118 93 136 186 200 137 131 204 103 195 186 196 94 159 89 170 129 111 79 156 180 81 184 176 70 45 139 131 80 128 152 114 73 71 188 122 106 200 95 174 181 150 88 99 109 164 145 104 186 100 167 128 134 76 168 146 124 87 177 108 159 136 181 87 167 168 161 130 84 72 133 171 148 180 156 100 149 183 99 154 110 126 72 162 155 141 94 97 171 150 191 106 197 102 98 50 143 109 108 149 108 134 163 136 73 156 155 82 65 52 97 79 105 90 93 91 115 142 152 69 162 108 60 167 86 170 90 174 131 197 194 97 96 88 99 56 69 72 45 155 73 142 84 104 153 113 181 94 85 47 136 68 136 190 194 98 111 175 101 161 192 115 222 206 169 107 89 83 174 153 137 198 97 188 174 163 174 173 76 171 165 112 194 101 96 177 122 145 184 167 193 134 118 86 133 72 71 175 160 190 190 148 180 119 150 41 122 118 128 76 92 59 97 83 161 162 180 133 196 199 196 190 178 189 101 167 171 52 129 117 111 47 51 106 43 67 157 166 86 85 123 159 89 80 105 66 67 64 163 119 153 83 88 44 130 133 73 70 156 133 120 58 156 89 149 172 143 163 155 146 43 63 115 152 145 186 88 140 102 189 183 82 77 76 162 127 92 157 153 181 180 113 200 142 176 88 149 95 90 97 174 116 127 142 181 191 101 178 193 144 112 82 186 122 153 101 35 97 83 203 204 182 77 159 164 78 79 67 119 87 96 152 103 122 135 140 94 107 130 119 113 142
130 126 124 133 145 159 165 165 153 152 145 147 152 144 150 158 150 148 147 131 154 159 175 183 184 184 209 214 218 209 198 189 190 200 213 214 193 180 149 131 110 131 138 170 191 180 198 183 213 213 186 185 132 162 137 140 152 142 151 119 164 108 144 117 126 178 149 136 121 146 123 157 107 86 109 83 83 58 90 96 136 133 127 103 92 113 50 43 42 39 102 54 64 79 93 85 90 126 129 91 78 87 85 124 80 82 84 85 94 79 110 56 66 143 86 116 92 153 110 67 116 109 68 60 94 137 138 59 168 175 177 78 128 145 163 82 174 110 169 140 174 120 167 174 100 126 198 161 199 203 136 81 174 178 176 153 214 238 182 219 196 173 147 100 156 172 95 177 174 157 141 145 201 151 141 206 137 153 212 121 183 183 182 110 73 63 170 132 135 149 165 98 81 149 165 81 64 84 149 82 145 132 163 69 152 131 199 89 123 68 166 70 151 174 84 99 107 186 90 67 63 109 108 170 179 107 203 185 175 84 166 113 156 97 151 162 115 180 78 172 164 70 167 161 127 78 78 124 130 77 173 120 141 71 57 145 46 70 139 184 202 206 100 134 166 71 96 91 143 69 146 46 130 74 144 131 133 118 42 100 129 142 169 109 177 152 176 160 159 164 121 80 167 114 72 76 79 100 113 114 141 128 156 80 124 62 75 59 46 96 78 161 129 199 126 106 146 100 93 80 79 156 68 99 185 91 151 92 191 104 168 108 211 126 109 201 84 171 172 126 106 167 104 163 183 147 94 96 184 179 94 183 133 145 172 79 102 159 143 82 154 163 111 176 174 75 173 154 145 123 193 186 98 127 108 114 148 69 68 159 182 80 157 84 154 170 184 153 88 139 169 141 181 85 123 185 70 43 50 38 48 59 119 89 67 56 88 141 176 107 145 168 83 88 137 38 34 92 165 173 139 143 42 68 64 50 57 152 70 110 84 61 66 138 59 167 94 76 122 84 151 149 91 64 78 184 188 90 189 161 73 73 132 174 185 201 189 176 90 160 130 196 128 96 187 78 153 148 173 96 141 135 178 161 178 150 100 97 104 186 174 134 125 177 64 34 118 111 159 186 95 83 83 128 76 166 175 138 58 132 74 112 62 80 158 122 149 114 109 100 114 107
126 127 135 143 158 162 159 160 156 158 158 165 153 164 166 154 162 162 152 130 138 154 180 181 178 195 206 222 213 189 173 164 164 174 189 193 179 173 155 128 119 132 159 186 200 215 218 220 217 193 197 169 161 130 164 133 155 170 165 127 114 166 119 126 116 123 184 96 117 163 156 162 127 89 73 143 140 129 121 162 100 104 110 93 72 123 59 105 82 98 70 47 53 73 81 73 97 79 77 77 103 73 92 80 84 103 85 83 103 123 62 57 104 108 122 94 89 126 130 105 49 133 48 57 52 92 131 92 173 116 80 71 68 170 108 92 89 184 159 171 160 159 172 73 184 172 93 191 188 182 180 168 149 176 195 199 133 246 171 192 178 144 167 95 107 142 160 111 182 99 203 207 123 167 211 183 135 207 108 161 123 155 127 156 108 156 99 174 140 115 90 172 88 167 156 155 93 68 128 91 102 177 160 176 117 107 188 112 68 98 104 154 181 179 121 154 186 105 81 82 61 98 71 88 178 203 204 200 185 109 152 160 74 128 159 154 113 180 89 78 161 166 160 94 173 175 163 77 148 97 65 153 133 109 115 134 55 126 139 165 186 190 178 85 143 156 162 142 124 65 44 75 161 163 84 106 140 100 123 98 81 173 84 179 80 168 133 132 155 154 156 164 80 184 141 114 112 140 140 123 95 99 175 169 140 61 91 71 43 45 54 51 94 255 105 97 107 93 92 76 105 158 119 176 172 187 91 165 94 176 108 177 103 101 102 86 175 81 184 171 104 98 183 175 211 207 114 189 201 185 192 134 74 138 70 150 60 255 133 169 104 155 110 172 180 185 162 109 161 120 141 116 112 151 148 79 154 77 105 73 129 191 111 89 67 100 168 162 155 84 106 77 128 173 85 82 66 114 42 147 106 89 131 185 96 69 136 62 133 75 164 83 81 88 57 108 121 82 169 96 76 151 134 87 76 9 33 119 168 93 80 150 109 114 160 62 90 74 158 113 164 54 155 136 175 120 90 172 199 94 146 147 69 79 91 116 125 192 121 129 171 172 178 158 185 183 129 85 132 183 168 106 183 177 117 109 182 134 103 86 114 191 206 198 173 49 29 116 85 72 138 185 165 97 148 75 77 169 66 104 141 150 165 151 112 150 153 106 146 144 116 160
119 124 134 137 141 145 148 161 160 174 165 166 158 168 162 168 158 146 142 140 147 153 166 169 185 197 207 203 192 162 146 142 147 158 170 177 173 165 161 153 157 160 159 167 177 202 206 197 177 197 169 156 161 125 165 134 130 161 161 136 145 157 146 163 137 159 171 169 148 148 111 132 163 144 104 140 157 77 121 99 154 116 177 107 105 66 66 66 70 57 68 52 77 66 70 91 99 65 60 71 83 120 106 109 94 114 92 82 136 69 67 127 106 109 111 118 164 144 94 70 57 48 47 61 45 65 52 156 161 80 171 102 52 96 184 120 131 127 81 171 168 145 77 105 117 85 180 135 150 100 153 77 108 122 194 193 209 228 222 193 166 60 145 136 139 194 185 101 111 188 153 155 139 173 190 90 157 95 190 193 163 92 156 132 162 118 88 174 113 92 87 155 150 153 64 173 95 122 104 101 153 149 93 179 88 178 96 121 112 80 100 102 174 174 99 188 211 105 89 146 145 99 82 95 152 152 104 144 85 111 108 181 83 186 87 77 174 150 255 70 158 160 95 171 174 175 67 117 169 72 72 155 44 105 132 145 163 178 174 185 183 79 86 185 182 190 120 160 170 156 125 69 66 128 171 116 117 124 136 165 135 174 91 70 152 128 98 71 114 140 99 162 86 90 186 191 120 149 199 102 174 112 116 93 67 164 77 153 84 133 54 151 68 133 171 188 179 149 114 80 134 89 71 79 93 153 168 183 94 195 147 129 186 81 111 71 83 154 111 128 173 132 106 179 164 118 206 205 204 91 157 175 173 131 44 108 154 60 131 81 99 157 83 162 102 119 161 182 145 178 94 97 129 104 61 104 162 139 72 115 134 124 112 174 110 132 112 174 176 186 86 134 163 81 155 181 119 70 42 111 139 77 142 176 108 101 86 108 35 101 67 128 73 173 96 49 130 67 111 171 131 158 49 37 94 32 71 164 109 93 95 108 153 73 82 96 109 132 176 183 139 86 64 60 132 133 89 93 146 192 168 109 65 121 95 121 96 180 82 89 73 132 86 182 177 84 170 183 204 114 120 179 100 144 113 187 187 168 86 111 102 104 202 126 181 54 134 131 115 76 180 81 84 150 49 110 113 73 109 78 45 86 82 87 202 200 185 207 207 179 83 75
112 116 121 121 117 123 137 157 164 177 177 173 170 160 160 154 158 152 255 131 127 154 167 164 179 191 193 183 169 140 129 127 140 147 164 165 157 160 165 160 172 155 167 154 176 162 188 195 179 142 157 134 142 135 158 180 161 162 184 164 151 148 156 181 154 127 206 147 146 101 76 142 73 115 129 97 131 121 129 73 104 79 116 157 97 92 79 127 95 65 55 61 66 88 83 107 80 73 97 84 97 98 141 138 145 97 120 141 79 76 118 72 86 92 117 101 97 171 115 49 57 62 51 46 54 42 127 125 183 85 111 66 139 60 71 197 112 111 166 153 172 110 63 153 176 171 125 176 155 117 176 172 168 168 127 124 122 179 191 82 165 84 155 160 190 114 179 154 152 172 177 255 108 125 168 132 121 124 136 110 122 156 168 91 153 141 62 75 134 95 87 183 133 105 114 171 116 157 167 184 98 192 164 153 164 145 131 173 117 123 84 80 136 172 154 178 217 214 135 101 175 163 160 109 119 142 210 155 150 162 159 144 100 107 132 107 160 171 96 157 146 74 111 164 69 171 100 156 175 180 85 76 155 46 91 88 64 150 170 159 184 132 174 158 144 102 199 103 161 151 108 162 104 184 101 184 131 180 140 151 194 86 168 164 57 120 65 145 55 151 159 168 185 105 191 91 125 107 111 98 90 176 59 58 130 92 89 82 136 45 116 157 99 70 113 130 118 97 92 89 83 151 171 105 109 85 122 148 107 209 150 153 181 97 66 93 159 166 54 142 75 159 194 165 203 203 180 101 119 71 71 151 92 144 88 42 81 134 119 157 152 160 174 147 90 165 161 208 120 121 113 160 88 110 81 96 167 134 115 163 193 197 187 165 158 171 94 75 80 166 186 77 83 110 120 88 129 127 136 64 149 87 85 196 180 199 181 59 28 104 49 133 174 123 157 67 132 86 96 108 134 108 79 116 162 145 144 163 110 106 132 107 91 116 98 95 121 83 188 200 121 185 108 163 174 159 128 187 123 165 99 69 76 135 89 164 86 158 144 162 144 164 89 164 178 109 165 158 97 213 157 155 88 96 114 135 175 90 54 165 183 110 201 175 102 146 113 74 72 117 103 152 77 148 89 140 80 79 173 93 59 175 79 197 152 163 193 118 209 187 129 144
115 115 112 108 103 113 134 150 175 172 163 162 161 146 141 145 141 130 132 140 149 162 168 176 170 179 181 170 159 141 123 128 138 150 162 161 150 151 159 178 175 176 162 137 148 148 181 177 178 174 172 129 116 131 176 201 185 183 134 153 132 127 81 112 162 165 206 156 102 163 161 130 118 178 146 97 174 93 104 80 158 164 94 181 175 112 124 107 80 100 71 75 128 102 106 97 64 64 56 104 115 150 126 118 125 98 97 117 72 87 79 134 76 66 84 100 97 158 69 142 49 118 62 147 126 53 156 138 81 90 86 61 52 51 86 128 192 151 133 89 76 167 152 164 163 167 96 176 82 144 76 164 99 163 176 85 98 155 102 145 120 150 66 77 165 133 113 168 163 110 145 95 116 77 80 58 30 131 139 64 161 147 86 144 44 105 99 95 164 132 82 124 104 124 179 172 121 211 211 165 118 157 89 78 81 84 88 78 138 160 165 136 68 133 177 101 159 207 165 161 141 86 139 182 141 113 108 200 187 126 150 89 126 147 178 170 73 145 66 58 118 144 148 150 96 110 112 182 155 171 152 193 82 166 163 125 106 178 203 120 148 95 76 137 144 133 182 79 145 54 99 164 87 168 107 189 117 185 94 153 139 180 67 143 103 75 175 177 101 110 151 108 163 148 132 255 102 184 137 144 92 175 109 71 130 99 74 115 72 71 62 134 158 179 70 134 105 151 126 195 140 163 110 147 185 174 94 136 181 108 197 156 173 58 62 171 116 68 54 90 94 171 184 209 217 215 122 139 121 50 137 159 146 87 101 127 177 115 149 168 60 154 68 175 193 196 108 159 137 115 69 101 103 172 163 109 133 118 156 187 194 132 150 98 96 69 127 112 124 153 164 87 61 167 128 169 196 160 119 136 74 133 114 165 207 126 129 155 112 55 135 109 99 77 102 68 77 80 161 69 70 171 104 80 83 165 125 118 135 189 141 173 187 76 156 97 120 137 201 172 144 97 89 185 185 91 146 160 79 83 128 153 53 115 187 186 187 157 55 132 145 159 141 85 144 126 108 121 187 123 162 112 144 147 77 72 75 158 119 70 190 118 107 137 168 114 122 92 145 168 61 95 78 51 101 156 85 83 171 171 138 164 101 99 137 199 91 156 93 92 137 116
117 112 105 99 103 113 139 153 170 171 160 156 141 148 140 140 140 131 141 140 156 166 175 190 178 187 185 179 172 149 137 129 135 144 155 155 145 137 153 176 177 195 162 173 153 166 178 152 181 150 151 143 172 155 164 144 178 140 162 155 144 108 88 156 124 153 145 154 127 135 102 100 150 167 101 114 92 85 107 128 92 116 156 167 116 115 131 91 74 70 139 100 108 145 106 76 58 68 81 115 135 110 110 109 132 126 119 73 117 100 87 129 61 60 111 119 176 87 149 74 63 135 169 73 89 111 114 157 148 101 113 85 56 52 61 120 129 161 158 107 190 76 72 159 80 120 73 92 186 191 185 137 167 162 140 149 162 179 123 108 156 105 131 164 172 135 114 173 135 117 173 158 138 112 115 72 111 37 106 74 109 133 88 104 62 71 55 162 112 138 121 129 152 152 108 178 112 129 211 114 175 188 117 152 148 74 170 165 60 54 143 128 83 164 175 79 104 173 111 157 100 64 128 157 84 138 112 114 112 171 148 191 99 188 178 255 66 85 138 144 42 64 131 134 71 65 153 165 176 199 195 138 130 190 172 95 152 140 122 169 145 152 67 123 170 87 132 156 149 128 152 169 135 114 158 93 91 176 98 183 190 84 144 122 86 76 85 134 96 48 121 36 134 158 69 110 175 133 93 81 127 82 85 181 122 100 131 162 91 145 128 179 85 170 143 80 104 120 80 181 255 206 198 134 114 84 160 199 165 163 187 100 124 128 97 157 78 175 151 147 119 157 185 117 121 110 108 74 151 76 141 147 121 85 161 71 87 106 92 85 148 57 161 174 186 142 143 183 156 128 97 133 98 177 188 135 186 90 147 97 188 130 104 137 51 88 108 125 143 73 90 118 101 153 196 125 156 181 139 64 88 121 196 166 235 126 189 83 73 48 49 105 104 76 169 81 160 188 79 177 144 109 85 97 178 113 97 171 84 195 156 102 88 176 123 153 146 95 200 176 143 170 189 140 191 77 161 173 176 145 51 50 51 100 168 187 158 134 63 87 102 60 140 138 186 209 159 128 77 169 183 162 160 98 164 163 160 77 86 157 107 119 186 150 164 78 86 194 123 75 79 64 104 147 62 156 93 166 89 72 169 140 183 164 185 84 80 162 80 111 117 140
110 106 99 94 97 115 142 155 165 158 143 130 130 141 147 138 135 136 133 158 150 170 179 187 185 180 182 191 196 181 158 139 133 138 150 154 140 139 150 174 194 210 189 179 199 205 208 175 199 181 169 161 158 183 158 132 159 128 126 102 170 163 160 157 172 134 151 106 107 169 176 120 164 111 147 149 134 83 76 126 93 129 160 145 143 115 117 102 109 66 74 110 103 101 96 68 82 68 53 71 81 118 140 103 115 96 84 76 76 67 81 119 98 62 72 92 131 97 148 152 77 84 87 85 66 62 149 90 157 83 126 153 58 62 119 185 91 93 92 96 183 163 69 89 57 158 170 142 200 159 162 149 174 158 175 133 168 173 168 153 66 129 130 154 171 139 169 180 176 205 117 183 79 77 115 133 42 124 147 149 40 127 81 21 27 107 80 145 160 155 64 139 169 60 129 178 190 206 131 181 158 144 90 124 82 94 97 143 118 143 45 132 122 47 102 64 84 72 72 80 145 122 41 146 162 197 197 170 86 120 118 181 114 118 155 157 89 154 50 82 152 52 51 39 131 110 143 176 90 189 115 198 128 121 85 89 203 219 179 187 118 181 102 104 146 57 47 143 76 152 89 113 105 113 160 128 110 95 154 120 123 149 95 107 94 75 85 90 134 89 35 27 78 96 64 100 88 183 190 120 74 63 163 185 141 138 185 92 121 100 111 168 176 163 154 110 126 77 160 91 205 106 191 183 157 165 156 176 112 86 193 103 157 90 63 153 156 119 94 77 174 73 190 210 174 164 113 183 162 54 159 58 61 61 64 161 199 210 115 89 60 52 155 131 183 125 153 150 92 131 105 160 133 116 177 190 124 106 79 123 101 81 137 156 136 91 138 82 73 61 83 64 110 80 121 188 132 184 147 186 112 115 107 135 230 215 162 142 138 144 142 155 146 53 160 172 101 172 178 151 79 135 121 202 91 125 71 73 161 189 143 143 92 165 72 77 106 156 118 126 191 179 155 155 83 126 138 167 77 76 76 70 110 112 167 158 119 125 93 147 81 166 111 212 131 191 204 154 92 125 85 183 107 165 121 98 84 153 95 162 104 194 80 167 108 104 84 87 188 142 165 68 148 53 87 85 134 127 93 66 60 138 86 199 114 144 67 124 73 116 205 164
94 92 87 86 96 121 138 163 164 154 139 125 129 144 148 146 127 138 162 160 160 165 154 162 186 195 204 216 218 201 170 146 140 143 156 162 145 142 149 174 200 213 210 213 196 217 218 218 192 171 195 153 174 255 186 152 144 160 119 110 179 150 178 154 133 179 120 145 100 161 154 185 120 114 118 115 110 91 127 122 170 107 168 113 115 163 154 85 83 127 78 83 110 99 69 55 41 52 31 50 85 115 87 90 100 100 101 119 94 82 107 255 72 82 95 112 126 133 127 139 67 70 63 64 100 142 79 82 151 180 160 169 75 77 97 196 126 176 192 176 74 75 168 160 54 139 66 173 137 123 176 94 147 153 108 119 175 154 128 165 128 150 181 183 128 130 106 185 144 176 187 177 154 81 157 127 109 86 151 116 54 126 20 16 67 66 133 93 48 87 123 68 75 119 104 103 79 88 196 89 179 99 77 112 132 162 189 160 162 129 138 109 113 142 153 156 99 153 177 167 140 120 127 141 82 188 185 183 97 156 93 187 191 189 184 145 164 165 161 130 70 93 129 146 38 129 95 59 161 153 169 91 179 84 181 196 209 201 202 127 148 180 172 121 100 153 104 132 48 142 145 162 95 185 84 76 121 83 162 89 145 180 124 69 116 156 138 161 115 87 50 83 83 145 58 122 174 134 154 81 114 163 73 133 123 144 108 120 94 169 101 77 142 107 97 201 148 147 145 85 101 164 190 92 78 75 105 160 128 69 122 112 68 154 153 154 89 154 156 174 117 76 117 107 208 188 111 96 180 179 74 178 102 113 116 75 124 145 178 161 106 102 43 61 123 255 134 72 106 129 78 99 117 154 220 220 94 120 166 134 73 78 64 152 119 134 133 76 140 66 65 71 80 93 86 151 127 151 184 115 211 196 213 142 182 134 223 222 113 103 175 100 44 52 97 72 78 107 158 68 158 79 164 141 107 129 153 83 100 199 105 137 194 97 106 100 80 186 107 139 170 82 183 85 177 81 128 92 74 164 63 113 48 60 75 95 122 79 111 86 182 126 135 200 198 153 106 188 76 145 163 132 161 81 151 60 175 135 127 108 95 94 157 117 151 95 143 180 148 129 168 122 141 81 68 98 194 182 169 145 67 133 181 188 180 128 107 56 70 130 131 153
88 87 89 93 105 126 147 160 163 149 125 128 131 156 155 136 144 141 173 175 172 153 155 150 173 185 208 219 222 211 188 167 158 163 170 175 157 147 151 165 198 212 213 212 216 223 227 229 213 213 202 200 150 147 168 132 132 126 168 183 161 130 151 167 162 152 155 133 142 170 165 144 105 109 125 140 143 114 86 128 107 153 140 115 113 98 157 135 81 78 108 144 66 76 76 69 48 69 35 66 67 109 86 89 80 104 90 109 147 139 110 123 135 75 83 124 156 138 89 93 82 67 59 67 63 74 72 78 88 133 88 194 145 98 178 192 126 168 76 168 162 96 152 154 63 96 172 152 193 120 193 129 146 136 94 75 140 161 82 134 135 186 128 128 168 113 184 115 173 125 146 181 113 101 147 90 77 53 123 155 153 51 111 119 75 123 124 69 147 76 176 65 58 139 67 128 166 163 91 167 77 161 77 74 183 176 128 150 148 114 69 79 83 112 162 157 167 179 158 92 152 90 83 154 85 184 178 146 141 167 165 175 127 118 166 173 167 138 145 167 164 57 57 123 110 106 150 128 144 181 148 194 185 87 82 82 183 157 205 93 174 108 145 160 159 95 143 110 84 117 193 202 169 157 91 118 73 85 134 87 81 90 110 142 55 137 99 137 160 72 129 115 66 88 97 69 158 145 98 182 87 72 91 133 126 123 179 91 183 90 99 150 91 185 143 97 121 177 77 187 128 156 129 140 139 61 69 145 155 155 63 158 74 54 156 142 89 118 87 161 131 74 166 142 190 155 214 119 147 107 142 197 90 167 165 101 114 168 103 180 148 60 140 48 70 158 83 134 132 136 91 152 238 218 226 222 137 160 149 97 65 160 119 111 126 48 98 87 151 125 115 183 80 183 164 167 171 91 176 123 199 212 109 133 178 128 159 147 183 224 161 164 57 103 99 77 89 123 84 149 169 178 179 117 187 179 162 100 182 126 147 149 170 125 109 100 164 166 69 170 173 106 139 108 182 81 147 107 140 155 73 67 98 143 158 82 126 92 148 94 121 193 141 135 218 213 206 152 82 123 133 155 163 150 162 125 81 96 193 135 145 150 69 87 93 68 137 125 156 115 66 113 121 81 166 143 153 200 173 83 100 187 111 135 181 73 142 123 54 174 109 116
93 97 103 109 120 138 144 152 145 142 129 133 135 152 155 152 143 164 179 191 183 184 158 163 168 184 196 207 203 200 190 178 178 180 186 177 158 141 151 171 194 203 200 193 195 202 219 222 200 205 189 148 167 159 129 152 161 164 176 146 206 166 196 182 145 101 167 148 113 113 134 191 101 80 115 78 130 106 162 92 98 142 159 154 94 159 96 118 118 156 122 100 99 109 76 68 64 97 51 93 99 80 95 103 130 86 83 131 121 122 129 172 94 100 119 116 183 86 94 143 60 148 62 80 140 139 72 76 138 84 100 171 161 186 197 142 118 190 174 148 67 78 147 90 125 156 82 205 215 198 182 166 145 174 155 176 149 157 128 169 163 159 140 193 122 183 167 141 120 90 110 169 91 184 116 125 126 81 94 144 163 69 76 134 132 30 143 56 91 179 88 147 57 135 142 58 65 73 166 140 177 83 183 83 107 196 166 124 59 150 99 78 171 135 174 148 85 182 96 80 100 47 148 106 95 177 120 80 60 134 55 89 67 71 103 68 136 108 176 98 97 79 147 155 130 91 153 90 69 73 130 190 164 76 74 75 141 120 158 148 101 133 115 140 164 138 93 120 166 81 197 204 140 112 191 161 99 88 62 142 76 81 73 158 52 128 166 177 175 148 141 115 110 79 74 44 87 82 92 169 81 175 157 195 110 118 114 93 97 180 76 70 106 166 176 130 152 64 94 153 98 170 81 97 80 148 104 58 85 127 75 157 150 66 51 91 184 169 171 83 176 106 108 200 105 141 169 82 123 192 202 208 125 161 148 170 138 149 113 148 147 45 135 75 41 80 135 130 131 178 118 122 188 254 145 192 137 136 76 162 122 170 167 96 114 157 61 75 129 209 167 184 163 80 75 103 175 90 182 102 208 220 198 195 215 142 150 254 222 239 203 82 148 85 101 74 117 99 161 124 107 129 131 160 136 109 174 165 114 100 205 203 178 105 91 98 106 129 103 163 183 99 122 111 140 191 187 91 126 151 168 164 174 156 169 94 95 145 208 211 199 161 186 125 165 132 184 135 189 124 63 120 151 144 93 104 121 112 157 170 80 65 155 136 93 72 70 154 42 64 46 52 55 154 71 155 208 158 140 139 117 221 233 227 192 110 55 93 85 132 163 121
105 112 120 131 138 138 137 127 136 135 127 141 134 149 152 137 137 156 188 198 200 208 182 185 172 183 174 189 191 190 186 185 183 193 193 181 160 148 154 158 174 195 180 197 201 199 200 195 196 175 189 175 182 183 138 120 129 176 174 134 201 197 121 199 148 103 173 89 81 123 81 97 178 146 91 65 54 96 99 141 92 90 98 87 128 161 135 86 87 93 83 97 80 72 76 91 127 102 68 101 121 92 138 146 104 83 86 100 169 167 156 106 136 131 94 100 137 135 132 98 53 143 69 52 60 110 172 255 77 178 182 125 181 176 97 159 180 82 64 87 110 99 159 162 171 158 174 110 149 146 206 150 156 173 140 89 175 172 172 169 88 77 89 188 137 184 118 185 150 78 135 168 105 149 133 145 174 87 151 186 96 185 102 155 134 146 62 93 174 182 90 175 71 62 104 59 112 99 104 88 158 202 147 133 195 181 118 132 141 127 58 150 173 92 93 174 183 185 75 158 159 49 54 63 74 179 178 90 55 81 157 68 134 83 74 156 180 139 79 175 119 155 95 151 130 64 114 35 53 46 136 98 174 187 75 71 127 79 126 145 166 70 87 124 104 151 82 74 79 105 133 194 150 141 179 147 170 73 85 84 121 83 119 97 57 255 123 81 173 89 97 89 77 47 37 71 52 121 188 171 137 149 89 97 100 99 111 115 84 120 75 121 151 94 92 124 71 167 95 84 120 120 59 138 57 37 88 104 97 153 80 78 83 67 160 135 87 200 98 145 89 90 181 192 104 81 154 164 135 115 135 112 145 113 146 162 153 183 175 119 71 75 83 129 135 131 153 129 154 139 215 162 181 145 133 107 120 90 151 174 110 121 81 168 147 104 136 117 111 127 117 97 142 173 168 84 125 168 107 126 206 109 202 212 227 137 217 165 173 226 105 179 134 96 126 79 102 101 87 146 84 106 104 187 83 115 79 70 159 92 83 110 196 118 190 128 189 88 83 128 106 192 112 195 187 192 195 199 97 184 146 207 103 181 133 111 186 139 197 180 179 181 130 92 183 179 153 121 175 162 176 164 170 155 145 150 174 121 169 160 71 64 76 166 93 142 172 83 132 100 44 106 47 158 158 96 118 128 178 196 117 208 128 201 172 110 82 54 61 77 94 73
98 110 127 138 140 129 111 106 114 131 133 139 134 129 144 146 163 161 165 187 201 204 198 191 192 184 173 164 166 163 175 182 187 190 192 175 158 144 147 168 176 176 192 172 179 194 211 204 199 155 176 137 165 149 154 149 158 179 157 131 157 196 142 128 183 117 128 149 140 58 96 158 161 137 73 89 127 111 115 117 110 83 160 91 98 112 95 142 79 91 88 104 93 95 118 172 163 99 88 78 116 129 112 106 122 108 94 101 130 102 165 104 124 123 92 115 95 120 48 43 72 48 120 137 49 147 68 154 160 115 170 78 62 155 160 94 151 171 162 155 125 114 64 143 134 99 199 113 198 125 169 101 153 179 170 174 173 146 179 165 149 157 79 160 168 171 148 155 177 173 168 169 116 188 117 174 176 155 197 111 145 134 197 178 255 124 165 163 109 194 196 161 112 132 111 118 68 79 161 143 103 212 170 126 177 122 143 157 148 156 60 145 189 132 121 142 170 113 169 154 148 55 52 147 123 133 170 52 44 51 60 82 176 118 99 182 120 139 90 123 72 66 156 164 171 163 143 112 24 126 156 74 180 114 111 61 90 123 133 89 117 106 149 163 96 127 165 172 75 181 183 186 104 136 89 158 86 78 122 110 174 99 76 57 106 174 173 65 71 93 141 108 115 112 34 32 80 159 86 153 153 89 107 116 148 185 130 119 135 167 52 137 58 156 124 81 69 140 151 85 160 141 75 64 36 36 74 56 159 169 80 104 116 154 79 150 189 118 157 110 177 106 121 109 162 113 151 154 127 64 174 95 192 199 123 143 203 157 151 156 37 52 88 78 56 99 75 119 157 108 142 224 225 195 197 138 148 87 171 192 95 96 92 101 130 188 114 99 115 132 132 130 161 88 124 114 160 154 129 93 190 201 164 113 175 148 150 183 220 219 103 170 57 26 20 133 49 142 93 132 116 177 158 193 100 180 76 141 117 147 140 179 183 108 94 205 167 188 69 70 183 90 94 182 189 121 151 133 145 120 164 218 200 95 73 166 163 85 82 80 138 175 101 166 123 160 167 166 168 141 80 175 148 68 169 139 81 169 61 151 94 74 84 156 73 89 182 127 86 93 30 104 91 69 77 189 162 172 135 184 104 109 116 207 195 131 137 69 49 69 57 163
86 100 122 133 128 111 92 99 110 123 133 131 132 131 143 170 161 161 178 188 196 212 199 186 184 178 171 164 168 170 177 182 183 186 178 167 157 153 156 152 181 174 188 192 168 171 173 170 204 194 176 176 143 164 165 180 113 137 166 144 124 178 128 191 115 110 138 110 114 69 128 80 126 171 92 119 54 132 121 127 74 97 152 95 129 171 125 103 76 102 132 87 94 115 123 124 187 145 106 90 124 100 135 144 105 78 95 72 76 78 96 171 155 104 119 160 129 52 60 40 106 52 56 128 107 102 65 129 179 73 167 128 139 143 48 156 161 64 118 149 56 146 151 41 61 158 190 146 226 211 132 158 104 171 86 116 130 185 188 143 166 118 130 161 127 135 108 141 118 127 99 188 113 181 173 130 98 71 134 121 128 206 212 102 169 97 151 129 99 183 135 97 87 122 159 159 173 97 98 184 197 191 216 195 202 129 70 99 124 62 89 176 188 111 138 95 149 130 159 131 115 128 56 82 153 58 149 129 104 47 124 143 88 85 178 90 203 168 88 184 174 170 160 113 176 77 157 79 30 130 50 134 88 142 156 46 74 80 44 128 94 101 76 109 118 118 203 95 93 132 140 148 102 78 174 71 74 171 171 178 67 137 82 129 141 146 85 111 77 92 150 195 109 151 56 38 121 105 107 107 187 104 168 159 195 199 121 170 138 60 124 45 100 87 65 171 70 132 80 80 164 142 125 100 67 56 102 169 149 193 136 98 89 102 65 140 182 190 179 214 193 171 76 160 115 44 124 107 81 97 90 172 135 186 182 100 178 202 183 161 48 72 123 139 131 171 84 155 141 197 124 146 196 170 195 145 113 119 178 112 137 135 177 104 94 98 194 118 115 212 134 201 165 166 83 82 161 153 125 192 147 102 145 202 212 135 227 198 175 93 163 122 147 49 43 33 150 89 181 91 161 180 93 111 87 154 90 56 135 117 79 121 83 125 157 130 104 153 117 88 131 124 188 93 98 102 200 99 129 211 144 219 188 164 73 97 160 77 73 110 151 168 122 85 75 113 62 137 84 168 158 91 115 76 74 151 67 157 163 107 43 97 149 143 125 111 170 132 65 101 122 50 53 126 103 84 145 79 92 120 79 122 177 93 96 186 125 122 125 118 166 159
78 92 112 122 124 111 102 104 117 137 143 142 139 157 162 178 179 177 176 178 193 187 195 174 173 174 157 159 163 174 174 177 186 180 173 167 161 160 164 167 176 173 164 181 177 145 156 195 169 190 188 166 188 155 188 141 138 127 121 153 110 184 183 170 107 70 73 119 97 62 64 79 109 123 89 94 67 63 121 70 117 78 140 101 112 119 149 70 63 55 117 88 152 153 148 129 187 159 117 103 103 141 114 104 81 69 100 93 75 52 94 90 100 174 103 127 66 96 109 96 116 81 127 58 73 56 134 65 177 175 57 149 52 148 53 50 108 143 59 78 71 130 63 64 87 84 89 207 131 202 186 101 154 68 170 89 170 124 178 171 129 169 80 80 77 151 117 154 195 191 211 118 156 173 134 68 141 122 81 184 146 186 118 176 142 112 205 187 96 153 186 107 150 183 96 189 168 76 140 183 149 207 135 167 223 211 85 161 145 141 113 72 105 136 89 83 140 160 103 129 84 43 146 39 128 128 151 83 44 61 155 67 142 122 72 155 193 88 119 178 105 169 178 76 179 176 167 64 57 46 148 168 120 73 151 132 121 20 31 121 120 148 67 71 170 86 124 187 161 110 97 66 139 141 67 92 255 92 121 96 109 118 152 85 110 119 152 164 117 83 193 193 139 56 34 123 58 77 181 169 142 180 85 102 175 159 85 124 168 93 55 51 74 144 70 65 157 91 139 174 89 144 70 161 117 56 151 88 119 133 203 155 130 150 152 78 55 182 94 151 205 112 69 89 122 46 135 154 55 150 61 97 156 165 184 163 103 195 159 173 60 91 118 161 83 102 106 137 119 141 180 108 144 161 142 141 80 118 165 180 164 158 146 192 128 138 179 200 149 184 214 181 187 173 71 160 134 136 202 140 109 185 87 181 98 112 216 110 111 180 65 80 73 112 120 77 45 150 90 181 184 181 178 93 190 136 161 141 70 42 156 76 162 105 154 197 210 109 96 88 84 166 108 130 196 255 201 168 136 199 115 194 201 143 92 40 94 144 52 80 151 169 181 117 81 161 109 115 133 160 96 129 190 166 99 182 178 164 73 106 106 152 155 148 133 103 184 156 72 138 46 57 75 106 131 80 148 156 165 65 99 66 97 165 70 114 86 181 156 95 98 127
94 103 116 125 125 117 120 116 126 140 149 150 154 159 183 180 186 190 183 179 183 193 178 173 176 166 165 179 183 188 188 187 177 168 162 167 168 165 175 177 164 159 175 148 141 161 142 170 198 187 190 161 204 202 196 162 153 165 110 95 140 153 183 133 100 126 112 111 86 59 74 149 141 122 158 137 72 255 71 63 104 77 135 152 130 134 88 113 66 93 76 92 104 122 118 137 134 172 141 108 126 120 112 93 104 92 62 79 97 52 45 114 97 115 103 82 63 80 57 137 130 91 175 75 76 62 151 71 106 84 69 157 55 69 162 57 141 63 149 64 83 174 71 64 47 163 132 197 144 94 162 159 166 118 107 147 116 172 142 159 175 114 166 74 172 138 177 147 201 173 222 149 158 170 89 109 110 167 143 154 97 195 171 175 146 209 168 146 91 122 196 201 194 178 106 174 171 82 133 62 84 138 185 200 237 161 142 141 152 135 185 118 71 136 183 151 81 66 83 144 132 88 85 143 118 136 139 79 142 80 162 153 71 104 64 84 111 139 121 87 66 82 151 101 185 136 156 112 159 74 150 120 168 116 134 28 121 125 100 150 126 131 71 175 112 96 124 142 207 92 93 110 109 162 58 161 145 135 148 76 74 178 172 143 122 160 98 95 73 161 130 99 66 123 62 120 87 192 180 104 93 125 192 122 110 166 137 178 127 141 99 72 64 77 110 67 143 137 104 169 100 112 158 130 88 111 80 84 127 189 128 187 139 71 85 124 81 61 84 165 144 93 156 157 69 111 174 177 86 150 66 156 94 161 117 174 190 186 177 85 116 91 189 87 151 189 216 219 122 177 135 134 129 189 130 99 114 61 158 63 155 148 173 144 175 94 181 108 216 111 131 102 85 139 103 144 82 188 176 207 156 97 170 83 124 202 182 196 176 108 131 79 137 155 136 156 133 143 147 154 152 192 99 127 159 162 132 111 115 54 66 76 172 85 120 199 171 172 127 124 177 114 80 123 169 178 202 103 83 193 158 125 110 171 154 67 130 129 147 61 181 180 188 126 182 116 73 117 171 178 161 125 182 181 188 200 95 164 166 76 86 77 148 82 182 193 139 100 125 64 90 93 80 154 174 133 76 89 68 110 148 116 58 73 67 164 172 87 68 95 178 94
107 113 119 126 134 131 131 129 134 133 141 160 177 180 183 172 176 168 154 168 173 177 178 178 164 174 180 184 190 197 193 187 174 163 162 168 182 191 193 183 181 177 163 171 141 153 153 167 176 191 187 173 211 204 162 162 164 136 137 117 171 149 118 102 127 128 154 150 145 156 140 156 142 154 106 130 119 172 83 145 109 121 150 130 156 94 151 61 77 52 81 80 109 111 147 114 155 127 133 108 133 133 135 114 96 108 92 98 99 39 51 127 93 154 121 107 138 58 70 70 109 117 105 116 80 136 72 76 143 67 165 110 170 152 70 74 86 54 152 175 82 79 157 63 143 75 167 135 157 173 77 98 69 96 62 137 94 122 179 178 91 160 137 91 101 106 174 105 117 190 209 189 224 214 213 121 96 174 82 93 100 93 167 168 234 192 214 106 94 95 172 135 171 208 156 83 76 61 118 62 92 173 179 221 195 188 117 77 84 121 90 127 111 152 129 76 111 166 168 147 136 164 104 153 97 168 162 63 114 67 64 115 163 168 99 58 161 117 155 145 140 103 172 74 85 176 161 99 79 188 175 158 87 114 89 55 54 145 64 160 174 174 192 86 80 82 178 179 142 197 147 132 141 255 126 151 151 95 119 175 137 108 96 104 94 200 107 114 75 76 96 172 97 92 54 103 165 169 103 153 167 94 123 139 108 189 185 108 82 161 98 132 83 90 144 169 59 140 77 136 102 103 77 170 115 78 182 75 141 95 162 86 101 109 110 65 53 57 73 157 114 177 77 102 70 161 187 91 68 89 135 158 123 93 92 110 163 79 88 200 120 206 158 197 178 119 188 228 128 163 209 138 100 167 171 80 68 76 159 155 135 164 173 148 110 182 122 153 103 206 173 103 152 72 88 156 124 155 214 186 104 129 59 97 182 205 117 116 173 129 173 166 94 89 76 71 45 58 143 57 168 181 203 189 191 183 91 153 101 144 116 104 138 104 178 126 91 133 172 147 187 72 169 92 143 152 194 190 171 80 183 86 168 142 95 53 124 52 155 163 190 194 184 80 102 161 166 122 174 122 105 178 172 132 218 131 202 153 98 166 105 102 78 143 178 98 91 180 108 175 159 144 80 177 103 141 105 67 168 168 131 69 91 82 76 87 130 114 160 72 114 91
110 116 123 132 137 140 139 132 135 139 150 150 174 176 169 173 166 152 139 140 166 163 180 182 170 185 175 189 197 207 208 190 167 163 171 182 191 196 194 196 190 183 174 163 172 175 142 155 148 175 192 177 167 157 181 170 168 172 111 135 141 134 176 128 111 122 115 163 91 125 89 104 130 168 136 147 200 128 164 116 152 116 88 156 86 87 88 71 130 71 114 81 102 157 102 126 111 126 137 85 122 116 130 98 83 67 58 105 62 95 92 77 61 71 92 84 87 144 90 93 180 195 188 93 87 112 177 82 62 70 74 70 144 158 87 76 161 119 169 106 88 172 159 83 58 145 170 87 146 157 157 94 40 136 62 103 167 161 141 170 84 103 142 167 94 101 163 135 98 157 145 167 182 154 170 240 114 181 91 67 83 84 119 99 161 235 147 169 97 172 78 184 112 132 139 96 76 164 63 96 161 89 83 97 115 95 180 84 87 134 185 99 153 138 131 104 143 82 139 91 156 83 76 120 186 156 81 79 160 160 158 149 125 163 72 45 148 143 86 70 138 114 107 64 71 153 174 169 191 146 187 125 179 89 54 84 120 155 179 95 141 197 217 203 96 190 107 113 94 89 153 168 151 124 95 70 76 141 200 197 162 126 190 169 185 200 158 143 95 49 132 75 158 89 87 167 122 104 119 132 78 96 150 188 75 158 144 140 184 75 96 98 141 108 103 117 160 96 83 63 159 78 81 164 60 134 175 158 103 151 148 86 153 59 53 12 15 116 66 72 104 80 62 151 73 141 169 153 163 61 151 147 172 177 126 139 69 99 110 202 159 123 117 114 154 186 225 176 132 200 106 184 152 163 77 161 142 51 163 82 159 131 125 171 179 76 116 173 137 171 109 163 102 87 92 191 89 204 133 104 80 74 126 130 82 186 204 178 180 191 171 123 153 137 93 81 60 51 156 77 87 162 141 154 171 113 87 175 122 143 135 203 125 86 69 117 77 100 199 118 93 171 126 97 91 104 201 185 140 123 156 176 100 83 98 155 170 128 68 113 157 100 161 149 170 80 84 123 112 193 149 137 171 112 211 203 98 167 78 166 99 143 168 116 176 171 188 135 150 175 154 146 154 182 200 150 79 74 73 151 94 74 74 94 115 65 95 159 171 154 155 86
103 110 119 132 138 136 136 129 126 132 150 160 157 165 160 168 145 138 120 144 157 173 178 162 163 178 180 192 205 215 209 196 178 166 172 177 186 175 192 192 191 189 181 176 188 188 174 151 135 138 184 167 179 170 186 168 135 98 159 137 168 148 168 111 137 179 188 154 140 157 150 103 101 167 111 108 149 139 110 99 93 126 119 102 84 106 78 84 124 123 96 144 98 128 107 103 89 98 101 79 75 96 106 99 82 81 71 63 57 52 122 112 134 61 79 175 110 106 136 123 181 169 112 176 126 83 76 90 101 122 166 177 71 73 74 170 157 82 79 182 170 114 100 149 154 118 166 106 66 158 45 100 101 82 160 159 144 160 71 172 174 95 69 125 165 127 68 70 148 146 208 227 245 168 219 219 218 183 76 142 132 76 95 83 125 157 158 171 115 131 162 154 149 116 86 76 162 78 149 120 141 76 68 84 82 144 75 84 103 182 84 186 80 181 71 60 58 63 148 85 173 126 124 159 205 204 106 182 161 169 164 126 160 158 148 84 56 101 47 144 64 112 73 129 60 157 120 87 99 162 163 158 90 173 129 154 147 112 178 197 163 221 226 167 116 90 150 83 173 183 160 140 172 149 131 138 97 166 149 103 149 212 129 132 106 204 99 90 140 55 143 171 140 85 132 97 115 98 96 73 137 105 147 131 59 71 72 96 185 79 173 102 191 119 147 202 80 51 46 104 79 163 86 97 64 149 74 129 60 155 142 161 158 171 106 107 119 87 114 158 176 81 62 64 165 85 190 94 90 115 110 74 168 113 133 107 133 97 176 189 185 106 182 133 174 172 211 119 145 192 133 145 117 88 118 137 138 102 171 109 161 107 177 92 139 164 124 142 166 132 167 114 76 189 145 131 102 189 116 165 172 111 125 121 177 177 134 171 107 179 155 103 76 142 81 133 114 97 91 123 191 183 152 173 192 93 157 99 146 111 113 118 178 137 154 137 161 116 190 172 95 88 126 198 112 205 108 135 160 129 111 92 149 92 119 103 176 114 178 142 99 94 94 66 137 92 193 200 195 132 116 205 199 128 198 187 136 176 148 144 88 67 141 153 88 161 152 146 107 147 90 182 190 184 114 195 154 69 54 147 71 93 125 88 160 86 150 144 81 64 98 141
110 115 121 134 140 141 127 122 130 135 150 154 146 153 150 157 153 144 133 151 154 172 171 165 164 181 188 205 213 221 214 195 181 169 168 171 169 168 174 179 195 207 181 195 194 172 172 168 157 166 143 163 146 162 123 175 134 147 125 83 82 155 154 91 120 155 116 108 127 111 112 196 136 168 116 116 126 177 176 170 98 97 127 111 144 93 87 110 96 97 89 84 79 146 82 93 108 103 81 106 120 87 113 98 78 72 68 96 89 74 71 91 102 73 78 103 124 177 121 109 102 79 73 61 68 81 69 90 188 151 158 184 79 117 67 151 95 131 132 74 176 120 55 146 140 55 72 63 74 113 157 152 58 134 160 69 152 127 142 108 89 158 164 81 82 140 161 72 104 178 141 201 231 152 231 177 203 163 140 145 142 43 101 167 111 139 207 117 103 47 113 35 139 77 149 110 169 87 113 106 69 139 77 75 131 84 133 73 97 167 129 173 185 156 68 91 157 59 130 142 65 160 134 143 110 193 94 162 103 168 133 73 146 172 82 107 118 145 94 84 42 148 100 55 154 151 78 151 126 201 203 121 106 152 136 104 163 83 148 188 205 204 157 205 186 91 76 168 122 90 106 78 169 162 67 125 172 95 156 112 132 184 200 126 100 168 179 115 123 141 75 106 144 117 99 170 193 146 74 171 68 163 120 80 62 68 127 189 125 85 87 129 101 113 127 130 87 93 55 116 77 109 75 71 101 168 76 77 69 79 97 176 200 153 141 77 130 38 137 119 66 84 150 68 79 153 117 82 153 162 159 53 87 133 105 139 100 126 155 92 168 184 148 71 81 78 135 175 130 85 112 161 166 178 95 156 63 131 74 84 97 200 131 192 95 106 113 158 67 56 148 139 91 156 125 99 177 199 165 86 118 64 116 87 60 174 154 113 68 135 43 136 108 118 140 156 169 182 96 177 168 122 122 203 92 174 174 171 116 214 115 199 183 70 118 139 96 173 150 205 191 199 102 183 189 217 196 113 170 132 74 172 87 194 187 166 181 148 92 151 182 129 109 81 122 132 140 107 138 161 178 181 167 123 135 90 136 161 121 81 161 161 118 75 99 97 150 134 178 180 103 144 208 216 142 152 181 66 59 114 126 65 125 109 53 101 122 70 78 138 157 84
126 128 127 140 146 149 136 127 117 128 150 148 148 138 146 149 157 157 162 172 168 176 152 147 152 176 192 204 206 213 206 191 175 166 158 158 152 160 169 182 204 193 213 180 198 183 153 131 127 139 166 147 158 159 145 169 175 129 152 84 117 97 84 150 103 117 132 112 106 144 187 146 162 170 194 131 106 163 104 86 144 122 138 163 96 118 156 156 96 144 93 90 87 126 143 110 146 82 93 116 109 95 116 66 55 91 57 98 100 86 82 87 71 147 100 191 199 131 185 153 95 88 84 79 105 154 115 161 189 208 139 127 81 111 56 43 39 123 90 175 139 65 51 153 108 91 101 67 161 74 169 149 138 132 168 57 49 147 73 130 163 180 195 167 142 142 171 134 98 100 138 180 195 120 189 181 86 116 159 138 131 85 175 82 108 143 154 159 58 255 108 120 143 55 92 67 73 141 194 192 91 76 119 161 161 63 165 115 187 174 146 105 175 159 65 131 116 77 172 146 165 175 192 194 128 103 171 100 80 92 194 115 189 140 167 163 143 131 137 135 153 146 155 64 153 166 170 133 155 183 162 190 200 166 137 126 97 191 199 140 101 149 162 210 104 104 137 175 124 160 102 142 98 129 167 104 127 136 104 90 126 132 113 186 95 100 155 147 185 90 165 124 173 102 92 99 89 108 106 153 110 75 71 143 72 57 154 128 98 91 71 73 89 137 117 182 104 138 85 184 182 165 138 175 78 98 191 107 87 176 112 130 156 188 129 162 57 125 154 94 133 69 78 97 162 129 154 67 124 125 139 106 135 131 158 54 62 96 143 124 81 177 85 162 100 125 115 153 58 149 153 87 163 173 117 150 87 98 137 192 196 155 171 204 85 161 95 122 64 141 165 165 93 174 185 177 123 111 195 192 67 119 35 73 101 65 97 129 148 103 43 83 79 59 142 132 143 85 103 93 134 147 132 120 106 98 98 198 195 111 103 114 185 120 97 42 131 86 87 188 197 135 188 206 218 155 129 110 104 135 162 159 186 100 173 196 110 191 111 175 190 150 181 77 169 100 172 101 122 173 136 142 164 62 119 60 98 159 101 60 120 165 80 111 130 127 172 176 166 101 94 183 128 214 109 120 76 69 64 163 165 72 110 109 48 74 108 87 71 96 60 147
142 143 143 149 151 151 135 118 122 141 158 150 152 133 144 139 144 161 170 172 183 174 157 160 165 170 186 196 197 196 189 172 157 158 158 160 162 151 165 167 190 200 198 203 199 188 161 151 137 115 126 157 126 150 147 137 182 185 149 114 135 98 80 123 142 151 151 176 115 107 200 214 187 156 165 165 101 169 108 122 64 121 119 115 166 125 138 89 119 146 97 103 103 105 102 91 152 101 99 80 109 87 69 60 74 53 53 69 99 104 80 125 74 89 156 111 255 122 138 106 95 127 73 136 65 67 72 178 110 175 186 155 169 171 57 93 41 76 165 160 72 131 55 124 88 176 88 173 155 163 177 125 174 90 107 100 149 147 148 90 82 95 198 132 149 99 80 167 168 129 139 123 165 108 131 156 81 159 115 171 168 115 125 167 101 182 157 50 130 43 38 84 38 50 70 168 167 186 180 90 141 79 168 99 170 139 177 104 136 179 184 91 153 64 137 124 93 100 79 109 144 163 151 114 153 90 84 53 142 204 120 118 125 191 197 200 193 170 70 110 96 171 114 101 70 132 172 97 188 149 193 230 166 193 180 170 112 210 130 180 167 130 255 85 176 152 115 100 175 69 136 123 162 73 167 162 118 161 55 118 149 64 101 174 72 162 92 76 79 170 89 138 166 133 69 183 103 206 201 195 81 79 57 53 74 121 118 69 96 72 70 175 77 160 212 122 116 158 96 102 136 119 114 95 184 198 97 145 174 162 122 92 156 91 174 67 56 97 59 52 151 161 131 169 139 84 53 59 68 100 45 137 79 142 139 146 90 58 150 101 62 162 126 166 129 180 107 79 136 99 149 167 147 191 114 161 159 144 68 175 116 201 153 154 154 92 167 164 142 155 162 96 100 109 78 161 138 200 205 189 187 114 49 121 93 119 73 115 128 146 76 104 86 85 66 63 59 159 180 74 105 78 156 152 83 164 187 191 86 86 109 81 142 153 128 80 105 171 83 122 165 128 78 149 192 207 191 172 78 39 75 70 166 130 186 175 89 177 96 95 196 193 158 103 108 78 118 202 179 188 83 160 89 88 159 159 113 133 117 95 145 115 154 118 100 94 70 126 159 172 89 91 184 103 96 99 83 73 81 135 164 105 154 163 129 142 99 94 95 90 67 135
139 144 147 158 151 142 124 119 125 137 151 162 153 148 128 132 143 148 170 179 174 163 153 148 160 174 168 178 185 182 169 153 148 154 167 166 174 165 167 168 163 183 175 178 178 179 176 149 142 160 171 163 167 170 155 157 138 142 189 179 176 160 157 107 92 130 173 175 186 163 140 136 145 172 158 136 182 80 122 55 65 52 63 104 85 89 91 100 85 148 94 137 135 98 106 123 101 149 108 115 129 97 109 112 60 96 66 77 90 104 74 140 156 148 99 112 121 156 185 193 133 89 113 79 173 119 91 170 201 184 139 93 183 185 180 166 126 168 167 154 114 154 133 162 117 93 166 174 175 175 184 178 107 126 89 169 98 168 174 135 152 98 115 202 193 178 145 165 162 155 112 64 87 160 83 170 117 82 172 76 97 203 177 172 172 107 107 68 30 32 49 155 64 120 69 128 81 89 84 139 79 93 127 83 112 123 200 161 206 208 178 87 166 65 135 158 116 122 94 101 170 69 90 151 82 174 58 150 163 143 116 177 109 98 128 158 174 154 179 183 185 89 152 97 105 176 133 172 199 144 227 212 130 200 200 164 204 217 127 171 155 118 126 174 91 184 141 186 142 128 143 85 154 152 79 128 156 131 148 43 43 66 59 58 139 125 61 96 72 175 83 81 136 70 161 128 134 119 129 200 127 174 141 79 71 95 117 62 148 162 153 64 127 131 116 140 220 200 159 178 126 227 205 188 145 159 170 105 197 164 175 112 168 88 51 152 99 96 154 75 150 61 133 90 101 148 117 88 104 158 43 111 113 127 138 121 150 102 80 92 89 127 66 63 127 180 160 116 92 53 63 71 88 92 80 64 104 138 149 173 105 105 196 178 158 60 57 71 173 73 84 68 86 73 55 130 77 105 203 113 195 135 93 168 167 176 99 77 119 106 160 115 172 193 188 172 88 67 169 66 68 166 73 117 118 180 165 119 84 89 91 144 56 142 57 123 147 161 179 101 171 83 145 75 86 154 156 130 43 130 131 49 56 120 176 185 161 193 180 127 190 178 113 198 105 87 179 202 114 190 141 79 156 168 144 102 106 195 103 172 169 93 95 147 126 71 35 150 134 75 139 181 85 130 146 92 104 185 100 184 89 80 80 72 151 145 121 81 91 91 68 92
134 146 156 159 151 136 115 110 116 134 161 162 153 142 126 130 132 146 173 175 171 177 159 153 172 167 167 159 165 176 168 152 150 162 183 191 185 169 160 158 159 151 185 182 196 180 159 151 175 173 153 144 180 148 152 164 149 163 193 194 163 130 110 113 131 84 99 172 118 132 192 202 178 140 149 110 116 75 106 41 45 57 49 65 74 80 134 72 83 77 87 98 136 109 113 163 124 95 83 114 81 123 75 94 98 86 61 76 109 85 96 103 137 120 168 180 167 126 112 150 154 83 178 188 135 99 213 216 139 213 208 169 132 188 148 183 168 102 188 117 78 163 156 164 144 96 90 67 70 140 169 170 216 207 203 147 114 112 154 74 154 92 182 197 178 138 159 138 162 83 102 147 57 99 124 135 91 79 106 160 163 178 90 83 167 134 155 53 133 53 103 74 81 87 77 80 168 96 125 92 183 171 137 118 70 73 137 113 179 155 167 147 59 166 141 137 176 79 163 86 110 71 119 136 82 134 162 97 154 92 101 98 188 79 190 200 113 192 107 168 100 175 143 139 185 188 189 182 193 164 129 128 165 204 143 172 202 147 126 167 168 49 119 159 109 194 143 141 146 70 91 137 169 69 138 117 57 121 84 99 65 145 86 164 123 79 83 61 81 163 90 90 71 67 79 144 186 107 180 88 74 117 85 91 90 174 79 141 149 154 150 58 85 65 105 172 129 119 119 182 194 130 170 98 177 98 124 125 83 80 158 89 106 43 98 138 99 54 112 83 49 57 87 121 94 84 181 76 167 154 113 135 112 122 66 65 149 123 161 94 120 58 122 163 173 96 191 159 144 64 161 115 78 104 177 73 154 121 70 178 169 193 111 167 48 149 159 162 182 130 119 163 136 74 53 98 77 168 165 202 90 89 131 126 120 120 193 181 170 76 143 181 106 103 89 173 149 83 152 82 67 146 122 91 74 178 160 146 178 72 145 52 130 136 54 152 105 71 183 177 98 81 173 116 80 100 157 93 138 56 109 40 98 159 154 134 179 193 208 167 164 164 115 177 192 177 178 119 112 95 164 161 79 79 109 198 187 106 88 142 70 117 71 146 110 110 36 119 88 109 132 61 136 88 181 132 169 86 182 77 175 163 89 181 72 100 165 175 78 76 79 83
130 144 152 151 135 126 115 108 120 140 155 162 154 136 126 114 145 153 164 183 193 187 179 161 165 158 165 163 171 179 170 169 167 179 199 201 192 171 157 138 146 159 173 192 194 180 155 156 169 183 200 180 175 159 149 167 121 178 194 178 173 152 186 106 137 116 176 112 104 115 187 127 167 161 113 171 101 106 143 101 37 52 41 124 77 90 76 129 88 129 145 96 105 133 115 127 117 132 85 61 81 110 68 99 87 104 69 72 95 71 84 91 80 72 88 156 119 109 102 127 128 74 122 85 161 193 109 229 187 222 169 100 188 105 197 90 116 131 101 190 175 56 87 61 160 88 111 156 124 77 175 201 208 102 109 161 163 163 174 102 153 144 157 185 159 153 94 94 174 161 80 85 100 157 168 163 148 162 110 177 163 124 189 179 111 162 63 140 120 103 102 155 120 134 185 117 172 73 129 144 189 179 99 75 61 97 193 172 202 152 72 84 129 85 159 75 179 167 100 186 181 119 131 171 179 130 150 153 103 180 183 90 147 165 157 122 186 188 90 132 102 154 221 222 176 160 85 85 191 202 145 188 224 186 98 148 139 229 135 110 123 98 158 166 162 193 106 135 93 174 124 124 104 86 65 118 105 106 144 48 51 136 58 112 64 60 78 63 135 140 85 81 164 149 88 108 95 78 88 107 83 155 175 84 76 73 86 85 66 51 144 63 80 52 110 148 194 106 146 115 132 104 130 105 80 157 156 79 167 133 146 148 42 78 59 131 125 153 72 71 41 148 131 185 191 98 182 140 153 143 129 82 64 156 59 160 165 68 130 128 113 141 126 130 80 149 133 172 137 145 120 152 121 95 156 105 163 151 158 154 174 173 84 84 155 155 141 172 194 155 91 80 138 71 99 104 171 179 107 148 174 137 174 113 107 125 137 169 180 87 195 120 114 169 109 173 168 64 76 176 180 108 91 126 86 195 184 102 167 166 62 139 82 157 59 149 129 153 130 166 174 181 150 90 149 169 150 72 143 135 146 150 52 67 176 103 102 136 172 214 111 119 195 192 208 154 137 160 98 141 113 78 119 122 96 104 104 187 192 161 77 186 79 71 60 137 74 137 44 51 98 75 60 179 111 138 96 92 177 164 173 85 189 110 86 76 72 170 151 169 108 186
133 141 147 138 127 121 117 119 133 141 152 163 156 137 134 129 132 157 174 189 190 203 189 173 160 167 169 171 166 187 183 184 184 190 200 202 190 175 164 146 151 150 140 162 163 168 175 156 179 209 205 167 150 151 114 160 120 158 152 201 172 154 100 99 116 146 165 181 158 104 181 141 115 147 86 151 163 76 96 139 112 43 45 121 66 77 77 76 81 94 130 94 113 120 137 92 81 73 54 86 55 107 60 50 80 52 69 109 84 114 70 121 86 70 117 108 146 98 132 103 169 86 115 112 166 156 165 174 129 171 212 103 155 76 95 190 147 132 189 91 131 72 64 49 155 111 36 142 131 132 89 180 129 167 180 255 167 168 155 107 148 139 71 173 114 165 93 123 156 178 132 118 61 92 122 139 126 97 164 90 157 119 184 163 139 126 139 137 131 153 175 197 111 186 185 175 129 74 116 149 81 128 59 154 64 134 160 117 179 139 176 70 128 124 89 131 98 175 184 189 188 180 155 173 173 110 206 204 118 183 137 88 89 150 86 89 83 83 174 159 189 160 117 217 197 193 86 185 120 166 110 202 174 187 113 179 195 209 166 120 181 174 125 97 179 107 168 190 113 108 175 108 118 181 96 116 171 119 81 255 139 42 47 70 64 153 111 116 71 164 82 188 118 84 134 148 73 144 82 52 115 176 180 83 176 136 77 116 68 59 145 58 91 90 168 80 122 113 104 189 120 138 126 65 121 83 81 68 62 119 73 63 85 48 149 53 55 81 74 155 46 127 151 66 183 115 71 130 55 142 87 139 84 127 83 127 177 98 75 73 169 70 160 50 130 153 76 166 176 156 165 129 56 86 82 134 144 63 69 76 155 170 124 161 97 163 71 182 192 117 213 116 89 137 173 91 96 151 166 148 150 107 106 145 217 142 163 148 109 122 203 214 160 191 172 122 148 72 71 150 107 197 113 139 185 209 174 107 171 170 134 110 63 157 159 56 161 135 108 154 188 95 197 114 100 116 53 145 51 142 160 80 166 164 162 160 120 115 98 117 163 150 100 200 166 184 155 87 169 97 84 170 97 94 168 108 117 195 142 144 162 128 101 162 173 73 95 96 100 109 129 143 51 97 163 184 197 128 124 122 121 159 90 78 166 61 115 55 162 123 115 183
124 127 127 123 122 124 131 129 138 149 153 160 157 133 140 131 151 156 183 202 218 197 193 171 161 168 162 174 183 194 196 186 183 175 184 190 186 174 171 154 155 138 152 137 162 172 146 155 174 209 198 175 140 139 127 154 112 137 192 193 155 141 153 179 117 129 119 192 131 143 182 123 143 172 145 117 85 104 76 91 69 48 46 91 78 147 130 154 90 98 97 123 94 87 86 74 77 58 61 92 82 65 90 84 46 46 63 108 102 71 65 143 111 70 83 136 86 95 113 96 82 155 98 81 134 74 169 189 198 107 90 85 71 70 181 84 86 174 95 193 181 150 103 150 136 138 133 143 92 95 190 103 149 181 97 111 171 146 71 137 78 68 69 66 157 163 85 186 126 151 178 135 158 120 169 121 115 148 64 152 172 173 81 70 108 71 71 155 53 79 107 169 205 198 88 117 104 79 178 104 174 96 144 104 156 175 184 187 83 124 160 87 180 115 83 82 158 98 190 198 145 189 79 132 125 203 183 120 181 165 93 168 174 181 165 172 178 75 147 166 172 110 109 125 122 183 76 167 165 168 73 190 201 194 148 178 190 120 97 118 189 88 197 193 129 105 129 180 75 102 160 167 94 163 86 102 79 155 55 39 43 64 35 39 68 85 101 118 112 126 96 189 92 194 143 135 98 127 137 104 98 171 105 156 112 87 164 101 68 131 137 55 56 78 157 98 125 152 112 88 73 60 69 40 143 116 100 70 169 173 180 159 71 145 48 53 135 146 142 140 62 74 113 117 82 172 136 112 94 66 66 96 130 82 190 186 120 142 86 188 166 67 64 53 62 122 132 161 174 147 142 141 114 89 164 83 125 114 73 151 122 127 122 105 93 175 182 95 110 226 196 107 192 111 91 151 84 73 59 152 51 135 181 159 154 192 133 158 128 112 143 222 152 181 123 159 123 99 154 165 82 131 124 90 199 159 113 102 138 107 149 141 91 60 112 75 157 133 111 108 156 110 96 194 177 100 54 53 63 174 96 176 165 170 86 191 135 157 152 152 98 165 174 139 186 92 75 157 133 89 169 150 193 131 126 94 110 109 117 119 109 180 150 87 177 87 122 122 151 143 76 66 68 82 150 127 139 90 71 135 88 114 165 79 179 107 124 91 59 81 194 157
107 110 114 117 124 130 131 134 143 143 145 162 158 149 149 148 164 179 194 202 204 195 173 148 140 150 176 176 179 185 186 182 167 162 161 173 186 185 178 181 162 157 136 154 160 162 158 163 147 192 191 174 137 143 119 113 179 187 143 135 154 121 110 153 176 172 166 160 143 85 126 96 132 115 73 88 99 116 150 70 146 130 111 132 75 149 81 79 90 89 96 92 80 79 70 69 82 84 125 121 102 71 97 60 46 59 92 88 87 83 105 136 96 130 73 122 81 90 184 109 106 88 105 94 162 154 55 105 116 183 130 156 62 66 74 142 118 169 128 129 82 66 88 150 139 146 53 131 152 84 91 184 196 107 193 190 140 87 154 129 128 156 92 86 62 122 185 157 119 197 177 153 78 128 142 131 71 144 168 173 92 88 151 105 57 88 168 150 50 70 68 129 109 180 110 187 134 139 176 132 95 64 71 62 155 85 105 178 181 255 186 124 182 194 91 190 128 170 96 145 178 191 112 171 171 166 127 138 115 163 161 58 149 78 138 98 63 165 89 158 171 166 199 220 211 181 171 162 136 121 114 175 185 158 132 190 150 139 133 81 151 158 192 180 139 134 108 132 149 117 72 176 188 89 158 165 139 150 106 42 136 29 83 72 151 181 95 185 80 109 161 100 189 124 207 191 87 137 113 139 73 131 206 101 90 75 84 72 131 85 126 154 96 183 111 193 104 126 111 193 143 168 120 107 42 49 116 81 171 180 152 95 129 59 147 148 161 166 118 176 159 59 158 60 162 68 170 132 88 130 158 48 136 188 94 161 150 142 181 148 140 173 147 147 139 151 131 120 167 129 85 77 84 113 79 96 77 76 59 79 189 110 133 198 255 114 145 131 184 157 173 111 202 149 180 84 161 74 152 48 128 178 110 198 167 131 180 156 78 118 115 222 201 108 79 139 72 154 107 157 91 165 175 156 127 110 155 160 176 155 131 166 56 62 158 102 148 157 114 174 111 175 200 120 177 93 69 125 140 181 168 98 175 158 161 188 191 106 130 137 191 165 107 204 96 166 169 78 90 155 199 190 187 152 92 91 167 181 137 108 75 77 88 183 113 135 108 173 183 119 89 36 72 143 121 85 151 122 184 106 80 144 175 94 79 67 152 70 89 68 190 121
82 90 104 118 125 133 138 141 144 146 147 158 165 168 165 173 166 177 183 195 189 186 159 143 138 162 179 180 189 189 185 173 165 152 149 163 178 193 197 190 179 150 155 139 156 156 152 161 172 149 176 184 130 157 158 141 186 200 166 190 191 146 151 166 140 152 179 117 175 85 171 121 150 127 84 128 84 120 68 143 95 130 68 74 106 84 117 115 92 108 89 90 135 75 133 117 79 92 127 102 119 90 98 78 86 66 80 96 98 108 73 152 144 96 136 61 115 81 105 75 71 85 126 172 145 93 67 102 94 85 62 109 51 168 75 73 64 149 61 70 144 154 147 51 52 149 147 163 100 69 160 86 121 192 173 186 144 188 162 123 74 91 146 105 141 165 154 181 139 152 69 151 116 121 176 160 148 89 113 187 200 124 176 59 132 112 137 62 141 133 67 67 190 198 200 172 99 141 82 101 119 152 141 57 86 188 93 186 127 163 200 192 183 111 165 190 98 128 204 136 96 171 92 116 141 90 92 111 179 125 134 114 155 167 170 122 71 162 84 125 159 114 108 216 136 145 85 138 106 71 119 89 69 120 183 157 157 152 154 183 86 108 103 94 143 170 160 155 155 160 98 171 83 108 110 135 86 140 115 149 72 143 70 115 103 90 124 114 140 185 186 158 156 125 107 107 188 180 92 80 185 202 118 103 96 89 66 45 122 138 138 178 109 200 182 134 160 144 173 199 175 127 124 74 101 52 65 89 137 157 99 95 170 144 51 86 106 74 173 67 76 144 174 76 169 167 88 135 175 113 162 125 103 80 127 167 178 128 107 137 132 174 160 154 129 120 118 106 146 192 127 101 159 77 82 90 129 141 89 129 126 110 155 186 89 174 106 194 153 201 111 117 88 88 159 116 185 81 167 57 98 109 143 176 212 180 153 160 102 159 170 160 128 86 170 67 166 113 159 55 79 141 144 93 154 120 104 167 92 94 171 115 125 113 154 104 158 85 70 91 118 155 172 178 163 83 169 164 81 148 91 179 103 176 174 179 93 105 139 209 179 202 143 159 111 82 172 156 104 180 198 106 211 185 98 76 76 168 60 140 57 73 87 91 139 72 66 183 185 158 103 31 124 107 124 151 120 105 193 163 109 93 153 76 94 169 87 159 158 81 89 109
64 81 104 122 130 133 133 135 140 143 151 161 164 165 166 166 176 180 193 193 188 170 146 139 135 155 175 171 168 178 184 182 167 156 145 157 180 186 201 191 186 178 165 158 155 124 138 135 168 152 146 192 154 144 153 131 178 148 198 209 137 187 162 102 146 121 147 129 105 145 184 183 168 116 182 172 177 83 108 108 66 111 84 80 110 255 124 162 91 106 123 103 95 126 116 121 113 161 119 119 163 121 96 127 68 72 109 154 95 95 90 145 86 76 58 136 62 132 94 126 141 144 71 152 72 81 133 177 90 103 66 45 136 129 122 75 62 148 160 167 169 68 157 58 112 150 69 89 173 94 77 186 191 111 186 118 100 119 104 160 176 133 162 161 167 89 187 100 139 69 110 96 149 82 180 178 81 112 102 213 145 108 126 62 70 131 64 151 67 164 120 128 181 165 94 112 179 122 162 81 98 146 74 132 87 150 99 106 115 155 183 152 112 85 104 87 101 192 151 196 107 192 97 73 88 83 163 183 161 164 151 117 153 93 104 125 56 151 113 87 199 142 172 139 196 182 62 140 117 101 76 68 160 70 75 183 92 187 190 150 188 162 182 91 175 160 96 50 102 97 91 66 184 158 187 89 72 67 66 128 165 165 94 133 84 142 111 169 122 108 93 80 87 103 142 119 191 164 151 82 125 93 153 115 112 81 116 66 52 97 114 171 120 195 112 174 127 142 187 91 196 92 151 157 131 133 89 255 91 167 160 183 181 157 66 155 75 171 141 97 108 87 134 166 77 71 136 82 167 149 58 158 59 148 105 99 117 109 154 102 151 170 170 126 137 53 109 178 173 190 97 106 75 168 166 113 191 150 154 121 112 197 120 176 94 147 114 183 173 110 90 171 103 141 145 177 124 84 109 94 117 199 127 145 188 98 142 160 181 96 196 147 179 75 161 159 140 85 139 129 80 135 79 98 190 143 127 76 117 82 75 166 111 164 168 74 142 161 78 146 73 78 157 154 99 124 99 57 57 134 82 88 125 167 74 108 93 180 188 159 202 189 177 140 177 178 141 123 92 179 111 175 140 165 171 163 103 162 160 106 115 84 178 177 64 91 124 150 86 137 113 71 25 139 156 153 80 94 146 217 154 148 113 158 170 61 70 97 174 181 104 123
54 74 103 125 133 133 134 143 151 151 153 157 178 176 179 175 179 176 176 177 168 151 151 135 161 173 170 165 162 170 187 186 187 168 154 153 168 182 192 192 173 178 167 152 127 147 146 154 124 168 164 147 154 159 146 124 179 116 191 201 127 134 121 83 118 159 130 115 188 131 129 173 121 170 195 110 101 180 153 90 147 76 73 93 110 99 94 133 167 103 164 130 131 143 195 133 129 113 168 121 119 112 102 112 75 94 98 161 157 160 120 158 153 150 104 123 48 68 96 47 56 67 149 119 154 93 182 149 70 98 55 66 59 59 67 169 162 66 102 152 59 64 157 145 164 155 182 189 132 176 158 88 195 96 195 191 159 205 178 110 173 180 166 165 174 178 173 139 176 72 157 143 156 167 145 168 99 170 213 166 155 102 155 94 160 63 109 172 181 160 177 87 175 82 171 88 103 160 174 90 120 72 54 47 69 122 132 134 112 105 107 66 146 84 163 100 169 105 108 190 195 152 94 163 76 123 141 176 70 60 140 51 148 147 123 128 65 173 174 104 210 105 190 87 156 167 134 64 38 124 50 39 54 84 143 74 80 146 168 114 173 190 191 97 82 77 93 76 96 173 170 66 107 175 183 79 128 100 61 68 74 174 96 131 136 98 100 122 161 147 105 152 185 198 136 148 92 108 75 136 99 190 91 92 109 69 108 45 118 88 73 90 88 128 178 112 174 77 59 164 115 183 255 132 98 123 95 124 180 91 149 122 156 200 92 132 162 153 89 173 177 172 111 85 175 78 171 152 162 114 124 141 159 142 87 146 188 202 163 127 195 121 93 123 160 154 153 91 201 204 199 157 145 172 166 200 88 162 81 91 208 201 221 115 114 106 130 154 176 147 76 159 77 146 119 64 113 182 159 184 147 133 181 156 186 174 90 95 104 139 133 157 125 108 56 63 125 143 121 70 176 179 89 102 199 201 89 128 138 154 191 96 196 85 83 78 90 73 155 58 150 85 96 176 180 76 113 145 153 164 172 164 97 163 160 128 77 120 152 157 99 203 211 177 137 185 196 154 139 154 159 89 140 181 118 71 57 131 174 93 129 116 201 114 144 67 72 157 180 166 43 123 64 141 123 96 169 120 186 204 127 113 123 74 65 89 60 100 74 108 112 104
55 76 106 126 137 138 143 151 157 156 162 171 178 187 180 170 169 153 155 153 163 153 157 171 185 171 166 161 153 164 178 202 191 177 157 142 158 174 182 181 172 159 148 153 135 157 138 161 150 135 136 126 156 141 177 128 167 126 162 172 175 134 155 113 81 110 127 113 150 201 187 123 177 106 179 188 147 94 86 69 70 104 117 66 83 93 160 171 167 110 177 121 131 200 171 144 128 109 145 112 164 112 98 86 72 71 79 151 109 118 120 107 127 93 78 101 49 62 113 101 68 169 120 168 76 100 68 68 58 108 64 154 129 160 69 165 153 86 53 54 157 54 56 156 166 177 193 202 132 158 157 186 172 173 108 148 189 155 146 193 114 90 141 101 134 123 164 180 185 82 163 89 89 151 136 151 166 120 148 213 198 128 116 89 124 97 77 154 104 130 94 115 72 139 142 186 128 185 141 172 189 75 162 113 122 93 147 167 44 66 76 39 131 75 39 69 86 158 147 149 183 175 124 91 177 168 117 146 73 158 45 138 120 57 58 100 80 115 165 196 231 150 194 176 96 163 139 136 123 27 140 48 148 101 163 70 58 65 105 84 138 129 201 161 193 147 72 152 90 83 71 69 171 130 75 103 161 90 63 150 103 75 129 178 145 108 89 89 74 97 80 151 75 118 198 127 171 93 128 127 173 130 143 173 77 89 57 46 136 79 86 87 114 127 126 169 60 92 131 78 140 142 126 211 118 140 105 121 135 142 195 110 120 191 183 152 97 153 82 77 86 142 96 111 119 85 176 82 168 79 48 54 70 139 85 161 201 177 112 91 98 98 149 161 161 103 71 179 154 214 139 115 67 117 169 83 176 68 71 148 107 195 116 190 170 133 129 140 61 155 132 91 143 119 50 84 174 134 120 91 82 140 202 198 172 113 172 187 183 182 135 117 104 162 63 167 121 100 178 83 180 91 180 194 199 183 199 126 160 188 198 103 118 146 185 181 156 145 45 155 148 89 128 152 81 155 139 101 161 134 98 175 151 158 94 142 38 45 55 101 193 155 111 196 144 171 111 166 203 144 105 146 158 175 79 60 140 106 121 204 175 221 120 82 88 158 126 116 86 79 124 103 149 99 75 107 121 79 192 105 208 122 147 111 143 77 103 88 173 191 88 129
67 80 103 125 140 147 147 159 164 167 173 184 185 189 178 159 145 142 125 147 167 165 185 189 187 196 178 163 155 169 189 203 202 178 157 140 149 162 167 171 162 159 156 156 156 167 173 169 137 129 113 103 123 132 193 154 172 161 182 186 136 98 141 123 146 159 179 156 166 201 158 87 110 92 181 121 156 132 87 68 140 107 64 62 123 113 109 170 115 129 158 158 179 135 195 154 145 109 143 89 97 106 115 87 113 115 68 95 90 91 121 131 94 134 112 59 117 87 74 71 159 156 102 161 69 159 61 139 50 149 62 60 64 72 71 174 146 57 124 49 152 151 110 148 75 106 180 211 196 158 175 106 95 175 204 155 184 79 189 114 217 156 170 170 138 173 182 152 162 192 156 184 163 85 124 168 101 150 166 202 125 196 141 152 122 173 159 147 175 184 112 91 86 77 107 91 132 95 148 170 153 75 131 156 119 89 186 151 41 83 85 82 144 62 137 144 123 93 85 73 61 101 88 131 110 193 118 179 148 151 80 149 100 155 82 156 110 107 216 234 185 134 196 134 63 107 104 64 39 119 68 156 125 163 106 108 141 139 154 160 64 83 181 148 187 82 175 126 156 88 163 183 112 166 85 154 131 80 134 97 166 78 120 177 174 111 146 177 127 154 118 147 100 182 175 204 211 94 90 169 87 82 103 103 104 71 156 142 103 136 53 157 139 83 65 74 44 56 88 120 113 225 233 189 120 212 201 94 135 158 140 119 189 103 115 86 97 166 80 132 156 88 92 196 152 128 116 155 72 60 61 53 154 77 93 138 95 90 81 183 132 109 179 163 152 63 165 81 200 194 220 156 111 88 65 105 86 147 61 124 65 132 101 198 177 192 100 117 54 65 70 90 168 133 49 128 145 104 92 176 139 173 194 118 179 194 106 117 207 108 155 100 142 170 68 75 129 141 74 131 90 200 116 102 137 193 170 178 165 159 187 166 196 115 84 83 112 106 147 142 141 153 205 188 158 174 171 85 93 171 100 118 113 58 30 28 116 69 112 170 140 197 175 100 134 138 158 127 136 109 196 132 181 65 88 168 167 101 216 184 226 217 193 175 74 163 101 136 93 91 156 76 131 104 90 182 98 124 87 164 202 129 123 56 61 106 122 174 85 131 85 98
84 91 105 126 144 148 154 151 163 180 189 189 186 179 177 169 142 140 131 156 169 179 197 199 198 192 185 173 171 181 194 196 198 176 156 140 146 159 168 169 159 159 158 161 174 162 190 177 172 131 113 130 153 196 171 207 142 177 120 156 147 124 115 91 95 97 152 152 164 168 160 155 85 160 122 142 118 83 142 77 93 150 89 108 77 91 108 116 139 112 122 104 113 127 122 152 127 120 103 79 99 128 95 120 99 72 65 90 127 136 74 134 58 53 62 77 158 107 95 169 105 91 141 64 114 136 128 137 120 71 80 76 83 94 81 82 164 158 92 51 116 53 157 147 81 197 194 124 160 158 82 129 177 185 208 142 172 182 95 196 117 211 163 131 160 166 177 108 112 200 166 147 82 89 76 180 96 127 190 134 199 165 185 179 190 106 139 200 211 199 111 151 75 140 94 98 180 73 69 144 130 139 92 120 161 71 152 109 49 39 87 127 159 57 50 150 154 117 169 58 125 72 53 172 187 121 145 186 142 129 123 64 63 57 61 144 173 206 125 236 198 213 204 130 73 64 129 49 136 151 64 169 176 111 141 51 60 30 39 141 103 172 90 164 96 79 160 85 170 136 114 126 146 168 114 111 160 128 161 56 56 130 133 87 68 73 157 73 84 61 115 51 69 123 92 113 155 88 77 65 66 120 73 78 140 153 57 143 143 94 65 83 62 113 145 67 128 69 168 143 121 231 161 215 201 111 101 199 90 85 174 123 87 124 71 69 164 83 81 135 89 89 86 104 157 180 185 166 153 139 150 124 66 91 117 99 97 92 163 168 82 131 154 166 61 151 157 73 163 211 177 131 118 134 63 78 63 62 118 99 103 140 159 78 183 175 150 112 114 122 142 76 76 106 148 90 151 70 164 154 171 174 139 190 173 126 129 123 103 131 205 183 85 107 156 153 74 64 156 115 87 197 150 141 167 136 182 129 162 202 110 199 91 90 102 104 115 175 63 152 74 112 206 88 171 134 110 169 125 71 116 108 55 61 20 122 21 52 68 121 133 83 156 188 144 176 143 103 102 206 112 201 188 70 162 151 133 172 193 144 173 108 180 89 160 118 150 68 129 170 128 85 84 121 161 105 92 177 183 145 100 102 84 59 140 109 154 78 85 115 183 126
101 103 110 128 140 147 137 138 157 173 178 186 187 190 180 158 149 138 142 163 177 183 189 209 208 201 190 185 190 198 205 203 201 181 154 140 142 153 167 175 174 166 168 175 178 170 171 184 183 131 112 129 163 190 198 207 134 191 139 147 148 142 127 99 85 74 109 164 114 172 138 63 96 114 84 115 112 72 116 84 98 92 135 109 77 91 175 147 164 158 109 97 103 95 125 128 128 92 87 71 116 95 76 86 67 72 52 55 57 58 93 63 38 51 82 118 109 198 148 101 99 109 78 63 122 48 114 139 69 154 194 175 86 108 83 178 164 142 57 145 124 141 87 149 82 204 221 133 147 165 156 61 62 174 152 177 141 89 120 199 128 194 163 116 118 149 146 80 183 199 175 176 105 155 80 160 120 167 186 105 100 182 164 163 171 156 178 106 95 176 76 178 165 155 52 73 143 79 88 153 58 56 153 144 64 157 57 70 123 43 50 131 121 156 152 153 137 81 145 101 142 75 116 106 151 179 167 94 189 123 117 92 78 158 71 160 189 158 215 201 115 138 210 168 85 63 136 88 114 105 178 176 129 114 119 84 128 138 53 129 174 133 140 134 89 144 177 177 119 110 120 161 173 119 118 77 135 124 54 60 157 157 59 61 68 133 178 153 171 130 136 137 102 96 79 174 163 87 173 73 83 138 174 159 135 101 166 146 55 127 58 149 104 98 117 117 83 104 99 146 150 128 193 215 179 124 98 106 180 155 131 142 87 61 116 62 73 73 65 110 90 167 164 73 75 80 163 56 44 69 155 76 119 129 96 152 188 152 114 164 77 170 181 104 120 87 114 155 151 160 161 124 169 170 129 117 99 143 155 153 54 91 149 77 150 159 61 106 163 135 79 77 181 155 121 45 101 106 177 88 124 166 110 184 178 204 118 176 183 188 131 193 116 182 99 73 60 86 66 151 100 198 111 130 127 196 185 111 106 142 205 199 161 145 191 183 164 178 153 168 145 189 133 181 106 92 94 55 80 76 178 92 161 142 91 75 124 134 136 54 154 166 143 175 110 87 111 142 156 153 164 140 178 91 73 172 122 202 198 133 134 87 165 67 145 59 79 158 65 74 81 85 159 130 175 186 140 106 96 143 99 182 80 81 110 89 86 146 67 151 176 184
109 113 121 133 138 136 126 121 139 157 181 177 176 188 189 178 171 169 165 160 165 173 179 198 206 207 203 215 216 217 208 214 206 184 159 137 125 140 160 170 173 185 167 160 185 191 204 190 206 173 171 152 255 155 182 150 154 181 183 158 175 133 102 127 160 87 104 159 86 145 92 152 88 106 136 153 79 147 81 79 166 125 125 110 154 106 140 124 85 85 92 136 88 94 90 157 123 86 83 118 66 87 106 59 72 58 60 91 102 95 47 35 103 62 89 113 102 183 112 120 203 96 75 68 36 17 123 52 70 85 181 130 125 92 84 111 161 72 139 157 169 162 64 169 172 200 115 123 120 179 150 114 100 106 169 119 198 207 163 179 195 201 107 148 146 93 151 138 74 176 181 178 118 137 120 79 139 172 178 85 201 108 212 160 149 177 98 100 80 70 67 108 70 103 153 108 178 139 70 87 71 85 83 65 118 50 90 86 112 45 123 171 156 188 177 86 142 92 170 156 150 51 154 126 191 183 195 101 189 206 125 101 156 200 193 185 188 126 152 193 179 197 210 112 92 94 149 125 90 73 99 104 178 184 107 55 132 59 80 155 102 83 70 109 127 86 192 183 126 104 126 127 125 145 132 156 168 153 120 111 54 90 153 124 90 163 103 191 134 92 55 48 47 70 79 135 167 121 152 147 104 176 75 104 175 79 159 57 52 145 110 150 58 128 72 168 112 114 118 132 140 212 127 118 93 96 167 165 102 165 152 64 73 164 74 118 72 65 96 158 74 57 75 60 66 132 63 87 137 61 130 114 158 97 97 206 111 168 148 129 69 183 143 181 87 135 152 119 79 138 80 97 158 76 73 116 56 57 52 123 103 96 167 161 176 83 47 51 146 161 67 104 111 83 76 106 148 141 178 118 87 173 190 182 195 186 199 108 201 135 144 198 167 91 97 141 53 60 148 55 113 162 110 86 70 177 91 189 165 119 161 130 193 119 105 192 192 96 167 170 155 179 113 176 101 79 35 136 83 89 184 181 135 143 129 143 141 75 142 117 129 48 86 107 145 104 160 172 129 163 211 182 178 169 108 170 123 140 111 163 163 117 94 153 148 155 107 125 55 58 149 123 91 174 108 187 193 201 110 99 153 109 114 159 164 184 85 78 98 71 102 77
108 116 126 136 134 123 119 117 129 154 177 169 169 168 181 189 189 179 175 163 161 145 161 180 193 196 215 225 226 225 225 218 214 189 156 122 113 121 144 172 181 193 198 178 194 193 195 212 175 199 196 193 150 169 156 176 124 184 164 158 162 150 169 126 124 90 164 148 158 155 166 129 153 66 105 71 78 151 131 95 148 106 73 97 109 105 149 99 119 103 114 98 79 89 71 99 82 95 68 78 64 97 91 76 56 98 117 135 67 87 92 85 85 61 59 86 114 112 183 154 195 124 92 57 139 101 135 61 83 88 183 173 172 101 117 67 159 153 168 118 170 134 87 148 167 189 106 123 202 152 77 58 138 176 175 99 102 201 118 126 200 151 144 147 182 100 87 115 152 78 162 255 97 96 155 144 70 122 180 119 91 143 158 146 177 192 101 145 92 95 169 63 160 141 123 109 190 185 175 82 148 98 160 114 152 154 106 77 121 23 119 62 170 144 91 144 153 76 144 165 87 67 98 179 187 207 197 206 255 127 218 212 213 111 114 146 96 84 176 176 186 191 209 189 144 104 142 132 75 145 171 190 166 172 174 140 70 128 199 190 211 255 97 80 88 139 115 180 103 104 80 169 77 162 138 167 88 101 91 123 65 59 163 62 130 100 105 165 179 99 61 123 152 60 77 167 84 75 127 92 78 93 118 149 116 65 89 88 53 75 144 53 59 129 65 126 98 97 140 219 142 191 121 84 84 140 71 71 136 82 71 71 110 150 109 167 89 89 70 64 59 149 130 106 89 153 144 81 53 46 44 89 175 153 168 202 178 111 168 167 68 77 168 83 100 68 126 124 165 122 165 134 89 56 126 54 149 118 126 154 139 122 80 149 103 160 45 136 121 93 131 86 131 146 188 172 174 103 71 119 146 190 134 205 108 179 122 167 202 93 86 113 90 188 160 70 158 109 105 145 124 154 151 77 77 93 160 125 155 78 136 66 185 98 205 98 165 183 79 83 180 163 107 165 82 88 113 69 91 166 136 92 159 73 150 168 76 74 112 59 130 135 46 68 83 167 109 116 171 188 98 187 167 137 147 154 98 82 128 65 128 60 159 100 97 109 135 129 107 139 88 166 170 169 181 171 133 134 96 148 92 118 159 143 158 134 104 74 70 157 118 143
97 111 127 137 136 127 117 124 145 159 177 165 158 158 174 188 191 193 162 155 141 128 137 165 186 201 218 208 213 218 216 222 212 189 154 118 104 112 141 169 189 199 208 212 201 192 198 173 182 196 180 150 185 180 174 174 136 184 169 184 202 139 189 149 130 125 146 177 193 117 108 99 90 145 80 98 123 94 111 58 114 53 54 114 102 76 70 139 111 103 133 85 132 77 91 84 74 94 104 94 69 98 55 73 69 131 138 87 116 120 68 90 111 62 70 75 105 143 110 130 210 133 164 89 135 72 106 160 84 71 172 66 93 142 188 255 154 160 112 79 75 156 129 124 60 77 172 139 130 181 74 116 169 105 198 177 200 183 108 187 171 180 140 184 121 166 178 77 106 145 106 100 122 106 75 79 76 147 115 95 97 100 112 104 105 114 99 72 85 156 154 180 127 152 144 123 193 181 108 93 111 130 144 117 163 121 38 85 98 108 138 100 142 108 106 150 52 155 129 92 99 185 200 118 118 176 156 190 155 134 218 149 220 120 123 162 184 74 163 70 112 119 167 113 96 166 134 29 95 91 144 176 102 161 159 70 75 183 94 103 206 114 111 102 104 211 190 176 173 166 174 117 125 166 152 140 162 57 70 141 86 98 150 128 101 118 89 96 116 67 95 54 57 68 138 158 133 161 106 79 165 132 111 73 93 54 60 100 50 57 98 80 44 147 63 154 69 115 182 162 144 107 108 147 138 171 93 58 56 68 75 172 131 160 117 157 186 78 100 114 90 138 68 59 65 138 141 158 154 158 60 175 129 109 172 201 118 173 159 92 153 172 104 193 190 176 76 167 71 65 134 167 61 149 112 118 133 102 96 106 51 167 107 78 166 61 150 67 64 175 175 80 94 206 191 156 175 125 157 144 170 192 209 130 101 107 104 204 96 187 102 176 96 156 90 120 127 120 68 68 72 70 149 130 57 152 80 53 54 103 37 84 106 172 109 108 157 86 188 183 182 169 87 169 53 101 40 37 156 82 85 182 177 161 71 112 90 79 169 154 75 118 149 155 166 138 71 77 152 78 155 156 157 128 70 90 93 97 117 90 69 138 82 90 67 155 126 64 53 115 166 138 175 101 137 94 121 167 163 71 101 94 107 135 62 133 95 61 145 94 86 61
89 107 125 140 137 131 125 137 148 178 175 163 134 145 145 168 181 191 176 150 123 120 121 142 171 189 203 195 199 199 207 220 214 182 151 123 109 116 149 173 181 199 204 222 202 212 202 188 165 192 164 157 156 105 96 118 146 129 207 220 196 215 141 195 196 121 192 125 206 159 198 134 108 144 81 87 67 82 74 42 118 108 43 72 100 117 80 113 108 118 87 101 109 76 75 86 85 86 107 74 71 110 63 55 81 84 96 106 133 84 93 118 77 79 92 105 117 113 120 191 223 114 99 94 189 114 174 75 67 114 56 153 127 116 186 107 103 113 188 180 126 142 41 65 152 165 85 85 164 173 80 88 154 126 211 196 199 193 140 159 93 141 152 163 117 124 196 104 109 173 154 81 159 169 70 99 121 92 138 102 85 106 136 152 165 87 138 174 123 117 85 89 145 145 71 155 201 189 164 114 100 209 117 167 177 67 40 124 76 48 164 146 90 66 83 55 40 132 53 95 178 90 173 200 181 139 202 113 133 202 177 164 140 216 211 119 109 100 172 160 112 136 150 176 149 93 41 71 69 128 153 162 85 113 160 121 75 144 87 97 190 150 181 201 123 165 165 219 183 142 70 120 57 60 147 114 76 52 96 134 81 159 75 153 104 153 171 162 100 149 125 144 115 127 86 173 98 74 175 157 138 98 88 168 51 43 49 63 83 106 61 94 95 51 52 63 68 151 168 109 103 92 167 166 79 103 51 131 74 113 174 135 146 154 123 134 96 80 151 154 130 116 103 38 122 141 160 174 116 122 78 192 153 160 123 96 100 103 138 159 143 55 176 153 194 192 122 177 150 96 173 134 128 157 149 49 84 86 169 66 146 145 90 104 84 129 85 165 172 77 83 181 82 135 90 106 71 58 59 169 177 192 213 117 181 111 194 115 141 144 177 128 171 124 97 191 181 157 118 157 128 79 85 101 150 147 79 84 126 80 38 135 72 186 176 85 92 178 190 143 107 125 91 135 147 47 30 41 103 122 171 165 159 69 71 66 175 141 94 166 62 50 55 72 83 125 162 128 61 163 175 123 81 85 161 130 184 98 148 135 73 101 76 150 62 127 111 62 51 148 63 175 132 179 84 177 80 132 98 100 179 101 194 171 71 138 83 144 146 43 109 67
84 104 125 143 144 139 139 142 163 176 168 157 133 134 148 167 186 191 172 137 116 98 107 133 145 176 189 181 194 197 210 215 207 176 146 122 122 138 164 180 177 205 216 210 205 207 196 173 172 191 180 131 125 110 104 115 162 179 162 214 202 199 164 138 195 110 188 188 170 151 136 204 132 87 81 78 101 122 66 58 76 49 49 139 88 154 82 255 84 120 96 95 99 80 85 85 93 78 85 66 104 63 51 64 76 83 114 87 103 117 80 87 87 146 74 100 91 81 155 178 134 106 177 161 141 110 146 176 56 150 94 101 186 118 219 128 135 121 105 117 120 152 123 169 166 136 168 150 92 111 183 95 205 194 178 195 114 95 90 181 74 177 120 186 129 133 128 179 179 119 140 187 155 174 120 143 44 82 135 143 82 104 134 130 181 76 69 65 140 175 176 182 138 113 178 92 134 172 173 146 206 113 129 192 102 151 138 49 95 76 136 129 147 73 133 45 41 112 132 147 132 137 181 194 198 193 131 85 104 189 124 145 207 101 177 71 122 160 86 95 155 120 122 126 122 69 90 71 51 145 159 174 139 146 100 109 153 155 185 195 100 185 139 98 148 197 109 208 153 178 99 77 90 167 113 132 101 141 72 95 90 83 102 62 53 93 98 140 136 88 162 62 131 176 96 161 171 149 110 97 97 98 85 174 54 117 151 79 162 81 72 67 61 62 85 64 121 73 187 108 127 101 89 101 87 123 114 107 103 55 164 107 65 61 96 119 78 72 170 102 116 101 153 108 48 161 173 75 134 155 179 198 183 172 188 192 174 146 141 58 155 80 174 129 184 200 166 161 95 169 113 180 71 155 132 159 187 123 86 102 156 138 149 102 136 105 59 169 157 108 140 165 130 90 171 150 70 107 69 143 192 155 167 181 146 100 128 126 200 99 81 78 185 194 165 163 84 147 87 86 89 161 174 162 151 138 34 58 135 151 117 84 179 86 167 163 155 165 107 174 216 194 125 79 48 138 143 58 77 67 169 69 150 96 157 77 115 85 93 131 142 125 112 135 80 172 142 93 153 121 161 171 167 86 139 150 105 144 95 163 68 142 165 162 147 110 48 80 146 87 99 110 146 130 101 83 67 77 68 110 155 189 188 175 126 68 120 67 73 50 147 53
89 107 127 146 155 153 146 150 159 180 169 163 132 126 137 166 178 185 166 153 122 107 116 126 144 150 182 186 188 200 207 211 200 173 149 134 130 150 171 184 187 209 215 210 198 179 186 143 158 187 147 128 127 116 102 143 143 204 194 231 243 173 147 173 147 162 90 181 198 174 175 162 78 89 96 90 121 89 89 98 81 51 73 71 86 144 127 103 104 90 96 96 90 82 90 128 102 86 96 98 90 86 41 49 51 69 99 105 54 122 71 90 70 116 126 138 59 111 102 152 190 95 105 138 106 106 89 166 94 39 42 135 87 177 119 233 223 210 107 85 64 137 176 152 129 130 169 101 70 167 97 202 137 207 168 179 81 173 161 168 74 170 187 192 171 196 147 122 94 131 147 197 96 128 152 117 31 64 49 147 167 158 188 189 82 72 158 147 145 93 184 125 170 176 80 101 215 194 217 205 117 199 190 99 107 149 143 58 174 110 143 109 89 94 72 144 162 86 97 160 98 107 181 87 177 73 159 179 122 104 121 190 194 90 71 109 140 157 100 93 101 115 153 63 55 41 52 63 56 176 175 151 177 99 108 175 156 142 152 90 156 95 147 191 179 95 115 99 170 75 109 66 93 167 177 102 48 55 83 158 83 173 139 157 99 88 86 100 198 100 72 110 69 98 106 106 85 127 65 88 99 76 74 63 161 67 173 163 79 113 180 111 71 74 179 120 164 139 83 108 84 150 145 105 134 87 75 133 159 141 100 67 157 78 109 156 177 172 117 126 110 164 139 90 56 137 65 174 176 195 168 116 86 121 80 139 79 111 78 70 64 133 156 200 170 203 149 125 118 186 159 107 158 83 174 94 133 107 109 149 82 74 105 100 139 73 71 164 91 88 91 148 95 49 140 144 60 108 167 93 171 116 113 112 199 183 138 151 150 202 167 162 164 155 156 159 146 150 163 132 178 129 101 180 74 48 140 43 159 156 77 131 101 177 84 80 95 170 176 201 152 215 100 82 121 82 119 98 97 86 167 96 85 42 122 144 119 83 147 192 88 161 157 173 162 138 171 159 182 130 103 191 126 158 159 187 161 211 198 87 167 86 80 157 132 61 60 156 128 145 158 132 186 184 138 155 164 101 137 162 77 172 149 167 70 63 124 120 42 110 73 177
91 108 131 146 154 156 153 148 160 176 175 164 147 148 159 165 189 196 178 166 132 119 120 132 135 162 179 184 193 197 198 202 191 171 148 139 141 146 168 188 202 212 197 206 174 187 173 175 180 160 164 126 97 127 93 148 166 209 230 215 240 202 212 152 113 64 98 88 98 90 154 152 111 137 125 126 76 140 70 65 94 96 62 128 90 95 65 58 62 125 73 82 80 81 63 118 90 122 74 99 77 57 50 64 47 57 72 74 66 124 82 104 79 73 147 142 85 90 122 90 172 92 78 99 141 191 157 173 151 147 147 65 74 185 208 183 130 122 115 176 136 86 185 210 158 89 90 158 137 139 112 181 198 183 117 82 128 155 102 89 156 170 108 111 195 192 106 147 169 170 99 189 189 170 114 101 105 91 94 133 116 189 195 108 109 79 148 123 161 73 119 196 84 135 80 180 106 163 115 201 109 175 89 94 146 66 119 185 200 209 116 217 137 85 155 92 85 84 185 104 96 94 91 144 143 77 85 146 160 127 189 143 79 157 130 151 48 97 176 89 180 179 168 174 151 168 78 165 179 120 192 156 160 153 166 117 155 64 80 86 171 107 111 187 114 113 79 119 86 156 172 149 128 87 117 102 124 169 108 184 138 93 181 107 87 174 190 179 111 100 121 69 156 152 141 92 178 75 130 72 157 68 153 75 76 92 123 104 129 168 175 86 74 83 99 98 197 191 112 167 168 115 142 188 197 133 186 82 83 104 81 149 74 82 82 114 146 182 128 87 148 63 63 131 96 138 149 137 179 189 187 177 139 81 130 96 170 136 98 123 146 118 88 165 190 159 183 122 102 142 89 175 153 106 108 104 106 189 111 83 172 166 61 145 82 74 115 87 176 170 170 103 106 255 44 137 122 91 183 158 209 186 118 93 155 77 134 139 178 80 171 64 81 111 192 95 131 156 81 132 81 164 81 132 74 129 104 148 56 103 82 190 162 181 76 63 65 164 101 126 159 171 105 186 101 161 156 119 192 88 126 153 48 122 26 35 145 150 189 119 116 112 176 72 152 155 131 97 124 193 118 104 202 177 185 118 133 173 206 185 107 168 82 157 111 109 75 121 75 73 78 123 97 108 141 95 94 113 87 125 159 149 112 168 168 156 121 57 80 83 130 115
105 120 143 157 162 152 151 146 159 168 163 154 146 142 157 171 200 201 185 173 161 146 130 129 153 157 168 182 178 186 190 194 186 169 165 155 157 158 157 173 204 217 218 190 163 170 170 171 158 163 151 131 81 113 149 152 146 183 215 174 236 198 200 173 81 69 92 98 144 96 116 134 65 87 118 144 142 161 157 129 71 63 53 46 82 81 71 43 47 50 113 62 80 50 65 49 83 112 71 60 65 48 89 62 53 65 98 84 88 90 84 94 97 69 68 70 105 92 117 68 69 73 75 82 92 170 136 88 166 150 92 141 156 67 148 153 210 206 145 164 158 192 107 115 195 159 162 138 111 169 195 139 115 184 181 125 173 117 166 143 160 152 186 167 152 137 70 165 163 136 105 190 99 180 175 170 139 157 55 64 180 186 145 83 142 166 130 147 167 100 169 103 100 78 177 149 90 112 110 104 106 127 96 132 76 182 95 145 137 137 212 137 143 95 106 173 129 112 110 91 99 87 159 149 61 85 148 151 158 178 173 172 77 157 56 62 129 67 80 115 158 179 98 181 189 113 189 112 117 123 199 79 174 173 118 67 75 159 154 114 126 124 130 124 180 155 125 177 103 152 133 120 174 179 161 146 139 106 86 98 172 124 200 141 149 189 181 175 95 151 94 127 151 164 191 98 88 96 139 54 63 107 101 84 94 111 126 137 103 126 72 95 79 179 149 118 94 87 92 73 118 73 88 125 121 181 104 104 130 74 142 101 74 175 189 102 137 80 82 171 168 98 161 130 164 163 79 92 138 80 166 90 145 54 127 56 145 124 189 201 143 151 95 150 99 181 174 166 116 116 164 98 57 149 159 182 129 165 143 162 135 141 170 178 142 108 119 200 144 171 185 181 63 76 51 159 90 160 98 108 102 195 100 189 168 58 57 138 75 73 57 155 162 72 78 85 123 85 106 171 80 70 168 83 158 171 87 42 112 81 146 124 115 188 171 96 139 149 183 195 110 125 205 91 179 169 132 78 195 123 105 125 100 123 122 22 77 63 153 110 192 87 93 120 177 85 169 175 175 177 194 117 144 106 144 134 217 121 192 164 71 165 115 63 119 90 122 172 116 105 159 92 125 114 81 163 127 60 146 143 149 83 77 104 69 55 153 58 78 177 109 224
126 141 155 162 160 145 146 139 153 160 148 138 143 151 170 182 207 210 213 200 190 175 166 159 167 171 182 174 161 163 178 184 184 179 176 174 167 162 168 184 207 219 203 195 158 167 161 157 157 176 155 118 142 126 109 177 175 170 175 239 203 189 161 153 148 103 83 132 103 116 131 88 120 131 137 77 131 138 111 81 56 74 111 100 35 36 69 54 65 48 105 57 63 47 104 41 68 71 64 87 127 72 64 116 76 73 107 131 154 139 130 81 71 74 149 130 85 86 85 106 64 120 79 128 85 193 128 93 138 58 52 60 124 164 174 88 126 155 158 146 89 83 204 108 194 116 89 71 75 133 163 166 88 169 168 73 185 182 166 170 169 121 119 132 165 116 163 126 159 97 172 158 174 81 135 126 70 167 83 144 94 154 181 175 66 164 131 170 169 192 186 111 99 165 158 89 129 175 95 148 196 179 159 149 189 174 141 149 114 193 202 96 143 151 180 157 106 170 178 88 174 178 98 152 164 96 141 103 75 162 72 152 170 115 158 153 162 170 139 91 112 64 109 195 186 135 166 220 134 115 188 83 156 61 169 160 165 153 75 109 61 56 163 160 114 82 179 192 104 166 190 113 103 106 86 81 159 124 190 198 105 190 199 116 83 140 166 156 118 77 83 159 193 105 138 132 85 87 95 52 46 57 60 72 180 81 143 95 108 173 145 141 108 89 188 103 156 105 125 162 115 72 92 185 137 116 95 107 81 166 72 56 139 162 91 130 88 97 100 116 166 62 60 161 69 75 156 73 85 179 158 57 42 38 32 135 78 101 182 200 196 100 191 166 82 122 163 106 174 149 182 67 86 98 87 177 138 107 165 73 160 160 77 185 121 194 123 181 112 205 131 195 145 159 85 67 72 71 113 165 100 125 108 84 113 116 150 151 65 134 153 136 83 126 100 132 128 193 164 77 75 164 134 187 118 171 139 26 130 60 75 148 176 83 137 107 76 132 81 132 123 197 120 196 118 67 146 122 189 139 138 109 164 114 62 16 32 115 140 144 181 159 78 164 160 160 136 111 133 180 172 179 145 162 129 152 112 159 180 102 119 128 55 70 126 137 125 186 107 195 81 139 133 167 151 155 46 66 153 165 66 71 81 163 156 85 60 88 71 179 106 112
151 158 163 159 150 136 139 141 142 151 139 128 130 136 165 194 213 205 211 204 203 182 175 168 180 174 171 166 161 167 177 188 191 200 199 199 183 177 181 178 200 215 190 176 178 145 145 169 174 185 163 181 180 142 140 172 164 163 179 197 166 189 180 145 111 121 121 144 116 99 145 63 61 150 79 158 119 132 79 133 68 63 73 108 30 100 96 67 53 50 57 84 60 48 42 40 48 73 80 112 148 137 95 98 130 118 139 116 161 126 111 101 68 123 84 128 109 145 132 87 83 95 89 131 96 132 84 122 111 145 51 146 57 76 145 157 90 135 148 66 86 74 188 200 178 172 139 133 159 117 143 155 165 124 72 186 133 115 149 105 140 123 158 118 171 160 161 104 114 117 176 151 131 130 156 161 138 161 81 111 84 100 151 76 95 105 165 174 177 190 179 167 168 134 157 74 89 132 71 178 198 115 146 166 110 185 186 104 91 189 185 85 186 145 167 103 85 160 121 145 155 56 152 84 130 127 96 79 147 87 158 123 163 102 90 119 166 136 155 38 128 44 143 171 153 209 219 240 208 193 100 124 153 68 170 147 123 145 150 127 31 87 139 114 103 149 92 105 205 194 133 102 91 63 152 95 92 99 118 93 104 153 88 121 146 180 65 168 172 79 86 104 119 159 191 202 155 117 129 122 156 170 94 185 98 102 150 82 80 138 172 155 105 141 146 72 73 88 69 56 57 82 82 183 122 105 197 125 91 173 101 90 139 152 72 129 174 190 91 167 105 67 117 172 181 125 168 75 78 92 130 70 98 111 71 149 122 92 183 101 185 192 139 117 162 132 147 69 134 178 174 75 102 71 158 151 82 174 142 95 176 177 112 182 188 200 127 154 182 148 184 134 124 175 76 102 110 175 134 90 102 123 154 187 94 93 132 153 89 169 93 94 105 166 149 63 184 192 141 78 152 99 170 97 100 164 145 101 88 45 60 175 89 133 168 132 158 121 135 92 87 187 124 102 188 137 177 99 104 165 202 170 177 88 95 46 94 138 151 114 132 75 148 142 98 97 106 142 156 118 161 78 89 112 168 133 117 93 128 124 123 118 55 132 163 110 144 215 155 98 173 117 170 103 73 51 74 85 121 94 97 141 161 88 46 138 97 93 143 144 172 165
157 158 155 146 139 134 134 138 144 143 141 135 127 153 169 185 204 186 198 198 197 186 174 172 167 172 163 153 149 161 176 184 199 212 216 216 207 198 194 203 211 218 204 198 165 178 162 166 179 164 211 169 184 191 165 201 215 176 219 146 212 169 191 130 117 65 104 164 162 123 163 98 120 96 84 84 135 97 78 128 42 53 22 62 35 87 51 57 110 72 115 72 102 69 83 70 57 73 96 129 148 125 123 163 146 140 123 166 125 123 131 100 100 77 80 157 103 138 119 199 145 75 152 85 85 107 130 97 130 152 146 75 61 60 168 81 173 102 36 137 48 255 148 118 143 177 169 127 135 115 112 147 111 74 177 193 194 149 202 178 111 62 144 96 170 154 149 130 129 153 130 179 160 172 174 170 172 99 109 180 105 171 189 151 84 121 89 159 159 212 198 105 77 89 98 120 146 88 165 176 108 173 157 103 101 208 205 193 82 110 72 76 158 92 146 104 74 81 149 105 123 50 48 166 142 125 163 58 107 153 92 109 156 57 66 70 62 146 84 126 139 142 130 150 69 156 123 135 133 121 96 180 104 61 92 111 177 153 68 106 18 71 108 70 113 165 174 134 136 125 192 172 153 77 80 94 163 85 158 96 163 75 179 131 169 124 83 105 108 101 187 151 198 127 162 139 108 66 59 111 96 88 82 117 176 92 86 88 123 110 188 194 113 74 65 113 76 143 52 87 129 98 83 83 193 185 201 144 172 95 78 166 139 151 99 166 83 161 112 177 150 173 73 166 82 145 94 189 177 173 136 152 87 51 52 109 113 127 185 138 173 157 174 169 59 110 70 131 96 174 87 56 134 98 56 156 169 176 176 125 203 131 186 183 163 116 171 158 192 194 207 212 196 103 151 76 151 78 94 182 196 144 99 147 73 161 65 94 74 81 194 181 168 154 138 48 72 185 173 161 63 144 100 187 172 141 56 125 116 35 73 183 93 158 161 122 71 136 80 158 160 92 92 187 198 89 103 186 138 113 136 143 199 70 94 92 151 159 72 76 176 69 156 109 190 181 150 188 173 126 93 159 123 104 152 59 108 80 78 112 161 58 68 85 196 214 156 231 120 145 85 143 80 142 93 138 108 126 58 161 176 189 163 66 50 49 130 53 109 72 105 117
143 144 142 139 143 150 152 148 148 140 137 117 136 155 169 183 177 184 182 179 184 182 185 180 172 152 148 134 141 155 174 186 206 213 221 224 211 209 206 210 200 214 219 213 176 194 191 182 197 185 214 215 163 195 196 156 164 225 206 179 174 133 199 146 176 164 172 109 160 167 144 86 87 62 118 68 130 66 69 49 34 105 27 23 34 51 61 134 60 62 87 83 60 72 61 100 130 255 109 141 127 119 169 132 148 164 119 178 116 131 89 101 138 75 133 85 126 204 134 178 117 136 89 86 98 193 78 91 71 53 132 58 100 59 65 97 162 147 146 144 49 125 149 94 163 167 166 166 155 98 154 152 154 144 156 179 222 220 202 77 145 84 138 148 104 134 108 156 127 129 96 178 171 127 85 135 74 73 175 188 109 113 174 94 104 166 57 165 182 106 164 180 75 94 122 88 88 63 160 165 71 84 183 181 194 123 126 86 71 164 162 77 173 136 172 95 154 94 68 155 128 134 128 100 75 95 119 136 113 79 164 166 68 52 149 255 152 67 53 93 149 155 159 140 93 103 116 213 197 104 102 163 136 85 136 180 144 102 54 87 120 99 58 62 132 56 148 127 164 127 114 164 119 182 178 124 138 122 118 98 112 143 75 157 131 169 153 122 179 90 97 211 211 223 118 127 81 67 111 66 154 153 123 97 150 138 181 158 71 172 104 179 100 70 58 149 110 71 99 138 50 155 92 111 163 110 205 100 188 111 95 98 160 55 63 138 195 151 237 131 199 95 173 159 133 193 104 100 178 163 109 138 152 112 89 103 162 76 160 109 155 170 121 93 112 168 109 111 116 186 156 158 150 136 92 172 144 105 170 138 213 156 170 83 95 158 186 133 86 88 121 221 120 102 169 100 155 58 127 91 146 120 141 143 159 156 160 81 158 171 101 98 151 124 67 57 162 130 162 120 52 62 126 130 94 82 107 78 119 74 165 174 130 188 195 190 79 154 53 255 77 180 94 132 177 185 168 189 175 255 176 216 116 115 78 70 136 88 90 100 112 119 165 99 102 151 109 111 125 120 165 169 119 142 83 157 79 105 99 143 143 151 75 96 147 128 145 175 134 207 92 81 138 101 147 118 133 122 108 71 157 98 184 86 58 143 143 56 71 159 62 96
132 133 134 140 157 169 170 168 153 143 136 118 128 148 158 167 162 172 180 170 169 160 179 159 165 143 136 134 144 150 167 180 200 211 217 216 209 196 209 213 217 219 218 195 189 210 199 182 221 233 242 225 181 171 139 205 201 223 148 186 116 117 190 195 105 109 128 126 107 187 101 150 150 121 122 75 153 83 123 90 113 37 61 35 50 66 67 71 123 56 57 52 65 57 112 78 92 116 123 123 137 102 125 138 102 157 154 106 99 87 114 159 99 87 93 95 125 151 189 112 89 88 75 88 177 102 90 63 138 65 64 177 83 84 160 154 162 118 151 54 95 168 163 61 58 164 64 161 154 158 114 57 159 124 100 169 205 187 158 118 60 91 141 82 174 95 179 91 109 99 117 175 122 146 87 77 94 129 126 126 177 157 109 105 76 107 161 75 172 131 145 187 186 174 105 168 86 73 144 137 129 66 105 119 122 162 79 171 67 94 132 158 112 129 143 98 188 86 126 158 60 123 67 56 67 82 143 78 118 80 124 73 67 167 159 163 160 161 85 135 65 115 78 190 176 199 112 163 137 168 162 119 111 155 56 168 94 95 144 124 94 92 73 63 90 146 111 155 99 179 116 199 117 213 201 195 186 80 137 155 128 75 69 153 121 217 126 177 166 103 121 208 206 213 105 139 113 162 165 77 79 139 113 194 114 177 109 159 133 125 104 152 127 74 46 137 128 63 131 52 51 137 110 108 197 130 164 191 186 133 103 103 66 137 88 116 217 156 143 237 115 184 179 171 104 182 148 186 165 82 186 76 74 155 107 162 162 152 176 127 198 197 161 92 156 161 190 154 171 100 122 108 169 100 166 163 130 194 180 184 108 188 132 83 186 83 184 163 116 78 121 137 218 190 77 61 89 50 91 44 72 171 158 180 102 176 171 102 157 87 115 157 83 105 116 137 57 138 124 138 133 125 169 93 121 94 84 164 69 91 176 111 98 130 121 149 135 133 77 86 145 181 137 128 208 196 142 117 202 205 130 155 178 118 218 157 122 103 188 124 180 145 68 69 172 187 139 63 117 163 165 173 73 39 141 60 169 102 126 162 113 92 82 150 94 178 81 102 93 171 105 82 77 75 62 34 32 95 79 158 112 115 180 184 60 126 134 83 65 80 56 71
139 139 143 155 174 192 190 185 170 150 129 125 137 143 159 161 163 159 167 175 183 171 165 173 156 146 141 134 148 152 158 169 183 198 205 201 199 198 205 208 211 209 202 190 216 183 193 173 203 196 188 179 160 181 162 188 161 178 147 123 152 146 188 144 122 135 120 89 91 107 149 141 72 94 130 121 115 101 99 143 85 61 56 61 131 118 111 62 61 50 43 89 63 81 74 134 121 153 112 120 121 119 109 79 77 88 135 98 87 76 73 87 90 124 109 151 109 189 121 113 89 84 130 106 109 161 96 117 103 60 117 116 145 155 124 75 86 64 128 67 170 66 167 62 151 149 177 105 150 83 173 164 118 171 166 124 195 104 180 183 163 128 96 51 82 115 171 168 85 135 133 174 124 136 139 167 89 97 131 125 107 101 166 91 181 65 72 101 64 96 87 147 188 158 97 141 78 65 160 56 132 59 69 165 167 115 126 127 127 178 100 159 60 87 106 138 190 185 106 192 163 54 137 105 163 176 94 185 119 125 65 132 179 171 166 81 74 74 75 85 167 159 86 103 117 149 193 196 122 156 158 75 135 83 64 145 76 105 94 127 98 136 64 133 88 103 130 41 158 94 161 101 202 175 120 143 95 105 116 84 61 67 168 102 86 142 162 119 80 88 111 81 159 163 148 180 78 103 71 78 99 113 82 165 88 103 68 66 129 135 50 48 145 56 144 56 70 74 57 151 71 155 77 178 109 107 165 195 105 168 92 82 75 93 94 140 200 134 224 204 150 109 73 71 158 175 80 139 93 174 83 109 77 79 164 52 50 100 138 181 130 195 102 115 173 107 179 125 119 103 191 173 151 188 86 140 193 156 202 138 197 91 86 118 84 86 178 76 77 66 107 132 196 181 143 137 101 120 126 111 101 69 110 171 101 149 164 149 81 142 57 121 99 44 104 74 64 72 170 65 57 65 108 177 91 191 197 93 126 98 174 84 80 159 147 81 190 189 143 156 173 92 82 101 93 153 217 147 229 181 185 198 205 226 160 125 164 206 195 106 180 116 80 138 60 164 163 147 48 82 76 148 136 83 118 150 173 106 182 140 121 188 180 100 100 180 160 101 112 93 139 162 75 155 115 34 35 45 67 73 159 127 211 94 177 67 103 80 66 58 102 141
160 154 154 165 183 197 204 196 181 167 147 133 144 140 151 167 163 169 189 193 185 191 185 180 165 144 146 148 148 147 149 156 167 179 183 171 179 171 185 204 193 197 194 195 188 190 163 162 191 192 181 151 166 192 190 176 191 180 186 110 184 140 148 190 139 179 104 155 105 119 156 132 157 53 136 118 105 149 190 110 103 86 114 152 96 135 116 71 51 66 60 80 86 85 93 139 98 136 126 95 82 75 64 96 57 69 102 82 86 59 58 66 81 83 87 129 83 89 95 132 79 163 150 134 162 64 50 109 95 79 83 154 102 119 156 139 73 75 165 98 177 145 170 168 128 139 167 89 163 189 177 62 61 160 103 189 162 195 201 167 177 144 148 148 145 142 96 78 118 152 155 167 135 124 172 81 163 149 92 148 159 122 160 141 69 126 121 164 150 176 178 96 97 97 134 174 121 169 66 67 159 142 147 169 77 138 81 67 152 155 145 94 116 150 125 171 161 106 204 184 86 116 142 57 68 191 186 207 102 128 165 111 169 129 178 183 191 105 191 152 170 72 164 178 208 206 211 203 187 106 130 126 155 153 169 98 82 80 62 157 152 67 66 155 100 85 55 84 109 178 183 98 164 136 119 206 108 188 126 82 141 183 117 152 71 147 132 175 97 144 103 159 143 126 187 89 185 148 174 171 156 71 119 80 98 62 151 166 84 54 63 49 150 143 47 71 73 87 80 81 82 126 85 83 153 101 167 124 95 115 79 171 179 104 113 121 206 120 141 104 115 181 117 165 102 98 126 72 59 134 64 140 67 158 151 74 120 157 136 166 182 181 163 153 101 169 146 195 160 149 132 101 139 191 182 183 168 114 146 166 176 91 176 74 171 148 124 68 153 110 78 94 118 108 174 147 70 51 126 32 107 155 174 95 148 80 184 108 149 148 156 66 104 16 36 151 64 150 173 127 172 117 133 70 150 191 93 113 187 110 170 63 162 161 139 73 192 195 205 185 182 191 113 72 77 194 189 167 214 193 198 148 211 144 244 137 230 132 112 160 178 121 83 132 154 93 156 74 92 67 81 87 78 131 70 170 134 87 124 160 98 143 101 195 137 175 108 83 121 176 184 117 83 141 102 56 41 109 156 134 191 132 185 104 84 138 173 173 153 55 50 131
168 159 153 159 178 186 190 191 183 182 163 148 144 146 154 170 172 184 196 210 206 203 189 165 167 151 150 150 139 148 147 147 157 165 166 161 161 159 184 195 201 178 159 171 179 155 184 181 170 160 174 169 174 165 203 170 153 168 108 153 181 172 154 202 181 101 123 153 122 133 155 125 144 81 91 138 140 115 144 186 116 127 108 88 83 104 74 69 78 124 71 132 125 113 143 99 92 86 81 102 91 80 63 54 91 117 69 68 85 43 59 93 71 75 76 154 120 101 98 98 84 106 99 74 61 54 75 64 56 160 170 129 95 108 212 95 82 131 101 86 150 77 174 87 98 77 160 165 169 177 108 62 125 64 94 185 189 198 200 195 119 103 110 149 113 164 162 169 159 113 161 118 199 114 181 96 159 117 106 59 109 190 197 157 121 62 141 154 74 83 165 192 203 90 78 85 145 114 112 174 170 177 116 74 175 164 104 128 123 89 81 66 64 150 145 70 161 100 205 213 98 77 151 146 84 107 221 121 192 146 163 85 83 179 130 179 103 202 122 191 164 93 76 92 182 221 133 100 168 180 96 183 78 139 95 174 132 183 112 177 123 142 115 75 59 124 123 138 49 146 102 124 168 142 149 143 134 192 181 200 100 108 96 104 140 168 162 84 74 158 51 64 115 90 122 92 105 69 141 123 48 39 51 118 60 139 162 75 72 61 83 46 72 125 158 69 87 104 92 129 68 151 99 147 86 93 172 99 135 71 70 92 106 174 131 114 192 171 203 94 129 168 94 159 158 139 83 68 153 77 63 105 155 131 122 81 126 86 128 184 79 101 159 97 166 187 108 191 179 144 105 111 111 82 255 172 88 199 210 176 194 83 178 169 151 138 88 149 129 56 61 140 179 105 181 90 166 137 120 130 152 182 194 91 189 172 116 133 164 121 169 40 29 32 54 141 166 160 102 180 150 147 141 150 79 188 105 117 80 130 63 74 56 150 160 96 181 150 120 109 145 187 179 140 175 182 189 144 95 107 139 175 109 197 235 182 170 206 186 184 196 94 162 106 112 156 54 57 111 122 164 193 87 158 173 117 105 183 204 135 145 120 170 193 195 99 112 141 140 91 176 141 142 165 165 97 87 94 49 92 93 148 110 208 177 126 255 85 105 149 45 50
158 150 145 151 163 170 178 184 186 180 172 163 143 154 150 162 168 199 196 207 198 197 182 158 157 147 149 148 149 145 143 143 156 161 156 155 149 161 173 174 193 190 176 161 171 165 168 164 141 171 131 136 175 202 197 185 106 114 151 182 210 174 204 121 178 100 173 150 177 184 162 104 147 105 137 54 75 99 111 142 152 91 105 113 84 85 90 132 144 76 68 124 96 108 100 96 103 81 131 82 82 79 114 77 85 77 91 98 52 52 62 69 67 92 88 63 79 103 80 105 96 92 87 71 76 153 62 57 52 54 66 105 154 104 106 200 184 158 77 92 154 192 91 183 106 129 182 164 166 170 135 139 132 140 70 86 188 182 183 143 132 179 116 136 106 171 128 130 191 180 108 112 117 203 212 175 176 142 157 113 86 102 125 181 120 110 162 128 111 175 106 112 93 167 90 40 155 132 157 85 139 191 181 115 133 92 112 91 150 142 78 166 57 117 115 128 78 168 105 220 188 89 82 164 98 160 180 201 194 100 64 88 180 75 102 94 152 149 122 192 181 73 161 183 198 136 193 177 153 160 155 204 140 98 168 159 157 192 180 109 166 142 103 175 149 119 82 142 140 164 145 171 99 90 177 115 103 88 144 119 92 180 164 167 78 117 70 80 78 160 96 118 102 110 142 120 80 79 127 97 57 34 69 56 48 141 144 115 65 95 39 74 134 120 153 111 84 111 72 158 120 124 137 82 94 119 208 127 86 116 142 119 72 158 93 201 199 126 121 199 164 138 59 83 130 114 167 128 147 176 171 167 90 125 69 125 164 190 183 124 95 163 152 74 109 77 168 180 180 77 178 103 72 164 91 60 90 198 218 197 173 190 113 178 174 181 134 172 98 136 172 117 102 198 196 195 197 83 76 72 81 148 193 159 83 140 169 186 175 102 128 158 80 146 129 104 93 165 88 89 178 143 154 94 168 145 159 173 121 164 129 147 142 96 108 157 83 167 215 108 186 182 169 158 75 127 176 181 97 107 134 183 109 163 162 197 215 169 142 112 185 104 152 157 113 158 151 170 117 129 97 111 150 104 183 146 152 192 138 117 200 205 149 158 210 215 200 180 170 139 62 113 185 144 156 73 166 162 52 87 95 117 189 101 101 105 89 105 100 147 77 158
140 140 142 146 150 150 154 164 171 182 170 171 159 148 151 151 160 189 180 194 174 181 166 152 154 146 146 144 154 145 146 140 160 166 167 163 153 150 166 180 191 195 190 179 161 171 159 174 175 128 141 146 161 194 142 134 160 123 176 165 189 204 148 119 150 96 101 173 99 179 197 187 90 65 100 59 146 155 167 124 152 145 66 74 81 89 95 113 88 107 72 69 90 82 99 141 98 78 99 123 106 106 71 108 84 119 105 62 48 81 53 118 82 79 141 73 139 72 102 187 102 126 98 162 105 118 94 169 66 146 52 44 66 188 131 150 187 181 170 96 90 195 144 95 201 189 164 178 149 158 136 111 167 122 68 189 189 204 92 134 125 190 95 148 173 128 174 178 122 96 147 82 96 120 124 209 151 176 86 127 139 91 138 103 70 100 161 100 128 207 210 106 255 63 51 150 125 175 157 126 163 215 109 98 170 67 47 79 81 157 173 180 164 140 68 145 89 161 175 121 175 100 121 165 172 206 115 215 162 177 83 160 88 86 176 153 142 186 172 138 171 118 178 156 88 190 89 153 137 148 110 192 102 93 151 192 184 109 138 207 137 147 163 192 106 119 133 117 103 54 86 166 146 153 96 148 70 172 152 162 112 162 93 150 53 155 58 126 145 177 124 64 66 166 183 86 188 176 69 158 56 136 56 67 105 157 113 255 137 93 121 152 98 147 121 116 148 72 166 75 60 85 178 172 207 119 112 196 99 70 48 142 52 160 80 143 141 180 95 203 190 69 87 94 118 167 184 159 178 194 82 100 62 101 131 88 79 90 174 83 149 149 158 86 81 86 176 164 167 118 138 129 154 143 155 167 162 118 130 220 150 155 180 168 183 128 182 88 102 88 153 139 96 116 155 141 134 158 146 164 113 204 166 100 164 76 85 161 161 124 87 129 162 95 170 206 172 190 189 103 153 91 182 68 147 117 71 114 130 107 141 139 48 138 38 117 93 89 194 196 175 99 87 85 181 117 135 139 152 172 76 163 175 185 218 220 108 202 191 180 178 106 158 162 94 129 135 94 135 156 154 125 185 158 105 107 130 116 135 109 191 99 114 130 132 128 102 159 73 163 149 72 124 68 80 168 169 147 102 55 166 187 124 190 134 155 136 110 124 214 109 170
143 146 147 149 141 138 142 156 166 172 174 170 157 146 145 152 148 164 150 162 162 160 150 159 143 140 150 161 166 153 150 144 161 179 183 174 162 159 164 177 183 195 196 196 192 173 151 137 150 139 129 130 162 155 168 108 162 173 122 132 193 147 109 168 170 95 103 148 156 126 146 135 155 86 116 81 159 89 100 157 63 51 49 67 72 115 98 103 114 111 121 131 84 114 103 107 75 84 99 102 109 106 124 101 133 138 78 92 63 75 60 77 139 92 81 146 95 81 143 134 156 110 89 88 110 96 138 136 93 149 57 120 111 69 184 86 82 117 179 88 139 98 187 100 160 197 175 66 126 111 121 173 78 162 177 111 204 207 184 103 189 154 95 180 176 179 132 76 93 128 163 134 179 184 184 115 157 82 146 44 55 72 91 78 175 70 167 125 124 164 110 191 158 87 161 76 81 132 79 124 189 255 139 210 184 134 128 42 55 135 178 140 81 117 86 143 137 163 111 230 201 196 137 162 182 198 197 131 103 139 158 198 212 204 87 174 167 165 113 105 74 111 178 126 139 136 175 149 164 155 168 206 189 185 187 106 141 103 109 122 148 187 210 125 152 83 60 88 103 49 57 133 132 101 152 88 122 84 110 118 80 111 143 89 55 154 68 83 80 86 155 145 153 91 170 172 195 183 74 99 79 50 47 77 94 183 90 143 176 85 132 80 103 186 161 151 162 105 164 101 72 255 162 147 104 188 146 111 145 155 63 120 152 149 109 164 147 87 127 130 85 134 157 163 66 138 95 91 166 96 103 142 156 170 149 94 127 96 83 157 124 117 255 87 103 113 116 90 157 87 154 162 141 61 85 73 114 185 211 138 217 133 95 124 143 135 156 179 136 153 157 100 210 159 132 195 177 144 140 81 102 100 135 152 93 112 104 140 128 147 199 84 167 196 158 132 228 130 102 161 92 180 164 58 96 48 92 64 160 83 73 88 117 96 101 59 99 97 182 182 171 140 105 161 84 111 80 161 121 79 64 69 98 98 115 179 120 87 102 99 167 172 69 146 76 74 96 57 152 94 91 138 193 148 106 93 123 125 90 102 174 175 206 217 194 135 91 77 79 50 41 144 150 65 154 75 88 73 163 107 149 149 85 176 141 71 85 194 152 230 130 183
164 163 255 154 141 138 136 147 155 155 162 160 158 149 142 148 146 152 128 141 137 160 163 165 151 156 152 162 175 167 149 144 163 187 196 187 166 156 160 175 185 193 195 203 205 189 169 126 143 140 146 150 152 121 135 153 112 173 160 148 173 101 155 155 113 154 81 106 182 155 170 122 91 119 88 101 74 159 101 111 125 80 44 70 67 92 143 167 180 108 109 101 94 84 82 77 79 72 130 134 105 89 131 90 83 118 117 129 90 118 108 92 135 74 77 130 95 99 144 178 124 83 81 151 163 130 107 128 178 142 75 66 145 165 155 75 111 169 101 191 195 195 145 200 97 170 109 161 60 153 167 185 189 119 164 131 97 187 106 98 189 191 163 180 185 158 100 90 151 162 116 76 144 169 195 149 143 181 131 128 84 67 127 182 175 95 84 83 85 85 163 191 80 154 82 93 176 192 90 172 206 130 209 159 171 134 75 55 119 111 101 202 186 175 112 104 176 127 175 226 114 130 108 77 180 196 97 202 99 176 99 148 210 184 198 92 97 150 104 104 85 171 116 121 131 69 73 88 100 200 196 116 91 187 188 77 171 67 68 173 199 134 134 165 79 158 165 143 42 76 104 67 162 84 136 102 134 72 106 64 171 169 177 152 68 76 87 89 194 96 200 204 191 128 182 116 181 86 74 65 126 145 167 67 79 155 121 127 139 140 132 110 144 178 199 100 84 119 76 168 70 164 164 139 208 163 103 181 105 91 71 162 65 161 82 181 166 188 137 90 74 57 53 61 97 177 158 191 93 194 201 164 97 84 129 151 111 176 182 162 178 167 174 130 91 177 74 78 153 143 61 80 81 110 124 153 174 101 108 215 202 144 117 98 160 71 144 146 154 96 166 92 150 210 118 164 171 127 77 182 190 105 145 192 157 159 141 130 111 179 137 96 200 144 207 219 161 139 158 138 98 126 106 139 24 38 89 117 152 133 153 112 152 150 51 74 63 148 62 172 121 97 56 49 65 125 159 93 167 159 62 119 116 192 152 127 62 126 87 54 146 86 97 142 156 124 103 77 80 164 112 184 123 97 184 137 180 93 56 102 154 67 187 91 139 87 116 68 124 70 78 90 111 139 160 80 86 99 83 159 153 103 57 96 65 84 83 116 198 141 198 243
188 180 166 156 139 134 135 149 145 151 153 158 164 164 157 142 152 148 136 131 140 157 168 174 176 184 177 178 179 168 148 146 162 189 201 188 161 150 160 175 194 204 196 210 203 184 166 142 151 151 144 134 123 142 118 120 173 149 144 125 137 125 95 152 150 163 79 108 120 115 142 111 150 128 86 85 71 156 135 133 121 49 104 123 135 96 99 105 125 107 100 126 108 87 84 99 90 105 100 75 97 133 98 107 118 103 83 140 123 105 79 83 144 95 84 126 121 151 84 87 91 69 74 77 186 118 107 132 82 123 135 53 112 69 125 117 80 157 123 94 93 177 193 86 134 177 81 145 159 166 189 192 201 165 181 183 90 184 152 126 137 129 120 156 130 120 60 104 64 153 156 147 159 118 154 103 147 173 83 87 67 132 166 180 179 172 68 176 170 131 111 128 136 168 119 201 96 165 147 162 169 141 193 179 177 170 156 175 140 142 181 198 90 163 118 170 176 191 141 108 176 96 189 115 165 87 190 89 172 97 191 103 165 108 194 168 42 107 76 130 124 176 192 191 104 172 175 121 193 178 183 70 136 173 137 62 122 144 110 170 183 155 157 81 171 87 120 110 109 69 139 135 192 195 100 101 91 183 119 75 82 166 94 124 123 173 125 107 200 150 101 202 216 195 190 155 149 169 77 121 166 76 88 86 169 133 187 129 138 149 115 224 154 186 187 127 100 68 65 73 157 173 92 191 205 113 190 177 86 124 162 111 192 101 86 188 79 143 174 135 169 138 61 120 158 63 63 73 90 186 200 183 98 186 76 114 158 78 136 184 146 155 73 76 83 143 151 127 82 95 153 71 88 163 144 90 151 153 192 206 135 187 141 175 119 145 151 187 87 108 126 133 81 196 102 151 142 81 176 85 122 175 179 186 100 164 131 164 68 164 172 100 209 180 174 151 175 141 197 171 141 157 161 131 19 15 34 44 166 183 141 112 105 81 131 145 41 114 123 85 172 62 42 71 154 132 172 148 144 83 115 166 189 93 93 54 42 35 118 156 170 179 72 157 74 120 48 93 106 255 105 129 81 163 157 145 172 138 140 118 60 154 159 82 123 153 53 48 45 121 71 48 55 104 131 145 114 132 153 140 54 45 74 54 81 134 152 177 131 146 205 227
186 178 165 157 146 146 138 145 142 132 139 142 165 159 148 156 146 146 130 127 138 161 171 191 198 204 196 185 169 160 146 138 158 184 192 185 168 153 165 181 191 191 203 170 169 170 125 120 126 135 155 158 131 151 154 165 144 145 167 170 148 122 121 125 151 159 153 99 94 155 186 166 64 131 158 141 144 85 97 67 84 83 55 80 101 78 129 139 91 94 95 77 106 98 76 105 94 131 61 102 71 83 122 94 101 84 113 100 116 105 114 87 84 78 118 104 177 107 153 140 99 62 54 67 121 116 149 86 143 164 90 165 98 88 69 91 72 131 192 201 143 199 172 180 151 69 156 62 115 178 201 125 202 167 183 128 154 130 103 188 163 163 169 129 174 110 134 109 125 141 110 93 91 165 110 208 215 132 116 108 64 162 127 92 159 177 163 141 95 164 165 78 171 136 113 154 150 83 170 97 172 123 222 112 190 135 169 115 107 192 196 146 79 69 71 179 78 162 123 196 110 184 81 155 119 117 88 123 99 176 181 133 195 196 144 64 80 95 99 107 77 169 195 185 74 148 135 81 175 77 166 71 149 75 68 156 69 57 102 170 168 167 135 106 129 71 79 153 70 156 111 159 160 203 146 143 125 198 87 90 186 116 211 182 127 155 184 111 116 112 196 166 131 217 163 182 92 142 62 61 170 134 100 174 120 96 160 115 88 193 194 144 155 217 146 122 132 79 72 65 72 161 132 129 180 182 149 152 107 93 201 191 155 103 186 84 150 170 182 142 90 172 124 106 93 151 127 63 129 109 141 164 255 180 116 64 150 180 89 188 184 151 170 135 82 163 73 66 152 167 156 140 65 154 80 120 160 92 92 197 190 191 171 182 78 159 141 93 154 147 167 145 112 168 124 86 156 89 71 91 133 104 71 152 82 61 139 81 150 155 122 86 192 199 168 167 150 146 84 176 173 164 58 37 110 46 93 80 63 171 118 213 144 105 87 160 49 100 51 169 92 160 154 143 79 164 187 100 167 115 110 182 145 179 166 131 60 21 32 63 90 182 179 153 72 55 154 52 45 78 131 87 58 71 51 94 164 131 81 143 50 44 132 93 87 60 120 36 80 121 146 128 159 104 126 179 97 81 92 163 107 122 144 67 78 82 85 188 140 167 213 175
156 152 148 144 142 153 146 150 146 130 136 148 156 173 154 158 152 148 148 146 150 159 177 183 199 211 198 188 169 154 140 150 165 186 193 184 172 163 171 185 184 190 184 166 162 138 138 139 151 124 170 130 136 135 136 161 112 119 145 154 135 154 155 101 135 136 103 100 146 155 118 89 138 119 86 113 100 148 121 95 78 139 91 98 51 132 62 68 114 80 67 70 101 66 112 106 89 105 82 85 69 74 77 78 92 89 74 113 117 86 92 100 115 102 94 106 111 117 190 171 155 69 61 62 85 96 178 84 71 70 91 169 70 102 149 75 173 161 195 140 118 207 103 135 118 171 171 150 174 158 100 125 181 98 75 117 140 79 153 77 149 110 68 112 136 110 156 116 129 67 76 93 89 87 181 119 228 153 172 135 164 177 111 203 185 105 163 91 169 132 173 166 129 74 182 106 144 105 193 181 112 125 123 184 140 61 139 118 126 108 181 113 99 85 135 78 89 129 85 176 124 123 117 81 169 141 159 174 99 166 114 156 84 124 93 55 126 130 43 51 91 104 90 166 79 157 130 163 187 80 147 68 136 119 158 81 125 140 53 168 171 91 75 105 113 139 156 77 139 98 159 137 117 199 107 185 210 160 128 189 169 91 153 221 179 195 210 131 212 152 100 191 188 183 104 207 100 174 82 67 174 153 116 194 94 145 79 78 71 146 98 213 204 156 95 115 133 94 133 150 67 184 94 106 166 93 83 89 190 200 211 113 206 152 173 175 78 81 105 109 93 163 146 61 154 44 60 130 104 140 167 118 173 173 62 161 60 179 180 98 154 164 61 132 152 57 162 163 147 153 115 132 169 101 93 110 131 110 110 184 83 129 100 196 130 160 182 179 71 64 146 52 148 102 69 119 143 113 151 161 55 130 134 119 176 168 83 61 64 157 136 162 77 159 181 104 122 83 78 113 86 66 149 67 77 117 75 131 83 107 117 116 205 165 98 169 91 69 150 82 77 132 148 57 84 69 106 158 173 157 126 195 191 90 155 71 110 28 143 59 177 188 177 72 133 164 95 138 117 67 139 145 140 46 108 94 96 88 58 104 89 81 56 41 87 110 34 112 48 137 64 133 72 180 105 185 185 191 158 173 59 151 51 121 144 111 96 161 147 134 103 160
114 119 124 133 141 146 161 156 156 147 144 151 170 176 160 159 144 160 159 157 147 154 154 179 199 197 177 172 159 154 155 164 176 187 190 182 172 169 170 171 178 182 169 131 143 139 135 142 162 154 150 186 139 121 170 172 157 137 113 151 90 133 79 160 155 171 162 183 175 119 109 91 124 102 102 115 158 89 70 147 90 105 96 51 102 85 74 66 74 81 52 112 66 74 80 140 89 88 71 105 101 64 65 103 76 110 94 115 67 115 106 100 118 146 113 95 104 171 113 103 118 72 56 92 76 91 79 172 76 156 109 93 90 137 81 187 153 96 193 208 209 217 105 124 78 145 82 120 167 176 206 206 204 183 175 150 148 80 99 86 184 127 117 164 172 138 180 164 64 118 94 99 123 111 156 205 181 116 161 123 91 68 85 199 110 94 151 148 122 131 153 178 176 75 82 195 203 207 167 166 215 112 97 72 104 63 58 124 169 160 165 76 144 115 85 158 167 168 187 122 184 73 154 49 152 164 146 169 98 158 193 143 196 183 99 99 48 148 92 50 147 93 75 162 62 137 163 187 140 183 102 99 173 68 148 71 52 85 111 154 106 176 255 162 94 170 153 126 164 173 81 67 94 96 154 168 204 156 123 130 107 130 109 115 115 146 102 97 175 106 184 87 158 154 85 171 97 156 114 75 175 96 151 171 190 89 119 91 165 98 137 191 145 106 80 84 149 81 49 137 58 91 96 131 93 82 79 75 98 207 105 103 135 85 94 160 161 90 177 192 90 187 89 81 151 153 158 63 149 118 143 163 83 173 172 131 78 73 153 178 90 145 130 102 157 76 94 98 98 134 187 82 85 111 106 175 206 200 178 106 79 84 163 160 102 123 90 175 148 151 61 139 73 57 63 133 118 159 60 85 60 110 166 136 181 99 144 110 64 86 89 94 164 148 139 121 61 151 166 140 170 168 48 128 33 77 100 162 148 165 122 151 202 99 159 113 140 131 53 63 77 81 76 143 141 138 152 106 204 171 191 124 98 82 171 111 66 133 140 70 147 117 155 181 176 143 150 167 136 118 109 132 121 77 71 130 76 164 78 153 116 130 44 68 23 119 121 115 38 100 88 65 163 82 106 182 150 188 94 120 167 153 142 79 59 101 158 82 192 99 196 89
83 92 104 115 128 142 153 164 158 155 158 170 172 165 163 147 166 175 173 176 164 153 157 179 201 188 162 155 143 155 163 176 179 190 198 195 185 165 170 171 174 159 157 143 125 141 136 157 169 173 158 171 183 132 178 134 116 166 118 129 92 108 79 133 151 134 174 129 187 161 166 147 102 168 130 152 139 138 77 139 146 133 70 70 102 80 101 80 58 50 51 89 61 79 95 110 86 122 83 75 87 83 73 77 109 87 75 100 75 105 126 91 89 88 81 80 118 123 161 192 124 141 65 162 83 108 127 73 66 70 60 69 145 143 114 197 103 95 115 155 182 105 123 82 177 128 186 194 136 201 110 183 196 171 170 61 145 73 150 174 174 129 198 113 220 190 162 150 82 179 185 172 129 159 201 225 213 211 159 63 40 141 119 164 136 166 153 102 101 197 208 107 189 82 90 97 217 223 210 120 133 191 119 98 78 161 77 64 75 130 124 69 107 162 140 183 185 86 180 169 124 76 151 43 43 54 162 158 68 185 100 213 209 92 177 159 85 117 94 162 154 131 113 146 71 150 99 117 189 90 143 100 184 68 67 66 88 140 142 153 131 82 114 154 127 128 70 163 181 153 107 166 62 151 192 174 202 111 189 81 140 93 171 114 100 75 134 143 104 182 189 172 118 70 66 167 105 98 138 135 155 200 130 157 138 121 96 99 70 177 78 154 68 137 101 77 60 139 46 54 46 145 68 74 132 61 116 165 169 137 152 140 184 77 137 128 255 136 113 114 169 192 80 155 61 151 154 152 83 165 136 170 178 169 157 86 171 62 66 148 150 108 68 128 153 53 64 114 121 88 172 157 113 199 125 141 164 169 166 188 110 153 147 136 186 194 129 144 137 140 125 66 88 122 109 43 143 112 55 121 156 63 92 170 191 152 84 103 186 151 76 133 177 147 126 132 81 68 67 90 185 96 49 65 37 129 147 149 125 195 180 91 176 189 186 179 165 141 162 138 173 183 104 79 137 173 134 99 163 209 205 119 101 132 100 82 176 76 82 166 155 190 187 175 93 166 158 122 133 116 116 38 66 117 122 156 99 200 157 185 89 80 125 62 49 85 43 119 133 75 64 57 52 65 101 106 158 185 95 76 166 87 135 76 86 154 183 137 131 128 91 189
81 92 105 119 129 134 147 161 166 163 174 175 173 172 164 159 175 183 177 184 166 166 169 188 203 178 166 142 132 154 164 167 170 178 190 192 190 175 167 162 157 164 147 148 120 149 159 168 186 196 205 194 161 185 189 181 184 159 162 83 105 89 101 91 163 108 150 170 191 160 146 121 138 116 177 137 126 141 101 151 102 122 112 133 67 98 53 79 65 55 99 76 107 80 125 96 153 99 128 126 76 60 61 105 72 104 84 84 74 69 139 140 90 122 77 100 89 173 135 199 112 112 96 82 163 200 167 71 160 159 108 171 90 156 152 104 199 150 192 202 205 94 131 86 149 121 93 84 97 166 196 167 170 105 91 116 88 85 75 192 162 188 199 138 227 221 207 183 160 144 179 159 149 120 202 212 162 207 180 159 81 31 60 104 68 84 181 140 158 214 119 184 202 191 184 93 109 171 237 183 203 162 137 162 96 114 77 132 142 61 152 132 70 81 119 136 163 89 146 89 71 92 151 76 141 151 152 81 72 173 191 212 123 144 185 172 184 185 84 123 97 55 46 40 145 85 184 159 208 145 150 191 115 170 163 163 164 126 154 90 149 181 166 136 105 116 71 166 178 187 176 93 122 173 125 169 104 103 91 105 124 107 193 118 70 104 100 148 178 186 84 167 62 153 149 115 69 116 114 188 175 194 110 114 151 150 91 184 188 88 182 86 89 63 95 127 148 68 125 71 142 107 59 66 160 152 84 121 89 164 110 104 139 153 92 93 192 97 153 81 134 137 88 144 71 143 82 164 77 91 80 164 166 112 105 110 80 136 146 93 136 183 91 124 160 51 152 56 153 51 104 145 101 212 169 126 173 110 159 159 75 77 106 156 85 186 181 139 141 109 69 105 74 98 148 141 129 132 118 162 159 98 129 68 97 87 192 116 157 177 76 80 143 147 138 79 166 99 125 134 101 124 97 145 91 54 184 98 115 106 166 157 171 170 145 86 164 63 175 190 194 199 214 182 92 106 129 125 177 220 128 154 143 103 175 160 170 190 123 153 190 166 98 90 138 117 158 83 70 113 112 61 155 104 102 102 213 201 203 151 183 172 134 130 138 151 105 136 132 148 180 130 78 117 55 166 79 72 76 128 100 88 83 77 105 135 174 162 119 111 142 98
105 112 119 128 128 138 146 153 160 171 169 174 180 177 177 179 170 186 190 191 196 187 188 192 207 194 172 146 149 159 164 157 153 166 186 197 195 181 166 147 152 161 156 164 166 163 169 166 172 179 193 172 189 146 185 186 118 178 136 133 107 58 134 73 122 94 174 151 165 199 186 114 110 143 145 171 117 180 96 96 83 132 122 72 93 71 83 114 62 53 60 121 78 78 109 92 143 98 126 80 62 40 75 95 63 125 146 141 96 101 117 90 118 112 82 75 83 137 171 130 148 95 101 175 103 175 114 175 70 163 81 159 96 140 166 110 98 160 198 202 166 93 175 79 108 50 161 172 101 91 92 188 177 154 119 124 181 177 169 177 132 139 149 209 134 140 153 168 182 164 185 180 157 149 179 108 183 192 132 106 60 126 140 142 56 133 170 110 159 183 189 185 150 118 85 103 196 152 210 201 193 118 163 105 100 78 142 91 134 47 54 130 109 87 160 54 79 173 149 100 70 149 155 64 61 72 57 122 57 172 121 130 103 188 79 84 194 188 112 125 124 138 60 148 134 162 183 193 109 205 138 101 95 88 121 72 117 154 99 134 162 91 111 105 194 88 164 143 114 142 175 177 72 70 96 172 83 140 163 111 178 198 151 113 153 129 32 41 135 181 182 87 137 58 78 48 166 178 85 102 162 118 108 100 178 255 105 182 180 181 82 180 103 130 114 126 97 116 64 131 46 103 140 167 94 62 57 57 75 188 196 107 111 82 153 195 134 191 169 107 88 75 79 127 90 91 98 177 188 87 91 93 114 189 169 149 255 127 65 70 156 184 125 122 73 127 152 143 130 92 47 124 165 109 190 177 123 196 101 99 174 67 141 164 75 181 111 64 126 123 89 50 160 83 55 132 78 140 105 84 122 125 132 151 94 160 103 181 118 145 146 139 110 178 187 179 174 168 78 130 95 90 79 77 66 76 118 191 128 102 169 137 136 108 187 134 81 171 191 208 166 125 152 209 140 107 113 122 114 205 214 202 206 148 201 172 192 112 161 176 168 125 130 170 130 82 140 174 148 81 81 143 89 88 160 191 173 208 131 255 162 87 163 103 147 163 85 126 117 157 115 183 164 78 154 87 94 147 155 142 151 255 93 172 150 199 105 198 177 99 158 195
134 136 135 137 142 146 144 145 157 154 160 174 171 186 177 170 180 177 178 199 200 186 190 206 214 191 182 167 164 165 163 150 142 149 172 186 189 177 176 157 167 169 174 162 180 169 169 176 176 183 191 192 199 182 134 121 146 161 146 99 92 77 57 61 137 137 135 180 191 117 123 255 169 129 174 182 111 117 158 83 71 48 99 86 159 89 118 42 85 49 112 71 85 85 90 77 65 69 69 64 61 35 36 44 69 77 105 107 125 92 102 109 130 176 145 109 90 176 125 107 122 167 87 111 107 106 84 144 169 150 74 183 94 194 106 205 163 200 99 202 96 167 100 59 71 60 150 167 176 120 87 89 69 114 174 167 180 83 127 70 173 173 167 196 221 222 188 158 183 182 155 109 111 161 145 162 185 96 188 161 124 91 74 86 73 101 112 70 68 140 82 95 207 116 180 71 158 149 92 171 192 216 177 210 144 141 75 165 159 52 131 71 62 57 50 49 131 148 167 170 89 146 167 84 166 69 162 76 66 153 86 83 95 71 133 77 193 207 110 184 105 157 171 136 162 162 182 192 193 151 103 157 99 198 140 134 135 153 104 48 160 87 174 135 83 162 131 146 97 115 104 113 130 124 123 77 163 97 137 120 93 206 110 158 58 58 134 44 131 139 92 188 177 59 56 152 72 172 133 101 126 113 107 90 102 174 154 127 80 148 155 80 178 174 126 166 113 148 70 63 133 144 118 89 93 78 51 56 73 92 173 112 131 122 90 197 112 125 64 164 128 70 86 181 195 151 143 137 184 104 110 164 91 148 195 91 128 83 168 83 179 128 189 173 107 145 154 65 147 42 45 157 132 190 113 186 187 98 145 155 89 84 68 164 69 179 67 154 48 109 31 101 155 60 149 48 60 167 159 56 138 91 133 35 148 108 162 65 108 116 60 118 80 183 130 79 126 165 150 113 86 179 194 170 155 183 106 133 149 194 90 175 143 170 196 112 103 102 110 181 226 191 225 111 91 179 87 191 147 124 171 116 209 186 205 175 102 107 122 105 190 143 171 188 144 143 173 77 74 173 132 106 103 70 77 135 173 146 206 171 130 85 152 113 112 144 151 187 111 122 126 122 168 79 183 173 154 49 50 43 75 86 154 132 104 115 178 164 105 102 88 106
142 141 138 138 144 147 145 154 149 153 167 154 159 168 170 177 166 178 163 176 187 188 204 202 201 189 186 178 177 176 172 160 151 155 166 176 181 182 174 169 173 172 174 164 167 189 182 142 138 162 193 208 196 160 153 97 156 175 185 158 144 135 75 114 121 64 116 154 148 164 172 111 122 174 120 114 97 90 106 83 133 81 49 61 121 74 78 49 40 103 57 57 63 69 64 98 51 71 66 46 39 59 53 56 81 116 98 100 158 95 121 100 98 162 104 98 86 78 88 101 148 85 146 100 107 159 140 72 58 139 138 168 73 178 81 192 189 98 169 103 200 189 166 170 66 68 71 95 124 170 160 79 96 120 102 99 144 116 73 93 66 136 121 197 219 183 179 120 138 133 92 140 123 76 81 97 84 170 170 163 71 92 63 131 133 149 120 151 136 148 150 130 174 101 88 107 72 115 144 174 139 208 193 151 131 86 105 86 108 255 68 125 168 139 118 67 86 153 64 92 102 138 90 89 189 149 85 144 149 158 79 101 168 146 71 102 172 145 89 185 71 148 83 175 97 182 156 103 178 152 183 114 197 204 184 85 159 136 141 108 64 91 151 88 78 118 108 135 154 77 136 76 181 111 85 166 72 127 70 78 113 202 91 168 67 50 53 136 111 106 95 86 182 73 137 172 109 102 198 121 108 132 94 80 163 60 89 57 163 174 160 170 126 115 93 96 171 145 97 169 71 98 78 147 75 105 90 155 135 91 127 193 194 189 106 97 157 152 157 86 104 173 108 83 137 142 180 164 184 155 139 178 88 170 190 184 88 169 106 150 199 146 177 70 112 76 63 77 50 122 139 180 117 222 199 194 180 76 180 180 181 70 168 121 141 110 105 150 56 148 80 150 137 150 98 154 134 73 167 60 135 85 120 112 75 39 93 142 55 101 150 81 137 159 82 83 107 89 79 184 119 100 189 184 112 193 182 93 106 96 101 96 168 134 101 140 173 208 218 128 208 129 209 185 179 156 85 97 78 144 154 93 186 164 170 215 128 199 136 186 213 115 155 149 180 140 89 166 157 180 180 130 130 148 132 99 125 169 120 93 173 114 89 158 91 102 71 102 163 219 104 96 188 123 151 102 160 120 60 139 92 143 50 92 160 100 121 135 181 99 172 187
122 124 127 132 138 146 140 143 143 144 150 141 148 151 141 162 154 165 160 153 152 166 162 172 180 186 191 181 185 187 186 174 165 159 156 165 172 176 173 183 181 170 167 178 190 199 184 153 176 150 191 180 183 167 147 83 150 164 147 123 159 158 123 111 147 77 155 165 162 133 127 162 165 153 157 85 97 78 106 115 51 40 40 125 62 78 90 58 68 31 31 38 63 52 74 56 51 46 50 44 46 47 61 67 85 130 87 109 91 88 96 165 102 99 95 172 111 76 88 150 111 58 84 145 160 127 86 71 145 141 86 96 103 62 98 85 195 96 95 189 181 183 160 142 129 106 91 105 82 71 87 80 149 94 84 194 170 122 68 131 83 161 165 198 202 174 183 113 86 49 110 91 103 163 92 150 152 155 195 182 119 64 140 172 154 85 148 115 154 68 101 137 188 195 175 76 75 36 146 154 126 127 189 165 110 153 166 79 145 186 189 125 86 188 154 153 146 115 165 87 198 108 173 116 88 176 101 158 87 68 159 131 70 169 150 127 173 167 167 167 166 72 102 115 164 188 187 147 145 164 221 222 200 100 197 173 74 139 135 131 61 76 180 164 177 121 172 173 61 112 156 142 117 131 205 108 156 110 78 84 94 144 193 170 71 133 161 98 105 73 167 104 156 102 91 186 87 194 109 146 150 161 91 89 76 43 37 51 60 165 78 81 84 145 81 57 53 165 172 90 160 152 79 114 163 118 178 138 115 92 129 118 182 190 147 106 96 140 98 160 70 157 177 183 132 110 102 99 166 111 175 101 179 187 172 169 96 113 101 202 174 92 108 159 133 97 152 175 159 151 141 178 212 207 190 101 78 115 75 133 116 67 91 165 116 174 169 173 163 100 128 147 92 162 50 49 71 70 85 166 63 89 139 60 88 136 89 142 125 117 128 151 138 164 172 84 87 80 151 141 160 89 175 154 127 97 93 167 153 197 177 189 156 169 199 184 119 217 118 135 123 124 159 74 67 101 55 159 95 160 105 126 174 106 207 115 128 145 187 175 143 154 188 176 66 133 156 73 108 192 104 134 157 80 57 158 77 95 91 88 113 183 176 68 99 56 158 117 117 130 112 88 82 183 91 92 158 138 54 142 90 133 120 37 86 165 101 201 113 128 173 111
94 104 112 120 128 128 132 137 145 152 146 131 130 119 129 150 154 147 148 142 134 142 147 157 165 189 180 192 194 198 196 185 178 169 166 163 168 175 172 187 183 176 163 181 193 194 204 177 179 161 147 178 132 162 148 125 164 165 163 126 173 157 152 98 81 75 146 101 150 145 89 79 79 142 55 65 58 106 65 110 74 117 39 79 59 73 76 136 66 83 64 18 26 59 50 58 81 93 100 62 64 66 92 98 131 102 96 124 116 85 85 96 107 160 98 92 169 140 73 62 44 51 65 84 194 111 121 101 79 61 154 50 52 86 71 81 192 93 137 90 76 105 172 72 180 179 114 183 199 79 170 70 158 160 164 103 101 86 170 108 112 64 168 202 188 207 157 116 154 131 48 96 164 170 169 131 97 109 128 187 166 142 83 104 184 155 157 113 154 164 170 113 152 169 192 76 126 68 145 102 67 79 144 145 204 203 121 190 100 174 188 137 100 188 198 88 158 159 113 126 113 122 196 192 157 189 173 131 116 116 154 124 173 178 152 80 157 164 59 154 119 84 159 174 101 182 111 146 188 112 183 148 202 194 168 169 163 164 71 72 172 171 74 179 84 153 145 95 150 74 143 130 91 189 163 143 171 83 119 131 119 188 173 185 135 77 73 176 103 97 168 118 102 192 171 174 196 133 91 98 106 92 69 105 51 24 63 60 75 122 124 113 188 162 78 106 41 113 113 80 161 116 66 173 121 131 137 167 189 102 139 106 169 95 158 116 150 113 165 165 91 72 96 69 78 88 96 114 255 176 140 182 200 165 99 97 141 181 149 138 197 143 65 145 176 172 167 143 154 64 165 140 188 185 93 87 140 79 44 122 118 109 108 110 166 162 89 109 151 66 77 178 95 99 119 139 60 130 103 171 143 145 122 139 145 109 100 152 123 139 149 154 55 145 128 169 118 176 84 119 183 175 161 166 175 188 170 112 145 176 176 85 143 79 169 193 192 211 109 110 164 177 138 132 118 60 75 55 147 104 96 90 168 188 191 124 193 222 117 201 165 163 133 71 116 57 68 97 186 135 210 204 108 69 145 81 175 125 137 109 185 163 114 108 162 134 105 171 177 192 95 85 125 133 116 127 72 47 143 44 84 124 85 48 65 110 161 178 91 83 110 167
80 95 108 117 119 119 126 132 144 147 143 120 121 121 127 153 166 153 132 128 123 124 129 151 173 181 192 201 193 204 196 181 182 178 169 164 165 176 189 201 198 190 180 187 190 234 220 179 187 162 132 160 163 156 155 107 140 149 199 201 157 156 154 143 136 82 138 131 185 255 100 133 70 55 96 68 46 87 121 80 51 55 115 52 78 129 95 99 46 38 50 16 81 57 72 67 87 85 85 111 107 131 107 81 105 98 134 104 87 151 114 155 114 149 153 167 149 78 69 89 56 86 144 153 100 146 163 120 62 80 158 151 64 62 181 88 195 195 169 80 165 74 170 144 195 110 179 165 162 196 165 89 162 134 181 196 192 90 178 165 107 175 187 130 141 183 112 123 140 153 116 162 165 163 180 130 133 169 202 126 95 190 139 132 98 83 177 96 157 65 71 84 175 151 125 189 80 166 105 159 144 92 188 120 99 192 101 168 140 85 92 113 112 189 194 181 181 170 181 125 177 179 132 124 128 97 104 141 139 138 74 157 170 138 84 75 120 68 119 88 151 114 59 59 89 165 81 86 126 152 199 137 141 169 81 150 87 112 73 93 76 69 87 107 107 121 165 118 82 134 109 91 179 149 193 110 190 161 147 107 81 143 127 97 134 204 130 110 100 97 120 86 90 108 117 102 143 151 91 175 166 154 141 112 64 67 51 65 84 112 176 109 118 182 87 86 42 121 85 91 121 88 68 77 185 179 126 109 109 207 164 115 95 108 163 193 193 111 105 166 166 65 57 151 151 79 94 159 176 196 190 192 206 105 189 199 89 175 164 80 113 112 79 167 153 154 110 132 95 156 162 148 160 90 84 96 71 65 87 51 160 176 130 135 114 180 165 172 142 72 161 79 103 166 139 115 160 60 161 136 108 84 167 61 117 127 126 164 71 136 67 59 91 101 86 90 80 130 149 177 78 168 63 145 161 174 132 176 191 195 94 142 149 87 180 97 185 148 213 214 212 113 92 88 104 143 145 72 126 38 146 95 151 96 101 173 108 207 222 119 187 166 184 94 152 149 76 166 205 134 197 148 199 101 55 144 85 156 173 122 101 182 106 137 90 119 119 124 160 118 191 166 102 92 106 60 107 136 61 84 51 30 45 41 119 176 151 117 95 155 94 79
94 107 119 118 110 113 120 136 153 152 142 122 117 129 141 151 172 159 134 128 121 118 123 147 181 198 202 209 212 213 204 191 185 255 180 167 160 165 183 199 190 208 194 203 208 224 223 177 187 138 104 126 124 149 154 112 152 195 168 190 128 102 124 143 126 109 116 143 170 97 99 155 92 129 136 142 57 127 47 108 69 130 58 100 88 99 150 91 66 113 47 46 62 108 63 89 89 114 109 121 131 133 74 64 83 92 93 105 85 120 108 135 123 117 99 96 140 112 66 72 85 57 114 90 85 81 147 62 67 121 88 105 161 153 142 109 184 95 77 171 65 151 75 133 114 192 198 188 191 118 186 130 71 77 158 159 97 119 165 82 82 99 133 135 171 134 179 91 117 109 85 164 167 168 119 180 164 213 202 185 87 125 185 149 114 81 95 94 117 106 160 188 174 140 132 87 162 118 122 170 109 97 134 105 151 192 174 97 83 179 130 134 150 122 89 164 157 159 167 96 82 171 172 84 121 213 109 94 79 67 49 75 173 76 160 80 73 133 103 109 157 72 153 52 154 90 49 157 164 167 79 174 136 152 189 128 94 86 151 183 128 115 113 114 158 169 168 124 123 177 80 99 84 181 117 169 178 166 72 168 168 171 143 197 197 191 174 110 180 170 174 94 126 134 183 207 97 81 86 66 138 36 64 107 89 43 33 48 73 170 156 223 176 198 134 71 80 149 73 87 158 44 152 127 130 160 163 163 217 186 208 114 101 91 167 84 169 153 58 115 155 160 119 61 141 124 74 113 79 111 84 172 111 210 164 199 158 165 67 117 188 191 155 135 87 192 158 123 109 153 145 121 194 95 126 180 95 144 114 82 109 103 199 102 137 106 159 82 74 167 179 89 175 79 144 76 150 112 95 161 79 97 161 156 55 123 165 180 103 147 164 62 160 64 66 116 191 99 98 84 111 136 165 152 95 172 106 103 151 103 194 197 206 116 120 134 206 140 135 120 147 125 69 125 72 131 149 74 134 87 44 147 116 58 153 83 95 208 126 107 139 195 118 147 155 82 114 176 190 161 206 185 201 79 109 103 104 122 146 122 149 144 113 173 84 88 98 182 113 194 149 191 83 173 159 57 156 84 91 157 142 122 138 152 83 154 98 63 158 149 93 183
121 131 135 128 116 114 121 139 151 143 134 117 117 137 160 173 177 165 135 134 129 122 153 178 186 208 215 217 221 221 209 197 191 189 175 158 154 166 173 199 214 211 218 239 216 216 210 190 137 158 140 98 138 94 140 102 141 176 132 187 158 138 101 148 140 158 105 165 141 181 125 137 129 112 59 56 76 92 42 42 51 88 71 76 115 94 124 145 83 122 134 80 69 81 70 75 93 120 112 116 105 80 79 50 61 75 85 87 92 97 173 120 112 108 113 96 89 91 108 118 60 103 87 165 133 120 162 58 57 70 110 78 67 90 142 108 120 175 172 73 108 180 97 104 166 164 212 242 129 163 200 172 94 142 101 142 100 160 83 165 121 103 141 74 76 68 131 135 190 158 195 92 119 92 121 154 201 200 199 184 178 151 171 158 85 186 103 71 71 177 91 97 155 196 158 140 120 116 155 97 167 178 176 77 80 185 77 106 102 155 127 149 146 104 145 82 119 114 68 158 162 173 142 187 130 114 145 179 174 128 85 110 68 74 103 161 64 180 106 192 205 142 122 163 119 41 62 102 165 104 80 179 174 172 185 108 195 98 153 179 154 165 176 73 154 195 196 172 200 107 170 103 175 160 123 123 106 184 165 161 118 73 90 87 111 112 214 164 108 163 135 87 100 151 165 140 179 143 130 119 99 53 67 26 14 60 49 134 179 128 153 143 152 181 112 98 117 83 94 67 74 48 142 125 107 210 116 208 197 215 141 209 190 112 64 70 157 107 49 106 65 94 57 88 158 63 78 163 143 75 116 153 198 214 149 161 172 175 178 93 185 133 138 139 150 190 182 197 139 195 138 180 124 113 144 90 99 126 79 148 124 103 203 171 108 189 119 90 79 89 185 146 146 185 181 127 63 148 85 142 139 181 123 110 62 160 102 85 181 77 177 177 169 78 109 93 167 152 167 84 130 145 81 72 137 131 168 174 172 178 103 172 217 136 220 214 127 200 111 217 112 164 139 51 113 61 129 81 104 84 52 92 148 126 131 138 187 145 212 211 208 141 203 135 172 132 115 151 95 198 110 134 199 172 71 90 114 33 125 67 138 115 120 63 149 82 176 193 79 72 158 85 171 127 83 70 131 62 117 144 159 139 154 74 149 67 106 54 148 154 127 171
150 151 146 132 114 118 121 137 141 147 132 125 119 139 156 166 172 171 149 156 153 157 173 192 199 203 209 217 223 224 214 207 189 184 172 159 153 156 184 201 207 231 226 217 219 201 167 136 153 133 111 118 81 133 124 111 134 153 165 166 142 103 138 139 90 129 151 177 154 136 146 110 60 63 61 80 66 60 59 68 113 117 118 97 64 129 80 82 79 157 97 157 90 78 111 77 121 113 105 106 113 104 54 53 93 88 82 81 109 106 178 183 131 130 101 104 179 132 79 144 165 68 157 159 64 67 59 61 164 101 73 74 153 181 161 83 78 119 143 151 86 194 91 207 132 220 136 148 199 162 169 149 132 101 180 173 182 145 158 182 144 202 186 115 148 147 145 100 171 145 189 93 186 140 152 211 175 188 162 174 149 54 48 151 121 186 170 181 78 128 173 203 128 90 184 128 92 104 176 194 136 95 169 126 103 161 163 88 157 108 134 122 95 168 96 178 78 173 123 156 158 184 86 201 141 141 193 97 189 158 120 148 59 99 158 129 158 173 147 146 123 104 161 159 160 50 151 141 98 176 170 147 153 185 207 136 130 149 80 153 141 177 158 116 92 121 204 167 113 165 208 161 151 202 170 212 192 147 161 137 140 123 129 97 136 95 104 108 200 92 82 140 196 135 121 159 98 95 97 75 59 97 104 29 130 61 116 82 107 95 133 107 194 108 115 120 97 99 121 66 95 92 138 87 165 203 202 201 146 102 204 144 91 79 126 44 144 89 49 54 103 72 81 122 65 124 88 161 79 134 161 158 101 106 202 153 152 158 107 202 129 201 145 151 116 187 175 209 126 206 115 68 99 103 156 88 105 162 66 124 164 212 183 217 157 103 87 102 183 189 107 213 151 152 138 150 66 110 48 120 157 121 142 122 111 93 73 172 97 114 184 120 89 107 153 97 177 97 126 64 150 152 78 112 151 116 92 72 74 84 160 176 200 180 213 211 165 134 191 112 116 169 186 65 49 115 121 158 129 171 112 158 75 70 136 102 175 104 140 203 159 255 190 148 124 109 145 188 135 191 185 135 178 75 78 62 114 75 64 111 102 149 73 63 161 101 173 156 70 77 77 90 68 93 138 148 112 154 143 114 80 67 78 149 122 170 122 52 72 128 74 157
165 159 147 128 121 127 135 144 148 148 130 120 114 135 154 177 184 176 177 175 169 178 182 181 196 207 209 216 217 219 216 208 194 182 169 166 161 179 196 207 226 234 237 220 186 183 166 160 122 144 125 87 94 117 144 162 177 153 108 95 94 99 133 124 98 126 136 152 92 164 124 68 82 76 67 126 136 75 133 65 104 60 80 59 92 70 102 94 81 101 116 96 88 82 85 90 139 94 125 116 121 86 92 49 61 43 106 72 141 91 125 113 98 172 103 111 118 102 129 179 99 120 108 52 52 56 161 77 116 166 91 85 91 78 86 85 76 111 193 167 162 190 183 194 206 212 255 112 185 129 101 173 88 136 136 185 83 117 129 155 161 200 122 80 96 59 103 96 94 195 154 170 188 181 144 199 194 120 145 93 65 90 145 156 156 125 106 174 126 129 94 146 190 185 77 181 146 186 88 183 154 130 116 167 172 108 138 185 155 146 141 176 175 115 90 191 108 146 80 175 114 83 188 195 168 174 186 88 172 92 108 144 105 145 80 61 142 65 179 190 191 195 135 182 142 156 101 153 157 144 174 105 107 205 218 179 188 204 128 96 151 176 161 169 172 209 144 121 182 204 111 185 161 114 188 123 133 181 125 133 70 93 173 114 177 81 90 178 134 167 108 170 179 98 210 155 117 140 168 81 168 55 76 51 66 96 85 96 146 162 92 151 93 147 151 151 118 172 205 150 128 98 139 155 114 206 133 125 90 104 196 152 169 65 151 51 104 48 153 158 56 163 123 166 86 94 198 143 94 141 86 164 135 141 177 89 172 138 174 189 189 113 200 142 130 156 106 167 173 101 88 135 134 104 110 191 169 136 168 188 181 115 207 199 198 94 181 171 151 179 213 111 128 201 208 106 186 159 140 114 76 82 170 169 82 150 138 151 120 116 180 102 136 90 85 98 195 194 122 164 93 55 159 122 79 112 118 139 161 180 189 108 213 224 127 166 157 97 93 209 200 216 175 108 129 146 48 59 89 156 140 68 96 103 135 159 144 163 121 210 155 122 138 119 173 112 124 143 140 92 190 127 103 97 147 50 31 100 94 53 92 77 140 73 129 147 109 163 114 50 92 89 120 54 160 119 150 71 166 98 134 88 97 83 78 162 161 151 65 79 138 103
173 164 145 126 119 131 151 160 155 147 138 122 116 131 155 173 181 172 174 187 172 180 179 180 187 191 202 202 209 220 209 202 190 181 179 180 179 193 202 214 223 225 222 211 172 163 156 141 156 139 95 102 117 115 139 143 135 179 135 134 160 166 131 131 86 130 171 168 165 84 87 141 71 144 143 104 78 129 110 102 123 89 139 79 83 81 104 70 74 126 89 94 145 117 84 90 95 85 82 98 123 94 105 90 94 58 84 77 118 106 95 102 83 117 98 172 149 166 110 91 173 92 59 46 75 114 65 144 110 97 105 151 169 86 97 87 174 190 107 121 224 177 180 78 131 192 156 137 102 183 179 148 78 161 143 180 121 175 73 169 187 87 178 102 142 99 137 167 194 116 196 162 93 163 145 182 187 175 151 109 173 166 103 153 131 94 150 112 170 79 190 180 188 176 81 161 136 66 57 65 66 129 68 146 149 88 161 102 148 84 146 73 70 91 187 197 135 99 119 162 84 154 118 101 147 134 64 136 108 185 174 118 82 120 62 126 145 154 76 76 72 76 177 76 110 131 159 160 159 85 82 184 168 106 211 117 162 177 133 137 165 136 87 89 141 189 223 197 114 120 195 145 202 213 149 203 160 130 132 73 183 90 132 164 95 153 66 145 76 130 135 114 176 194 98 94 157 131 136 152 105 117 56 169 83 177 159 79 80 113 118 73 87 103 218 166 123 130 144 107 162 118 98 122 136 106 116 86 115 89 123 168 180 77 62 114 61 62 60 83 134 166 65 91 181 196 139 197 186 161 76 154 194 98 187 99 171 128 148 219 197 122 200 164 112 87 137 204 199 147 86 64 146 77 152 195 164 90 125 141 163 106 198 113 191 145 124 178 126 208 191 124 207 142 219 210 187 85 122 148 125 132 182 99 172 184 74 108 70 83 83 185 125 189 159 83 176 90 180 77 77 63 62 131 70 110 133 107 173 171 91 198 137 199 190 174 101 82 146 186 228 125 109 95 111 98 165 159 163 144 87 171 93 190 107 90 145 131 168 230 128 229 202 119 200 149 108 148 128 86 108 81 67 139 152 131 130 106 102 107 52 134 152 133 142 86 159 125 76 81 76 73 129 131 79 163 94 185 76 165 58 65 161 184 193 98 113 145 113 148 74 42
173 164 146 132 134 146 168 169 170 159 150 134 126 140 149 161 172 164 164 187 181 184 186 181 174 182 193 200 209 209 190 183 174 175 184 197 195 193 201 202 212 217 201 195 162 161 138 125 147 105 140 99 131 148 159 181 128 169 172 150 93 134 135 117 129 90 140 142 116 64 51 86 74 148 99 153 114 89 129 82 143 91 87 135 122 82 81 78 69 139 75 81 121 90 98 149 86 116 76 81 113 93 86 88 95 72 67 117 98 63 91 88 128 158 170 112 115 118 97 108 130 138 102 115 117 63 146 69 185 193 94 82 177 95 70 151 87 197 216 130 135 210 88 178 69 97 179 96 103 176 94 147 138 152 145 133 86 114 123 125 165 100 166 76 151 117 157 152 176 184 192 114 171 155 160 149 170 116 150 81 180 173 149 152 120 140 50 110 101 148 189 186 171 77 168 78 77 113 39 97 139 127 71 80 155 152 121 154 194 152 155 142 161 87 208 216 118 115 203 183 84 180 75 69 151 52 47 68 162 166 84 185 155 69 125 47 58 65 76 65 161 160 64 171 163 122 144 121 150 162 176 93 89 185 206 202 216 141 105 81 162 73 169 147 186 133 219 145 163 132 206 158 142 134 125 190 171 115 87 164 190 93 121 75 62 51 163 171 74 95 111 110 75 116 144 190 119 116 94 164 175 101 99 114 79 81 164 173 167 64 108 71 108 113 104 122 155 136 131 145 134 127 105 123 145 175 197 182 174 78 87 198 126 172 129 182 187 96 148 106 108 154 171 180 156 105 121 95 171 102 167 134 148 189 127 96 110 101 200 123 151 121 110 149 68 132 191 104 121 113 168 66 151 172 92 132 192 116 113 176 137 185 193 189 154 132 124 149 97 154 107 173 196 173 204 159 205 121 96 194 182 164 168 183 149 141 147 103 146 67 146 72 72 165 140 63 174 115 94 84 150 67 164 177 89 169 204 143 201 121 180 194 172 91 138 161 161 171 167 122 222 205 114 255 177 87 72 98 128 87 169 147 123 174 182 116 64 139 199 144 136 168 194 207 171 200 184 170 184 114 132 140 152 82 134 59 68 106 121 36 107 95 186 92 112 181 161 106 56 65 142 51 73 68 99 113 99 150 109 139 73 74 83 178 155 161 128 111 55 92 47 54
172 167 155 145 146 158 175 255 167 164 160 156 147 157 154 168 165 163 171 193 192 201 181 187 177 178 176 183 198 179 165 161 150 167 185 199 195 196 193 195 200 202 193 163 164 162 163 167 131 159 146 135 142 147 174 164 175 161 117 133 151 136 114 60 137 166 84 61 123 66 59 124 69 155 190 152 169 160 80 109 115 186 100 144 157 169 93 103 159 82 87 149 89 94 100 109 89 84 123 114 82 98 85 87 123 98 87 142 103 78 48 121 61 93 85 84 99 135 87 78 107 73 76 172 114 57 118 64 71 91 115 105 70 119 118 77 86 168 221 137 166 156 88 174 61 75 183 89 130 105 177 168 147 88 110 116 134 128 110 149 128 151 129 149 90 160 91 75 103 89 156 196 182 80 161 167 92 89 147 165 136 112 66 85 134 47 117 151 150 155 81 153 135 185 178 148 176 52 142 123 81 170 174 160 82 203 117 202 86 177 77 104 177 145 201 203 206 187 126 176 114 114 125 104 138 149 48 52 98 181 126 99 181 80 67 71 144 172 133 160 152 65 168 78 77 95 55 131 51 132 166 167 174 171 103 193 204 200 207 119 160 162 166 111 89 192 115 218 180 124 155 117 106 154 104 108 145 149 90 101 110 194 123 142 105 53 58 170 173 175 177 162 135 185 206 190 192 156 95 100 118 147 138 132 138 174 170 120 161 116 80 131 95 95 138 101 174 128 212 112 105 130 168 86 89 96 93 73 71 158 177 195 98 177 175 183 87 139 122 75 81 178 79 174 87 178 117 88 140 157 183 158 98 184 103 150 94 173 229 123 143 178 98 77 136 141 112 140 160 163 154 126 184 181 135 145 193 118 110 84 137 182 127 96 121 111 158 76 189 109 109 206 95 140 175 162 130 190 186 128 100 177 103 193 157 160 120 62 122 53 76 150 91 67 125 67 135 153 136 149 172 127 69 94 213 132 202 122 145 213 207 91 147 130 102 121 114 82 183 193 126 157 150 208 200 192 180 76 171 90 86 94 133 204 203 186 82 91 174 164 180 128 195 99 111 136 183 124 168 78 85 166 142 68 67 155 106 115 141 151 78 172 85 113 108 87 119 127 64 71 155 52 115 180 138 112 99 195 80 133 113 136 99 84 133 111 97 79 175 71 92 54
160 164 162 163 160 166 177 175 161 153 155 160 165 172 169 176 161 164 178 195 200 193 196 193 184 180 170 181 169 164 146 134 140 148 173 182 188 185 183 187 194 179 157 168 166 166 165 159 177 173 119 127 111 119 150 142 173 101 143 170 168 148 145 134 84 113 97 128 62 60 121 92 114 96 126 127 145 176 114 167 118 102 118 106 155 107 110 106 106 98 139 85 95 125 100 108 94 90 111 67 119 81 86 113 100 101 111 111 76 96 46 100 63 95 76 87 151 83 112 101 157 168 84 188 89 85 105 99 64 83 179 96 175 65 161 81 84 195 153 222 198 107 177 111 158 172 97 169 185 170 161 144 127 75 129 115 134 152 160 91 255 142 119 72 106 70 55 89 92 100 104 191 184 97 154 86 184 159 180 152 150 127 156 62 62 155 77 146 151 59 106 180 85 92 194 177 128 118 126 85 114 140 75 115 175 107 108 95 82 169 65 140 87 167 194 122 255 179 161 155 98 169 88 125 95 155 51 162 73 89 173 143 140 182 85 71 169 173 71 144 146 165 93 182 127 157 168 132 145 60 62 135 150 87 157 171 124 156 190 178 182 172 67 142 125 136 106 113 199 130 164 198 103 121 141 123 98 103 121 97 100 87 120 73 158 139 64 152 101 72 147 87 131 111 112 119 141 201 123 109 75 71 172 93 138 194 184 71 151 65 179 110 89 91 182 112 210 158 132 102 190 96 141 85 76 82 125 61 92 106 186 194 191 88 124 157 130 89 87 102 147 95 129 184 133 141 102 180 189 183 103 145 128 114 151 131 99 137 210 196 195 119 164 91 136 77 126 159 149 77 70 107 172 179 172 190 156 199 193 159 151 154 166 110 105 193 180 70 182 201 203 188 129 161 111 69 169 134 68 95 92 84 83 93 184 191 177 134 98 101 154 155 50 46 148 58 172 188 117 137 124 168 149 94 177 134 173 135 108 157 144 113 122 115 172 76 171 180 156 175 89 132 177 203 136 94 181 185 81 176 180 135 189 102 178 189 96 73 56 84 156 180 108 160 164 92 96 186 189 185 142 141 78 129 60 166 108 90 101 92 113 74 82 118 85 93 112 105 131 161 122 156 164 80 187 206 145 89 149 96 100 116 111 156 169 74 118 185 109 143 169 171
142 153 161 167 169 171 168 161 148 142 144 148 156 168 166 174 168 170 176 173 193 201 195 200 183 183 170 173 159 158 144 134 136 147 170 176 179 165 181 185 187 177 151 163 167 186 182 194 186 148 156 136 182 166 188 170 160 89 104 131 105 129 145 87 70 122 128 106 33 71 42 58 102 156 129 190 113 92 107 95 91 170 156 103 128 140 132 120 172 110 132 79 69 88 109 100 102 108 123 62 64 68 71 123 124 135 122 100 111 55 92 40 56 82 82 91 181 96 87 85 97 167 179 105 200 188 76 163 168 128 87 79 156 69 74 163 172 121 95 202 124 186 121 161 146 170 170 132 184 173 173 155 129 139 44 58 112 130 85 47 103 142 142 109 102 151 139 128 158 108 181 185 154 175 179 110 120 185 100 148 142 151 110 165 158 81 145 80 54 79 82 183 184 151 158 135 101 154 176 107 159 69 116 137 82 104 98 79 65 157 54 93 70 82 182 117 164 94 88 107 119 94 90 139 135 159 159 168 172 113 79 92 159 87 147 84 63 101 156 143 88 124 89 133 153 122 76 122 146 93 70 135 87 114 101 148 100 166 107 116 124 167 169 174 103 82 124 188 116 98 118 165 102 211 125 121 183 183 172 95 76 122 178 97 155 68 66 75 90 148 84 73 85 116 122 192 215 139 114 179 144 93 178 94 100 121 174 125 78 159 70 90 139 86 87 116 175 168 118 94 150 131 73 140 78 111 138 69 71 79 201 205 98 129 125 163 162 120 76 78 172 77 187 84 72 103 131 156 140 156 221 215 160 78 158 60 142 151 208 202 90 141 156 144 75 131 167 93 63 148 151 123 88 83 114 114 122 135 100 159 70 54 69 94 202 102 150 175 150 168 91 103 83 156 154 74 182 153 98 55 138 164 176 119 195 134 160 68 96 113 57 120 130 57 95 164 171 95 197 143 151 112 90 96 123 140 156 123 191 160 195 101 130 183 178 105 152 149 161 162 163 99 76 180 91 186 184 182 138 163 54 151 66 175 115 106 162 123 67 46 106 123 159 160 151 152 165 101 199 181 182 163 170 70 158 166 179 126 160 94 171 65 145 171 101 170 69 64 127 153 152 70 114 86 107 138 119 168 130 178 89 186 88 133 62 162 112 124 143 129 102 95
124 137 153 165 166 163 152 143 132 117 121 123 136 152 167 173 160 151 160 166 174 184 190 186 191 180 181 165 159 161 154 140 146 149 166 161 165 167 176 181 166 154 145 163 181 195 215 204 202 179 175 194 168 140 167 99 133 123 149 91 156 104 115 146 155 155 76 96 42 48 120 90 67 133 97 100 113 105 157 130 146 104 134 93 94 87 160 98 104 154 80 67 62 76 96 81 139 97 100 109 62 63 108 124 116 112 131 100 121 96 74 68 96 151 97 109 181 129 97 109 69 177 196 123 138 133 87 71 65 65 79 113 66 71 89 102 168 174 186 160 183 167 163 66 172 160 139 94 157 150 88 177 147 76 105 125 68 117 59 51 114 160 128 133 56 117 57 51 128 148 168 93 188 190 136 105 164 185 146 118 188 179 76 97 94 79 52 46 45 84 57 137 101 100 199 130 138 92 144 121 141 139 96 88 83 172 81 172 63 147 134 155 163 157 106 156 167 94 185 134 156 84 174 255 118 79 161 89 169 160 171 69 154 152 110 158 54 109 60 144 133 77 135 196 204 174 150 180 81 164 165 118 175 171 83 106 179 110 89 107 71 121 116 177 120 143 149 73 148 171 145 131 102 172 189 156 110 107 91 111 174 114 105 148 153 164 84 110 151 133 167 98 89 102 115 148 151 117 196 149 80 88 170 106 154 110 94 88 79 123 120 109 108 75 134 136 96 128 111 183 139 67 141 91 117 98 90 155 89 93 139 118 95 91 103 63 156 77 176 90 167 140 75 177 128 139 92 101 68 119 128 217 97 100 152 82 150 166 124 86 170 118 181 185 99 167 159 82 165 154 77 83 186 77 69 99 140 98 112 157 90 57 135 184 137 204 176 188 182 173 170 73 172 136 141 186 197 183 108 154 133 58 101 86 116 105 163 177 157 177 71 138 151 180 189 210 137 131 255 107 166 48 135 75 110 215 218 192 129 99 178 120 123 163 160 201 187 164 64 57 162 126 75 113 189 87 187 102 71 157 44 116 107 180 187 186 82 150 34 82 125 113 61 87 160 119 96 165 182 201 192 187 167 185 154 83 92 188 91 155 127 152 77 101 147 164 131 87 168 170 56 89 130 128 75 191 189 182 136 183 175 188 102 170 57 157 168 149 203 137 191 176
117 126 140 149 153 150 149 134 132 128 128 115 124 148 156 159 156 145 141 146 144 165 176 185 184 195 178 174 168 173 169 163 150 154 154 150 150 158 159 173 167 155 148 161 177 202 210 205 200 186 210 208 198 171 146 152 119 80 94 135 83 141 166 124 142 152 152 89 79 85 139 54 127 167 89 189 195 120 100 101 96 166 160 99 160 73 77 81 161 95 127 118 65 55 62 88 132 96 70 64 64 65 105 134 137 128 100 107 138 69 98 104 94 136 176 124 141 144 111 90 175 100 205 123 195 158 92 138 71 94 75 70 127 132 67 166 64 70 136 104 171 111 127 181 137 188 98 90 109 127 128 168 71 150 149 131 138 45 57 92 166 159 172 133 81 129 151 96 143 99 135 108 132 147 182 168 97 169 181 197 141 139 131 169 142 133 124 80 86 128 60 152 142 99 148 100 111 172 79 73 124 103 83 103 90 179 147 125 167 113 86 98 110 88 134 87 140 156 162 146 86 138 78 103 117 66 76 142 75 167 172 164 129 48 133 126 126 156 145 86 69 75 99 180 108 103 202 165 127 161 66 167 72 148 98 175 107 175 185 175 96 173 158 148 170 170 119 109 110 156 94 169 133 108 169 174 156 141 144 112 150 79 72 122 93 165 85 80 173 115 165 59 111 147 146 111 137 171 135 85 107 175 123 208 108 182 90 136 189 108 126 111 124 98 58 107 181 102 210 140 99 78 177 153 140 128 113 90 173 124 106 98 119 158 160 155 115 65 127 103 58 158 168 160 62 46 120 45 59 168 169 218 188 84 155 133 100 66 88 79 174 117 183 186 119 77 145 150 82 178 179 175 175 184 179 93 122 128 139 83 164 53 164 104 105 138 170 180 117 159 133 177 81 192 140 200 151 106 78 62 39 135 102 170 81 174 85 114 133 86 76 71 113 177 211 209 117 99 138 78 104 114 122 86 85 125 193 169 116 87 173 126 103 176 89 97 90 101 60 57 162 144 84 93 109 88 86 110 171 146 130 109 79 74 199 103 84 67 139 36 121 62 142 120 175 85 151 209 188 180 136 129 168 81 110 168 169 107 195 142 188 135 161 80 66 66 151 77 77 115 77 110 45 156 142 83 169 126 94 91 119 131 154 177 72 155 165 181 88 92 103 135
115 120 130 138 143 142 134 136 135 131 133 134 146 144 154 164 159 144 130 126 124 151 168 178 186 198 177 187 185 177 177 169 161 151 151 151 148 159 165 166 164 138 152 143 155 199 207 175 201 208 208 202 139 177 143 99 92 107 123 122 122 90 168 130 178 111 178 174 123 75 81 97 102 172 100 134 139 162 175 131 155 103 169 93 141 107 132 76 148 110 91 94 82 71 65 83 77 79 114 59 97 105 112 112 128 130 111 68 63 92 90 103 167 118 176 118 117 177 113 134 150 160 112 113 217 139 166 161 67 72 124 75 87 64 163 168 119 164 117 82 88 206 189 214 156 108 185 154 155 149 147 85 166 173 74 148 117 58 146 83 124 117 162 127 173 160 154 55 151 142 92 159 94 115 98 120 91 117 154 206 156 122 121 155 132 145 145 75 144 158 153 139 189 196 117 90 176 182 188 92 110 111 58 172 136 135 68 163 83 137 177 179 71 71 184 128 78 171 172 123 101 87 123 143 94 128 141 98 83 134 112 128 131 146 69 120 158 131 63 58 77 120 102 73 93 201 203 87 146 169 82 146 132 66 71 71 99 102 74 178 178 118 172 93 193 181 167 185 129 114 164 85 163 72 173 167 128 62 85 57 106 136 75 116 156 116 180 164 147 110 63 162 92 79 106 151 157 98 105 194 105 114 136 185 99 148 71 80 127 184 191 175 166 120 50 54 72 193 136 136 98 79 154 190 157 211 208 167 96 96 80 115 86 98 134 91 143 140 136 55 145 80 131 65 151 48 127 139 154 90 126 212 204 82 75 116 155 160 112 113 144 132 192 198 147 175 131 158 89 175 93 180 178 163 178 173 190 161 192 92 144 169 94 157 127 169 170 186 72 97 68 89 156 105 113 114 163 114 85 110 40 30 136 68 165 171 89 172 99 133 166 126 115 204 122 134 138 158 190 162 255 82 119 136 162 205 183 119 160 147 147 154 113 126 101 163 187 182 81 171 70 80 171 84 166 175 181 166 179 94 69 132 111 89 93 199 190 77 162 62 129 120 118 112 169 188 147 130 196 154 121 193 92 101 139 116 195 110 112 112 118 142 78 69 164 121 187 86 86 176 165 155 117 87 68 165 100 81 96 173 140 158 165 128 61 94 146 80 74 136 76 70
115 117 124 132 134 130 136 145 158 163 149 153 156 162 169 158 153 155 126 121 132 135 156 171 174 191 182 180 190 194 187 169 159 152 147 151 158 166 168 166 156 146 155 161 169 162 167 165 192 167 207 195 136 178 130 124 97 120 66 93 131 105 111 180 118 197 177 122 173 107 142 122 94 86 122 121 255 116 125 98 108 107 111 154 151 137 118 75 87 115 104 119 83 122 88 106 97 106 70 66 54 73 94 135 153 128 112 65 58 80 120 125 124 135 111 109 128 162 156 100 101 148 131 105 96 105 69 65 173 137 96 181 169 103 83 113 150 46 153 155 92 115 180 143 126 134 191 107 149 74 132 159 108 161 86 85 138 177 110 180 169 136 182 148 122 167 152 152 148 123 141 116 176 149 196 170 149 115 202 154 205 116 127 158 142 47 131 62 132 80 101 82 191 94 109 81 129 191 94 81 67 63 156 123 67 80 155 140 99 102 146 97 65 76 141 110 114 132 176 119 109 88 174 77 86 142 95 187 148 116 183 75 139 66 73 172 175 104 160 52 145 147 152 78 198 106 100 182 70 108 132 56 137 156 66 90 79 130 132 166 175 111 155 92 143 166 195 131 203 95 160 64 158 164 155 145 40 35 66 86 104 138 60 46 47 137 148 68 92 98 124 82 170 160 171 149 84 134 86 156 101 112 130 107 112 76 159 95 139 192 95 77 82 122 134 102 111 130 123 184 86 129 152 118 126 124 225 112 192 112 181 98 106 139 106 104 101 129 52 66 156 73 73 74 79 89 45 136 167 146 203 139 104 87 73 134 147 84 132 177 176 118 140 114 174 180 155 172 70 164 159 104 128 167 98 156 172 156 120 114 156 158 95 113 165 155 96 79 117 177 179 150 163 210 98 151 94 181 89 175 51 58 112 255 149 72 158 90 191 179 87 88 164 208 155 217 111 189 76 157 140 102 46 127 150 176 138 192 169 89 132 103 187 166 189 189 185 170 136 183 160 182 132 151 169 255 165 106 165 146 166 94 165 145 104 108 161 124 100 112 73 148 148 53 65 141 101 197 159 160 227 151 108 93 75 114 113 208 192 115 110 85 74 77 168 145 106 140 177 88 91 118 82 178 122 99 130 78 151 140 121 105 189 63 52 109 54 136 102 171 169 107
122 124 127 127 130 132 145 158 166 170 170 179 178 193 191 182 160 160 156 140 139 136 140 170 177 183 175 173 187 198 185 167 155 152 163 162 173 178 172 183 181 170 146 141 178 189 164 181 175 154 189 195 186 142 145 175 135 141 84 92 132 161 103 115 180 175 135 107 104 88 144 81 150 141 161 104 159 104 93 98 106 112 113 108 131 69 71 104 97 93 103 76 95 91 140 94 105 124 60 66 57 69 142 151 139 99 86 70 62 82 139 149 181 121 114 164 105 152 151 99 109 122 128 157 170 78 54 103 169 120 109 209 103 78 58 123 138 29 39 85 107 127 102 193 79 134 164 74 135 92 58 169 133 187 133 185 128 171 87 127 106 138 178 166 172 138 101 140 44 148 61 146 152 132 143 112 114 147 99 195 203 106 147 84 74 128 92 135 172 184 188 96 154 205 130 83 255 87 129 185 120 60 71 53 149 153 107 146 174 161 118 135 106 118 152 141 81 159 170 85 187 139 172 183 113 101 108 217 194 117 185 80 142 79 130 172 164 173 162 159 157 54 65 87 123 92 141 85 153 149 101 76 153 52 161 150 160 146 101 124 91 171 158 138 170 103 106 199 160 177 141 111 90 124 98 129 49 70 129 114 101 59 90 62 146 87 148 93 135 78 176 110 165 165 64 163 179 85 140 99 152 123 212 116 160 157 71 131 74 78 85 116 112 86 110 94 93 195 108 199 94 82 105 155 178 142 123 118 89 68 68 177 167 102 126 115 108 44 112 147 156 184 177 183 122 108 162 88 71 191 186 168 97 191 164 173 181 98 185 181 200 184 185 206 196 187 176 132 118 154 100 136 110 78 96 178 90 105 200 179 170 162 50 55 158 168 138 142 101 110 169 98 168 118 195 184 183 194 163 151 65 132 53 60 116 146 152 103 89 198 170 97 141 196 127 111 96 179 114 57 79 156 66 144 97 180 160 134 97 130 100 73 83 164 79 94 158 186 139 153 186 121 117 74 145 164 118 163 179 101 109 132 99 74 85 116 170 145 100 195 173 165 51 88 151 162 110 162 209 193 164 208 123 133 107 179 99 255 135 135 186 77 74 170 118 183 148 192 187 100 118 157 180 158 194 98 92 95 184 108 101 90 182 82 124 107 79 89 71 63 66 101
132 132 131 128 124 128 148 168 173 189 190 189 183 196 192 170 171 161 160 153 151 142 145 156 171 158 171 171 188 190 176 158 144 153 163 167 174 179 177 190 184 167 160 170 174 181 188 163 150 138 159 137 179 182 192 194 172 96 105 132 140 121 99 175 135 103 159 101 103 136 82 73 151 159 103 144 95 121 106 151 164 138 155 114 89 90 88 62 125 83 132 68 135 138 151 165 128 96 62 48 66 113 97 121 174 137 72 105 103 104 123 138 128 156 122 183 102 150 92 171 185 192 113 98 182 61 100 81 77 120 115 218 189 91 72 98 133 100 61 47 71 181 173 64 57 114 174 84 83 72 159 142 169 136 80 138 82 125 155 98 139 86 169 167 167 133 130 53 62 66 89 94 169 156 148 174 159 178 121 189 108 117 143 183 91 65 58 78 170 169 144 143 213 209 131 157 70 113 124 141 147 150 46 50 143 90 143 147 158 94 168 119 48 121 86 113 132 128 122 74 68 78 157 154 158 197 210 114 111 188 159 168 118 168 135 69 151 95 155 168 82 95 75 130 170 184 155 136 62 104 96 153 141 133 67 130 56 103 45 150 124 118 187 94 171 134 185 155 110 135 63 91 110 98 156 35 134 141 140 105 92 143 106 178 163 172 131 167 171 171 157 203 127 64 73 149 94 166 83 168 187 116 94 177 67 159 81 94 57 152 93 178 80 89 112 108 111 141 153 88 175 82 89 137 95 193 199 193 66 153 58 88 106 205 148 124 70 72 166 150 92 128 118 156 192 163 135 134 120 155 201 102 193 151 158 147 172 139 122 211 215 192 159 156 206 194 255 163 88 152 99 94 68 91 128 141 163 127 122 167 64 51 144 143 57 108 124 175 139 157 80 105 134 164 148 84 170 190 119 120 171 177 100 70 88 114 164 102 109 104 111 70 69 185 191 109 83 105 75 70 43 128 85 140 67 167 110 136 82 42 109 144 136 126 165 172 182 95 92 120 93 149 116 94 158 60 66 111 68 92 124 79 61 161 69 146 84 93 188 141 116 73 130 157 164 178 92 207 137 225 230 216 105 77 67 164 82 99 176 100 111 126 71 71 88 136 152 131 162 139 75 137 177 211 209 138 116 88 94 172 140 169 143 83 156 56 76 150 96 87 51 74
142 140 136 127 121 123 144 160 180 197 194 194 192 195 185 166 149 144 159 161 159 157 147 153 153 161 168 176 180 182 164 151 147 156 169 181 184 185 187 183 183 176 165 153 181 172 155 142 142 142 162 186 167 192 199 187 167 154 113 131 165 167 136 125 121 105 118 159 142 61 88 112 78 125 164 91 159 76 73 105 117 84 255 116 95 129 40 52 77 81 69 133 74 114 101 110 133 89 83 59 66 107 125 122 135 98 102 102 78 146 96 112 106 164 127 99 92 78 76 155 104 115 116 104 84 168 90 150 157 189 201 208 211 202 198 89 62 46 63 111 159 105 67 147 44 79 66 182 87 109 92 163 168 174 174 100 81 83 134 114 156 123 255 121 63 92 137 102 80 164 173 182 164 136 114 172 195 154 108 97 178 103 109 97 80 176 70 84 169 201 117 123 197 103 176 69 63 108 154 60 51 131 140 109 47 142 147 86 173 176 132 161 104 95 46 156 84 137 137 164 164 142 75 168 180 189 197 117 106 91 185 154 91 154 69 147 81 49 162 75 76 97 104 184 168 176 167 142 72 112 64 155 120 64 151 101 158 75 64 152 143 149 176 112 191 123 112 104 78 138 99 140 147 122 163 110 142 83 62 173 185 141 130 135 195 182 90 160 127 91 110 199 174 152 57 127 86 137 75 163 78 139 122 68 95 46 144 84 102 60 111 161 86 165 156 211 122 135 164 138 66 80 135 107 80 88 132 167 115 106 53 79 163 145 195 181 190 90 180 192 154 218 134 209 166 199 191 87 177 87 122 184 183 76 179 116 143 95 155 98 138 144 216 177 167 114 112 118 166 54 100 124 131 45 37 134 133 71 84 169 137 154 46 55 118 96 105 100 116 147 184 122 119 169 178 142 156 118 160 193 201 106 98 123 181 173 106 90 107 150 169 116 141 145 169 84 169 138 57 46 135 49 149 52 59 159 77 145 90 34 145 103 161 146 138 139 182 110 202 132 131 192 82 127 157 108 151 75 161 70 109 40 61 130 141 84 170 124 197 123 199 82 159 151 146 169 81 93 161 125 190 103 77 114 145 53 157 157 84 120 74 138 47 54 91 150 107 194 178 79 102 193 141 129 153 99 189 80 137 95 107 181 86 145 76 139 148 133 130 61 62 61
139 139 134 123 114 112 138 159 177 195 192 181 178 172 163 156 136 139 144 140 153 147 166 167 155 164 165 169 170 164 150 145 144 154 169 183 186 197 200 198 189 183 172 187 167 172 164 157 131 144 146 152 206 175 216 156 157 129 106 123 142 159 103 77 83 117 127 105 111 122 59 146 100 131 97 86 144 65 125 78 77 70 67 71 58 87 35 88 107 54 121 72 125 94 124 126 108 156 99 93 80 76 130 105 128 124 144 97 104 90 85 159 84 111 143 104 81 96 79 154 94 195 112 187 111 70 89 127 80 85 181 89 161 105 207 186 86 163 58 160 64 116 107 95 73 56 174 140 83 183 191 187 169 165 106 125 160 82 114 121 168 106 167 130 134 103 155 112 140 172 111 183 100 105 158 151 208 185 93 134 185 139 188 198 192 184 179 120 134 159 150 108 136 137 118 146 86 162 138 64 129 60 122 142 123 140 47 74 67 116 94 153 56 53 108 172 166 89 92 134 162 59 92 132 155 170 136 199 193 182 163 91 178 179 166 53 94 142 160 93 155 191 136 116 170 171 145 148 82 114 73 136 174 87 166 135 100 76 139 64 182 94 193 186 139 199 153 196 121 131 120 181 133 163 124 67 79 166 74 79 177 98 98 123 104 138 100 101 82 104 196 101 159 125 50 79 67 74 98 95 78 183 150 77 44 54 95 129 65 162 71 76 90 191 193 219 127 133 134 80 87 91 144 156 161 82 132 101 70 123 59 146 98 135 224 217 126 112 99 122 157 165 144 137 133 189 131 213 173 92 165 123 89 105 163 130 153 93 176 137 184 145 142 166 98 203 111 146 78 169 157 89 102 96 16 14 111 103 141 129 130 101 164 168 119 95 194 162 119 172 185 108 152 132 190 136 140 164 185 94 126 198 197 200 178 73 142 98 121 195 181 126 139 129 153 102 62 153 71 53 102 54 148 142 123 89 54 119 57 127 136 153 87 85 100 117 171 109 152 100 103 158 119 56 55 143 63 70 83 139 116 41 43 69 105 176 155 165 87 151 255 113 129 146 115 88 165 168 138 154 142 187 101 150 151 133 82 81 157 141 155 139 129 127 163 81 104 116 154 85 177 192 187 116 178 98 162 99 71 151 99 161 85 169 124 90 115 118 78 131 116 121
135 136 132 121 112 114 130 164 180 187 180 188 173 168 153 149 132 133 135 141 144 159 158 170 167 167 163 162 170 160 161 146 147 154 175 187 202 211 214 200 187 188 172 181 179 180 161 154 140 113 151 176 203 194 168 165 141 124 135 117 156 155 150 80 78 140 125 131 92 100 63 111 139 144 118 52 53 77 129 101 143 60 48 54 43 78 104 92 99 66 76 73 114 88 115 122 110 141 132 103 104 100 117 124 140 104 132 135 103 118 89 82 77 147 116 144 78 142 52 89 175 111 206 101 166 80 156 135 68 111 117 82 99 96 131 180 119 166 167 169 68 165 159 154 113 172 169 107 151 184 80 153 160 166 174 170 163 126 116 176 128 94 189 178 173 112 77 77 162 123 195 94 162 134 169 163 187 107 79 85 158 188 182 168 142 147 127 159 82 70 110 175 143 189 161 159 118 137 105 116 92 122 127 89 114 73 78 61 167 144 130 157 60 61 168 162 92 177 113 68 113 149 107 128 80 175 190 93 193 85 148 134 78 178 165 135 55 159 165 158 191 128 198 177 119 74 178 101 172 80 112 176 97 180 112 56 57 55 114 115 138 103 194 218 132 198 213 119 151 192 96 167 159 79 85 94 255 159 165 92 96 150 187 78 123 79 122 89 145 89 92 117 110 50 50 108 168 173 71 78 168 114 178 160 129 37 69 46 50 162 99 70 79 173 101 123 119 105 172 66 133 54 55 152 65 154 178 132 156 117 59 98 96 179 110 157 159 203 98 171 97 165 108 127 220 236 137 132 220 92 92 146 162 86 131 98 99 107 132 77 161 71 152 132 136 175 166 195 100 147 123 162 141 37 85 91 54 47 90 84 102 163 143 165 190 117 159 212 219 203 135 100 135 189 149 148 203 123 179 119 139 189 132 197 92 150 70 174 86 87 165 130 118 148 159 164 73 67 160 122 139 131 59 55 57 58 134 48 131 118 56 56 170 75 90 200 202 126 126 198 178 132 75 156 160 128 73 62 73 40 102 37 77 155 180 125 173 94 127 79 76 169 62 52 59 150 86 108 186 209 216 187 180 139 48 113 161 101 82 92 162 103 65 65 72 180 192 99 96 148 169 82 100 140 96 86 179 123 170 133 176 175 163 165 162 159 110 82 128 145 105 101
134 137 137 133 116 116 132 161 172 177 180 180 176 154 145 153 151 137 135 142 148 161 170 255 172 163 168 176 177 178 175 158 156 161 176 187 204 213 222 214 204 172 178 158 161 136 148 144 145 148 146 179 180 185 190 166 191 146 157 111 140 97 156 157 127 94 111 41 102 60 87 86 105 92 103 53 117 84 110 128 101 72 109 74 125 100 108 127 106 70 69 72 94 81 82 141 103 116 118 118 118 103 105 155 144 105 128 119 105 98 78 136 85 81 161 85 69 82 67 87 155 194 136 97 95 134 74 80 181 126 193 88 99 160 93 175 104 147 79 75 90 167 62 154 168 102 101 86 170 79 73 79 166 183 78 165 159 167 127 134 157 199 171 168 147 169 129 147 101 109 100 183 176 93 86 168 122 184 87 86 79 133 159 155 187 94 110 162 86 119 144 176 140 78 142 151 131 124 161 54 48 37 124 41 56 40 142 44 75 75 174 67 128 168 185 170 169 110 137 168 166 90 168 138 95 123 92 92 171 184 86 189 121 86 136 163 170 75 155 180 176 107 200 191 119 69 104 176 180 186 182 166 188 153 166 153 55 111 159 137 134 201 202 218 159 187 123 133 214 148 133 78 156 125 150 58 76 77 126 173 85 134 90 180 79 77 114 162 80 84 82 112 158 69 55 72 92 98 77 89 101 201 144 74 68 39 57 55 52 150 66 69 117 83 201 139 187 141 193 147 53 63 133 144 100 84 137 71 72 128 71 173 113 96 157 190 197 96 88 172 164 92 112 134 227 149 154 200 204 87 173 164 130 114 193 149 104 123 83 59 41 48 107 152 62 86 149 178 129 186 116 170 59 98 110 76 126 56 151 196 98 163 141 108 207 221 147 159 163 198 177 148 186 88 192 156 121 194 181 82 85 140 108 160 122 69 85 95 184 100 110 95 101 103 67 168 166 80 146 129 97 150 137 175 147 112 93 109 91 46 58 171 185 187 122 148 160 220 193 111 169 50 45 103 64 176 94 101 64 136 154 134 176 133 165 185 88 74 138 69 168 159 166 144 107 125 172 186 111 207 137 126 87 69 48 51 125 77 170 90 140 88 174 151 154 74 138 87 172 125 160 168 147 138 166 72 75 119 127 180 96 139 174 117 147 114 157 151 72 137 89 75
145 147 144 138 128 119 129 159 168 182 177 175 182 169 159 161 163 153 147 142 156 159 171 173 160 174 175 180 195 197 188 168 166 160 179 190 204 215 207 213 188 188 167 139 153 148 129 125 133 122 156 169 142 176 174 166 156 173 92 110 111 156 137 157 88 65 114 41 51 49 110 168 102 179 66 79 129 68 91 130 182 81 132 97 58 124 99 125 140 79 75 119 90 61 83 82 94 112 127 154 144 116 144 124 103 112 131 112 149 109 101 95 69 87 74 84 120 76 146 88 175 188 108 85 166 67 157 195 102 114 104 204 119 111 163 97 114 102 83 100 94 110 255 81 178 92 191 89 183 119 99 117 189 95 82 142 87 175 170 83 134 182 160 154 183 168 133 171 142 141 192 88 173 95 93 132 176 163 107 165 151 92 130 107 183 90 75 47 134 35 154 107 102 113 125 141 60 79 106 151 133 75 126 121 124 63 94 41 158 75 87 164 158 131 81 194 198 85 100 119 171 81 95 169 92 198 189 197 179 160 179 188 75 74 100 158 183 117 75 74 116 86 160 89 95 150 83 167 169 93 101 100 191 173 124 55 168 80 188 196 164 95 206 211 110 206 104 126 184 124 109 92 124 38 56 49 141 138 135 171 170 120 76 82 99 150 72 146 166 152 176 161 140 46 56 112 74 85 103 104 185 195 103 153 168 63 70 113 164 124 64 95 99 103 90 162 144 154 190 78 79 55 77 70 162 173 103 125 89 176 167 166 135 180 124 161 137 183 176 98 98 188 100 179 209 224 224 206 173 82 148 132 66 78 156 124 110 191 140 86 36 23 77 32 40 167 192 103 125 202 90 119 121 59 134 42 136 78 180 200 177 146 197 154 176 151 133 185 130 194 161 122 160 123 194 211 161 184 174 78 133 136 78 255 135 178 98 89 182 90 89 175 158 83 122 104 112 157 104 151 116 220 167 94 153 107 125 157 64 157 91 147 137 99 132 120 122 215 94 148 109 157 53 92 70 159 139 70 94 87 158 106 136 101 132 170 173 148 100 78 86 183 124 157 79 100 126 130 189 111 151 195 112 63 145 145 100 84 104 136 97 181 185 66 104 85 135 181 162 108 85 141 176 127 113 142 159 137 100 91 103 150 204 164 105 148 58 116 56 94 134 112
160 157 153 149 132 127 137 149 169 180 171 175 175 176 173 189 176 168 147 147 149 155 167 177 165 169 166 178 176 191 186 173 165 161 175 186 197 202 211 208 199 186 168 154 135 139 155 123 143 118 108 120 132 145 103 104 124 118 138 124 155 160 147 114 182 165 84 72 134 104 125 104 101 129 77 87 82 139 94 115 128 150 87 66 81 73 119 90 144 135 134 116 255 66 89 79 96 113 109 109 130 156 139 124 99 102 78 104 77 135 89 81 118 111 54 85 88 100 64 76 166 191 92 108 81 153 82 125 179 217 191 107 106 105 208 108 188 194 185 84 128 70 145 173 135 94 110 193 76 179 165 200 171 160 162 159 152 145 140 180 93 156 197 187 111 179 122 142 103 186 168 85 156 91 153 163 104 107 127 80 93 68 66 172 165 83 146 113 25 120 151 167 165 116 70 50 148 119 152 87 128 94 103 115 113 121 143 152 75 168 140 90 147 74 90 166 169 120 144 87 88 134 164 134 164 129 197 116 86 92 151 74 172 154 112 75 182 142 73 153 147 172 137 180 150 156 162 152 73 92 192 100 96 94 176 163 115 166 204 141 167 153 177 91 119 172 113 153 124 225 136 62 125 25 84 132 160 96 113 165 109 88 91 134 167 157 173 90 164 72 126 164 119 48 71 117 53 136 73 89 201 194 111 101 85 96 138 162 171 123 78 62 69 97 192 114 200 123 104 84 101 156 121 182 81 178 99 169 88 183 75 100 75 176 84 147 96 162 99 183 137 180 161 99 199 150 107 113 176 141 140 175 172 82 120 192 125 210 144 82 119 48 44 33 114 122 147 203 139 204 178 157 132 152 134 69 97 68 168 181 204 185 163 131 133 113 171 176 190 129 93 194 149 178 174 198 193 203 83 159 94 98 138 157 99 163 196 189 148 137 103 138 115 102 71 160 98 166 108 125 133 162 155 201 75 132 113 67 108 103 147 72 181 182 198 117 115 167 118 144 54 74 61 171 75 181 74 143 134 75 90 124 208 117 199 150 124 96 139 142 87 159 122 168 125 179 95 199 204 102 203 179 87 80 136 102 83 157 110 165 97 103 106 141 69 110 129 145 106 83 134 129 145 73 104 108 150 126 128 84 164 117 111 187 107 98 61 80 67 154 83 140
175 167 153 143 136 130 132 152 158 168 174 184 195 194 203 205 193 188 172 147 146 167 171 171 172 157 155 148 162 167 162 158 155 159 173 185 202 207 203 192 194 169 163 164 159 134 170 159 163 153 154 122 151 138 132 77 98 127 77 86 98 162 182 135 202 173 114 82 97 157 111 95 104 85 155 93 86 97 141 119 163 94 163 75 73 74 79 152 91 83 94 84 85 104 94 110 87 100 113 92 120 107 132 100 80 108 70 76 119 81 71 77 127 69 53 54 138 106 93 82 94 105 114 87 108 124 86 120 180 191 176 106 127 117 181 101 98 202 204 166 86 89 172 135 117 189 132 179 131 148 164 132 212 186 183 111 137 181 96 158 167 111 99 199 126 193 146 170 152 94 87 148 132 99 117 156 118 168 157 62 154 150 152 74 151 160 131 114 119 21 95 86 94 130 142 166 159 71 179 105 164 141 52 58 46 114 72 154 167 94 167 173 71 170 137 142 168 171 155 126 69 67 72 179 132 102 97 150 117 156 152 143 105 62 173 94 162 170 171 96 96 66 168 97 101 79 129 92 75 132 109 197 180 186 88 93 167 164 127 197 105 109 74 165 179 138 142 169 180 130 170 166 92 112 126 119 99 177 165 133 179 169 91 151 190 188 72 133 100 64 156 54 97 101 146 96 104 60 64 171 119 144 124 101 104 138 160 191 110 73 64 80 255 102 184 148 117 152 220 148 169 182 171 115 123 89 94 127 105 175 132 138 138 152 126 181 197 182 110 189 159 166 132 156 109 78 65 125 157 97 122 166 178 174 101 143 213 116 95 121 47 113 112 23 112 40 71 197 182 190 205 169 72 152 144 79 127 87 44 81 79 165 105 179 186 122 88 111 159 164 71 140 170 170 154 100 210 201 115 80 58 80 90 203 105 196 159 109 220 157 174 162 93 75 144 161 84 93 105 182 104 148 108 194 79 148 79 168 79 173 78 77 133 153 190 122 149 115 169 119 111 102 166 72 158 80 169 169 82 176 86 102 111 148 193 210 96 143 120 163 168 183 162 97 103 87 141 93 166 105 90 165 137 152 154 65 126 163 60 151 171 125 183 99 149 101 109 180 77 177 173 167 67 169 157 52 60 154 66 145 185 108 149 124 97 169 96 75 120 77 66 72
183 170 154 140 133 132 140 142 148 153 165 163 182 192 185 193 193 180 173 155 152 163 160 161 175 163 147 145 132 133 143 148 147 157 174 192 204 207 203 193 172 176 160 183 183 175 193 173 154 137 160 147 138 109 84 112 108 92 117 139 116 164 116 204 170 171 170 139 138 110 155 115 97 123 86 104 183 121 97 88 91 96 85 78 78 78 118 128 91 130 123 82 119 104 100 104 94 105 110 75 98 79 70 94 63 82 62 72 58 62 76 88 107 105 69 137 141 135 114 176 86 98 89 75 95 171 177 177 80 85 177 150 95 102 165 198 95 177 196 203 150 115 207 204 118 149 163 146 162 128 182 106 156 222 216 203 161 186 140 182 128 99 162 187 144 195 183 105 124 159 106 129 177 145 185 186 193 121 168 114 144 134 38 110 100 158 101 125 33 84 49 71 186 201 157 175 165 82 118 107 175 144 63 161 172 120 126 80 70 86 167 168 175 113 166 63 152 171 156 68 72 171 173 158 187 137 191 115 141 132 152 153 142 171 139 77 179 114 119 67 164 167 70 90 116 145 76 96 105 138 84 84 163 114 180 195 109 90 195 170 125 85 110 164 147 109 165 180 127 148 102 111 64 51 38 111 116 142 129 203 198 103 215 152 163 174 130 157 78 54 54 104 49 142 90 70 105 147 68 103 124 93 159 76 98 71 124 97 80 75 55 84 149 172 110 164 120 226 139 202 138 94 113 154 79 72 166 119 87 182 103 67 163 81 181 175 127 138 88 135 92 168 188 183 76 81 160 133 156 166 67 135 127 186 199 194 193 157 99 111 148 133 119 128 109 48 97 110 204 210 207 133 123 154 154 115 50 125 127 118 137 116 69 137 154 70 106 142 88 70 126 137 164 126 161 146 111 179 103 83 114 179 182 172 148 111 175 104 210 211 196 129 116 123 99 150 146 179 78 188 90 164 87 114 83 66 99 155 175 88 166 184 153 94 146 87 96 184 176 63 165 166 111 146 84 136 100 131 97 140 91 132 201 97 132 192 130 82 97 88 180 179 104 112 194 203 203 127 131 108 110 102 69 67 167 84 149 104 162 109 159 140 91 103 207 200 208 182 88 158 126 92 70 83 106 139 165 155 183 177 165 117 132 107 100 94 76 99 44 32 40 60
183 168 148 132 130 132 132 129 131 137 155 169 182 182 185 178 174 176 175 164 152 147 161 175 172 179 167 139 132 141 139 144 156 163 182 206 217 211 192 186 174 170 184 194 199 201 203 200 201 185 179 136 133 103 103 55 78 47 87 126 93 163 139 136 132 183 106 150 135 118 117 175 184 122 185 102 161 175 118 89 165 136 82 93 164 96 99 106 89 79 150 114 161 114 113 154 123 101 86 111 60 104 46 47 55 54 79 69 52 109 90 114 125 160 98 78 166 81 108 170 117 189 84 82 87 96 75 74 152 83 77 79 182 83 85 188 151 94 191 191 201 121 191 222 119 186 190 164 136 167 92 194 204 222 129 119 194 172 146 121 167 75 173 149 124 151 104 94 147 73 142 86 181 175 207 119 214 208 134 177 136 108 51 70 91 166 63 78 48 141 157 169 81 192 105 100 88 101 182 111 105 193 177 152 195 99 108 84 155 106 125 106 60 149 82 141 156 172 101 95 115 125 66 162 91 169 175 178 82 138 64 117 148 160 182 98 133 175 178 150 141 90 175 176 106 142 255 72 173 142 117 151 81 93 117 91 174 97 107 118 123 96 79 115 139 106 169 198 191 197 180 99 101 104 124 62 180 168 110 177 114 189 204 154 183 162 111 122 156 79 65 53 139 136 124 112 50 125 91 98 86 193 193 138 125 83 72 133 169 67 103 69 75 156 170 117 85 115 128 141 202 143 139 128 97 96 95 86 83 75 64 70 163 85 115 81 150 180 168 97 108 186 140 132 99 162 154 158 117 165 174 78 85 195 181 148 203 99 188 187 189 88 66 119 78 160 135 177 202 158 107 96 80 130 156 61 38 109 52 79 119 60 133 60 144 51 63 98 146 113 151 84 106 156 110 182 106 93 113 94 178 143 100 64 134 74 121 182 255 122 110 115 111 113 164 92 74 102 175 112 111 75 63 140 61 121 131 97 164 152 130 94 185 177 176 81 103 160 140 184 108 146 75 79 169 170 141 112 186 186 171 99 152 142 84 142 149 180 75 77 122 114 98 135 128 124 107 151 82 147 71 116 128 110 103 154 100 82 103 118 58 116 190 101 211 200 111 169 146 131 180 135 109 68 145 103 183 88 99 155 196 109 101 195 188 89 157 149 67 120 31 133
179 166 149 138 134 134 132 127 132 137 152 158 170 167 150 145 132 162 162 164 153 139 139 158 183 189 177 166 150 157 165 169 174 185 204 217 221 216 192 162 164 173 187 189 188 215 209 209 206 198 157 171 154 87 126 118 118 118 72 131 157 133 110 191 116 134 127 172 163 90 86 169 85 135 178 114 146 174 131 145 81 83 80 137 152 111 116 104 90 139 88 91 160 126 121 172 124 158 95 98 55 48 69 51 94 54 53 88 54 72 87 127 105 152 92 91 142 104 144 170 101 99 100 81 160 80 81 95 156 116 164 84 141 94 149 82 66 81 165 164 211 131 202 221 115 183 134 172 79 119 187 181 116 114 122 190 211 198 219 173 201 165 131 153 181 180 169 149 171 96 107 179 143 110 188 147 148 203 99 168 158 151 126 166 143 119 73 104 159 158 111 170 121 182 127 85 141 209 213 197 102 193 126 93 150 136 150 89 89 158 104 70 78 85 73 173 117 136 181 146 172 123 49 46 158 142 186 113 154 150 121 146 155 86 190 121 106 186 156 170 188 141 179 76 73 68 167 70 68 142 106 167 74 165 181 172 56 123 74 59 151 51 144 110 62 71 180 195 195 213 175 109 140 90 115 157 102 97 116 142 110 187 163 213 177 138 187 149 158 66 105 62 58 137 140 45 68 98 65 143 84 96 103 177 106 122 164 104 84 107 180 104 162 148 65 76 97 107 127 127 232 116 183 145 162 108 100 188 166 102 63 80 95 98 148 88 113 77 66 102 134 173 198 151 131 178 92 60 71 166 169 79 181 153 102 183 119 190 202 117 174 161 137 156 115 170 89 111 153 165 150 192 122 80 143 138 138 152 108 159 101 144 163 92 128 55 54 43 70 147 147 158 116 99 99 174 82 135 75 183 146 127 129 107 58 74 136 152 188 128 139 122 190 129 104 98 155 124 112 152 95 168 153 109 152 149 74 85 96 181 174 184 153 140 175 78 154 156 92 147 91 183 124 75 80 173 160 170 144 165 87 68 83 130 157 95 176 122 127 152 158 174 127 165 149 188 150 102 88 78 152 109 130 138 178 162 175 114 157 114 119 105 146 99 171 134 106 107 168 163 96 169 96 127 155 87 191 192 196 104 176 125 187 172 173 64 65 93 57 74 29 25
172 159 142 132 138 135 135 129 133 135 156 162 160 146 122 113 114 148 168 175 163 142 139 168 173 188 179 178 171 176 182 193 193 197 205 217 214 206 181 167 167 166 194 204 216 222 215 215 215 197 189 140 144 169 118 122 82 135 146 154 187 149 190 118 168 163 171 167 163 160 110 112 98 92 174 192 188 174 170 135 93 89 91 89 154 144 115 111 96 155 85 111 116 146 165 113 112 110 136 74 104 73 41 64 98 74 69 56 85 60 64 109 96 162 137 114 62 68 75 172 114 190 112 67 57 148 147 137 124 94 64 104 163 88 159 136 57 44 147 161 218 238 164 133 212 133 126 164 160 184 179 166 89 113 211 202 188 210 129 154 143 179 155 117 158 149 179 201 195 156 171 160 149 209 173 103 172 179 125 133 72 138 118 172 146 190 189 186 82 187 186 174 127 72 70 142 178 108 170 105 166 110 88 107 198 169 198 196 88 118 149 141 147 115 82 124 135 100 159 117 77 112 128 67 68 91 97 174 63 134 79 158 163 183 196 197 122 202 203 124 100 160 93 176 115 153 159 99 122 149 95 125 133 172 167 170 49 39 135 70 63 136 135 158 71 136 123 104 201 119 146 113 199 178 190 99 148 150 144 124 156 118 127 111 115 178 89 112 123 54 136 124 97 123 63 70 64 96 72 181 188 194 181 189 112 155 168 138 188 119 99 120 93 82 76 70 77 109 99 212 204 117 149 188 165 132 185 92 69 86 53 68 172 83 94 81 95 83 65 73 95 185 119 168 187 121 109 125 70 69 76 121 154 84 178 174 169 90 119 127 212 203 92 102 140 81 118 101 167 90 103 108 149 131 129 115 128 112 96 117 170 162 140 88 67 103 138 138 94 118 63 83 116 137 127 150 123 120 161 140 126 161 115 72 84 53 163 89 78 89 128 150 194 209 180 171 53 65 163 108 91 98 164 140 125 147 93 129 211 145 113 131 121 68 91 74 173 137 121 138 204 195 144 188 77 71 170 175 78 142 63 151 147 74 134 135 97 185 61 154 156 157 150 229 141 199 229 211 112 166 162 92 183 139 199 123 178 134 170 64 77 85 146 126 108 193 99 78 157 142 141 87 128 184 150 102 100 191 96 146 67 162 161 159 78 49 45 93 125 40 49 125
168 157 139 128 125 128 135 136 145 154 159 162 156 131 112 106 121 147 161 170 177 149 158 161 170 189 189 180 172 182 200 201 197 189 195 198 202 186 169 159 170 185 194 197 197 188 222 224 207 211 203 149 196 156 192 110 159 135 159 113 174 149 196 118 111 102 113 94 150 59 90 137 142 161 136 134 157 174 146 125 178 157 151 85 127 102 109 154 104 139 134 109 145 117 117 119 96 108 99 72 62 54 53 65 100 80 132 134 80 70 75 67 135 78 149 104 79 72 111 112 208 123 182 107 82 170 114 71 69 141 82 148 192 98 194 99 56 39 77 172 112 152 224 203 197 158 113 135 80 91 108 146 131 140 105 201 222 203 139 169 108 182 79 165 155 109 188 166 183 153 184 180 164 146 118 133 143 148 108 82 110 118 96 105 111 109 134 201 166 191 86 80 116 80 110 100 93 102 196 92 155 104 155 82 172 161 185 177 155 166 54 139 155 142 187 97 105 183 78 80 156 103 112 125 157 161 188 127 169 143 70 82 157 147 111 207 205 126 96 194 97 116 179 165 151 141 75 146 159 84 150 178 127 188 174 83 143 115 60 124 86 152 101 62 78 113 112 178 189 144 188 110 104 138 158 159 172 160 99 85 76 122 121 78 85 187 100 172 68 154 148 110 167 75 172 65 83 69 77 83 152 132 103 127 204 109 81 116 160 174 98 166 171 176 100 75 76 82 112 197 166 169 107 148 102 98 105 189 143 154 67 166 86 188 150 107 164 128 171 173 173 175 82 89 101 72 164 255 156 113 162 170 163 164 152 169 60 150 180 135 115 204 131 193 183 160 126 184 175 154 92 111 89 165 172 163 179 99 146 114 143 89 159 85 113 180 98 134 187 75 63 112 148 54 80 143 97 56 47 139 41 60 161 149 51 74 158 71 148 77 189 102 121 106 85 169 153 46 71 122 88 99 163 80 134 151 206 120 181 94 148 70 54 68 75 183 170 187 96 205 107 206 195 192 184 179 86 163 152 60 128 88 79 69 66 145 132 94 142 65 59 178 255 124 235 199 124 126 85 124 139 81 169 178 92 103 103 97 136 107 147 181 139 150 124 95 117 125 74 166 178 157 186 90 146 87 92 156 176 102 146 35 51 158 255 157 118 60 157 129 36 43
163 151 133 116 110 121 130 131 141 163 180 166 150 132 130 124 135 162 170 188 197 166 147 159 164 164 180 172 188 188 201 192 187 181 178 179 182 170 161 146 172 179 181 166 157 196 213 226 218 187 187 165 213 194 212 185 156 160 166 179 145 142 153 130 85 132 150 145 136 64 141 119 102 163 109 108 104 132 150 98 168 89 84 105 148 133 98 129 116 180 179 140 126 104 88 84 79 97 74 121 76 72 83 117 123 90 90 95 80 82 99 64 66 91 68 65 68 150 149 113 123 129 121 108 136 174 160 155 147 64 112 171 205 120 141 97 73 152 92 78 206 122 177 86 76 80 121 183 90 170 92 141 128 175 108 201 198 108 185 127 202 185 115 85 99 197 152 145 213 226 209 217 173 153 151 75 123 131 27 105 131 139 102 156 165 199 211 208 131 166 188 94 155 88 159 85 161 201 105 184 74 166 143 157 114 80 74 162 138 102 169 68 159 111 185 188 158 160 160 84 88 82 158 74 174 169 101 163 103 83 78 92 95 108 141 207 121 187 79 182 84 95 195 162 193 188 188 97 187 190 88 161 86 138 106 90 169 130 97 66 65 112 112 165 164 154 192 207 176 188 109 109 103 119 120 197 193 128 146 161 170 73 92 72 186 90 93 164 172 90 63 99 111 101 98 72 80 89 146 126 108 181 92 203 137 184 91 157 158 123 192 120 214 126 108 100 192 124 86 84 83 147 115 107 127 172 123 130 182 83 101 184 169 88 165 171 76 151 106 154 172 72 188 175 93 83 113 145 117 113 127 58 76 95 90 112 67 57 103 83 192 196 167 134 94 87 90 124 201 159 100 172 100 124 185 150 122 175 158 173 186 89 157 169 171 78 86 130 103 171 141 51 143 150 93 172 107 144 23 31 125 50 133 92 97 148 113 86 72 82 89 147 221 173 108 140 54 47 140 54 71 106 164 185 110 159 230 137 161 97 65 87 49 158 171 169 194 176 105 140 129 200 109 92 183 175 65 138 143 88 142 42 101 255 146 94 190 95 96 104 129 124 103 195 204 226 129 184 73 141 128 147 126 185 143 173 92 175 96 171 182 179 90 138 131 146 102 136 84 179 135 175 108 82 163 145 96 142 96 118 70 33 111 255 112 82 78 179 77 52 54 30
157 150 133 115 106 103 115 121 137 161 182 187 171 151 140 136 148 171 181 212 213 187 167 161 158 168 182 189 186 194 195 194 192 181 173 165 176 167 155 161 169 173 163 168 155 186 180 196 198 193 197 187 184 162 157 144 168 155 120 162 129 142 181 112 159 102 147 89 120 113 144 158 108 187 187 106 98 167 115 79 127 155 92 92 125 153 102 152 140 123 122 119 107 89 88 64 65 128 88 81 74 95 123 87 126 90 98 121 96 109 73 78 147 148 90 152 70 86 160 107 134 151 133 180 144 78 66 40 35 55 69 189 193 218 126 215 98 68 173 182 106 180 109 115 147 175 112 179 87 118 136 79 132 171 158 148 101 103 140 141 199 140 113 166 97 175 171 93 107 193 221 143 136 204 106 156 141 127 49 65 156 76 127 121 114 183 135 199 176 135 94 169 139 172 175 148 102 158 193 148 123 79 122 80 146 160 128 74 82 93 192 150 113 124 106 83 107 98 108 174 201 165 95 94 84 126 90 170 138 118 180 81 102 187 100 96 139 146 120 117 62 74 116 181 106 203 92 114 193 174 197 152 191 176 94 97 99 136 132 47 46 122 174 184 86 160 95 138 163 134 146 67 136 89 125 119 205 196 137 93 74 172 175 79 185 122 121 160 137 63 122 179 110 144 98 88 86 102 102 125 176 168 87 151 181 86 168 100 152 78 102 209 127 161 155 207 144 139 102 78 84 83 185 98 123 117 89 184 178 99 195 108 147 82 175 72 113 107 95 173 100 166 106 186 211 115 185 104 77 168 142 90 102 101 155 185 129 130 43 39 123 178 146 113 128 87 185 187 120 201 200 88 182 116 174 176 88 100 105 163 165 117 128 165 255 125 84 160 114 136 145 132 58 120 77 65 157 130 104 12 88 44 83 195 128 177 137 78 169 121 180 181 201 216 203 192 105 63 87 59 147 183 202 107 138 225 235 131 196 167 91 59 57 141 95 177 105 203 198 182 98 117 149 168 169 167 120 129 156 134 137 99 56 150 160 120 156 127 84 161 48 91 127 147 205 104 135 94 173 150 72 81 171 178 110 157 148 99 100 123 118 155 186 110 103 62 160 155 118 141 106 141 115 89 124 84 110 156 197 157 96 59 65 117 143 167 155 174 157 149 79 62
148 145 136 121 109 109 110 117 129 149 173 178 165 146 147 157 152 169 204 209 222 191 177 156 158 164 178 190 197 187 197 195 188 181 176 168 172 176 162 164 164 164 149 164 157 182 201 197 203 153 185 191 198 169 161 184 190 193 195 159 134 186 146 119 149 114 157 186 145 82 111 101 160 101 104 136 89 86 108 119 132 120 66 66 101 79 89 109 151 127 157 116 102 90 99 55 81 92 78 69 111 127 117 89 89 89 126 95 104 99 109 114 78 120 137 120 163 78 81 104 148 160 120 116 139 81 126 130 44 87 78 153 135 134 230 117 135 135 100 200 199 101 126 106 141 77 188 196 183 181 165 46 145 117 155 185 196 184 92 182 141 125 164 148 156 119 123 115 82 123 121 167 207 187 255 143 65 120 146 59 75 132 192 188 180 184 199 163 105 108 157 132 118 156 209 124 180 94 255 156 161 118 159 153 150 48 160 92 118 95 113 118 195 108 125 175 75 162 120 198 207 119 130 111 167 168 187 184 131 132 131 98 84 164 91 189 164 110 121 136 108 147 118 104 197 172 200 127 187 194 192 194 78 73 168 87 136 160 132 121 147 67 181 89 163 108 148 96 167 61 126 97 141 94 197 124 109 133 121 125 177 143 169 148 98 112 101 130 70 69 131 167 124 191 125 86 169 136 112 137 69 112 114 94 183 91 95 127 74 151 101 207 136 138 119 106 104 73 117 166 98 93 125 197 103 122 121 186 160 198 106 109 129 65 63 95 81 67 142 64 123 97 156 227 221 114 100 153 98 77 143 59 137 184 188 76 149 94 105 57 66 67 175 146 120 76 99 130 212 192 112 99 181 169 70 97 85 156 142 118 128 63 95 129 139 110 181 78 152 109 142 74 128 137 106 138 92 46 118 92 120 118 186 132 108 182 161 179 189 138 149 139 157 148 132 92 105 94 150 80 176 198 206 134 189 185 168 144 216 140 175 146 115 164 89 94 202 197 136 83 78 172 163 130 152 158 70 162 124 50 106 160 122 164 162 96 107 171 73 89 122 151 133 157 163 255 197 89 82 126 111 127 109 94 116 107 164 86 178 107 158 213 134 199 87 146 72 95 185 178 104 175 181 95 166 104 136 120 110 98 154 125 179 79 120 104 189 100 168 90 60 132
134 138 138 131 120 111 108 104 119 144 150 156 153 142 152 158 174 189 194 215 214 195 163 158 157 166 181 182 189 190 191 188 184 176 178 170 180 174 170 159 158 167 175 169 182 165 167 185 189 164 182 182 177 192 185 198 178 189 192 198 176 187 135 150 142 171 184 142 176 92 151 81 132 154 139 167 108 95 109 132 145 102 71 106 99 63 76 172 184 125 127 159 88 68 58 85 68 87 125 69 71 96 94 132 83 107 75 104 128 89 69 103 111 123 135 86 123 83 108 145 120 133 120 196 111 78 58 147 50 155 145 94 111 166 183 255 138 173 102 102 151 194 133 61 146 172 181 189 172 76 169 98 129 60 140 139 182 129 165 159 61 115 111 104 152 155 83 96 105 99 136 127 132 210 166 92 88 125 153 131 117 188 198 105 152 74 104 101 86 75 189 105 121 197 186 194 136 130 114 156 127 142 61 120 142 141 144 167 146 188 137 138 117 182 152 75 127 146 189 196 103 81 142 73 125 156 73 117 177 96 105 199 89 187 179 173 105 62 134 106 127 52 172 160 155 171 114 94 192 125 100 182 161 155 86 52 135 77 138 73 133 156 77 186 124 111 85 81 159 138 56 70 136 138 215 216 110 129 203 116 143 99 144 135 101 193 144 74 57 150 89 78 103 158 201 98 102 90 88 118 118 78 68 88 98 160 123 155 176 146 118 141 193 140 119 108 153 126 111 66 97 180 158 121 195 98 127 181 83 160 85 175 64 59 147 140 86 115 56 64 175 197 161 147 214 98 109 109 188 187 66 52 70 80 79 137 116 39 33 34 123 89 74 84 83 81 97 206 154 192 165 197 149 163 119 150 44 94 145 47 107 55 67 64 153 91 151 69 155 123 54 77 153 126 152 69 95 89 36 135 147 67 166 166 150 104 169 176 154 201 207 188 216 109 161 135 109 171 108 191 149 104 177 149 122 203 224 194 210 193 151 189 177 104 110 87 160 83 99 166 104 69 138 115 107 145 131 150 51 144 117 84 255 114 81 177 85 159 113 147 81 122 85 63 92 125 98 104 199 95 177 144 111 124 202 99 110 84 77 93 146 206 195 103 106 124 155 102 155 89 128 179 157 189 179 129 104 215 212 101 97 93 96 102 154 162 82 112 91 65 135 119
122 130 133 127 121 115 109 103 112 126 134 140 136 137 144 159 185 183 195 207 206 179 168 152 144 161 163 174 174 184 186 181 171 169 168 166 160 158 153 141 153 177 177 193 196 200 187 186 166 146 163 181 179 184 165 191 220 189 160 169 112 118 109 167 135 129 142 179 108 104 128 145 133 109 109 68 80 87 116 82 142 138 133 62 80 59 136 138 149 158 169 118 89 120 93 67 105 83 109 79 74 79 85 103 78 70 101 85 95 75 55 133 136 111 103 162 154 62 63 86 143 138 109 101 151 161 59 68 135 61 67 88 104 122 95 144 195 205 114 178 170 92 140 167 112 163 163 175 140 103 139 72 168 83 71 145 152 143 145 127 105 137 130 148 159 137 188 141 104 126 138 178 207 198 214 136 142 121 135 206 176 129 198 140 109 63 131 80 105 123 85 158 149 116 196 165 110 185 101 145 67 146 48 40 77 116 152 96 84 76 157 99 195 159 136 144 152 148 133 157 171 153 126 142 50 124 155 107 126 207 146 104 116 167 188 140 73 155 111 107 141 90 69 90 154 173 167 187 139 107 152 66 118 58 146 160 118 158 76 147 87 172 188 102 160 91 74 62 97 161 168 144 112 168 192 109 107 113 123 114 131 95 184 126 162 143 72 125 72 102 50 96 156 144 206 94 171 166 89 185 158 117 72 108 130 131 165 88 133 107 91 86 106 107 99 187 160 101 86 100 99 74 136 124 142 205 98 151 95 75 140 158 134 115 81 71 160 48 112 58 138 113 111 133 179 157 108 93 116 167 113 155 152 255 138 43 143 107 159 142 115 79 98 147 143 136 142 162 116 212 204 149 72 127 140 105 136 139 156 156 135 154 47 98 132 156 132 134 149 83 156 127 160 179 150 97 169 133 67 130 73 176 139 104 80 85 165 160 182 191 120 124 174 186 124 170 121 88 96 106 107 188 116 193 171 199 129 157 228 161 167 195 177 183 91 104 148 162 104 50 161 171 179 171 108 117 64 51 107 99 47 116 80 164 124 152 69 164 102 160 74 152 110 69 175 173 183 208 104 147 124 84 181 206 175 125 149 99 165 113 136 110 132 199 98 87 192 120 147 197 90 154 116 90 122 207 123 206 112 188 188 116 85 147 141 135 111 59 61 86 92 56
117 122 123 121 115 111 103 102 99 119 133 143 145 137 148 165 182 193 212 192 194 180 178 156 174 172 167 167 165 168 179 174 166 162 168 160 255 140 140 135 157 171 205 201 215 204 167 186 177 175 169 159 131 179 198 210 218 209 125 136 147 166 179 172 144 130 121 132 119 93 132 156 118 85 73 87 73 125 81 93 71 149 98 57 125 131 77 94 145 126 121 156 161 115 82 87 85 107 81 80 121 74 75 107 108 98 69 74 95 80 87 77 110 177 149 107 139 140 134 67 119 119 98 104 179 173 100 98 141 73 64 119 80 157 76 85 99 173 116 109 192 177 156 255 186 138 193 87 118 175 173 168 178 171 171 111 96 34 121 68 26 118 125 121 161 102 186 132 162 90 110 163 150 153 202 187 214 155 196 138 195 212 182 149 70 56 123 129 93 84 124 102 109 181 107 105 210 195 189 85 74 113 53 36 34 47 49 77 73 153 133 122 76 174 176 65 67 128 92 138 76 159 140 140 157 70 79 111 184 198 190 209 136 91 161 185 185 83 70 76 156 110 169 147 199 195 192 89 92 176 114 159 121 122 116 81 125 82 183 187 120 171 158 95 166 124 73 163 150 176 125 153 119 81 89 138 190 123 167 116 100 138 85 181 68 142 136 49 87 124 107 121 149 150 101 160 178 128 102 125 81 85 77 179 156 182 100 114 91 166 182 115 72 188 198 144 150 158 115 156 63 79 96 148 174 172 97 125 102 59 105 136 144 82 65 160 165 120 140 120 145 178 182 91 177 70 161 157 192 137 99 96 126 149 147 85 140 129 161 172 154 74 147 49 121 136 95 137 197 135 90 71 109 155 81 146 62 61 92 174 134 110 121 147 149 87 176 166 53 48 151 111 148 180 125 176 170 88 189 153 112 113 202 89 139 112 89 157 142 112 123 182 160 189 80 154 185 96 205 118 114 134 108 161 104 123 135 207 228 194 111 158 120 167 148 89 122 136 64 48 148 169 163 165 157 70 45 67 126 48 150 82 163 164 74 103 56 72 69 67 70 160 56 50 149 103 98 189 98 175 141 93 138 192 210 191 133 159 117 65 84 194 184 87 168 68 103 106 182 205 178 138 81 74 157 155 202 102 180 83 135 74 119 89 54 49 84 147 162 61 60 107
120 121 119 112 111 106 105 106 103 118 133 140 141 134 145 150 168 182 184 197 195 190 186 188 184 189 175 156 146 166 170 178 173 165 171 161 158 139 134 137 151 172 191 214 209 197 182 186 170 171 165 160 172 183 167 255 168 157 157 107 119 170 150 147 166 171 93 170 133 110 175 122 119 56 51 75 130 81 121 77 150 64 62 77 111 121 126 167 120 125 141 125 118 128 89 97 95 88 80 86 99 75 67 102 108 130 88 114 75 54 69 91 76 143 107 96 81 53 107 53 120 86 163 188 109 89 73 120 48 53 149 136 62 125 111 81 190 120 118 144 159 100 81 80 186 172 185 151 85 76 145 150 74 78 166 48 134 130 96 72 18 57 135 134 177 139 160 104 100 128 131 184 104 180 191 169 134 90 153 188 186 132 205 122 150 102 65 140 193 180 80 163 176 87 174 114 110 190 187 93 166 66 67 80 92 134 119 102 121 146 57 49 156 89 173 129 167 91 86 169 101 138 53 146 174 92 176 183 176 193 104 203 153 105 117 187 106 187 185 113 158 161 120 109 178 104 201 205 100 101 100 124 75 96 110 106 109 129 168 96 183 146 135 170 197 133 145 94 180 153 186 103 99 165 166 140 160 202 130 140 141 172 84 69 74 64 128 88 153 154 68 95 125 179 94 82 137 80 76 115 122 186 93 160 128 124 141 95 93 87 148 71 121 95 118 85 91 101 65 127 133 80 80 124 117 141 157 83 143 146 93 147 89 160 132 110 154 165 87 55 121 164 75 112 163 55 63 153 105 86 175 81 144 169 165 173 150 172 95 181 146 98 78 156 66 48 93 83 126 146 121 129 63 142 85 68 140 75 109 109 156 169 141 99 180 202 119 178 105 96 153 170 129 140 143 174 181 98 167 108 117 223 171 149 114 164 133 159 109 92 182 119 151 105 121 90 88 138 118 166 173 121 173 150 137 226 132 148 129 107 151 164 171 158 110 129 180 70 113 81 156 108 116 71 112 127 148 46 38 43 154 101 80 134 69 55 96 178 132 113 80 163 78 55 164 129 111 90 184 85 127 98 87 126 185 162 184 109 84 139 154 75 86 100 158 126 133 132 117 198 101 83 152 163 145 182 150 100 179 131 160 138 70 113 154 47 147 90 74 114 111 72
130 129 125 119 113 119 119 119 127 129 138 143 146 142 143 151 171 179 170 186 178 188 195 191 205 198 177 161 153 161 177 189 186 183 182 183 169 157 146 147 153 169 181 205 204 195 185 175 149 133 124 122 169 181 162 196 171 118 140 90 97 104 98 157 162 87 77 115 85 103 169 147 103 121 99 115 133 130 84 103 127 153 71 106 78 151 114 117 120 150 138 142 130 125 98 80 118 94 116 99 106 76 81 66 102 100 149 136 123 95 131 67 90 77 154 70 77 100 61 53 129 158 83 96 109 141 95 82 143 46 55 90 156 61 167 182 103 190 192 181 161 182 83 166 115 189 193 105 115 112 163 109 164 110 135 143 39 136 128 31 77 75 54 153 95 149 101 109 110 171 158 99 105 125 144 182 159 151 101 198 203 149 99 174 97 116 162 120 155 91 102 76 160 190 101 123 204 126 167 153 87 71 80 146 82 157 66 68 135 68 69 160 170 100 170 111 91 101 99 99 189 178 162 171 87 128 192 178 100 194 99 191 98 179 103 95 181 117 169 176 76 146 77 167 102 113 143 153 202 181 138 106 177 207 226 210 168 176 179 181 140 162 136 106 183 180 159 119 172 123 187 94 130 179 165 173 205 169 103 160 155 102 61 126 120 145 131 135 122 68 132 82 84 190 186 80 139 87 63 169 124 154 110 176 163 136 184 118 94 92 190 110 89 192 152 184 135 150 180 153 110 90 87 195 201 117 136 88 153 103 60 45 90 86 175 92 153 174 127 68 141 77 107 168 66 101 150 148 63 175 179 133 164 170 118 111 167 157 168 199 186 90 140 68 141 101 154 143 152 83 159 154 145 115 134 80 121 146 103 255 192 173 106 91 111 159 106 83 113 79 167 87 65 102 176 189 94 191 111 118 186 227 141 177 66 151 126 112 170 183 110 134 124 193 182 170 109 174 166 81 97 195 172 110 213 164 236 164 213 165 101 110 196 143 161 99 85 110 70 153 145 168 172 164 164 51 114 40 73 122 171 135 176 163 53 80 86 161 101 104 110 170 44 134 121 90 133 116 173 128 122 61 164 172 146 200 110 85 155 76 151 171 73 80 78 62 82 176 213 198 203 108 92 133 128 177 73 180 174 115 107 77 163 112 70 90 128 59 67 107 59 83
135 136 131 126 125 126 129 132 144 152 149 148 133 140 136 156 166 155 170 167 172 168 188 187 183 189 181 163 154 167 185 191 193 194 197 199 186 174 164 152 170 181 190 185 181 187 174 148 162 155 154 136 144 124 184 166 166 133 132 135 120 138 115 102 80 132 135 123 108 156 171 163 147 89 102 117 80 159 158 154 133 74 113 127 166 144 107 139 110 167 113 183 121 140 83 76 77 85 91 81 89 128 78 73 107 85 102 123 105 115 137 92 106 66 150 120 145 108 59 95 59 139 152 139 104 148 105 96 165 113 58 150 55 51 67 183 187 97 139 149 175 88 90 178 82 184 113 163 74 168 70 113 147 48 112 79 152 48 96 90 121 137 90 190 146 102 89 126 151 91 167 107 172 170 174 128 94 80 125 129 128 203 190 160 115 102 121 117 143 180 74 78 169 99 199 205 192 142 124 148 154 108 123 99 60 112 168 158 118 148 188 197 87 109 170 79 157 115 103 215 105 139 187 153 136 196 173 197 136 200 103 77 138 181 143 134 112 136 111 74 176 179 103 170 93 125 194 119 128 169 82 85 102 222 125 126 154 167 174 150 147 115 115 118 155 185 174 76 125 79 141 187 147 87 98 109 99 116 138 66 64 80 175 81 133 121 65 112 162 99 155 129 170 133 79 85 144 143 143 73 77 184 165 199 102 106 132 129 96 92 141 116 118 141 81 111 181 90 85 90 116 89 178 197 145 157 94 123 86 94 160 51 114 150 165 174 181 78 177 96 112 122 173 185 180 114 117 62 101 157 144 142 145 151 102 208 103 166 168 100 118 198 97 73 172 145 135 46 107 139 127 60 148 69 110 168 123 121 179 114 140 86 108 144 173 175 141 147 84 150 155 93 59 143 77 179 147 94 114 162 113 152 144 103 59 127 66 119 109 190 206 199 223 219 121 90 146 78 166 169 186 103 105 144 213 158 205 119 144 142 126 181 173 89 138 184 91 170 74 113 112 171 138 131 112 130 47 154 96 78 114 166 151 136 141 135 157 154 115 110 173 65 116 69 161 107 183 177 173 89 82 160 120 146 196 184 197 88 78 179 65 144 172 181 167 76 116 94 186 204 166 110 81 170 136 126 106 73 162 55 81 57 103 72 152 115 69 151 60 61 129 62
142 142 136 132 133 136 142 146 151 152 160 156 137 133 138 154 156 145 157 152 165 155 164 165 179 167 180 168 165 170 184 192 198 197 205 208 200 179 178 172 191 199 189 172 181 169 167 133 130 133 158 156 177 160 112 137 104 153 145 122 117 109 159 102 117 118 132 73 67 144 137 166 118 139 130 135 139 106 106 82 66 72 85 96 106 116 139 94 131 106 110 148 100 91 85 78 108 133 107 73 76 76 85 78 80 85 91 131 94 72 80 73 123 59 79 142 89 111 92 155 111 63 57 60 136 82 94 146 72 116 89 151 93 52 152 145 187 191 111 199 204 197 189 87 80 173 164 150 164 100 124 97 147 126 148 57 148 66 123 46 108 137 132 106 138 129 152 112 88 124 179 155 93 156 131 72 105 151 115 108 171 143 170 169 60 76 123 173 140 115 157 161 109 132 97 164 157 162 171 177 139 162 88 175 76 84 73 79 96 190 115 116 179 171 85 107 160 133 121 177 133 109 195 142 203 112 132 186 207 189 188 113 178 90 192 182 89 172 136 156 160 169 173 172 88 144 136 177 164 100 171 187 98 198 207 112 75 104 74 109 89 154 59 114 116 175 109 83 76 71 163 167 134 169 131 176 147 171 137 100 181 196 173 100 147 96 159 142 123 116 168 137 88 169 155 77 87 93 83 95 92 94 117 120 122 155 203 89 99 178 104 107 168 102 99 89 96 165 116 137 143 82 91 191 124 117 130 91 164 92 98 97 57 48 104 79 166 138 184 94 163 223 111 124 197 91 85 121 96 148 76 93 161 92 192 110 139 81 137 103 136 199 110 149 185 86 104 60 81 67 163 157 51 118 169 126 176 184 139 162 172 174 162 178 96 102 192 103 166 53 98 127 152 163 113 102 198 187 103 118 94 99 84 146 163 87 148 165 174 88 200 115 105 139 129 114 79 63 168 130 155 157 177 155 150 219 135 145 102 145 113 133 87 180 179 118 92 81 134 169 79 174 133 76 141 51 121 145 86 130 190 192 153 71 72 148 186 136 199 121 182 70 151 103 132 128 180 160 144 72 80 115 180 118 177 113 101 147 149 90 82 166 138 186 160 157 106 169 159 129 142 148 70 153 138 172 64 71 73 103 59 145 79 144 130 179 172 106 144 147 64 87
145 144 137 130 129 133 138 141 147 158 159 156 154 142 152 143 147 159 161 150 164 154 159 155 148 164 169 171 176 170 189 187 191 204 209 208 197 188 175 185 208 196 202 194 163 177 174 168 155 140 171 165 175 165 150 116 81 87 100 140 109 170 97 136 116 84 77 139 137 133 117 137 127 86 81 117 131 127 86 64 59 73 114 128 106 101 128 76 97 77 108 145 75 75 85 79 83 84 101 86 70 64 70 114 77 105 88 76 101 89 78 73 86 49 50 61 89 69 81 128 73 63 48 55 155 85 167 105 85 82 162 120 47 138 66 105 172 175 137 108 111 106 198 172 120 162 156 104 156 69 150 162 97 59 131 117 161 172 108 106 169 83 182 182 199 98 134 136 147 75 150 185 168 110 126 57 133 169 199 123 199 179 148 96 152 108 118 177 93 120 179 177 117 255 111 143 167 148 104 116 188 128 90 109 190 185 174 176 185 117 168 162 177 97 137 173 176 109 98 105 116 146 184 218 197 178 111 167 207 131 181 105 125 88 120 91 148 150 84 40 154 164 157 80 134 167 172 113 168 92 152 173 172 172 111 95 132 75 164 136 134 75 68 110 160 135 108 120 81 39 82 61 153 72 73 97 68 96 170 90 185 193 136 186 186 230 144 109 162 158 154 188 127 183 83 165 71 164 73 85 187 136 162 179 102 104 89 82 98 96 170 108 151 130 106 165 106 144 189 87 76 75 171 130 189 165 94 161 201 97 132 155 61 57 69 141 62 66 186 183 172 142 112 102 197 160 184 122 175 143 129 147 87 176 89 103 149 168 85 185 217 225 130 162 121 135 111 133 61 71 110 107 156 111 86 136 77 174 132 138 150 106 156 84 105 182 149 167 145 144 80 101 93 108 161 203 206 167 180 162 152 139 129 99 55 103 66 160 184 164 101 190 142 172 162 138 87 160 74 118 203 130 135 204 167 105 115 106 201 180 217 193 203 188 91 124 86 126 76 172 82 143 115 62 63 156 120 68 82 157 92 98 128 193 182 94 94 192 199 91 166 73 168 160 89 115 190 108 131 90 77 173 166 82 135 91 75 178 122 105 89 181 99 197 144 164 139 126 95 129 126 102 156 129 151 86 73 122 158 119 176 143 90 144 134 71 156 71 141 52 98 122
145 142 136 130 123 123 126 127 144 156 166 174 166 149 146 146 140 158 161 153 160 156 140 143 148 159 167 185 189 255 198 204 205 202 202 201 184 187 192 208 201 214 180 190 184 199 195 184 162 168 170 186 154 156 147 135 103 106 139 121 174 104 164 77 104 110 162 90 69 62 134 136 96 137 96 135 112 119 156 102 93 63 79 110 139 96 134 62 54 95 68 84 61 102 79 90 80 73 88 56 47 46 59 90 82 74 85 62 51 63 56 56 80 46 47 54 105 63 136 68 69 94 135 59 59 61 151 130 93 138 185 73 121 124 69 167 86 161 172 102 104 204 188 173 170 159 162 63 50 100 61 147 76 152 171 172 83 152 173 111 67 141 141 157 132 150 181 99 140 112 100 176 184 113 103 107 89 148 117 190 152 201 180 90 112 164 126 193 151 145 83 87 90 145 170 89 189 90 172 172 137 86 83 153 178 112 134 174 94 141 180 82 137 75 141 169 183 79 101 198 178 125 125 223 212 200 186 198 159 170 193 118 146 194 194 180 94 76 98 47 83 68 166 159 61 164 172 123 100 84 175 132 136 65 153 153 81 78 170 174 82 98 72 146 168 159 109 37 141 68 140 59 145 148 142 101 113 158 188 163 200 201 136 142 176 150 174 158 255 173 78 136 120 179 132 130 69 79 95 77 123 182 102 139 116 182 142 136 87 142 83 141 89 90 77 74 184 190 111 100 163 146 159 94 182 99 112 203 124 185 188 90 174 184 76 66 169 166 131 196 206 152 138 176 136 88 255 99 154 141 190 111 112 87 136 174 142 90 199 128 199 168 121 179 110 119 162 129 160 97 139 152 101 157 86 123 162 112 86 121 114 79 54 75 163 184 65 122 41 92 80 156 113 170 202 203 123 182 77 62 58 113 120 49 46 73 58 107 159 187 115 195 198 100 153 122 83 101 166 123 176 150 185 143 154 191 98 158 174 138 161 153 137 126 94 89 91 163 143 86 141 91 119 148 115 108 179 112 197 97 100 117 142 96 191 92 128 165 168 178 74 74 150 103 173 175 184 120 168 82 116 151 117 139 146 137 134 191 164 179 175 169 127 154 133 104 86 136 158 154 152 50 158 113 85 98 87 190 92 117 190 182 169 84 136 155 55 57 96 75 174 96
135 135 131 125 120 120 125 119 134 148 169 174 176 169 142 137 145 136 154 152 150 154 144 142 153 162 175 183 191 205 200 204 204 204 199 193 183 182 177 202 190 201 188 178 177 202 200 193 173 172 190 184 167 165 143 141 146 120 107 145 131 122 139 78 82 74 163 126 136 70 73 91 154 106 146 189 192 167 149 73 129 75 116 83 138 87 102 99 50 54 59 120 94 79 71 98 74 77 77 64 53 44 66 80 73 61 103 85 41 65 48 74 134 60 76 46 61 144 56 62 111 65 150 78 161 81 61 87 105 110 177 117 79 138 75 183 166 175 136 184 183 93 107 70 129 63 109 50 121 54 101 146 66 160 177 110 115 181 77 116 89 119 134 119 164 159 149 133 172 160 184 204 120 193 182 147 79 142 200 212 212 169 84 115 184 193 108 140 200 89 167 142 197 164 198 106 103 89 132 154 181 85 178 80 84 105 86 160 105 114 134 59 61 135 155 177 178 102 181 170 124 142 179 200 191 193 97 90 134 110 91 105 137 115 107 121 142 154 147 118 155 160 61 168 123 70 162 185 117 186 152 101 48 115 85 88 145 189 95 91 164 91 167 182 184 85 142 89 143 135 71 68 69 134 143 66 163 156 108 119 205 174 141 181 226 189 136 113 76 173 75 178 180 134 174 179 116 108 70 67 80 102 73 178 114 94 65 135 118 160 139 161 146 107 122 94 151 89 97 151 112 75 110 104 90 94 190 144 212 178 107 129 100 109 169 94 87 162 188 101 201 120 112 79 176 79 87 186 121 200 175 102 156 141 151 113 165 162 133 195 255 125 154 127 197 169 149 142 143 164 145 120 67 145 98 95 68 76 121 147 92 158 68 84 187 171 161 89 114 125 112 157 102 107 188 99 150 74 74 73 153 152 122 134 76 36 36 69 157 179 213 168 117 140 117 165 125 145 121 65 167 136 255 118 125 159 136 102 221 231 237 210 157 169 100 99 99 123 140 124 160 59 127 147 85 166 193 95 103 119 191 208 108 195 130 157 159 166 185 178 180 100 113 114 120 155 116 180 179 92 119 108 109 184 77 176 101 106 149 141 119 151 153 193 161 117 189 77 155 160 125 109 125 168 108 155 103 199 174 117 209 154 188 178 81 163 81 71 132 69 101 176
120 126 133 139 139 136 127 124 132 156 164 186 184 158 142 141 130 128 144 143 137 142 142 153 146 172 173 185 198 203 202 206 199 198 190 186 178 178 179 188 174 182 173 166 186 182 181 178 192 151 190 155 171 154 97 133 150 97 133 155 185 165 98 119 146 162 171 96 165 138 125 98 73 110 172 112 202 159 180 137 59 68 85 59 75 138 57 40 56 56 132 75 66 126 120 80 73 115 64 89 76 87 76 68 54 62 113 91 45 56 83 148 79 90 72 107 114 140 81 151 82 65 172 112 160 169 69 151 94 196 138 127 130 189 85 182 93 165 164 62 146 110 90 60 132 158 148 101 113 44 114 53 110 120 102 114 147 105 168 173 120 153 175 118 90 117 176 149 129 175 131 209 122 129 193 93 138 194 120 202 192 119 178 71 178 178 201 199 204 105 126 185 183 145 191 88 183 123 178 168 87 87 154 70 144 162 75 128 71 41 126 140 58 66 155 169 124 72 168 113 132 125 96 121 190 185 83 95 78 184 195 205 207 182 177 130 55 162 163 173 134 159 167 179 172 83 120 149 206 120 160 117 106 151 91 86 196 118 204 128 100 193 126 88 154 55 74 96 92 54 112 73 79 125 107 166 113 114 112 108 105 175 99 201 136 101 201 134 89 146 74 128 173 112 132 133 162 119 164 75 153 110 102 118 75 65 116 99 60 58 161 78 121 164 156 75 183 171 136 101 101 156 83 150 173 130 144 202 208 132 115 129 152 202 195 76 62 133 191 182 148 85 101 135 185 191 197 199 115 215 145 84 66 40 75 39 255 61 163 111 175 143 172 190 119 166 118 158 147 77 64 73 63 68 67 125 101 159 140 74 107 89 113 169 130 144 111 158 162 69 77 119 119 181 161 188 102 118 106 162 109 146 105 92 132 136 30 113 144 191 145 176 132 83 77 85 146 78 117 52 74 97 163 158 125 109 160 160 192 160 125 145 211 104 133 176 191 123 148 156 169 157 146 66 100 161 149 174 109 181 135 100 187 85 173 176 171 75 157 133 170 124 133 174 183 210 155 104 105 202 176 150 180 192 98 133 193 162 91 158 121 167 145 99 201 129 213 184 149 135 158 131 56 62 148 94 111 183 183 183 112 202 159 129 126 164 116 162 66 109 164 141
105 117 137 156 163 151 146 131 134 144 167 171 172 154 147 132 147 135 142 144 140 150 148 165 169 181 178 182 174 190 191 182 179 182 186 184 172 171 165 171 161 162 166 172 153 184 179 180 185 177 169 157 164 140 98 131 135 154 168 187 177 188 192 124 167 92 180 116 163 81 84 77 143 89 165 189 168 186 87 116 79 59 48 47 71 55 66 47 102 66 77 145 110 91 73 124 126 118 72 75 87 82 90 63 59 89 82 104 49 42 116 86 90 98 99 51 87 120 65 81 69 86 75 100 83 178 81 123 91 108 110 172 187 80 111 176 109 150 76 137 122 134 92 118 76 155 73 47 73 131 43 135 65 175 156 95 190 182 96 181 143 90 117 119 177 166 118 172 144 176 108 199 135 197 134 176 183 124 185 171 178 74 157 85 149 197 116 130 168 201 152 141 193 196 104 178 88 79 66 72 182 94 160 86 173 91 77 89 127 72 78 167 80 61 77 67 76 76 167 112 100 198 130 90 78 115 146 164 148 95 189 197 153 185 76 75 145 63 122 180 147 105 143 111 190 194 179 186 195 152 122 117 155 138 171 81 141 158 123 204 135 191 117 93 81 145 36 57 125 26 29 148 148 174 194 141 112 173 76 95 122 125 152 142 155 143 94 165 163 120 73 172 82 188 140 160 120 99 79 147 129 137 50 110 145 67 108 74 136 64 84 178 85 92 93 125 74 93 144 200 147 157 190 142 93 94 206 132 172 176 113 108 206 162 187 93 91 150 139 150 109 189 100 100 197 97 120 163 151 173 103 181 140 87 134 101 141 161 146 140 208 112 184 118 143 146 114 109 172 176 104 82 57 43 142 165 111 106 67 76 78 109 109 147 198 179 117 170 126 128 81 185 102 81 68 166 158 105 55 99 125 81 70 100 117 90 118 105 162 179 205 147 195 171 185 79 118 113 134 67 59 168 112 153 49 79 161 125 136 132 195 201 94 175 136 138 102 102 149 122 176 90 59 155 167 178 194 162 197 102 202 98 110 138 158 142 152 142 95 136 157 89 207 123 121 122 142 212 216 105 195 96 110 193 129 166 132 93 183 91 171 111 53 171 150 211 153 118 183 74 87 59 68 78 144 144 99 197 109 149 103 157 110 182 82 73 69 68 82 125 198 203
98 117 147 173 189 180 156 147 141 154 152 160 160 153 157 142 142 147 146 141 147 166 169 169 174 181 178 166 167 170 167 167 161 165 179 187 174 168 160 160 158 164 167 169 167 175 174 174 158 169 171 149 117 100 140 145 135 133 112 193 157 212 178 132 154 123 169 104 140 145 70 87 141 96 99 99 166 110 152 134 87 44 41 42 47 51 52 86 123 138 130 104 79 77 78 120 89 94 90 84 91 90 84 72 66 81 78 78 48 39 69 124 88 142 89 50 30 60 115 172 85 132 81 145 117 86 76 129 182 138 199 185 176 172 174 70 68 52 30 95 82 44 71 134 74 174 145 149 121 106 159 115 156 171 141 171 163 205 169 187 126 190 198 123 195 196 168 170 172 177 82 187 195 186 185 96 138 184 181 73 96 168 70 90 183 185 187 124 195 139 152 98 204 183 214 112 150 179 134 139 163 105 66 89 108 89 154 154 89 127 109 255 104 162 55 149 157 90 115 99 98 100 158 153 133 126 182 107 87 105 85 105 90 149 155 150 134 166 73 121 172 172 105 101 197 87 80 104 112 99 140 79 150 101 172 74 187 198 116 149 110 135 99 128 97 63 144 30 38 72 51 81 162 104 118 186 128 117 117 76 106 111 80 77 180 161 183 171 169 68 54 118 71 166 131 111 139 120 69 137 37 36 72 138 65 97 62 44 77 55 102 83 99 105 93 156 170 88 105 142 121 157 140 117 107 138 193 185 146 190 105 138 182 97 174 83 176 112 205 120 172 106 93 130 115 89 124 103 204 211 105 174 170 74 149 94 154 122 169 137 200 202 184 97 132 85 132 149 171 85 129 157 94 67 150 142 79 175 139 159 162 180 113 176 86 96 99 113 165 165 178 172 109 124 161 110 134 60 156 188 100 191 150 162 55 168 170 138 86 147 98 116 138 107 100 93 110 144 141 128 63 145 163 168 85 110 128 171 193 107 125 172 138 137 182 187 165 164 115 178 168 101 58 131 124 79 175 87 185 85 193 195 147 153 105 176 154 108 67 44 53 164 91 182 191 159 157 139 188 205 166 129 174 184 88 95 164 151 74 155 68 132 114 60 177 202 144 208 186 114 86 167 91 135 118 64 172 173 184 94 116 194 182 94 102 162 89 80 160 89 93 122
97 119 152 177 191 183 164 157 152 148 149 151 151 148 162 157 163 153 161 140 158 157 167 170 167 168 174 151 156 161 166 161 162 171 179 186 176 165 158 156 158 163 171 167 173 165 140 156 148 133 136 159 107 140 154 165 109 156 133 156 210 153 196 166 102 148 72 114 133 124 136 172 154 123 102 96 168 67 140 72 122 52 116 42 45 117 92 102 153 156 116 91 81 79 143 88 102 114 90 110 130 113 125 72 97 88 129 106 57 65 52 49 63 70 62 49 15 33 64 86 116 82 93 93 198 195 130 186 100 94 167 81 102 120 146 167 70 155 46 129 88 60 160 181 167 149 163 58 108 85 161 107 92 177 191 189 98 200 108 113 196 208 204 106 171 209 178 121 157 92 104 116 182 160 116 103 202 124 188 98 151 115 83 134 115 124 161 223 197 209 204 200 110 128 209 219 193 133 92 145 125 167 67 112 113 121 107 98 126 128 96 118 59 126 138 154 170 137 99 160 116 89 121 150 159 188 162 191 162 150 194 90 190 152 111 161 130 162 173 136 172 75 113 178 190 166 150 178 171 165 162 174 82 110 181 166 159 139 179 171 201 161 156 107 174 176 64 155 53 78 77 65 120 162 171 113 152 135 171 169 120 176 86 88 153 94 174 76 167 116 72 113 132 156 129 86 180 63 124 38 123 25 48 145 155 159 157 52 144 116 151 74 130 73 80 54 156 137 114 201 177 138 187 177 82 188 129 183 87 110 68 64 122 73 125 174 165 115 195 210 158 188 200 120 177 157 113 180 191 142 162 99 197 190 185 135 115 66 161 90 195 168 149 126 95 79 34 112 120 192 180 146 171 115 138 75 140 135 124 200 129 119 160 157 121 171 172 69 85 156 105 136 53 53 129 122 129 158 177 203 207 204 169 169 143 166 193 161 101 195 203 187 119 163 112 162 153 77 48 61 142 114 149 151 113 77 124 145 178 117 200 191 196 149 149 84 194 151 157 176 105 96 127 164 110 108 92 179 172 166 150 184 93 97 197 125 155 60 64 108 55 64 155 117 95 100 137 137 176 120 81 63 93 116 171 148 81 167 90 72 119 58 125 128 88 207 209 97 186 156 77 148 98 120 140 124 109 156 137 189 147 105 198 197 147 184 174 82 111 170 114 184
103 123 152 174 182 174 166 158 158 160 139 148 146 151 151 168 171 169 166 158 164 159 157 145 169 178 181 165 150 153 166 173 176 177 185 191 189 177 155 142 159 168 152 160 166 170 172 156 124 128 143 151 150 121 127 158 182 186 148 184 121 143 116 134 69 136 107 72 150 139 133 107 117 137 88 95 128 71 52 107 39 41 56 41 104 67 65 98 108 175 111 96 102 82 91 133 104 90 94 125 116 124 105 95 115 101 83 124 91 49 71 67 87 73 81 50 25 111 66 88 112 145 100 141 121 134 128 97 93 125 161 75 74 141 63 165 182 67 155 46 154 91 121 109 81 158 171 142 109 70 170 156 202 199 187 178 167 139 144 177 148 184 195 208 195 133 190 195 102 96 91 183 109 177 164 131 209 121 166 102 100 126 81 116 177 143 206 212 203 99 176 217 158 216 216 192 213 103 146 105 149 147 161 63 172 165 100 184 97 130 118 120 120 66 126 171 166 71 115 184 173 145 178 144 152 100 185 216 201 118 154 100 95 188 140 153 77 163 112 133 99 79 85 183 184 77 175 102 81 148 120 162 86 126 141 139 119 179 177 192 161 149 193 99 133 81 110 126 131 93 95 163 149 183 83 152 101 147 78 128 98 175 184 129 149 157 85 116 65 100 148 93 142 88 126 100 164 59 49 84 33 103 126 78 119 149 50 68 79 55 82 75 58 88 150 100 123 104 105 105 196 161 84 69 75 86 199 93 101 131 159 49 55 154 173 162 114 124 168 211 157 195 98 196 133 79 158 81 182 120 193 200 208 207 129 184 120 86 155 177 170 158 184 173 160 140 127 132 112 169 152 125 164 54 68 146 131 103 216 140 110 123 90 98 104 132 149 142 112 109 59 51 112 74 100 108 88 95 88 122 206 176 158 142 176 144 197 181 196 176 116 221 154 207 144 205 189 146 157 52 71 68 77 168 121 73 105 174 179 131 171 128 183 191 139 129 107 124 170 106 69 129 72 67 92 148 171 117 140 67 160 155 135 89 197 92 119 110 169 127 157 80 114 146 127 122 115 168 201 135 117 148 158 166 143 86 74 146 122 137 71 72 137 130 172 184 199 173 141 101 96 78 85 54 81 136 89 132 84 102 72 80 92 194 90 81 174 172 123 121 82 82
108 124 144 161 167 167 161 167 165 153 140 145 154 161 164 173 160 174 160 174 162 150 158 147 167 168 174 176 168 162 167 186 193 191 182 186 181 175 161 156 162 169 173 187 165 180 180 155 149 149 144 160 153 130 171 164 202 196 145 168 150 163 96 85 137 75 162 173 96 97 167 102 90 79 108 150 74 91 83 114 80 104 97 91 56 94 49 113 152 136 95 89 103 106 116 92 115 102 97 255 108 145 132 120 87 81 78 89 75 64 63 90 82 86 73 125 74 132 72 162 87 86 89 135 111 125 171 150 72 78 64 48 103 53 151 169 80 153 72 166 69 81 177 187 85 89 184 110 84 167 113 156 119 120 176 82 169 174 103 142 119 198 173 150 173 200 181 104 128 152 149 203 201 168 148 165 210 123 172 204 130 186 130 100 186 211 201 164 133 92 203 160 200 159 211 195 204 160 169 77 141 153 103 116 121 86 175 152 111 121 52 55 115 162 104 88 115 77 152 166 192 147 157 87 162 145 143 225 190 161 178 99 89 104 107 187 151 142 81 103 184 178 154 117 178 79 91 109 83 139 146 156 129 162 88 117 121 115 144 95 162 186 157 141 71 127 167 162 170 105 166 132 146 176 88 131 69 113 93 100 198 183 123 205 115 162 124 66 121 74 138 57 61 118 134 113 52 58 114 122 66 44 88 47 50 68 148 88 88 60 59 75 146 79 91 120 94 84 162 84 169 160 100 61 112 156 97 127 97 93 71 157 121 79 151 121 135 196 123 174 211 159 203 107 109 168 127 165 101 178 84 162 209 208 132 106 188 94 169 81 130 183 166 90 187 75 153 106 106 125 143 173 73 159 57 113 168 145 194 202 162 96 194 195 108 211 184 181 82 142 68 131 160 126 168 179 182 196 208 175 116 151 189 177 104 165 108 206 170 207 147 125 213 212 138 180 139 111 82 77 103 118 77 150 171 156 97 130 133 117 86 191 148 96 186 105 103 193 186 141 76 75 145 120 79 180 173 158 59 131 151 117 166 158 86 85 181 127 117 165 64 160 111 50 56 81 105 188 192 161 115 163 75 59 171 74 95 163 90 133 94 68 166 77 163 144 109 88 169 133 144 93 176 71 153 48 152 61 143 162 164 67 188 191 96 83 73 74 89 104 88 76
120 129 138 145 149 157 159 162 169 159 152 139 152 163 180 178 167 159 177 159 156 160 142 149 161 183 191 188 176 169 168 193 202 193 187 181 175 163 149 158 166 181 176 181 165 168 150 145 142 138 158 145 109 160 146 203 212 165 155 125 154 87 92 141 77 146 161 131 141 148 128 100 71 47 78 147 75 125 84 89 97 105 73 100 124 38 43 69 67 126 127 104 98 93 106 91 84 97 111 114 98 120 129 109 98 99 136 70 62 117 125 147 83 170 125 97 130 72 79 147 86 89 83 189 108 152 146 179 68 64 146 141 126 48 116 110 102 132 106 162 110 169 184 175 176 105 99 99 157 84 178 166 76 174 161 141 124 64 116 179 180 183 217 117 109 92 155 113 123 104 181 186 125 172 194 105 140 105 197 138 157 169 100 140 171 152 197 152 142 116 101 150 224 131 111 162 135 188 100 74 72 84 119 69 141 120 91 123 104 164 50 144 91 192 163 168 81 157 121 183 155 108 185 180 189 198 143 228 147 107 195 116 184 159 75 142 135 78 89 184 91 164 60 149 167 191 91 182 163 155 142 144 82 114 123 155 117 174 101 141 102 80 132 136 90 62 52 83 156 145 88 190 180 162 85 142 129 47 73 187 181 114 110 125 109 147 122 124 104 77 131 99 94 84 69 67 55 70 172 106 100 88 67 104 48 128 169 152 106 169 147 114 64 108 183 91 88 128 76 148 133 83 143 88 174 100 151 157 202 134 101 97 118 188 127 98 166 164 122 182 192 102 122 101 91 167 162 155 75 166 92 168 117 120 214 205 186 101 185 183 153 93 154 169 99 159 186 89 131 144 89 164 84 164 111 66 114 189 188 107 186 196 115 200 211 151 144 79 150 104 59 130 106 169 131 179 130 141 196 145 206 150 121 138 192 138 105 154 192 136 124 121 174 102 186 134 147 179 87 96 182 110 113 170 162 115 66 109 59 137 129 68 74 135 87 181 148 104 158 143 167 169 164 185 99 88 158 65 151 127 61 150 142 123 107 163 179 98 168 169 98 119 102 45 44 119 50 84 114 119 186 97 92 160 62 127 84 78 58 162 156 63 81 81 48 89 62 159 115 109 151 188 88 124 144 100 43 92 107 136 47 107 77 176 182 149 174 78 105 196 195 85
126 125 125 132 140 154 167 170 177 166 153 153 151 173 170 172 168 152 164 144 152 148 156 171 165 173 182 176 177 170 181 196 202 198 183 175 166 155 149 157 165 182 177 169 162 184 148 172 162 166 126 155 152 160 123 166 168 164 196 148 153 121 150 123 139 146 119 129 123 115 153 119 139 54 101 126 97 124 65 71 43 93 101 97 118 107 70 52 130 132 111 101 131 97 93 138 87 105 77 82 75 108 123 129 114 118 75 114 74 128 59 130 112 96 96 98 166 88 114 170 106 151 129 92 103 145 121 178 70 149 125 140 101 55 111 163 164 80 168 157 61 149 156 142 101 148 112 157 200 117 140 177 156 159 143 142 146 115 122 151 180 139 127 189 179 172 148 136 65 105 93 113 129 162 131 120 97 110 198 146 190 81 138 73 154 107 150 81 109 160 114 205 192 197 88 122 78 156 77 116 76 78 113 114 159 76 85 190 179 135 131 157 78 201 201 145 94 143 124 83 150 152 196 87 100 95 210 182 159 106 182 108 120 159 61 57 133 80 191 169 177 156 157 166 103 116 207 93 140 148 143 142 136 140 160 126 156 154 95 135 74 58 162 72 125 129 97 146 62 155 161 93 165 102 127 145 142 65 140 192 108 104 149 100 188 95 77 115 75 139 129 105 143 123 72 61 143 109 129 93 108 101 109 92 91 99 99 130 97 102 148 70 69 167 80 179 125 157 63 89 124 83 191 150 102 185 211 140 126 202 113 186 107 152 140 102 92 150 86 199 104 91 170 92 123 156 151 61 164 133 97 193 164 132 238 217 214 203 197 177 160 182 131 186 120 186 108 168 175 160 102 81 72 111 151 71 140 74 90 164 146 122 105 164 196 205 176 126 152 58 155 69 73 116 96 184 148 101 149 182 191 154 157 197 105 197 154 104 205 131 143 221 136 193 96 83 118 168 80 95 100 95 91 79 140 158 68 155 54 134 128 107 66 147 96 106 112 196 161 151 183 177 169 84 127 66 97 151 153 86 87 65 105 129 145 65 107 128 165 166 175 141 72 44 55 86 59 158 182 101 187 109 80 54 112 102 129 59 158 68 79 133 153 126 110 77 155 145 168 100 118 113 185 87 131 132 43 154 54 108 130 70 189 151 109 123 185 75 123 196 103 210
124 115 110 119 136 153 168 171 169 168 160 159 154 157 151 154 163 158 136 132 150 154 165 173 169 167 177 175 179 179 176 179 191 189 183 175 161 139 145 158 180 185 191 174 171 139 167 150 164 142 155 159 154 120 169 146 157 191 139 158 119 105 107 92 140 176 178 188 137 86 121 66 61 125 115 103 151 152 69 119 114 37 71 45 78 78 108 103 83 97 148 127 101 93 112 109 107 96 113 84 84 102 125 97 93 101 76 85 114 57 67 82 61 71 82 131 113 116 107 117 169 193 105 94 167 178 77 89 123 105 81 72 65 62 143 90 82 70 53 147 98 148 86 169 162 196 142 175 197 169 163 173 94 169 140 109 119 143 86 102 105 107 110 190 121 155 122 153 105 130 118 172 157 135 168 167 180 186 136 129 140 133 156 100 154 69 154 150 193 207 153 205 106 192 177 168 133 78 79 83 174 193 88 162 74 155 177 86 106 155 46 88 133 168 171 154 49 152 130 79 133 197 142 126 96 123 101 194 165 183 184 136 175 165 97 105 109 109 154 186 83 103 94 153 125 119 218 99 161 154 148 141 71 53 134 106 154 99 148 91 43 115 51 153 158 126 100 85 67 171 70 106 145 152 60 61 72 60 185 116 220 109 88 139 70 147 76 172 107 106 70 106 150 102 120 75 172 64 73 89 210 204 208 111 80 142 105 186 115 100 156 179 78 154 105 148 176 87 112 149 86 197 120 148 138 116 111 197 122 125 120 203 122 110 187 94 89 177 102 134 180 77 120 59 86 79 70 44 160 86 191 191 157 137 206 231 112 207 199 188 174 191 119 196 177 96 176 103 179 184 149 126 154 143 117 152 103 136 159 131 81 147 169 179 92 132 142 111 97 126 67 58 131 80 101 176 151 122 146 115 110 168 198 188 144 105 187 184 150 132 135 195 102 98 164 180 154 97 69 158 171 168 146 150 181 190 109 94 99 36 31 137 149 164 144 104 121 162 121 124 154 140 75 55 153 137 104 119 159 105 70 162 139 61 147 89 177 98 116 194 194 121 64 127 122 75 133 58 153 155 190 154 132 93 141 45 64 108 102 186 80 122 159 145 136 91 52 170 181 93 178 108 175 101 54 95 51 94 162 104 150 177 255 214 217 255 147 128 85 176 164 118
106 98 92 107 131 158 169 176 159 158 153 149 137 137 136 141 154 153 141 135 140 164 169 182 179 174 167 177 174 186 181 176 175 173 172 167 160 149 148 164 187 185 171 135 150 134 148 118 120 130 138 158 117 133 123 181 138 159 179 125 177 99 112 139 103 113 128 140 172 119 105 104 110 143 83 89 170 155 107 101 86 81 108 72 52 53 106 83 160 117 137 113 159 132 128 123 124 159 108 89 87 108 129 106 97 99 86 76 73 132 98 108 72 65 148 85 93 95 106 173 198 113 161 97 186 88 83 82 91 91 156 109 98 170 155 100 165 56 155 152 166 168 140 110 188 145 168 138 115 164 85 189 183 150 67 96 102 106 141 182 171 199 141 174 108 113 72 133 168 154 174 171 82 150 77 87 143 119 186 197 196 183 107 186 75 84 143 76 199 114 157 109 91 81 68 76 119 140 77 168 113 161 184 92 65 54 155 139 123 158 115 135 179 178 59 44 34 34 56 167 149 190 167 165 167 75 151 90 115 152 81 174 166 61 141 139 146 77 187 160 72 76 171 185 176 216 217 196 83 106 145 47 255 41 133 97 54 142 55 103 113 138 137 171 113 129 138 86 81 91 94 67 74 124 74 64 126 77 170 103 211 150 107 118 104 136 151 203 106 180 70 82 115 141 102 95 106 99 83 112 116 231 219 196 104 84 100 105 185 142 198 186 102 178 95 157 63 94 82 156 189 126 118 213 217 181 116 101 143 102 175 88 149 84 95 80 97 174 169 82 182 72 120 126 156 148 68 77 158 110 127 156 118 215 193 159 181 117 191 175 175 114 185 104 141 188 119 156 188 150 110 64 144 152 129 159 77 155 117 171 174 60 162 61 119 139 89 147 145 57 46 126 151 151 55 78 148 166 145 121 84 103 192 138 94 161 70 101 131 116 131 198 113 139 138 168 65 83 164 172 126 69 90 142 178 195 142 177 139 112 129 40 155 100 119 80 90 195 145 131 91 150 131 146 82 118 42 157 111 183 183 107 78 157 90 154 172 199 197 177 106 166 99 132 30 134 112 156 162 173 194 137 79 146 93 86 143 161 167 102 122 87 149 101 65 110 143 134 129 104 186 178 165 131 133 156 75 145 128 73 94 184 103 197 138 120 185 150 142 194 138 120
93 90 88 107 129 150 157 159 148 138 129 138 140 127 141 152 158 163 149 162 163 167 180 193 185 166 169 181 186 193 182 170 161 162 165 166 155 152 158 173 196 189 156 121 124 123 142 123 122 116 158 135 116 135 154 136 164 146 217 141 185 130 111 160 105 162 96 102 161 141 152 107 127 118 163 155 150 109 72 108 121 39 118 125 110 69 89 84 107 184 133 114 163 90 91 106 111 160 147 120 99 123 116 106 100 139 99 71 105 74 88 78 90 149 76 95 135 129 106 140 101 101 119 103 149 91 83 123 136 86 187 108 106 131 170 75 121 99 141 98 111 139 102 196 129 109 189 149 126 175 182 79 99 72 115 163 67 98 159 97 199 173 139 158 137 148 72 159 165 179 136 110 170 94 166 170 132 122 190 85 176 103 142 145 174 87 141 147 160 95 114 94 103 183 81 160 146 84 174 170 196 159 92 148 147 151 134 71 103 81 60 107 94 144 85 123 47 60 132 121 186 197 103 94 179 124 113 75 158 127 168 143 169 94 75 46 153 128 96 183 123 174 166 184 166 188 197 255 117 72 144 121 140 113 47 74 72 137 147 54 92 105 109 188 190 131 183 188 184 99 141 79 96 48 72 31 33 87 173 165 149 191 138 140 129 185 102 140 146 170 179 117 103 184 186 116 140 109 93 193 125 187 153 163 73 143 173 155 87 189 85 83 77 72 59 160 123 93 89 85 161 128 139 194 209 105 160 85 86 175 71 139 51 111 74 116 151 150 169 178 182 98 81 85 172 123 64 158 178 157 90 103 162 86 189 188 115 160 182 170 76 160 166 150 76 108 200 221 159 187 173 84 133 159 91 142 148 153 84 160 109 145 87 159 63 167 165 99 50 48 151 54 142 54 99 102 111 106 86 103 163 90 91 108 134 64 70 137 148 177 198 181 79 167 148 158 112 151 138 77 117 135 150 123 173 187 138 196 178 137 141 135 157 89 162 181 157 167 136 210 101 145 54 111 136 38 131 151 138 100 198 91 122 173 156 112 200 111 126 175 170 162 102 83 138 73 152 159 164 145 152 100 179 66 65 118 91 195 86 77 70 64 106 105 155 143 95 164 91 122 108 98 82 75 111 147 138 71 179 175 111 183 174 125 205 157 99 188 114 118 98 132
94 96 99 110 128 142 141 136 135 127 123 126 132 139 142 161 176 174 172 175 187 198 196 190 182 186 176 171 178 195 180 167 146 152 150 153 155 154 161 181 195 190 170 144 135 134 110 105 112 146 151 156 135 168 132 151 191 213 177 193 195 158 140 124 135 128 107 96 159 170 170 195 142 172 184 162 101 84 114 124 81 43 46 109 141 114 82 99 139 117 127 123 109 99 103 104 109 107 118 116 104 111 110 102 120 130 118 111 72 104 110 170 89 119 127 118 118 101 95 162 188 137 160 118 203 197 85 79 170 80 176 74 105 110 180 114 61 132 59 168 141 77 186 168 179 99 131 64 131 149 169 85 115 131 156 158 121 177 91 119 198 192 118 160 91 151 161 78 101 148 193 206 195 177 175 67 146 180 89 179 164 67 135 186 174 100 159 138 80 168 160 171 126 92 187 174 63 161 168 155 150 92 110 147 57 94 141 119 162 169 93 94 67 152 61 28 23 99 55 84 145 196 113 168 105 67 122 49 47 110 69 130 97 171 175 64 81 103 177 183 70 66 97 123 189 196 90 136 114 145 118 138 113 138 86 146 147 255 54 51 105 150 141 144 111 185 176 176 156 98 175 63 146 68 73 71 113 122 173 125 84 149 158 174 93 205 201 184 106 100 94 106 84 160 85 100 96 106 77 87 141 117 121 67 111 155 75 166 63 141 77 156 113 104 63 129 119 76 112 180 130 128 196 109 98 142 91 72 93 56 113 57 88 108 86 22 29 137 70 75 156 129 255 73 179 126 74 181 92 177 155 124 161 89 84 82 128 180 127 79 150 112 156 164 166 133 205 152 204 148 137 135 109 124 130 113 83 106 59 166 60 156 58 141 150 134 64 164 117 137 155 51 149 107 135 95 104 106 113 48 85 131 170 97 127 168 94 147 116 190 167 69 143 72 61 86 80 96 81 153 177 141 70 172 132 103 152 203 115 90 105 146 51 165 164 103 187 126 204 208 193 158 105 41 144 49 129 60 86 116 102 191 129 81 164 166 103 203 159 125 164 69 85 97 144 104 193 92 97 185 199 171 174 125 191 141 198 107 76 99 56 82 70 153 63 63 91 83 138 171 87 114 162 181 104 63 164 145 176 169 166 119 182 175 131 204 100 99 191 110 73 103
114 116 119 122 128 127 133 126 125 125 129 128 132 129 139 158 182 181 196 204 202 205 205 200 189 188 177 174 177 188 181 171 157 148 145 149 145 141 160 170 194 178 173 157 151 126 105 134 136 135 102 124 160 151 173 169 148 146 201 146 148 163 156 151 162 118 152 99 97 173 101 167 132 179 192 121 105 130 66 141 49 48 135 70 140 163 99 147 129 112 129 104 153 95 93 90 85 125 84 92 103 68 97 123 160 113 133 82 99 118 89 114 166 93 110 123 124 105 154 81 94 130 186 117 192 90 142 112 144 68 163 59 135 166 168 77 60 48 158 116 74 71 163 93 94 179 162 143 149 62 138 82 117 128 157 161 142 143 104 138 199 181 176 157 159 157 76 148 185 178 145 172 148 161 167 138 123 165 130 107 81 115 145 177 80 183 145 159 170 75 166 111 112 162 189 154 160 98 151 70 93 179 119 152 149 68 55 109 146 150 81 168 159 93 107 109 43 124 68 48 96 173 185 107 93 95 137 146 58 96 94 106 130 162 145 177 178 182 179 162 164 65 108 169 76 87 86 187 173 139 95 92 48 132 121 135 116 143 143 160 171 191 200 214 135 119 182 167 104 128 107 91 85 79 150 143 147 153 65 85 172 111 84 98 186 98 91 91 148 97 97 197 127 137 111 171 195 184 99 162 79 173 143 107 169 163 81 158 145 96 123 108 89 180 165 110 125 82 94 205 157 177 186 80 107 189 87 91 76 45 58 142 72 129 57 67 71 46 152 98 76 127 71 122 161 146 165 85 146 192 133 98 50 139 77 76 173 88 167 127 61 58 155 170 156 115 185 153 146 92 87 70 149 81 137 141 83 65 112 166 96 123 135 148 146 155 52 162 61 62 75 112 151 55 87 126 136 44 83 131 67 81 71 171 96 92 188 186 195 102 129 62 62 93 63 146 64 78 94 80 77 166 168 113 147 192 129 130 202 120 170 83 153 62 98 108 187 90 175 103 197 179 114 152 64 153 87 150 129 158 135 195 116 189 106 139 189 178 153 149 66 77 89 99 94 173 179 168 102 170 173 104 156 140 140 168 96 74 113 79 148 50 82 147 143 55 45 132 122 124 186 107 161 137 177 57 161 164 141 89 89 177 186 195 165 92 129 145 198 134 161 71
131 130 131 132 135 129 126 136 138 147 145 135 128 133 133 141 164 183 193 198 198 199 187 202 201 189 171 168 166 167 165 170 159 158 148 137 137 145 161 157 177 180 163 157 175 141 130 138 140 113 125 165 163 163 165 145 149 164 150 130 173 105 117 167 121 155 92 79 167 155 124 155 176 131 105 124 101 140 116 103 72 123 130 133 98 90 108 134 68 78 127 125 74 85 102 89 117 53 41 53 93 70 125 129 125 123 142 85 92 83 121 100 121 178 95 103 95 135 92 87 124 99 177 82 71 92 161 151 64 164 77 80 151 191 97 135 163 154 57 162 67 161 172 151 117 89 163 166 164 170 71 159 150 154 120 166 161 78 191 175 162 92 84 151 169 173 101 169 114 150 121 100 153 86 166 60 159 106 180 115 89 169 151 123 123 180 180 117 147 161 66 62 160 186 178 121 78 46 58 155 156 140 163 89 66 139 153 177 190 170 185 123 74 152 61 46 46 51 33 123 66 164 198 156 181 76 167 74 114 61 67 183 104 113 123 192 169 130 179 160 97 156 155 148 156 67 143 84 116 73 128 136 121 53 111 48 149 113 160 67 176 165 204 207 124 172 103 108 139 75 84 86 69 153 164 68 129 61 64 176 151 193 142 116 98 146 124 75 79 135 97 101 116 102 195 102 123 151 67 77 87 117 92 157 161 168 140 155 133 51 69 97 120 168 167 74 86 102 95 107 146 144 136 155 163 86 69 60 42 50 76 117 124 97 79 116 42 85 56 73 117 59 167 68 111 135 98 181 96 102 67 44 103 92 158 108 160 188 71 109 96 96 121 77 168 117 120 140 172 138 157 122 63 47 125 140 79 132 168 79 91 116 123 103 102 153 138 159 84 48 89 48 105 134 140 98 139 38 64 120 83 87 141 182 121 117 103 159 103 168 86 133 69 47 137 144 71 77 146 102 78 162 116 69 171 181 197 98 186 177 79 66 162 169 92 191 131 146 193 201 97 171 121 115 64 68 65 128 166 83 165 184 189 183 142 86 91 144 139 40 93 157 127 198 201 214 118 167 216 145 200 139 129 200 142 191 169 100 161 97 75 71 102 96 69 42 100 72 142 145 97 164 215 166 72 68 124 138 80 166 193 131 153 99 90 137 91 195 193 155 72 161
130 125 123 124 135 136 144 155 155 156 147 144 131 138 125 130 150 153 176 182 164 179 167 193 190 189 173 166 145 155 153 171 173 168 154 141 138 146 154 162 152 171 162 190 188 170 167 147 144 132 166 130 173 134 161 162 164 194 168 178 171 112 90 102 162 98 115 154 118 135 155 165 153 113 166 180 77 117 47 75 107 68 75 151 111 151 125 56 50 101 67 64 95 91 63 49 59 53 63 54 46 76 97 91 119 131 95 106 98 65 79 147 189 126 107 115 129 134 74 79 82 107 91 59 133 87 143 58 132 166 79 179 87 151 150 164 171 104 94 89 166 172 176 82 180 174 144 79 163 101 157 183 150 152 149 129 179 174 176 128 109 149 167 131 94 162 183 112 115 114 157 175 85 160 144 115 141 146 133 195 160 112 179 88 177 148 170 177 71 127 42 106 128 74 74 144 111 59 150 164 102 187 149 117 162 151 161 103 171 127 147 165 95 110 164 74 89 74 143 77 153 136 170 116 128 133 88 161 133 118 77 175 104 104 193 188 174 94 83 83 169 98 89 152 121 143 153 160 154 50 142 127 101 136 255 163 69 96 137 165 135 174 102 134 193 131 140 127 151 84 173 94 177 184 118 88 136 106 167 156 98 170 143 89 73 91 87 58 140 255 115 97 110 176 114 130 115 171 160 58 153 53 61 71 177 99 120 136 50 49 65 109 197 92 97 134 176 88 174 181 196 209 85 140 157 165 125 74 81 79 84 116 166 87 116 48 144 116 59 79 152 118 129 161 60 151 52 162 117 70 92 46 42 52 172 182 149 255 124 65 74 77 79 172 85 177 103 136 162 176 107 148 125 83 154 145 74 86 177 144 81 124 102 159 105 58 168 166 61 157 73 92 57 90 101 153 160 149 120 122 141 153 124 96 150 141 224 215 188 103 90 75 66 116 166 68 137 179 178 106 147 66 150 87 141 167 88 195 102 89 98 169 115 178 177 122 161 109 138 114 100 172 138 159 126 75 84 74 164 119 107 94 135 66 169 66 64 70 143 118 142 71 179 116 172 107 220 186 199 196 163 134 101 189 134 67 91 158 71 135 143 181 72 74 65 150 61 79 60 155 85 208 136 130 70 105 127 81 111 193 204 118 164 87 159 73 103 142 145 193 74 93
116 108 102 109 127 142 156 163 181 166 161 152 148 142 145 127 140 133 154 164 146 154 155 181 189 196 187 168 147 151 161 174 175 174 160 143 135 139 157 152 161 164 168 167 188 181 180 175 169 173 167 141 152 183 172 165 150 137 191 173 131 121 120 87 182 107 131 94 124 151 126 129 142 154 89 69 62 53 48 119 150 101 128 128 68 100 134 48 41 100 73 120 45 55 43 34 27 36 58 79 84 101 83 136 142 102 136 99 81 97 77 115 165 144 130 176 107 128 94 55 117 78 62 82 93 86 101 145 101 188 187 192 105 164 92 157 144 78 109 167 171 170 120 85 176 73 176 169 186 145 88 163 147 146 159 148 187 151 157 171 172 139 209 211 179 131 119 128 144 151 139 149 143 149 143 145 131 199 193 189 188 206 107 88 170 88 95 158 128 50 79 122 56 88 73 63 56 58 159 122 209 150 93 163 154 107 135 178 171 81 120 169 149 72 142 152 69 156 154 120 63 83 171 78 184 120 93 123 110 84 113 255 99 162 194 124 189 180 112 90 180 69 147 124 91 42 78 140 152 63 66 123 106 159 184 194 191 187 77 157 157 83 83 158 125 139 132 131 47 82 178 170 125 139 107 193 90 181 65 64 179 100 113 103 75 67 142 54 162 181 118 75 146 156 164 199 167 170 137 129 97 84 182 119 106 98 171 143 44 63 64 105 106 121 90 179 72 133 84 183 169 185 102 75 160 108 93 106 77 94 122 99 201 159 177 98 166 166 147 111 94 53 161 135 133 44 140 109 73 152 98 153 81 168 187 185 158 147 184 69 159 163 255 184 190 146 83 156 121 182 140 178 114 61 119 89 122 124 147 83 183 173 79 146 145 117 106 180 142 116 86 139 159 69 118 170 162 54 53 53 106 174 93 173 161 226 182 211 107 112 123 117 76 180 100 117 161 161 188 126 165 173 54 105 160 71 80 118 191 111 87 177 80 171 89 141 198 199 107 206 188 164 129 76 74 83 102 72 125 134 72 167 164 162 124 170 163 131 137 48 48 143 155 161 167 198 206 199 214 140 191 150 102 165 97 113 86 139 166 127 196 95 111 183 71 159 170 71 95 71 149 203 216 98 117 155 59 112 125 189 191 100 134 76 154 93 85 90 114 186 72 144
102 95 90 100 121 143 161 169 183 170 166 166 169 164 152 150 149 149 153 145 149 152 149 176 191 191 184 169 158 157 168 180 181 175 164 155 151 157 164 162 150 155 159 168 174 178 168 188 169 172 169 125 181 180 186 177 162 212 196 175 109 77 160 141 145 177 146 112 150 149 109 149 137 129 57 112 88 59 102 140 80 73 130 129 121 89 97 52 59 66 93 55 57 40 66 35 82 37 61 94 57 73 92 85 104 120 96 72 66 72 116 143 155 175 93 134 89 65 95 72 139 68 119 52 45 132 133 89 173 124 191 181 89 86 132 83 84 169 172 89 105 74 164 184 77 135 162 163 87 168 163 161 139 82 186 143 171 169 97 174 152 164 174 111 131 149 189 109 150 164 99 130 127 115 102 143 160 167 130 150 149 163 197 94 103 104 150 148 86 103 47 109 152 98 81 80 62 76 108 152 112 137 97 75 106 167 171 84 106 92 144 105 120 150 116 132 139 90 151 74 65 96 165 79 181 77 76 99 127 133 148 131 78 101 198 91 90 182 176 100 180 84 163 157 73 54 114 81 166 156 125 78 106 198 110 198 120 192 80 88 255 59 83 168 117 125 112 41 104 72 162 144 116 159 114 164 168 138 162 152 120 180 92 123 117 76 60 79 136 130 81 168 137 82 74 143 132 141 92 62 132 175 154 112 159 108 80 64 92 79 161 94 90 92 151 145 64 104 118 87 110 171 190 158 89 88 152 99 81 173 87 132 117 201 157 85 95 103 170 146 142 107 133 168 149 57 148 61 87 165 165 69 90 169 80 163 159 181 84 142 51 124 184 205 142 166 197 143 210 162 137 181 115 115 96 100 103 179 123 131 89 89 167 167 115 72 145 189 164 114 130 155 149 66 67 56 92 96 146 62 165 145 114 182 172 111 158 114 200 164 94 112 157 186 95 208 160 182 106 168 177 177 125 119 129 113 150 126 185 163 128 133 150 156 118 121 192 199 192 100 184 56 87 160 91 105 179 163 110 162 128 165 86 65 87 104 105 52 39 114 140 123 82 74 160 89 140 140 152 105 181 130 192 149 157 90 47 110 156 144 137 167 123 139 157 132 184 149 83 96 160 197 147 90 69 75 116 135 166 152 70 99 121 96 93 79 176 134 120 85 76 120
105 101 101 112 129 143 161 163 179 169 162 163 172 175 172 179 162 153 159 155 159 163 152 161 185 170 176 169 170 176 181 181 173 164 160 163 167 160 255 151 146 150 136 155 160 174 167 190 183 145 133 153 131 148 206 190 216 170 201 142 135 118 157 127 121 130 167 122 154 97 133 130 87 26 43 111 140 78 87 94 95 111 117 121 134 100 90 105 62 69 114 72 63 61 43 96 47 107 58 87 115 78 124 117 131 121 94 85 121 64 130 111 162 176 165 83 71 128 147 110 81 84 47 41 61 71 70 82 89 96 186 106 86 180 189 165 185 167 153 68 73 170 180 159 183 85 125 203 139 166 145 57 161 178 150 187 108 181 108 150 183 180 199 205 105 113 118 107 196 192 124 114 128 129 129 57 102 169 255 195 111 112 117 136 162 135 106 139 145 158 122 144 64 56 78 95 177 153 97 191 197 172 113 125 83 127 147 137 163 96 181 83 104 124 83 118 173 180 88 154 153 85 169 128 103 129 163 92 167 57 121 98 197 110 167 124 98 178 117 130 79 93 75 114 67 95 68 166 171 175 129 72 172 145 180 179 197 197 108 162 145 67 161 98 105 129 71 72 175 87 96 109 144 94 152 147 167 100 80 96 74 103 84 197 142 187 179 71 72 173 169 68 124 137 166 160 110 49 96 68 102 100 219 191 110 95 104 87 95 154 117 107 100 96 166 99 67 128 83 117 189 87 161 97 100 160 164 66 79 138 110 196 107 145 106 103 82 90 152 169 90 134 164 175 171 155 56 155 71 71 78 136 61 152 173 189 122 186 160 154 134 76 98 199 151 211 123 212 111 181 162 165 187 145 117 149 106 105 106 176 103 82 162 167 162 86 147 178 112 96 80 111 170 99 54 136 109 62 65 170 148 74 80 142 133 150 170 181 116 179 99 166 73 176 136 145 107 202 150 83 96 107 177 188 117 190 93 114 131 150 95 177 91 161 97 181 126 187 191 131 94 52 119 78 170 161 160 130 135 144 112 162 137 175 89 134 81 163 123 149 157 153 152 175 87 156 177 132 156 195 167 90 103 79 99 67 94 91 171 180 190 98 198 98 190 185 140 193 86 123 165 132 158 98 123 135 102 100 97 145 118 96 86 91 125 129 109 177 91 97 125 95
119 119 121 128 141 157 158 162 167 172 177 171 182 184 200 189 187 184 169 164 154 164 164 169 175 180 172 179 183 190 189 184 172 170 174 177 180 165 167 155 145 141 144 154 139 150 196 204 203 173 166 176 130 181 175 181 174 187 176 164 96 127 70 147 131 132 112 152 149 144 146 136 114 43 96 112 130 89 87 98 150 89 82 54 53 72 129 87 84 97 96 75 91 91 86 80 90 86 85 111 83 99 91 85 100 89 73 89 124 76 98 126 113 163 92 73 99 117 92 121 123 112 67 66 66 124 179 96 98 92 95 94 83 90 179 141 83 176 96 88 131 91 188 91 188 100 104 202 191 150 113 34 134 163 108 158 129 147 171 117 144 169 208 196 196 177 207 211 203 161 162 89 160 163 160 110 93 195 109 133 96 103 133 75 71 100 89 133 177 179 171 92 67 136 49 140 157 182 150 187 182 138 187 108 108 106 95 97 114 113 131 137 174 77 74 201 210 148 201 179 100 170 124 78 121 156 170 142 96 64 81 191 130 187 115 119 97 176 58 49 45 117 153 152 112 171 150 172 161 172 255 71 175 89 174 225 176 164 180 165 170 98 151 173 69 98 73 82 177 202 203 107 141 135 105 87 94 117 48 114 64 56 144 110 101 141 116 144 131 146 156 74 67 69 131 61 55 60 50 95 90 119 221 115 153 137 189 164 170 89 165 188 128 120 88 151 86 73 114 81 184 103 82 96 188 187 92 176 121 102 127 124 182 172 200 186 101 95 91 72 61 166 177 139 136 76 90 144 107 98 164 78 106 148 96 162 184 175 58 89 121 152 98 181 193 141 132 145 204 136 142 116 93 98 182 106 165 128 161 94 255 68 163 98 132 199 138 210 112 177 69 154 159 158 86 141 109 139 161 95 118 99 122 73 169 168 155 63 87 126 91 63 164 120 185 162 106 176 124 81 77 110 132 160 93 181 96 135 186 255 170 131 189 195 170 140 181 178 154 167 148 74 137 85 149 84 89 90 198 135 184 86 72 79 198 170 114 75 127 153 86 105 134 193 120 212 158 174 197 151 95 166 114 176 101 130 153 116 149 190 99 149 193 92 168 192 115 143 129 125 196 192 200 184 170 69 68 110 55 104 99 162 93 93 113 95 115 83 169 150 73 67
137 136 133 135 141 156 159 155 158 166 168 182 182 195 200 207 207 200 190 171 170 175 171 174 180 176 175 191 196 203 197 191 181 181 186 187 187 171 145 145 133 122 139 166 158 189 169 207 182 167 183 157 149 154 160 178 198 133 170 181 107 76 80 133 91 181 125 116 128 88 114 86 121 82 87 145 67 138 154 83 141 110 48 83 52 94 159 153 105 101 83 83 141 94 105 89 92 134 105 134 93 137 125 68 100 68 78 130 79 88 147 110 149 129 86 131 104 162 114 94 171 93 80 164 124 81 171 185 184 88 96 76 119 123 187 166 79 94 152 82 194 159 106 163 119 181 89 197 90 72 137 143 131 84 112 85 77 57 112 160 187 207 198 198 118 208 214 130 141 202 100 113 148 129 126 115 183 102 189 143 130 70 127 38 45 104 87 118 154 193 181 108 62 93 153 69 141 142 105 184 127 173 143 102 178 88 194 95 147 196 105 168 84 77 81 185 133 123 144 168 176 141 120 127 47 71 71 83 83 69 157 193 201 204 155 196 122 165 154 59 121 141 165 181 173 157 102 65 161 167 163 106 93 165 185 200 121 194 197 189 79 83 102 169 156 116 120 213 130 127 137 119 112 167 151 42 43 96 107 151 65 67 83 118 156 160 106 91 98 132 93 92 99 98 175 166 120 50 51 128 110 188 104 176 90 76 175 82 140 160 180 132 200 108 143 165 177 132 104 81 124 152 128 178 184 95 171 77 107 83 182 90 160 196 185 107 106 106 88 166 170 117 102 106 169 181 123 62 84 174 192 81 150 48 51 134 133 162 121 94 138 119 159 132 122 141 115 134 192 188 129 129 171 150 112 120 194 144 111 165 71 146 59 157 133 209 205 190 98 164 124 93 126 155 96 139 113 171 78 144 164 149 135 99 140 75 155 63 59 158 99 157 103 111 140 190 94 109 91 88 91 76 73 94 126 172 173 161 187 107 177 128 181 187 77 166 75 181 97 103 113 119 43 90 64 140 96 125 107 106 173 92 137 84 133 200 98 144 165 84 168 98 205 189 137 221 255 205 185 116 195 158 108 125 145 193 205 113 120 169 86 87 156 120 181 190 97 169 125 109 136 179 201 193 152 97 78 123 52 132 49 66 79 92 117 92 144 179 144 159 85 77
145 140 131 125 133 148 157 163 158 162 178 182 195 191 185 190 188 195 182 165 176 169 182 183 174 179 192 207 211 210 211 206 193 193 198 199 181 176 156 140 134 126 149 176 175 198 177 215 215 190 206 151 147 122 155 171 141 148 175 175 94 115 129 130 130 166 181 118 164 159 99 100 164 116 131 123 107 65 133 105 66 78 68 46 117 79 90 117 91 89 83 77 90 92 102 98 113 166 115 119 110 106 93 86 76 63 88 110 120 113 111 172 92 75 138 82 119 95 86 171 142 117 83 96 71 164 71 175 157 93 189 83 103 91 175 115 169 133 142 140 128 111 255 118 187 182 126 123 190 77 53 68 125 46 150 143 43 141 163 185 197 118 181 141 110 195 216 213 209 193 160 107 122 87 103 187 115 86 178 96 97 129 101 80 141 160 153 155 147 143 179 157 107 78 120 70 83 157 188 103 114 68 102 91 92 170 151 92 125 193 95 84 176 150 155 89 187 154 150 103 167 192 75 67 114 120 152 150 62 161 136 170 96 192 187 190 86 77 154 142 135 144 65 80 167 141 126 132 145 106 126 95 79 152 90 167 210 152 99 162 162 164 83 169 168 178 183 161 153 222 203 95 162 86 78 115 54 134 87 98 143 56 153 167 174 131 108 200 79 68 175 78 146 96 155 170 83 101 152 78 178 100 108 82 66 63 69 90 181 75 128 108 171 103 82 162 64 72 79 181 146 96 163 86 147 114 82 143 82 96 124 182 103 181 165 115 129 156 183 97 115 162 167 77 78 89 163 92 68 104 116 183 170 57 158 69 65 66 150 134 128 136 91 100 141 136 133 145 149 87 103 153 116 181 171 157 141 145 183 148 165 136 84 81 124 143 137 101 54 139 149 64 169 72 174 139 153 78 165 104 160 139 81 82 89 184 80 129 58 58 147 59 105 151 98 117 130 181 173 186 172 158 134 113 165 86 169 156 116 141 167 105 91 183 175 165 69 147 180 129 155 46 53 147 168 182 141 117 95 162 86 176 125 146 108 203 91 174 117 174 75 196 150 140 220 166 219 201 138 96 193 156 168 137 159 177 165 178 99 105 87 118 123 71 171 122 87 111 147 164 110 100 191 87 93 106 87 119 69 136 133 121 78 157 108 158 170 75 86 77 180 142
142 135 122 113 117 129 150 155 157 156 171 179 189 184 169 180 197 184 192 184 178 255 191 176 173 179 182 212 223 226 215 208 214 215 210 203 188 174 156 150 136 151 166 167 171 205 185 195 213 210 167 156 184 129 148 138 133 118 151 106 111 167 154 119 93 100 141 98 85 74 150 162 85 82 121 85 151 110 142 136 146 97 106 118 70 83 148 81 117 124 74 139 82 98 110 99 95 113 146 113 122 141 105 112 108 118 81 72 108 96 106 99 149 78 138 74 142 157 98 75 179 170 91 78 71 103 61 159 106 89 169 88 77 79 139 120 174 182 194 190 213 171 138 120 120 85 172 90 194 175 114 43 136 116 113 151 160 126 78 168 163 104 134 207 108 203 131 236 202 197 87 63 145 121 179 180 106 189 171 172 159 78 46 49 91 156 171 164 84 140 178 185 173 195 82 141 133 83 166 72 105 103 167 183 149 121 87 175 178 85 81 133 102 157 133 111 199 127 195 198 105 197 152 83 59 102 62 65 151 186 98 177 201 185 119 184 180 167 163 144 130 91 81 153 162 146 134 125 92 150 169 87 137 96 156 146 117 96 150 130 184 179 112 150 101 126 184 218 142 198 131 177 116 91 86 143 87 138 110 147 69 54 78 147 148 151 208 191 157 102 74 183 167 116 85 72 60 162 96 136 141 153 74 157 141 65 109 68 155 119 63 146 160 105 62 157 68 90 99 77 99 144 91 101 97 121 75 80 145 130 81 89 94 159 189 121 72 78 71 107 88 65 77 142 169 145 114 72 137 159 75 173 134 71 101 91 68 161 121 81 106 145 177 168 125 211 201 166 176 127 177 167 174 135 81 113 92 180 83 112 88 168 137 127 192 197 85 105 44 50 78 143 113 77 121 86 82 154 144 72 77 49 55 91 184 158 113 174 67 84 175 168 66 105 66 148 170 162 184 97 108 66 155 60 170 185 91 140 72 91 188 175 88 101 137 140 83 83 172 147 80 160 154 68 132 169 178 184 117 165 176 103 191 189 190 209 165 185 77 174 174 148 114 132 189 131 115 94 95 185 117 180 141 110 154 91 102 108 137 160 119 137 43 103 153 86 161 167 87 156 89 77 177 76 133 167 113 85 49 32 26 36 134 81 98 97 190 92 79 87 180 159
134 129 119 113 111 122 138 136 152 156 164 174 169 172 175 168 175 182 172 180 182 186 199 195 177 185 186 213 213 225 221 218 216 217 207 192 185 178 173 155 168 159 174 182 182 207 198 215 201 199 159 199 194 167 114 139 144 125 149 145 146 135 170 152 100 128 173 167 97 160 154 113 147 99 159 146 73 61 64 141 116 77 45 130 85 82 76 65 129 69 69 82 74 118 101 89 79 119 94 102 117 140 165 149 131 88 112 89 76 84 91 110 128 69 92 143 90 72 81 69 75 180 182 105 66 47 48 74 74 172 93 192 76 58 115 157 69 173 188 104 154 203 212 201 128 100 132 201 151 161 114 139 35 45 157 148 176 98 173 100 160 183 126 162 189 196 160 144 189 159 107 131 63 152 120 111 182 135 148 147 157 168 101 138 116 173 92 87 145 61 112 76 124 98 90 86 176 112 100 65 160 64 79 157 76 78 162 155 181 90 77 124 193 103 200 212 187 169 89 187 191 158 102 181 120 59 82 87 152 190 113 136 203 92 82 124 87 74 94 36 129 136 123 151 116 136 28 127 122 165 167 160 146 109 138 69 94 155 113 154 97 94 174 114 98 145 117 141 201 155 173 118 122 158 192 121 145 171 74 176 150 77 145 149 103 103 138 174 166 85 154 78 163 89 134 76 255 108 96 173 186 174 98 43 62 39 76 85 103 110 80 95 49 52 148 134 111 71 91 166 151 123 156 149 174 132 76 88 93 126 113 143 201 187 178 75 60 92 65 120 70 163 97 73 69 125 118 75 110 89 171 70 166 171 75 142 121 98 84 41 103 146 175 83 102 183 130 123 119 95 113 153 76 159 171 75 149 99 180 162 176 79 181 144 194 94 140 108 157 136 86 166 112 86 86 157 103 99 169 66 52 126 101 138 99 123 180 165 81 97 96 119 174 134 150 56 118 96 150 103 133 149 54 81 92 181 179 88 73 112 77 82 103 96 141 61 67 127 123 79 165 175 76 168 132 152 113 85 165 115 109 189 185 204 198 131 182 88 187 167 180 105 171 139 223 168 212 155 185 107 159 185 176 155 113 176 96 132 76 150 56 132 136 129 53 176 150 192 163 165 101 83 53 53 122 134 166 75 164 42 35 60 92 178 155 131 192 76 171 75 177 143
127 127 126 118 122 115 119 121 133 146 158 168 167 170 165 179 191 187 173 172 172 185 196 194 188 189 196 210 214 217 207 204 201 194 190 181 177 175 181 185 182 182 178 193 197 201 204 205 160 185 164 177 194 164 143 135 116 150 95 131 149 99 142 94 170 92 164 85 151 122 159 84 141 73 100 79 102 109 60 66 116 61 48 97 60 140 75 120 80 53 79 115 65 61 95 56 112 60 67 101 100 107 139 138 112 109 139 135 72 71 132 72 69 77 48 58 49 62 149 143 142 74 100 81 77 158 58 92 73 139 163 166 85 58 48 54 144 101 91 186 203 179 216 112 171 197 157 116 124 105 166 162 149 136 170 145 108 141 183 116 166 105 107 182 174 161 165 190 205 211 184 157 79 98 134 68 147 184 145 192 90 108 81 187 195 103 173 167 63 88 148 100 190 139 99 88 133 100 173 108 109 157 87 152 140 74 144 65 171 100 65 89 127 220 206 213 125 133 81 168 188 155 187 109 189 116 150 147 117 192 201 223 116 159 137 96 175 167 134 54 128 93 147 142 120 138 123 85 73 162 70 155 55 139 116 64 161 197 193 158 255 161 107 153 117 110 212 188 146 131 152 92 111 146 111 90 87 87 82 74 179 116 79 155 161 188 191 145 92 151 58 125 70 178 94 98 186 117 119 89 86 79 151 132 48 96 94 72 95 138 69 89 54 146 145 169 97 166 107 159 58 169 108 114 168 92 47 107 56 76 197 201 216 206 100 70 53 142 120 141 185 94 157 80 120 179 77 70 168 69 173 112 137 79 70 94 61 120 65 39 136 143 126 75 146 95 157 185 121 167 164 162 153 149 84 129 168 152 181 165 90 116 118 89 191 184 109 178 136 167 122 156 80 115 201 197 155 94 162 144 64 63 82 55 128 113 142 137 109 152 101 177 79 105 59 102 165 172 123 99 166 173 161 162 115 74 137 100 73 73 83 141 198 90 101 80 89 170 136 171 110 91 160 98 180 170 82 161 68 144 72 104 95 201 147 125 106 200 94 182 152 89 193 103 121 195 157 193 81 178 113 186 131 160 66 143 131 165 116 104 145 126 51 38 52 153 191 131 173 129 59 56 139 131 79 47 126 168 144 73 105 36 159 180 115 202 123 70 148 138 76 166
122 127 131 133 127 118 103 105 109 126 140 148 156 146 158 171 179 188 164 159 154 167 173 188 194 186 203 200 210 208 192 176 175 169 171 178 182 188 194 184 191 187 174 196 208 221 201 160 170 150 181 181 151 144 144 121 90 115 146 106 149 158 156 162 165 110 116 165 136 103 106 167 153 171 103 153 148 68 118 62 54 58 91 107 115 56 128 114 91 66 111 55 54 83 103 44 56 51 77 79 94 105 105 158 127 132 128 120 63 62 123 70 65 58 50 43 41 55 147 69 71 117 142 114 81 138 65 64 172 148 97 82 60 48 151 71 178 88 133 105 172 115 166 173 127 197 161 186 187 186 101 151 146 95 67 177 108 109 112 64 54 87 123 141 116 156 147 190 123 170 176 145 137 136 133 140 73 183 181 96 206 158 89 131 117 170 101 171 63 52 98 169 159 147 198 180 181 142 116 85 64 148 151 195 99 139 175 148 74 91 169 124 188 127 127 200 98 132 79 90 178 100 216 132 111 106 151 129 72 156 139 186 117 195 79 69 77 81 109 102 77 128 65 166 83 129 156 115 152 144 154 96 36 138 58 65 178 173 184 122 184 85 73 131 154 199 170 207 142 100 149 169 106 193 133 178 109 111 137 171 93 180 176 168 148 148 94 153 122 147 54 152 157 86 99 100 100 112 153 188 95 63 94 64 31 147 81 70 165 153 126 48 58 129 65 112 106 118 83 50 84 68 125 163 59 91 142 49 112 111 98 160 124 200 154 122 102 156 111 82 120 123 152 191 90 99 85 122 131 80 155 149 77 146 141 78 108 140 130 101 87 158 92 147 179 176 169 74 130 150 71 141 41 148 138 170 118 76 174 192 93 163 191 164 179 146 180 156 194 158 92 181 184 141 186 178 217 107 115 166 96 117 95 88 132 44 139 124 80 93 99 148 98 155 61 126 70 146 170 148 79 166 70 158 122 167 140 156 171 90 151 92 107 107 96 191 84 106 113 56 82 77 126 185 186 114 95 255 72 165 161 114 114 83 163 182 112 210 152 180 112 78 181 167 172 157 116 97 182 87 136 88 71 94 145 54 74 158 142 162 78 73 104 46 124 109 178 163 173 68 118 47 55 47 30 70 78 97 89 71 85 127 60 91 195 173 89 155 162 150 87 100
112 122 132 135 130 112 100 98 102 107 124 125 136 143 150 163 181 163 162 139 147 142 151 168 176 197 195 209 209 204 188 176 162 157 160 165 179 183 184 190 185 186 173 185 212 209 176 176 136 151 144 184 175 135 159 160 95 145 106 163 99 85 96 149 90 135 100 142 152 114 102 127 112 178 110 109 100 151 135 59 96 116 91 46 62 52 98 116 80 73 68 255 68 68 61 50 65 92 63 65 63 75 128 134 130 107 89 76 59 60 88 78 74 60 67 77 109 78 131 118 69 132 109 130 126 159 60 126 55 60 166 64 49 116 127 77 101 144 112 198 169 106 118 201 120 123 102 170 178 75 116 152 133 95 86 183 193 100 171 99 85 105 94 87 48 64 69 183 126 134 119 160 133 98 57 127 166 95 142 180 204 131 91 175 189 180 170 81 101 160 153 140 166 195 151 165 89 155 138 180 173 179 188 97 155 188 82 91 157 105 124 178 134 121 169 194 179 179 84 135 82 125 211 155 205 114 97 165 90 148 193 165 94 145 60 152 120 130 129 132 82 174 77 125 156 151 163 118 95 74 84 114 127 99 100 73 174 196 143 173 187 173 71 160 113 165 188 189 139 63 68 126 182 152 155 109 126 68 174 141 198 103 158 180 70 179 178 203 180 133 151 49 163 76 123 88 111 148 175 124 111 151 44 68 36 63 85 100 65 70 53 143 99 74 122 151 104 103 141 123 143 124 65 142 81 92 103 68 128 141 181 212 137 133 124 182 165 121 62 179 182 135 107 103 184 200 202 177 92 172 95 94 165 160 52 146 129 33 143 62 114 148 91 167 86 66 59 118 163 136 126 62 40 141 134 149 90 163 119 145 98 151 184 110 176 179 152 154 155 193 96 186 160 85 188 104 117 101 90 160 145 174 173 136 81 43 140 55 74 185 115 161 52 68 151 160 76 179 87 71 113 144 87 97 88 76 55 148 86 78 89 163 187 133 193 195 190 177 162 92 166 187 141 212 219 174 161 205 173 255 180 152 95 75 171 166 104 105 138 177 145 103 145 86 138 172 192 104 79 90 95 85 163 67 112 51 135 55 100 145 136 104 108 119 122 86 129 83 98 71 51 105 74 54 110 55 78 47 57 140 78 46 67 184 115 154 112 160 65 165 68 99
106 118 131 137 129 117 105 89 97 115 115 115 119 126 133 147 155 150 144 152 146 136 149 156 181 198 203 209 214 211 194 183 158 151 152 164 168 180 185 182 185 177 192 185 188 166 167 144 152 136 173 134 178 127 121 158 161 136 111 166 128 115 117 159 120 118 121 125 113 87 100 149 187 159 141 180 80 137 131 79 59 133 116 58 66 71 54 106 81 80 85 75 63 61 115 66 69 73 115 109 57 91 128 103 128 137 97 61 91 54 69 130 116 149 105 147 83 56 78 122 80 70 69 68 64 53 76 37 76 124 58 57 56 129 60 177 158 191 194 207 171 187 201 99 202 104 144 163 160 60 127 46 136 157 153 160 152 76 159 67 146 86 138 94 20 123 146 97 192 100 171 154 149 86 80 142 171 144 184 196 182 182 189 142 89 178 175 84 160 97 62 137 75 179 94 107 131 174 190 191 193 183 142 185 110 83 103 191 102 163 168 140 138 170 130 175 100 77 96 174 108 197 122 221 124 125 145 196 202 170 160 140 85 148 39 128 125 95 37 119 69 125 132 80 170 142 67 129 89 143 78 29 120 120 25 128 166 152 86 180 103 185 80 149 120 91 133 127 65 126 72 119 77 181 186 95 160 89 180 176 102 104 89 84 71 82 198 101 176 171 255 107 71 111 100 94 95 212 190 215 110 72 154 44 51 59 92 94 91 154 149 61 158 130 91 130 90 180 156 55 67 72 77 162 64 127 96 138 88 185 115 225 134 133 127 172 82 168 63 81 114 210 125 210 144 102 185 174 134 177 74 128 160 144 58 96 49 109 145 110 165 140 129 161 192 83 101 166 177 104 65 62 39 43 94 93 116 103 187 85 125 79 80 123 150 121 217 214 153 194 167 158 96 72 127 187 190 85 175 85 175 122 120 166 117 139 53 157 109 78 141 163 71 117 61 127 86 106 82 180 106 120 88 106 46 141 122 133 101 163 138 174 86 140 137 87 142 163 75 71 167 119 212 210 226 129 210 135 200 173 96 83 166 181 134 86 116 88 175 160 117 52 126 173 127 187 185 79 125 62 144 70 73 131 128 49 81 169 77 178 150 107 129 139 110 58 57 112 115 109 55 60 46 154 138 64 156 76 111 75 115 136 150 167 113 91 80 90 56 61 101 162
108 119 134 137 131 120 106 105 119 128 124 135 127 129 130 147 155 167 151 152 149 155 144 150 166 197 211 214 216 206 210 192 174 162 159 161 160 175 173 184 185 191 170 194 191 168 173 159 147 126 160 134 161 183 122 145 167 169 155 112 141 106 131 180 111 121 112 180 167 91 107 155 116 170 123 112 85 133 160 134 144 116 148 93 128 53 52 75 125 92 124 89 107 113 105 97 106 88 85 104 98 73 84 109 115 98 81 76 110 65 75 106 89 163 89 81 69 87 64 154 80 78 90 150 49 97 41 40 144 56 109 151 103 106 168 174 107 104 210 208 180 190 92 104 191 79 170 167 161 145 138 129 149 52 66 104 161 166 159 93 113 77 124 91 53 96 140 95 93 106 164 141 113 62 117 89 148 184 167 136 99 193 85 176 158 180 137 140 80 156 69 172 177 173 120 113 189 106 101 107 197 108 116 167 182 87 163 173 203 167 167 105 112 183 111 182 118 162 105 73 73 172 166 210 174 211 133 228 177 105 133 96 61 52 109 38 45 91 103 72 67 160 170 164 168 90 140 156 151 144 111 101 140 24 60 141 118 54 154 152 82 187 174 155 69 151 69 169 143 143 44 144 72 103 127 106 131 84 150 90 108 97 71 110 128 150 108 115 149 93 70 85 149 88 120 90 145 111 120 117 112 87 168 149 84 78 142 186 82 80 143 88 91 91 100 185 151 124 80 91 158 177 84 117 118 147 168 91 99 174 203 161 226 125 208 102 187 171 154 69 157 130 202 207 184 190 102 88 156 166 135 58 71 95 75 18 112 135 124 129 91 180 154 158 180 98 158 157 161 125 174 157 147 110 177 175 196 133 136 148 170 131 151 183 90 133 145 123 167 98 151 93 173 80 119 96 130 96 88 179 119 136 68 61 161 85 160 103 84 144 179 102 73 65 166 151 188 162 193 95 137 88 136 155 121 57 112 132 51 119 78 91 91 80 140 160 149 176 170 174 195 132 217 214 215 158 225 222 212 204 87 82 160 130 133 99 80 90 151 72 101 78 88 137 83 164 92 170 129 36 106 76 168 98 66 156 75 119 175 151 144 206 124 66 108 33 106 147 115 88 159 100 61 138 140 119 84 70 158 74 124 166 162 167 172 83 151 63 55 48 148 141
122 128 138 139 140 131 128 125 141 149 150 136 139 131 145 137 157 158 174 159 161 167 152 161 179 204 218 223 226 218 207 186 176 167 162 157 152 160 174 185 196 192 192 168 158 176 152 166 145 143 149 152 123 184 174 149 160 164 106 156 118 164 145 161 127 210 140 117 179 84 135 121 70 67 78 81 124 88 145 147 114 97 94 90 83 114 59 65 120 104 85 148 86 83 88 133 106 103 97 91 90 130 82 103 90 133 80 82 67 55 74 114 99 155 98 114 152 141 125 73 94 88 75 58 142 33 125 61 130 74 173 138 77 79 132 67 105 90 92 89 80 182 142 156 187 82 87 120 87 75 54 103 145 133 140 142 89 86 155 126 163 114 133 88 66 36 71 154 175 187 186 172 165 72 100 144 175 175 140 111 86 103 167 74 64 69 179 90 90 79 117 125 114 82 58 126 173 181 176 157 103 116 136 87 97 83 131 98 89 186 189 107 93 204 175 170 115 94 140 170 83 85 204 218 214 235 180 126 133 91 76 101 121 49 152 93 163 144 171 177 68 103 131 87 162 87 118 168 78 97 77 101 150 138 73 45 127 121 152 65 79 173 121 181 181 160 146 159 133 65 65 102 106 142 186 93 140 179 86 136 182 124 125 156 63 179 134 158 195 99 79 106 101 183 96 117 101 205 140 107 142 200 76 112 153 135 186 136 96 69 169 118 99 112 192 102 128 124 101 167 93 107 82 102 82 95 134 94 191 183 115 125 212 185 95 188 139 91 171 76 183 125 135 180 76 88 104 158 67 57 143 114 100 141 90 255 139 67 114 126 126 105 218 220 227 200 198 194 202 201 189 173 74 86 125 185 162 190 150 112 120 67 60 164 168 161 187 86 188 152 88 160 141 62 149 159 152 181 155 157 133 134 162 55 61 119 103 157 100 97 165 185 181 134 73 133 180 167 155 102 173 159 120 161 65 33 30 127 120 160 167 166 152 128 145 97 62 81 183 105 110 217 200 211 129 208 207 103 96 103 175 111 178 127 99 113 128 53 42 141 136 40 140 120 76 171 90 81 65 107 67 118 139 105 179 112 74 101 169 204 109 188 118 62 81 125 125 143 118 87 163 130 92 160 139 191 124 137 175 175 72 70 77 62 154 68 81 122 90 151 52 37
134 133 135 141 150 146 147 152 158 166 164 166 158 156 154 163 154 165 185 170 163 169 161 176 191 213 231 236 232 216 194 176 167 166 162 155 152 156 169 180 195 188 182 190 180 178 148 137 143 153 127 158 125 182 175 154 170 132 134 159 134 115 175 196 157 204 188 205 122 146 138 62 102 126 140 79 89 115 88 174 147 109 150 96 86 76 72 95 104 58 73 100 81 104 99 88 100 135 155 153 134 122 86 101 87 74 105 88 66 99 102 113 119 165 143 101 64 94 89 109 81 90 168 73 141 36 124 68 111 179 116 183 75 150 156 59 138 88 74 141 170 173 143 163 104 185 182 106 180 138 42 57 61 174 149 156 95 131 158 129 173 173 72 93 125 119 53 112 70 161 93 161 137 124 177 192 146 198 150 155 185 200 172 144 123 111 174 191 89 140 162 149 144 168 132 145 112 138 71 141 94 173 178 198 170 77 126 180 155 173 72 83 156 163 173 123 130 149 180 162 99 174 111 228 231 135 129 186 162 68 73 107 63 64 155 105 84 90 128 152 117 135 121 44 52 122 159 130 163 163 158 92 120 180 103 126 60 78 134 142 69 171 140 182 196 166 109 150 115 156 143 104 60 69 125 90 76 154 94 88 79 67 152 158 107 115 138 141 206 149 94 172 167 172 117 215 203 105 196 100 113 99 92 148 103 113 84 92 80 144 80 110 151 126 150 141 127 122 112 150 69 154 79 132 117 84 178 152 132 201 103 199 191 122 166 68 106 101 105 99 98 85 62 50 151 141 73 153 102 133 151 72 77 144 59 122 157 162 179 100 106 213 136 171 180 220 99 133 176 174 187 177 99 160 93 179 177 180 156 114 146 89 143 89 63 114 141 154 146 118 87 83 165 124 82 185 150 99 122 127 96 100 51 98 117 169 165 113 160 126 96 112 179 116 174 125 122 209 132 118 167 185 166 73 157 53 86 146 53 146 150 79 69 55 71 122 64 174 189 203 147 216 173 211 201 105 190 177 170 173 159 137 130 175 88 118 159 141 137 37 130 129 73 26 53 135 163 98 126 89 142 137 70 165 120 171 149 163 164 197 197 166 77 121 116 23 53 51 76 86 136 91 182 129 100 103 100 196 84 108 139 181 82 61 77 92 109 92 55 68 113 144
141 135 135 139 155 162 165 163 176 174 174 164 172 168 179 168 151 168 182 189 187 171 164 174 196 215 237 237 232 210 187 167 160 165 158 149 145 146 159 181 190 188 168 176 172 182 159 171 132 168 137 152 171 188 195 178 154 118 168 158 179 155 179 157 181 227 231 143 127 134 65 120 40 39 57 57 120 127 68 165 169 164 179 96 145 81 71 59 49 52 68 146 155 85 99 82 108 164 117 136 131 102 118 62 63 44 61 67 125 135 145 127 202 108 134 113 56 100 118 70 103 187 89 83 156 52 150 166 80 98 165 170 66 154 48 86 153 98 86 163 112 159 67 127 129 131 218 210 181 154 149 154 65 178 199 95 129 144 88 70 175 116 153 140 133 85 136 126 98 167 119 161 174 124 163 136 125 180 138 169 178 118 202 174 129 117 60 161 177 186 183 164 165 86 157 147 40 50 119 94 168 110 97 199 145 104 172 128 107 119 98 115 115 80 100 173 176 185 173 77 96 134 175 221 161 124 142 189 159 90 124 120 165 176 97 161 157 188 189 149 87 106 119 28 84 180 181 89 188 190 192 149 111 193 165 143 156 133 115 146 109 149 187 157 164 181 106 172 167 157 112 65 131 139 55 64 96 159 85 80 169 166 120 71 157 119 124 126 181 175 112 176 205 190 135 130 165 100 147 142 111 152 142 171 71 75 115 103 82 144 72 196 128 213 239 140 207 134 117 90 107 72 87 176 85 173 119 121 88 102 203 154 102 77 53 57 126 79 169 164 105 59 94 35 103 132 147 127 52 151 138 74 85 150 146 122 71 190 104 166 160 130 183 222 187 136 149 192 173 197 164 196 182 121 81 67 92 159 64 146 54 124 94 83 120 103 140 96 79 91 181 119 113 173 144 186 103 89 175 102 147 52 73 147 68 113 175 215 127 117 151 141 169 186 173 73 192 193 159 209 199 176 164 95 100 85 49 51 85 59 81 164 68 64 110 121 105 96 122 169 121 112 114 216 207 131 179 166 74 120 142 109 171 186 110 124 176 144 112 36 115 54 126 79 99 89 169 187 165 153 80 50 134 128 97 123 129 167 195 124 186 76 58 91 130 37 135 125 166 140 176 196 92 127 96 139 162 191 165 98 94 88 71 62 77 158 149 63 130 149 56 79
